src/luts/contrast/1.cube
LUT_3D_SIZE 6
0.000000 0.000000 0.000000
0.208338 0.039238 0.033582
0.516548 0.083384 0.074647
0.796838 0.137259 0.126583
0.975717 0.205587 0.194214
0.999840 0.289678 0.279996
0.093840 0.178812 0.059613
0.226082 0.183625 0.067809
0.525022 0.271004 0.096695
0.800360 0.332098 0.143847
0.976492 0.361922 0.209664
0.999854 0.393963 0.293254
0.197056 0.501230 0.145954
0.347118 0.503617 0.150934
0.558913 0.513803 0.171618
0.814922 0.582292 0.211966
0.979579 0.599737 0.272027
0.999907 0.600848 0.345663
0.334866 0.802783 0.277614
0.444347 0.803843 0.281585
0.648459 0.808146 0.298217
0.842372 0.816786 0.330348
0.984734 0.821209 0.377263
0.999977 0.805589 0.436504
0.488143 0.983060 0.434060
0.545280 0.983341 0.436845
0.697264 0.983962 0.448704
0.867489 0.985310 0.471812
0.990567 0.987272 0.506333
1.000025 0.976188 0.551052
0.635453 1.000028 0.589503
0.663255 1.000028 0.591440
0.757084 1.000030 0.599663
0.886231 1.000032 0.615782
0.988570 1.000034 0.640245
1.000000 1.000000 0.672238
0.038856 0.024702 0.152893
0.210162 0.044584 0.157760
0.517389 0.085947 0.252214
0.797156 0.139068 0.317784
0.975801 0.207139 0.348113
0.999840 0.290993 0.379551
0.097574 0.180456 0.169164
0.227854 0.185250 0.173935
0.525838 0.205284 0.193930
0.800742 0.244296 0.233438
0.976610 0.300393 0.290960
0.999855 0.369859 0.361819
0.198960 0.502039 0.288006
0.296718 0.504507 0.239681
0.559668 0.514635 0.257944
0.815279 0.570158 0.292885
0.979637 0.587504 0.343767
0.999908 0.595521 0.407222
0.336197 0.803140 0.387225
0.408303 0.804173 0.351832
0.640623 0.808512 0.366187
0.842694 0.817035 0.393851
0.984839 0.819339 0.434886
0.999977 0.805661 0.487214
0.489089 0.983160 0.492381
0.539305 0.983284 0.487506
0.695131 0.984063 0.498078
0.867127 0.985390 0.518711
0.990645 0.987266 0.549758
1.000025 0.976653 0.590179
0.636080 1.000028 0.618192
0.670254 1.000028 0.626888
0.761791 1.000030 0.634349
0.888879 1.000032 0.649042
0.988883 1.000034 0.671395
1.000000 1.000000 0.700613
0.073051 0.050700 0.454425
0.301367 0.061900 0.457115
0.521074 0.096222 0.468405
0.798709 0.146773 0.558675
0.976134 0.213833 0.580588
0.999847 0.296618 0.579415
0.111965 0.261349 0.463413
0.235256 0.192135 0.466052
0.529341 0.211969 0.477067
0.802222 0.250498 0.547181
0.976876 0.305837 0.567190
0.999861 0.374527 0.573645
0.206896 0.505598 0.499858
0.303057 0.507927 0.502167
0.562968 0.518050 0.512429
0.816708 0.537724 0.532365
0.980003 0.567377 0.562472
0.999912 0.606019 0.601631
0.341900 0.804684 0.598930
0.413086 0.805634 0.590903
0.622963 0.809943 0.576175
0.843957 0.818471 0.593303
0.985068 0.819083 0.619165
0.999980 0.816097 0.653106
0.492996 0.983422 0.651820
0.542755 0.983549 0.649989
0.701194 0.984292 0.660227
0.870338 0.985632 0.673946
0.990794 0.987527 0.694681
1.000026 0.979143 0.721872
0.638738 1.000028 0.716904
0.672602 1.000029 0.722786
0.785749 1.000030 0.752465
0.902262 1.000032 0.762833
0.990396 1.000034 0.778617
1.000000 1.000000 0.799784
0.108096 0.079230 0.753730
0.360550 0.086872 0.754878
0.600432 0.114916 0.760012
0.801783 0.161821 0.770113
0.976850 0.227215 0.791615
0.999859 0.307793 0.776144
0.136179 0.316258 0.757796
0.249982 0.205900 0.758945
0.588446 0.225414 0.764022
0.805284 0.262828 0.773906
0.977581 0.316834 0.788989
0.999872 0.383979 0.774616
0.222548 0.571414 0.774415
0.315660 0.558287 0.775456
0.569470 0.524811 0.780261
0.819634 0.544213 0.789670
0.980608 0.573429 0.793007
0.999921 0.611532 0.789405
0.353402 0.807602 0.805579
0.422731 0.808671 0.806691
0.628428 0.812896 0.810866
0.846503 0.821313 0.819499
0.985538 0.834334 0.832688
0.999985 0.851936 0.850412
0.500788 0.983995 0.836114
0.549600 0.984107 0.835771
0.705474 0.984738 0.840960
0.884552 0.986040 0.861686
0.991083 0.987836 0.873154
1.000027 0.984598 0.888654
0.643952 1.000030 0.856477
0.677354 1.000030 0.859821
0.788964 1.000031 0.876914
0.930257 1.000033 0.912633
0.993290 1.000038 0.922262
1.000000 1.000000 0.934915
0.145934 0.111526 0.962077
0.376351 0.117525 0.962414
0.616556 0.141365 0.963874
0.816392 0.184832 0.966678
0.977855 0.247835 0.970796
0.999878 0.325056 0.955211
0.168091 0.331428 0.963277
0.272746 0.227400 0.963600
0.599291 0.246125 0.964937
0.813218 0.281871 0.967781
0.978595 0.333821 0.971781
0.999891 0.398628 0.955330
0.246470 0.583339 0.967957
0.335020 0.566663 0.968177
0.579651 0.535433 0.969480
0.814715 0.554352 0.971883
0.981393 0.582838 0.975355
0.999934 0.620079 0.960938
0.371019 0.808868 0.975802
0.437587 0.806214 0.976003
0.637085 0.805570 0.976894
0.850643 0.825858 0.978784
0.986207 0.838675 0.981450
0.999992 0.855936 0.976607
0.512938 0.984632 0.984663
0.560333 0.984752 0.984784
0.712290 0.985420 0.985457
0.888068 0.986592 0.986638
0.991538 0.988446 0.988504
1.000028 0.990568 0.990529
0.652258 1.000031 0.981472
0.684820 1.000031 0.982081
0.794058 1.000032 0.984789
0.933241 1.000033 0.989734
0.995899 1.000038 0.994331
1.000000 1.000000 0.995526
0.188037 0.148864 0.999565
0.376234 0.154000 0.999575
0.604388 0.175270 0.999618
0.797069 0.216012 0.999701
0.962621 0.275569 0.999816
0.999901 0.348587 0.999821
0.206799 0.331792 0.999597
0.302984 0.256405 0.999610
0.589299 0.273943 0.999651
0.792890 0.307683 0.999734
0.962431 0.356914 0.999838
0.999911 0.418631 0.999838
0.278716 0.570329 0.999737
0.360931 0.556566 0.999745
0.593636 0.550074 0.999779
0.799633 0.568378 0.999843
0.966409 0.595929 0.999813
0.999951 0.631882 0.999898
0.394784 0.784860 0.999820
0.457750 0.782805 0.999824
0.649038 0.789955 0.999845
0.856376 0.832103 0.999882
0.979887 0.844700 0.999931
1.000000 0.861717 0.999978
0.529732 0.969146 0.999976
0.575168 0.969563 0.999978
0.721735 0.972904 0.999986
0.893019 0.980802 0.999999
0.992116 0.989133 1.000014
1.000031 0.991150 1.000027
0.663617 1.000032 1.000033
0.695099 1.000033 1.000033
0.801106 1.000033 1.000033
0.937197 1.000034 1.000034
0.996240 1.000038 0.999922
1.000000 1.000000 1.000000
