src/luts/contrast/1.cube
LUT_3D_SIZE 16
0.000000 0.000000 0.000000
0.066716 0.012831 0.010276
0.131468 0.025850 0.021579
0.208338 0.039238 0.033582
0.303738 0.053183 0.046349
0.409556 0.067840 0.059989
0.516548 0.083384 0.074647
0.619202 0.100020 0.090511
0.713493 0.117927 0.107772
0.796838 0.137259 0.126583
0.869900 0.158160 0.147094
0.934157 0.180930 0.169637
0.975717 0.205587 0.194214
0.992673 0.232426 0.221233
0.998475 0.260494 0.250078
0.999840 0.289678 0.279996
0.034203 0.048063 0.017632
0.070895 0.048999 0.019820
0.133314 0.055563 0.026975
0.209655 0.066297 0.037110
0.304825 0.080303 0.048932
0.410381 0.096657 0.062038
0.517169 0.113765 0.076373
0.619635 0.130881 0.092039
0.713780 0.147889 0.109129
0.797078 0.165067 0.127853
0.870067 0.183156 0.148305
0.934366 0.202754 0.170762
0.975842 0.224367 0.195313
0.992704 0.247903 0.222301
0.998482 0.273003 0.251122
0.999841 0.299728 0.280972
0.063957 0.104829 0.037530
0.088507 0.105274 0.038496
0.140954 0.107197 0.042367
0.215119 0.120807 0.049306
0.309198 0.139958 0.058754
0.413785 0.163268 0.070222
0.519741 0.186913 0.083454
0.621674 0.208645 0.098329
0.715268 0.227499 0.114894
0.798143 0.243220 0.133219
0.870873 0.257064 0.153376
0.935015 0.270473 0.175646
0.975964 0.284443 0.200050
0.992814 0.299787 0.226978
0.998511 0.317069 0.255467
0.999845 0.336787 0.285070
0.093840 0.178812 0.059613
0.113832 0.179164 0.060222
0.165505 0.180645 0.062822
0.226082 0.183625 0.067809
0.318060 0.209456 0.075239
0.420618 0.240898 0.084926
0.525022 0.271004 0.096695
0.625575 0.296664 0.110449
0.718259 0.317040 0.126172
0.800360 0.332098 0.143847
0.872598 0.343567 0.163581
0.936261 0.353114 0.185481
0.976492 0.361922 0.209664
0.992960 0.371051 0.236272
0.998574 0.381436 0.264191
0.999854 0.393963 0.293254
0.125327 0.276458 0.084525
0.144154 0.276722 0.084996
0.197872 0.277954 0.086997
0.264269 0.280459 0.090958
0.331792 0.284375 0.097093
0.431219 0.319414 0.105411
0.533158 0.352762 0.115927
0.631733 0.381082 0.128577
0.722890 0.403023 0.143364
0.803860 0.418295 0.160328
0.875259 0.428951 0.179471
0.938153 0.436587 0.200976
0.977232 0.442563 0.224848
0.993277 0.447780 0.250739
0.998561 0.453437 0.277803
0.999867 0.460632 0.305982
0.159418 0.387308 0.113019
0.178264 0.387498 0.113427
0.235210 0.388469 0.115113
0.307207 0.390357 0.118517
0.378095 0.393491 0.123871
0.445879 0.397802 0.131290
0.544442 0.433111 0.140855
0.640392 0.463103 0.152639
0.729387 0.485961 0.166662
0.808687 0.501446 0.182933
0.878947 0.511581 0.201531
0.940993 0.518022 0.222603
0.978330 0.522111 0.245772
0.993575 0.524733 0.270476
0.998691 0.527124 0.296410
0.999886 0.530491 0.323541
0.197056 0.501230 0.145954
0.215303 0.501387 0.146296
0.273678 0.502179 0.147839
0.347118 0.503617 0.150934
0.420376 0.506060 0.155789
0.490904 0.509398 0.162658
0.558913 0.513803 0.171618
0.651569 0.544192 0.182745
0.737696 0.567150 0.196200
0.814922 0.582292 0.211966
0.883628 0.591739 0.230109
0.944359 0.597140 0.250260
0.979579 0.599737 0.272027
0.993980 0.600360 0.295364
0.998740 0.600203 0.319930
0.999907 0.600848 0.345663
0.238939 0.611610 0.184210
0.255767 0.611787 0.184509
0.311017 0.612362 0.185944
0.382522 0.613473 0.188870
0.456298 0.615287 0.193493
0.528253 0.617792 0.200002
0.597765 0.621199 0.208587
0.664972 0.625369 0.219313
0.747896 0.647333 0.232299
0.822654 0.661583 0.247290
0.889655 0.670042 0.264193
0.948444 0.674266 0.282878
0.981197 0.675390 0.303187
0.994460 0.674173 0.325012
0.998941 0.672079 0.348061
0.999930 0.670330 0.372283
0.285584 0.713002 0.228679
0.299632 0.713164 0.228996
0.347541 0.713567 0.230368
0.414190 0.714390 0.233106
0.485998 0.715686 0.237509
0.557455 0.717664 0.243653
0.626966 0.720112 0.251653
0.694405 0.723314 0.261563
0.759863 0.727014 0.273387
0.831869 0.739763 0.287076
0.896762 0.746706 0.302555
0.952893 0.749513 0.319780
0.982876 0.749184 0.338519
0.995099 0.746431 0.358740
0.999034 0.742379 0.380155
0.999954 0.738632 0.402748
0.334866 0.802783 0.277614
0.345706 0.802858 0.277869
0.385117 0.803168 0.279108
0.444347 0.803843 0.281585
0.511573 0.804854 0.285548
0.580380 0.806243 0.291027
0.648459 0.808146 0.298217
0.714851 0.810515 0.307190
0.779473 0.813379 0.317920
0.842372 0.816786 0.330348
0.904985 0.822089 0.344409
0.957894 0.823193 0.360123
0.984734 0.821209 0.377263
0.995725 0.816760 0.395821
0.999204 0.811001 0.415622
0.999977 0.805589 0.436504
0.385531 0.882134 0.328695
0.393831 0.882223 0.328923
0.425118 0.882452 0.330058
0.475595 0.882888 0.332265
0.536269 0.883604 0.335818
0.600671 0.884739 0.340744
0.665737 0.886193 0.347204
0.729892 0.888048 0.355208
0.792874 0.890124 0.364868
0.854360 0.892838 0.376061
0.914225 0.895783 0.388779
0.963020 0.895150 0.403081
0.986740 0.891389 0.418630
0.996328 0.885205 0.435561
0.999431 0.877865 0.453669
0.999997 0.870935 0.472863
0.436940 0.949137 0.381126
0.443188 0.949230 0.381447
0.467575 0.949439 0.382400
0.509224 0.949673 0.384302
0.562135 0.950137 0.387480
0.620729 0.950909 0.391883
0.681418 0.951612 0.397635
0.742448 0.952634 0.404843
0.802833 0.953981 0.413435
0.862040 0.955298 0.423534
0.920094 0.956988 0.435030
0.968153 0.958850 0.447794
0.988780 0.954923 0.461878
0.996978 0.949024 0.477381
0.999528 0.941708 0.493758
1.000013 0.934347 0.511309
0.488143 0.983060 0.434060
0.492798 0.983086 0.434241
0.511547 0.983163 0.434999
0.545280 0.983341 0.436845
0.590145 0.983486 0.439600
0.642008 0.983740 0.443531
0.697264 0.983962 0.448704
0.754074 0.984324 0.455050
0.810983 0.984774 0.462810
0.867489 0.985310 0.471812
0.923076 0.985905 0.482101
0.968581 0.986507 0.493632
0.990567 0.987272 0.506333
0.997596 0.984217 0.520242
0.999606 0.980322 0.535169
1.000025 0.976188 0.551052
0.538645 0.995807 0.486870
0.542160 0.995815 0.487000
0.556661 0.995840 0.487805
0.583390 0.995895 0.489307
0.620729 0.995961 0.491832
0.665343 0.995943 0.495307
0.714642 0.996068 0.499919
0.766250 0.996125 0.505577
0.819100 0.996331 0.512389
0.872067 0.996479 0.520379
0.924670 0.996625 0.529624
0.968002 0.996787 0.539997
0.989804 0.996971 0.551390
0.998082 0.997179 0.563809
0.999779 0.995844 0.577275
1.000031 0.994180 0.591604
0.587770 0.999443 0.538676
0.590524 0.999445 0.538889
0.601662 0.999449 0.539564
0.622975 0.999457 0.540978
0.653554 0.999471 0.543202
0.691365 0.999490 0.546235
0.734309 0.999516 0.550291
0.780571 0.999546 0.555318
0.828753 0.999582 0.561421
0.877779 0.999623 0.568570
0.926947 0.999555 0.576701
0.967670 0.999604 0.585840
0.988826 0.999656 0.596143
0.997559 0.999707 0.607251
0.999799 0.999768 0.619273
1.000034 0.999437 0.632051
0.635453 1.000028 0.589503
0.637527 1.000028 0.589685
0.646345 1.000028 0.590263
0.663255 1.000028 0.591440
0.688242 1.000028 0.593362
0.720020 1.000029 0.596158
0.757084 1.000030 0.599663
0.798035 1.000030 0.604132
0.841409 1.000031 0.609518
0.886231 1.000032 0.615782
0.931688 1.000033 0.623015
0.968599 1.000033 0.631204
0.988570 1.000034 0.640245
0.997187 1.000038 0.650134
0.999773 1.000038 0.660817
1.000000 1.000000 0.672238
0.014703 0.008165 0.038879
0.067158 0.014500 0.039808
0.131648 0.026550 0.046277
0.208486 0.039657 0.056689
0.303863 0.053466 0.070205
0.409641 0.068060 0.086017
0.516600 0.083574 0.102632
0.619224 0.100185 0.119349
0.713581 0.118080 0.136051
0.796900 0.137371 0.153011
0.869927 0.158289 0.170919
0.934196 0.181026 0.190503
0.975734 0.205688 0.212173
0.992677 0.232525 0.236282
0.998471 0.260607 0.262048
0.999840 0.289809 0.289482
0.035454 0.048381 0.041927
0.071304 0.049322 0.042796
0.133509 0.053133 0.046304
0.209762 0.060057 0.052720
0.304911 0.069664 0.061697
0.410450 0.081410 0.072779
0.517298 0.094996 0.085703
0.619694 0.110261 0.100365
0.713813 0.127178 0.116757
0.797119 0.145815 0.134963
0.870058 0.166232 0.155065
0.934331 0.188597 0.177259
0.975775 0.212991 0.201629
0.992708 0.239499 0.228519
0.998484 0.267149 0.256912
0.999841 0.295957 0.286411
0.064416 0.104975 0.055115
0.086065 0.105436 0.053705
0.141132 0.107353 0.056560
0.215284 0.119187 0.061990
0.309336 0.136175 0.069922
0.413833 0.157187 0.080090
0.519855 0.178873 0.092267
0.621665 0.199189 0.106361
0.715281 0.217280 0.122333
0.798142 0.233130 0.140212
0.870943 0.247662 0.160080
0.934957 0.262125 0.182115
0.975984 0.277359 0.206374
0.992818 0.294130 0.233090
0.998513 0.312823 0.261228
0.999845 0.333834 0.290410
0.094117 0.178958 0.074940
0.108717 0.179285 0.071201
0.163821 0.180740 0.073461
0.226234 0.183760 0.077910
0.318139 0.208206 0.084655
0.420696 0.238239 0.093653
0.525060 0.267221 0.104811
0.625613 0.292148 0.118048
0.718348 0.312040 0.133322
0.800388 0.327001 0.150649
0.872626 0.338584 0.170120
0.936299 0.348476 0.191848
0.976509 0.357786 0.215888
0.992967 0.367572 0.242249
0.998575 0.378679 0.269799
0.999854 0.391975 0.298508
0.125512 0.276564 0.099829
0.136513 0.276830 0.093718
0.194272 0.278083 0.095596
0.263012 0.280526 0.099347
0.331901 0.284465 0.105180
0.431268 0.318508 0.113167
0.533186 0.351047 0.123337
0.631847 0.378794 0.135679
0.722893 0.400306 0.150224
0.803879 0.415458 0.166929
0.875238 0.426098 0.185905
0.938191 0.433838 0.207220
0.977248 0.440029 0.231002
0.993266 0.445639 0.256516
0.998558 0.451672 0.283220
0.999867 0.459343 0.311096
0.159579 0.387381 0.129082
0.168590 0.387598 0.120904
0.229952 0.388523 0.122540
0.304834 0.390463 0.125872
0.377264 0.393574 0.131085
0.445941 0.397866 0.138354
0.544571 0.432546 0.147733
0.640437 0.461983 0.159337
0.729404 0.484507 0.173185
0.808715 0.499829 0.189337
0.878946 0.509876 0.207826
0.941029 0.516395 0.228803
0.978341 0.520571 0.251634
0.993579 0.523403 0.276035
0.998692 0.526019 0.301677
0.999886 0.529717 0.328390
0.197193 0.501337 0.162268
0.205009 0.501483 0.153113
0.267448 0.502218 0.154598
0.344007 0.503712 0.157646
0.418918 0.506136 0.162446
0.490410 0.509492 0.169238
0.559020 0.513960 0.178119
0.651550 0.543863 0.189179
0.737695 0.566436 0.202505
0.814950 0.581413 0.218195
0.883668 0.590717 0.236184
0.944314 0.596118 0.256052
0.979589 0.598688 0.277578
0.993984 0.599481 0.300616
0.998741 0.599518 0.324948
0.999906 0.600308 0.350426
0.239059 0.611668 0.199769
0.246150 0.611841 0.190935
0.304976 0.612391 0.192346
0.379217 0.613505 0.195224
0.454472 0.615311 0.199812
0.527305 0.617850 0.206314
0.597429 0.621258 0.214816
0.665031 0.625457 0.225514
0.747873 0.647066 0.238344
0.822682 0.661086 0.253116
0.889682 0.669473 0.269788
0.948477 0.673653 0.288270
0.981206 0.674765 0.308307
0.994464 0.673700 0.329930
0.998937 0.671667 0.352687
0.999931 0.670073 0.376687
0.285678 0.713051 0.242372
0.292052 0.713193 0.235072
0.342358 0.713596 0.236420
0.411031 0.714397 0.239158
0.484150 0.715799 0.243469
0.556368 0.717758 0.249538
0.626416 0.720133 0.257441
0.694237 0.723408 0.267229
0.759842 0.726982 0.278915
0.831897 0.739542 0.292417
0.896791 0.746473 0.307746
0.952925 0.749241 0.324772
0.982885 0.748854 0.343280
0.995102 0.746112 0.363291
0.999035 0.742120 0.384485
0.999954 0.738633 0.406883
0.334939 0.802788 0.288330
0.340594 0.802887 0.283387
0.381290 0.803198 0.284576
0.441760 0.803872 0.287004
0.509933 0.804869 0.290852
0.579394 0.806272 0.296345
0.647841 0.808159 0.303458
0.714478 0.810545 0.312313
0.779343 0.813409 0.322879
0.842400 0.816784 0.335212
0.904969 0.821907 0.349126
0.957921 0.823127 0.364637
0.984742 0.821077 0.381680
0.995725 0.816517 0.400039
0.999205 0.810869 0.419605
0.999977 0.805565 0.440282
0.385669 0.882165 0.336930
0.390594 0.882182 0.333843
0.422514 0.882431 0.334911
0.473734 0.882918 0.337093
0.534955 0.883663 0.340578
0.599828 0.884751 0.345448
0.665154 0.886177 0.351904
0.729676 0.888002 0.359833
0.792757 0.890210 0.369347
0.854322 0.892852 0.380466
0.914219 0.895815 0.393087
0.962966 0.895050 0.407161
0.986748 0.891377 0.422582
0.996330 0.885127 0.439469
0.999432 0.877827 0.457339
0.999997 0.870916 0.476435
0.437015 0.949168 0.387400
0.441430 0.949261 0.385747
0.466046 0.949470 0.386671
0.508094 0.949704 0.388674
0.561331 0.950167 0.391754
0.620148 0.950933 0.396092
0.681050 0.951646 0.401822
0.742090 0.952664 0.408943
0.802642 0.954009 0.417508
0.861983 0.955327 0.427517
0.920116 0.957007 0.438846
0.968177 0.958879 0.451534
0.988676 0.954918 0.465605
0.996981 0.949020 0.480905
0.999528 0.941669 0.497140
1.000013 0.934383 0.514455
0.488167 0.983069 0.438759
0.491955 0.983095 0.437995
0.510942 0.983172 0.438937
0.544697 0.983350 0.440647
0.589737 0.983495 0.443439
0.641634 0.983749 0.447288
0.697119 0.983970 0.452430
0.753913 0.984332 0.458705
0.810893 0.984782 0.466387
0.867476 0.985318 0.475333
0.923042 0.985912 0.485560
0.968585 0.986514 0.497044
0.990572 0.987279 0.509642
0.997598 0.984124 0.523372
0.999606 0.980344 0.538176
1.000025 0.976242 0.553985
0.538795 0.995810 0.490521
0.542044 0.995818 0.490440
0.556561 0.995843 0.491174
0.583356 0.995889 0.492716
0.620666 0.995964 0.495231
0.665320 0.995946 0.498636
0.714601 0.996071 0.503195
0.766258 0.996128 0.508823
0.819116 0.996334 0.515652
0.872062 0.996482 0.523586
0.924645 0.996627 0.532673
0.968027 0.996790 0.543008
0.989812 0.996973 0.554275
0.998078 0.997173 0.566662
0.999778 0.995851 0.580043
1.000031 0.994197 0.594235
0.587774 0.999444 0.541397
0.590813 0.999446 0.541905
0.601957 0.999450 0.542549
0.623251 0.999457 0.543952
0.653728 0.999472 0.546122
0.691568 0.999490 0.549168
0.734533 0.999516 0.553211
0.780745 0.999546 0.558214
0.828859 0.999583 0.564210
0.877817 0.999624 0.571305
0.926973 0.999556 0.579424
0.967665 0.999605 0.588590
0.988850 0.999657 0.598750
0.997565 0.999708 0.609779
0.999799 0.999768 0.621723
1.000034 0.999440 0.634508
0.635539 1.000028 0.591689
0.638027 1.000028 0.592305
0.646859 1.000028 0.592924
0.663720 1.000028 0.594144
0.688612 1.000029 0.596045
0.720369 1.000029 0.598683
0.757372 1.000030 0.602254
0.798240 1.000031 0.606714
0.841583 1.000031 0.612047
0.886409 1.000032 0.618284
0.931869 1.000033 0.625493
0.968710 1.000033 0.633592
0.988511 1.000034 0.642583
0.997199 1.000038 0.652386
0.999774 1.000038 0.663005
1.000000 1.000000 0.674358
0.027094 0.016383 0.087956
0.073034 0.019743 0.088416
0.132463 0.029268 0.090368
0.209039 0.041363 0.104471
0.304300 0.054695 0.123938
0.409973 0.069012 0.147602
0.516883 0.084359 0.171650
0.619469 0.100861 0.193751
0.713718 0.118677 0.212959
0.796967 0.137943 0.229166
0.869982 0.158811 0.243411
0.934267 0.181547 0.257161
0.975773 0.206154 0.271353
0.992684 0.233004 0.287009
0.998476 0.261021 0.304527
0.999841 0.290174 0.324635
0.040096 0.052723 0.089515
0.072972 0.050639 0.089952
0.134286 0.054361 0.091879
0.210337 0.061135 0.103944
0.305372 0.070583 0.121093
0.410791 0.082219 0.142276
0.517424 0.095699 0.164172
0.619897 0.110891 0.184749
0.713962 0.127766 0.203051
0.797227 0.146358 0.219143
0.870177 0.166743 0.234092
0.934404 0.189093 0.248948
0.975779 0.213462 0.264528
0.992711 0.239956 0.281647
0.998482 0.267589 0.300760
0.999841 0.296338 0.322190
0.066365 0.105626 0.095902
0.087372 0.106089 0.096350
0.141882 0.107998 0.098194
0.215820 0.111836 0.101886
0.309745 0.117784 0.107629
0.414153 0.125935 0.115540
0.520084 0.136274 0.125612
0.621866 0.148794 0.137881
0.715527 0.163450 0.152329
0.798339 0.180298 0.168981
0.871024 0.199266 0.187903
0.935052 0.220531 0.209196
0.976043 0.243765 0.232899
0.992837 0.268502 0.258301
0.998518 0.294503 0.284947
0.999845 0.321682 0.312700
0.095276 0.179446 0.116954
0.109688 0.179793 0.115744
0.156261 0.181255 0.110324
0.226732 0.184223 0.113799
0.318594 0.202608 0.119237
0.420995 0.226035 0.126803
0.525238 0.249795 0.136510
0.625809 0.271121 0.148367
0.718393 0.289068 0.162497
0.800508 0.303523 0.178893
0.872677 0.315966 0.197591
0.936334 0.327696 0.218743
0.976530 0.339626 0.242077
0.992970 0.352581 0.266991
0.998581 0.367180 0.293087
0.999855 0.383867 0.320388
0.126352 0.276979 0.145573
0.137291 0.277262 0.142562
0.177257 0.278479 0.128459
0.257417 0.280949 0.131699
0.332318 0.284891 0.136831
0.431638 0.314761 0.143966
0.533487 0.343678 0.153247
0.632002 0.368742 0.164713
0.723050 0.388642 0.178465
0.803964 0.403021 0.194506
0.875265 0.413660 0.212903
0.938350 0.422057 0.233733
0.977254 0.429421 0.256344
0.993284 0.436572 0.280508
0.998563 0.444490 0.305897
0.999868 0.454140 0.332420
0.160255 0.387703 0.179745
0.169232 0.387890 0.175036
0.204363 0.388861 0.152531
0.293885 0.390780 0.155574
0.373638 0.393857 0.160413
0.446290 0.398252 0.167209
0.544690 0.429946 0.176103
0.640636 0.457260 0.187186
0.729561 0.478300 0.200531
0.808821 0.492782 0.216269
0.879015 0.502583 0.234325
0.941017 0.509262 0.254267
0.978310 0.514026 0.275884
0.993582 0.517796 0.299038
0.998693 0.521502 0.323402
0.999886 0.526451 0.348966
0.197750 0.501557 0.216115
0.205575 0.501765 0.210290
0.237268 0.502501 0.182648
0.329913 0.503934 0.185571
0.412371 0.506370 0.190207
0.488010 0.509642 0.196758
0.559303 0.514210 0.205304
0.651724 0.542093 0.216094
0.737924 0.563407 0.229142
0.815077 0.577565 0.244253
0.883831 0.586508 0.261236
0.944546 0.591882 0.280068
0.979632 0.594749 0.300494
0.994000 0.596042 0.322398
0.998746 0.596788 0.345557
0.999907 0.598319 0.369946
0.239585 0.611856 0.253029
0.246668 0.611967 0.247158
0.275932 0.612528 0.219195
0.364223 0.613699 0.222034
0.446596 0.615529 0.226526
0.523370 0.618065 0.232808
0.595949 0.621460 0.241033
0.665239 0.625633 0.251175
0.748097 0.646045 0.263282
0.822766 0.659220 0.277261
0.889803 0.667131 0.293105
0.948533 0.671176 0.310648
0.981244 0.672371 0.329771
0.994479 0.671655 0.350411
0.998941 0.670060 0.372187
0.999930 0.669007 0.395186
0.286169 0.713260 0.289545
0.292530 0.713270 0.284456
0.318659 0.713756 0.261460
0.397328 0.714507 0.264059
0.476169 0.715940 0.268123
0.551868 0.717866 0.273874
0.624066 0.720304 0.281339
0.693359 0.723464 0.290618
0.760032 0.727202 0.301789
0.831989 0.738845 0.314641
0.896853 0.745270 0.329173
0.953046 0.747916 0.345450
0.982909 0.747555 0.363130
0.995091 0.744863 0.382298
0.999039 0.741303 0.402646
0.999955 0.738058 0.424096
0.335318 0.802913 0.327493
0.340987 0.803000 0.323684
0.364221 0.803336 0.307101
0.430744 0.803978 0.309449
0.502977 0.804974 0.313165
0.575116 0.806414 0.318339
0.645311 0.808294 0.325105
0.713219 0.810648 0.333527
0.778780 0.813536 0.343680
0.842446 0.816882 0.355392
0.905091 0.821616 0.368728
0.958037 0.822511 0.383648
0.984769 0.820410 0.399911
0.995726 0.815960 0.417596
0.999206 0.810535 0.436401
0.999977 0.805505 0.456347
0.386025 0.882178 0.368342
0.390950 0.882191 0.365785
0.411502 0.882548 0.355098
0.465885 0.882976 0.357185
0.529626 0.883641 0.360547
0.596389 0.884861 0.365237
0.662929 0.886292 0.371415
0.728241 0.888115 0.379003
0.792051 0.890285 0.388096
0.854018 0.892849 0.398751
0.914316 0.895865 0.410864
0.962980 0.894954 0.424455
0.986765 0.891116 0.439299
0.996331 0.884886 0.455534
0.999432 0.877793 0.472777
0.999998 0.871086 0.491166
0.437355 0.949302 0.412037
0.441723 0.949387 0.410581
0.459851 0.949604 0.404732
0.503313 0.949739 0.406645
0.557850 0.950294 0.409612
0.617690 0.950966 0.413778
0.679456 0.951766 0.419274
0.741112 0.952688 0.426138
0.802018 0.953953 0.434392
0.861776 0.955442 0.443989
0.920016 0.957038 0.454931
0.968193 0.958899 0.467223
0.988689 0.954895 0.480735
0.996990 0.949012 0.495455
0.999528 0.941836 0.511274
1.000014 0.934599 0.528096
0.488493 0.983107 0.457923
0.492262 0.983110 0.457225
0.508281 0.983209 0.455041
0.542504 0.983332 0.456662
0.588119 0.983532 0.459340
0.640464 0.983732 0.463095
0.696246 0.984007 0.468019
0.753404 0.984368 0.474165
0.810632 0.984817 0.481520
0.867233 0.985339 0.490158
0.922931 0.985914 0.500006
0.968600 0.986546 0.511069
0.990595 0.987309 0.523289
0.997597 0.984166 0.536727
0.999608 0.980436 0.551028
1.000025 0.976312 0.566318
0.538923 0.995822 0.505230
0.542343 0.995831 0.505268
0.556352 0.995845 0.505472
0.583213 0.995902 0.506961
0.620568 0.995967 0.509380
0.665300 0.995946 0.512654
0.714710 0.996073 0.517118
0.766421 0.996139 0.522539
0.819213 0.996345 0.529120
0.872229 0.996492 0.536847
0.924840 0.996638 0.545716
0.968133 0.996800 0.555626
0.989726 0.996983 0.566594
0.998084 0.997182 0.578646
0.999779 0.995866 0.591541
1.000031 0.994238 0.605410
0.588063 0.999447 0.552983
0.591028 0.999447 0.553366
0.603357 0.999450 0.555249
0.624508 0.999460 0.556635
0.654782 0.999474 0.558738
0.692454 0.999493 0.561614
0.735287 0.999516 0.565516
0.781439 0.999549 0.570443
0.829431 0.999585 0.576273
0.878309 0.999624 0.583152
0.927404 0.999558 0.591007
0.967870 0.999607 0.599882
0.988946 0.999659 0.609715
0.997582 0.999710 0.620495
0.999800 0.999770 0.632037
1.000034 0.999445 0.644476
0.635651 1.000028 0.600677
0.638190 1.000028 0.601317
0.649026 1.000028 0.604067
0.665769 1.000028 0.605235
0.690460 1.000028 0.607091
0.721916 1.000029 0.609725
0.758791 1.000030 0.613116
0.799480 1.000031 0.617481
0.842532 1.000031 0.622660
0.887144 1.000032 0.628761
0.932507 1.000033 0.635749
0.969023 1.000033 0.643631
0.988651 1.000034 0.652307
0.997229 1.000038 0.661925
0.999778 1.000038 0.672214
1.000000 1.000000 0.683280
0.038856 0.024702 0.152893
0.082636 0.026798 0.153248
0.146728 0.033998 0.154744
0.210162 0.044584 0.157760
0.305262 0.057066 0.185318
0.410694 0.070898 0.219099
0.517389 0.085947 0.252214
0.619872 0.102244 0.280136
0.713965 0.119909 0.301922
0.797156 0.139068 0.317784
0.870143 0.159877 0.329691
0.934357 0.182543 0.339324
0.975801 0.207139 0.348113
0.992705 0.233924 0.357011
0.998481 0.261890 0.367129
0.999840 0.290993 0.379551
0.047482 0.060045 0.154046
0.076256 0.053241 0.154420
0.146030 0.056754 0.155914
0.211452 0.063261 0.158946
0.306243 0.072437 0.184861
0.411497 0.083829 0.216960
0.518015 0.097136 0.248721
0.620269 0.112186 0.275749
0.714385 0.128952 0.297044
0.797536 0.147457 0.312703
0.870379 0.167796 0.324694
0.934612 0.190102 0.334722
0.975904 0.214451 0.344017
0.992738 0.240875 0.353620
0.998490 0.268429 0.364518
0.999842 0.297178 0.377764
0.070075 0.117175 0.159077
0.089947 0.115739 0.159439
0.143388 0.109309 0.160935
0.216934 0.113113 0.163920
0.310648 0.119025 0.182960
0.414875 0.127106 0.207397
0.520616 0.137412 0.232752
0.622286 0.149869 0.255563
0.715831 0.164506 0.274443
0.798520 0.181306 0.289593
0.871221 0.200264 0.302397
0.935208 0.221481 0.314268
0.976160 0.244673 0.326366
0.992867 0.269389 0.339452
0.998522 0.295282 0.354111
0.999847 0.322466 0.371080
0.097574 0.180456 0.169164
0.111647 0.180796 0.169494
0.157673 0.182273 0.170944
0.227854 0.185250 0.173935
0.319476 0.189952 0.178599
0.421657 0.196595 0.185243
0.525838 0.205284 0.193930
0.626167 0.216150 0.204811
0.718729 0.229224 0.217980
0.800742 0.244296 0.233438
0.872875 0.261233 0.250841
0.936437 0.279995 0.270075
0.976610 0.300393 0.290960
0.992983 0.322329 0.313375
0.998587 0.345486 0.337004
0.999855 0.369859 0.361819
0.128028 0.277807 0.205222
0.138835 0.278092 0.204239
0.178512 0.279325 0.199726
0.244746 0.281806 0.189628
0.333163 0.285707 0.194206
0.432308 0.306494 0.200746
0.534014 0.327630 0.209294
0.632374 0.346945 0.220054
0.723417 0.363390 0.233027
0.804133 0.376536 0.247969
0.875478 0.387799 0.264842
0.938418 0.398208 0.283505
0.977332 0.408555 0.303788
0.993304 0.419585 0.325612
0.998574 0.431682 0.348571
0.999868 0.445566 0.372789
0.161630 0.388333 0.247759
0.170535 0.388564 0.245508
0.205504 0.389537 0.235282
0.267876 0.391482 0.211447
0.365826 0.394519 0.215983
0.446934 0.398901 0.222389
0.545200 0.424768 0.230791
0.641031 0.447684 0.241184
0.729833 0.465771 0.253573
0.809004 0.478843 0.267854
0.879177 0.488376 0.284044
0.941152 0.495744 0.301936
0.978353 0.501901 0.321377
0.993595 0.507672 0.342364
0.998703 0.513794 0.364550
0.999886 0.521332 0.387927
0.198960 0.502039 0.288006
0.206724 0.502257 0.284981
0.238351 0.503010 0.271318
0.296718 0.504507 0.239681
0.398775 0.506837 0.243992
0.483386 0.510178 0.250049
0.559668 0.514635 0.257944
0.652098 0.538903 0.267695
0.738086 0.557508 0.279411
0.815279 0.570158 0.292885
0.883938 0.578518 0.308232
0.944546 0.584012 0.325161
0.979637 0.587504 0.343767
0.994025 0.589972 0.363651
0.998751 0.592195 0.384847
0.999908 0.595521 0.407222
0.240658 0.612264 0.323987
0.247728 0.612373 0.320677
0.276885 0.612902 0.305901
0.330258 0.614073 0.273034
0.430309 0.615861 0.277040
0.515666 0.618417 0.282704
0.593090 0.621790 0.290014
0.665631 0.626007 0.299147
