src/luts/contrast/10.cube
LUT_3D_SIZE 6
0.226690 0.187727 0.171483
0.290968 0.197633 0.180679
0.475243 0.204503 0.187051
0.722193 0.204784 0.187347
0.945188 0.205482 0.187976
0.997705 0.215324 0.197160
0.244372 0.249160 0.185721
0.297413 0.250018 0.186565
0.475714 0.259908 0.187683
0.722009 0.267247 0.187075
0.943866 0.268239 0.188789
0.997552 0.268481 0.199854
0.246039 0.416696 0.187049
0.307742 0.416647 0.187067
0.475335 0.416746 0.187273
0.718615 0.440152 0.188942
0.936147 0.439310 0.195754
0.996222 0.421717 0.215107
0.257849 0.652699 0.196700
0.322484 0.652097 0.197441
0.496087 0.649790 0.200993
0.703133 0.645912 0.209817
0.918408 0.646136 0.228300
0.992783 0.612811 0.253762
0.324295 0.862477 0.252741
0.370343 0.861638 0.253912
0.511998 0.858418 0.258725
0.695418 0.851601 0.267940
0.886764 0.840342 0.280965
0.983111 0.793834 0.296337
0.386666 0.958266 0.307847
0.415061 0.957695 0.308344
0.513973 0.955297 0.310610
0.656697 0.950043 0.314634
0.814474 0.940528 0.319911
0.954217 0.924199 0.324950
0.233462 0.193566 0.220727
0.292298 0.198956 0.225394
0.475347 0.204634 0.238612
0.722164 0.204764 0.246156
0.945172 0.205558 0.246628
0.997775 0.215592 0.245488
0.244771 0.249495 0.229221
0.297636 0.250218 0.229899
0.475721 0.251159 0.230801
0.721937 0.250514 0.230187
0.943713 0.251741 0.231347
0.997504 0.260547 0.239659
0.246037 0.416667 0.238517
0.297964 0.416639 0.230185
0.475326 0.416786 0.230407
0.718410 0.433791 0.231444
0.936039 0.431646 0.236416
0.996185 0.418021 0.252468
0.258115 0.652442 0.250859
0.306860 0.651940 0.237759
0.490360 0.649665 0.240611
0.703089 0.645737 0.247965
0.918283 0.643772 0.263881
0.992698 0.611471 0.285884
0.324726 0.862002 0.292589
0.362234 0.861233 0.285973
0.507715 0.858229 0.290165
0.693542 0.851211 0.298077
0.886457 0.840008 0.309156
0.983070 0.793185 0.322074
0.386815 0.958108 0.333393
0.413241 0.957488 0.331986
0.512632 0.955057 0.333814
0.655827 0.949834 0.336967
0.813903 0.940290 0.340929
0.954064 0.923967 0.344218
0.241198 0.200282 0.386778
0.305632 0.202278 0.388175
0.475573 0.205042 0.390067
0.722088 0.204631 0.414203
0.944597 0.205928 0.414012
0.997611 0.216787 0.390828
0.245990 0.259292 0.389710
0.298355 0.250860 0.389938
0.475687 0.251082 0.390201
0.721917 0.250517 0.407811
0.943127 0.252037 0.405609
0.997339 0.261635 0.386848
0.246037 0.416670 0.389719
0.297996 0.416681 0.389774
0.475207 0.416625 0.389712
0.717680 0.415269 0.388403
0.935075 0.414376 0.387500
0.996070 0.419928 0.392928
0.259480 0.651680 0.409727
0.307939 0.651156 0.404079
0.473737 0.648940 0.388336
0.702542 0.645241 0.390872
0.917514 0.637837 0.398614
0.992458 0.612497 0.408954
0.326683 0.861001 0.423854
0.363805 0.860155 0.419711
0.497443 0.856848 0.410906
0.689125 0.850076 0.414293
0.885363 0.838735 0.418649
0.982676 0.792441 0.422981
0.387719 0.957237 0.426447
0.413953 0.956660 0.425255
0.512463 0.954219 0.425352
0.654957 0.948940 0.425394
0.812496 0.939236 0.424613
0.953060 0.922511 0.421579
0.245708 0.204209 0.636625
0.316623 0.204700 0.636872
0.501203 0.205146 0.637055
0.721926 0.204498 0.636726
0.943242 0.206835 0.634577
0.997382 0.219488 0.587509
0.246798 0.267743 0.637058
0.298690 0.251157 0.637070
0.494453 0.250818 0.636986
0.722032 0.250650 0.636795
0.941640 0.252826 0.629778
0.997142 0.264043 0.584345
0.246229 0.441632 0.636716
0.298213 0.435180 0.636622
0.474812 0.416252 0.635227
0.716031 0.414900 0.630425
0.933258 0.414558 0.615824
0.995750 0.421593 0.583550
0.262481 0.650055 0.621268
0.310266 0.649589 0.620772
0.474469 0.647513 0.618677
0.701625 0.644306 0.615466
0.915713 0.641455 0.612565
0.992006 0.636885 0.608002
0.330545 0.858841 0.611625
0.367012 0.857993 0.609441
0.498657 0.854552 0.603835
0.690664 0.847804 0.604050
0.883112 0.836423 0.599436
0.981807 0.797825 0.591858
0.389375 0.955604 0.571864
0.415299 0.955004 0.570751
0.512522 0.952436 0.569196
0.663880 0.947003 0.576333
0.813861 0.937035 0.568520
0.950941 0.919656 0.555830
0.246804 0.205167 0.892186
0.317177 0.205124 0.892164
0.501561 0.204702 0.892082
0.722917 0.204757 0.891816
0.940926 0.208758 0.883513
0.996978 0.224335 0.811825
0.246518 0.267712 0.892101
0.298268 0.250784 0.892082
0.493063 0.250499 0.892027
0.719081 0.251035 0.890683
0.939082 0.254507 0.880738
0.996758 0.268413 0.808884
0.247032 0.441845 0.890423
0.298763 0.433603 0.889966
0.474071 0.415534 0.887241
0.706223 0.414400 0.880393
0.930237 0.415400 0.867656
0.995287 0.424590 0.802132
0.267819 0.651726 0.866402
0.314652 0.648453 0.865510
0.476015 0.640479 0.861949
0.700512 0.643120 0.854768
0.912700 0.640485 0.844324
0.991255 0.635525 0.798665
0.336416 0.855169 0.829635
0.371931 0.854220 0.828709
0.500551 0.850995 0.825405
0.689360 0.843886 0.818157
0.879367 0.832334 0.806301
0.980454 0.815565 0.789084
0.391979 0.952810 0.748729
0.417208 0.952188 0.747568
0.512512 0.949566 0.744405
0.661412 0.943663 0.742371
0.822727 0.933325 0.744365
0.947502 0.914874 0.722359
0.246164 0.204595 0.994701
0.308286 0.204537 0.994692
0.476796 0.204596 0.994700
0.681138 0.206049 0.994044
0.891578 0.212651 0.991612
0.996386 0.232373 0.986601
0.246034 0.259806 0.994689
0.297999 0.250539 0.994691
0.471578 0.250818 0.994522
0.677626 0.252179 0.993582
0.888709 0.257940 0.990829
0.996075 0.275731 0.985786
0.249244 0.417554 0.993455
0.300149 0.412487 0.993348
0.473072 0.414543 0.992581
0.674147 0.414388 0.990748
0.881292 0.417424 0.987294
0.994478 0.428655 0.981513
0.276789 0.614412 0.986840
0.322033 0.612084 0.986579
0.479244 0.612495 0.985399
0.699382 0.641954 0.982863
0.879426 0.639029 0.978442
0.990097 0.633522 0.970721
0.344228 0.811281 0.971167
0.378503 0.810312 0.970711
0.502976 0.808534 0.968836
0.687040 0.812644 0.964825
0.874318 0.826881 0.957752
0.978261 0.809602 0.946122
0.395125 0.948560 0.932750
0.419686 0.947989 0.932088
0.512329 0.945151 0.928731
0.657720 0.938845 0.921299
0.816259 0.927529 0.908074
0.942335 0.907811 0.885616
