src/luts/contrast/10.cube
LUT_3D_SIZE 16
0.226690 0.187727 0.171483
0.233567 0.190113 0.173723
0.254737 0.193897 0.177205
0.290968 0.197633 0.180679
0.341138 0.200790 0.183626
0.403383 0.203081 0.185739
0.475243 0.204503 0.187051
0.554086 0.205102 0.187642
0.637345 0.205110 0.187649
0.722193 0.204784 0.187347
0.805779 0.204505 0.187052
0.885177 0.204695 0.187237
0.945188 0.205482 0.187976
0.976390 0.207223 0.189615
0.991402 0.210314 0.192473
0.997705 0.215324 0.197160
0.232305 0.196110 0.175986
0.237229 0.196826 0.176670
0.256698 0.199232 0.178849
0.291940 0.202328 0.181583
0.341617 0.205224 0.184069
0.403585 0.207501 0.185977
0.475313 0.209068 0.187154
0.554115 0.209850 0.187661
0.637325 0.210055 0.187613
0.722174 0.209939 0.187324
0.805777 0.209774 0.187045
0.885119 0.210000 0.187261
0.945214 0.210667 0.188041
0.976431 0.212177 0.189684
0.991358 0.214944 0.192593
0.997793 0.219617 0.197357
0.239398 0.216746 0.181690
0.243769 0.216996 0.181896
0.261326 0.217897 0.182781
0.294742 0.220104 0.184168
0.343155 0.222666 0.185584
0.404268 0.225182 0.186759
0.475509 0.227317 0.187476
0.554113 0.228912 0.187690
0.637267 0.229950 0.187526
0.722096 0.230538 0.187202
0.805777 0.230903 0.187045
0.884892 0.231197 0.187364
0.944784 0.231415 0.188249
0.976119 0.232024 0.190070
0.991195 0.233649 0.193194
0.997674 0.236968 0.198135
0.244372 0.249160 0.185721
0.248664 0.249240 0.185798
0.266064 0.249555 0.186072
0.297413 0.250018 0.186565
0.344610 0.253063 0.187095
0.405017 0.256523 0.187508
0.475714 0.259908 0.187683
0.554040 0.262947 0.187593
0.637164 0.265424 0.187356
0.722009 0.267247 0.187075
0.805818 0.268445 0.187128
0.884140 0.268775 0.187652
0.943866 0.268239 0.188789
0.975496 0.267412 0.190923
0.990817 0.267214 0.194485
0.997552 0.268481 0.199854
0.246578 0.293400 0.187510
0.251045 0.293420 0.187510
0.269033 0.293454 0.187563
0.301388 0.293533 0.187655
0.345255 0.293584 0.187688
0.405113 0.298688 0.187668
0.475568 0.304041 0.187519
0.553769 0.309136 0.187298
0.637007 0.313496 0.187079
0.722015 0.316909 0.187088
0.805253 0.318919 0.187495
0.882479 0.319051 0.188309
0.942363 0.317581 0.189878
0.974487 0.315165 0.192588
0.990186 0.312838 0.196754
0.997205 0.311743 0.202850
0.246663 0.349356 0.187558
0.251409 0.349351 0.187552
0.270479 0.349355 0.187523
0.304540 0.349266 0.187489
0.350490 0.349128 0.187372
0.404661 0.349016 0.187254
0.475299 0.356880 0.187123
0.553630 0.364418 0.187051
0.637069 0.371099 0.187212
0.721432 0.375765 0.187568
0.803229 0.378136 0.188332
0.879512 0.378040 0.189704
0.939763 0.375595 0.191983
0.972849 0.371541 0.195465
0.989356 0.367083 0.200557
0.996816 0.363714 0.207707
0.246039 0.416696 0.187049
0.251148 0.416689 0.187070
0.271524 0.416681 0.187057
0.307742 0.416647 0.187067
0.356179 0.416668 0.187044
0.412992 0.416755 0.187120
0.475335 0.416746 0.187273
0.553415 0.426497 0.187567
0.635622 0.434536 0.188088
0.718615 0.440152 0.188942
0.799275 0.442863 0.190361
0.874730 0.442554 0.192525
0.936147 0.439310 0.195754
0.970610 0.433716 0.200325
0.988122 0.427391 0.206641
0.996222 0.421717 0.215107
0.246731 0.493491 0.187623
0.252118 0.493486 0.187621
0.273647 0.493415 0.187668
0.311627 0.493281 0.187790
0.362018 0.493057 0.187971
0.420585 0.492649 0.188248
0.484363 0.492118 0.188725
0.551283 0.491405 0.189483
0.632261 0.500919 0.190546
0.714017 0.507478 0.192130
0.793534 0.510662 0.194484
0.868423 0.510332 0.197705
0.931235 0.506517 0.202158
0.967611 0.499734 0.208151
0.986432 0.491741 0.215989
0.995467 0.484129 0.226107
0.249914 0.573379 0.190220
0.255432 0.573284 0.190261
0.277341 0.573177 0.190350
0.315942 0.572828 0.190604
0.367092 0.572449 0.191076
0.426530 0.571756 0.191733
0.490964 0.570892 0.192670
0.558526 0.569777 0.194025
0.627989 0.568619 0.195940
0.708456 0.576263 0.198552
0.786855 0.580135 0.202011
0.861018 0.579965 0.206604
0.925170 0.575786 0.212544
0.963876 0.568204 0.220182
0.984342 0.558709 0.229560
0.994315 0.548479 0.239444
0.257849 0.652699 0.196700
0.263196 0.652686 0.196756
0.284580 0.652461 0.196985
0.322484 0.652097 0.197441
0.372969 0.651579 0.198220
0.431946 0.650820 0.199367
0.496087 0.649790 0.200993
0.563450 0.648650 0.203155
0.632841 0.647276 0.206045
0.703133 0.645912 0.209817
0.780266 0.650350 0.214629
0.853346 0.650416 0.220782
0.918408 0.646136 0.228300
0.959415 0.637418 0.236486
0.981524 0.625715 0.245011
0.992783 0.612811 0.253762
0.273092 0.729029 0.209305
0.278012 0.729027 0.209370
0.297860 0.728840 0.209732
0.333497 0.728526 0.210429
0.381750 0.727960 0.211591
0.438682 0.727192 0.213319
0.501186 0.726160 0.215647
0.567287 0.724990 0.218776
0.635550 0.723693 0.222784
0.705058 0.722412 0.227755
0.774740 0.720641 0.233416
0.845742 0.720345 0.239602
0.910285 0.714901 0.246271
0.953710 0.704734 0.253365
0.977746 0.691196 0.260769
0.990581 0.675825 0.268375
0.297769 0.800714 0.230011
0.302067 0.800635 0.230152
0.319482 0.800501 0.230563
0.351406 0.799983 0.231442
0.395537 0.799454 0.232839
0.448556 0.798502 0.234764
0.507659 0.797498 0.237272
0.570537 0.795920 0.240384
0.635927 0.794177 0.244100
0.702479 0.791914 0.248356
0.769626 0.789507 0.253137
0.836583 0.786379 0.258406
0.899676 0.779920 0.264088
0.946155 0.768953 0.270081
0.972780 0.753823 0.276342
0.987452 0.736668 0.282797
0.324295 0.862477 0.252741
0.327873 0.862270 0.252810
0.342634 0.861959 0.253165
0.370343 0.861638 0.253912
0.409479 0.860906 0.255058
0.457543 0.859711 0.256632
0.511998 0.858418 0.258725
0.570799 0.856676 0.261367
0.632195 0.854176 0.264406
0.695418 0.851601 0.267940
0.759186 0.848335 0.271910
0.823326 0.844487 0.276291
0.886764 0.840342 0.280965
0.936152 0.828502 0.285936
0.966044 0.812437 0.291067
0.983111 0.793834 0.296337
0.348386 0.910229 0.273769
0.351394 0.910241 0.273829
0.363870 0.909876 0.274100
0.387653 0.909497 0.274684
0.421932 0.908802 0.275603
0.464903 0.907759 0.276957
0.514332 0.906243 0.278623
0.568339 0.904425 0.280698
0.625546 0.902304 0.283151
0.684741 0.899541 0.285981
0.744822 0.896214 0.289190
0.805548 0.892347 0.292731
0.865758 0.887771 0.296389
0.923131 0.882414 0.300372
0.956692 0.866016 0.304373
0.976954 0.846372 0.308394
0.369325 0.940053 0.292311
0.371767 0.939954 0.292301
0.382373 0.939779 0.292523
0.402797 0.939425 0.293047
0.432595 0.938842 0.293812
0.470548 0.937947 0.294756
0.514927 0.936666 0.296050
0.564117 0.935082 0.297647
0.616769 0.933200 0.299573
0.671642 0.930772 0.301777
0.727786 0.927846 0.304204
0.784637 0.924405 0.306842
0.841452 0.920347 0.309611
0.897996 0.915647 0.312526
0.943845 0.909839 0.315434
0.967960 0.892113 0.318285
0.386666 0.958266 0.307847
0.388765 0.958187 0.307827
0.397739 0.958088 0.308065
0.415061 0.957695 0.308344
0.440962 0.957157 0.308871
0.474352 0.956349 0.309613
0.513973 0.955297 0.310610
0.558379 0.953893 0.311767
0.606302 0.952135 0.313040
0.656697 0.950043 0.314634
0.708742 0.947443 0.316256
0.761474 0.944314 0.318060
0.814474 0.940528 0.319911
0.867208 0.935995 0.321663
0.917531 0.930699 0.323351
0.954217 0.924199 0.324950
0.228129 0.188966 0.175898
0.234084 0.190590 0.177413
0.254956 0.194110 0.180719
0.291027 0.197743 0.184227
0.341184 0.200850 0.187323
0.403368 0.203125 0.189654
0.475236 0.204505 0.191222
0.554089 0.205107 0.192030
0.637342 0.205105 0.192287
0.722188 0.204770 0.192119
0.805780 0.204510 0.191983
0.885177 0.204700 0.192166
0.945179 0.205506 0.192786
0.976475 0.207239 0.194148
0.991392 0.210357 0.196709
0.997813 0.215343 0.201028
0.232623 0.196366 0.179496
0.237474 0.197054 0.180142
0.256843 0.199319 0.182235
0.292030 0.202159 0.184876
0.341684 0.204796 0.187353
0.403647 0.206821 0.189213
0.475329 0.208038 0.190352
0.554063 0.208561 0.190844
0.637321 0.208526 0.190814
0.722171 0.208195 0.190505
0.805779 0.207934 0.190271
0.885122 0.208146 0.190456
0.945229 0.208962 0.191214
0.976416 0.210677 0.192806
0.991349 0.213735 0.195677
0.997788 0.218702 0.200323
0.239491 0.216838 0.185071
0.243769 0.217080 0.185220
0.261416 0.217973 0.186069
0.294777 0.220000 0.187420
0.343171 0.222348 0.188832
0.404263 0.224589 0.189958
0.475517 0.226436 0.190674
0.554111 0.227759 0.190884
0.637261 0.228579 0.190730
0.722093 0.228994 0.190403
0.805770 0.229247 0.190265
0.884876 0.229567 0.190559
0.944771 0.229883 0.191424
0.976099 0.230654 0.193180
0.991184 0.232564 0.196258
0.997670 0.236149 0.201095
0.244396 0.249199 0.189158
0.248413 0.249278 0.188998
0.265922 0.249549 0.189299
0.297395 0.250004 0.189780
0.344621 0.252878 0.190285
0.404989 0.256100 0.190726
0.475717 0.259257 0.190882
0.554038 0.262047 0.190785
0.637157 0.264335 0.190534
0.722010 0.265980 0.190273
0.805758 0.267083 0.190353
0.884238 0.267419 0.190828
0.943921 0.266957 0.191943
0.975479 0.266300 0.194030
0.990806 0.266306 0.197492
0.997546 0.267785 0.202773
0.246588 0.293406 0.191128
0.250532 0.293427 0.190728
0.268636 0.293458 0.190746
0.301178 0.293537 0.190845
0.345254 0.293582 0.190882
0.405115 0.298463 0.190849
0.475565 0.303614 0.190723
0.553763 0.308459 0.190487
0.637003 0.312667 0.190273
0.722024 0.315946 0.190282
0.805238 0.317876 0.190667
0.882449 0.317984 0.191493
0.942337 0.316574 0.193004
0.974470 0.314246 0.195641
0.990175 0.312069 0.199728
0.997201 0.311157 0.205757
0.246662 0.349355 0.191447
0.250576 0.349343 0.190737
0.269784 0.349347 0.190721
0.304079 0.349259 0.190668
0.350277 0.349137 0.190563
0.404693 0.349035 0.190437
0.475296 0.356720 0.190291
0.553606 0.364055 0.190259
0.637061 0.370522 0.190366
0.721416 0.375063 0.190746
0.803205 0.377395 0.191512
0.879478 0.377157 0.192849
0.939838 0.374783 0.195051
0.972819 0.370837 0.198482
0.989365 0.366515 0.203466
0.996820 0.363256 0.210518
0.246036 0.416689 0.191212
0.249984 0.416693 0.190260
0.270525 0.416648 0.190268
0.307008 0.416669 0.190264
0.355742 0.416695 0.190262
0.412804 0.416768 0.190329
0.475297 0.416730 0.190482
0.553400 0.426305 0.190744
0.635598 0.434175 0.191244
0.718589 0.439664 0.192088
0.799255 0.442258 0.193463
0.874647 0.441867 0.195573
0.936150 0.438711 0.198715
0.970593 0.433160 0.203280
0.988108 0.426929 0.209474
0.996232 0.421423 0.217866
0.246715 0.493494 0.191975
0.250650 0.493472 0.190809
0.272379 0.493403 0.190851
0.310639 0.493270 0.190970
0.361332 0.493021 0.191114
0.420217 0.492631 0.191427
0.484202 0.492114 0.191905
0.551279 0.491402 0.192616
0.632238 0.500712 0.193683
0.713989 0.507163 0.195233
0.793508 0.510263 0.197492
0.868380 0.509880 0.200680
0.931202 0.506070 0.205056
0.967582 0.499327 0.210967
0.986420 0.491390 0.218718
0.995477 0.483899 0.228723
0.249917 0.573317 0.194682
0.253766 0.573260 0.193371
0.275913 0.573161 0.193473
0.314837 0.572887 0.193730
0.366314 0.572438 0.194147
0.425876 0.571719 0.194813
0.490625 0.570880 0.195766
0.558365 0.569757 0.197116
0.627938 0.568599 0.198959
0.708439 0.576125 0.201500
0.786840 0.579900 0.204927
0.861025 0.579620 0.209433
0.925142 0.575489 0.215315
0.963864 0.567956 0.222880
0.984335 0.558439 0.232177
0.994313 0.548367 0.241997
0.257861 0.652685 0.201053
0.261560 0.652681 0.199753
0.283152 0.652458 0.199959
0.321316 0.652081 0.200418
0.372112 0.651567 0.201199
0.431269 0.650810 0.202317
0.495674 0.649782 0.203901
0.563209 0.648631 0.206064
0.632632 0.647267 0.208917
0.703116 0.645896 0.212612
0.780248 0.650238 0.217389
0.853449 0.650264 0.223456
0.918391 0.645980 0.230941
0.959391 0.637240 0.239011
0.981522 0.625592 0.247438
0.992780 0.612715 0.256129
0.273122 0.729011 0.213342
0.276566 0.729002 0.212180
0.296582 0.728808 0.212534
0.332438 0.728501 0.213245
0.380918 0.727935 0.214382
0.438025 0.727169 0.216087
0.500770 0.726137 0.218419
0.567001 0.725024 0.221479
0.635387 0.723690 0.225452
0.704953 0.722387 0.230399
0.774653 0.720591 0.235973
0.845745 0.720149 0.242103
0.910290 0.714823 0.248720
0.953704 0.704653 0.255730
0.977739 0.690995 0.263043
0.990580 0.675772 0.270546
0.297830 0.800707 0.233612
0.300968 0.800731 0.232753
0.318501 0.800495 0.233187
0.350580 0.799945 0.234029
0.394838 0.799475 0.235401
0.448067 0.798463 0.237313
0.507234 0.797513 0.239797
0.570288 0.795991 0.242874
0.635709 0.794183 0.246540
0.702381 0.791826 0.250738
0.769558 0.789507 0.255492
0.836631 0.786427 0.260701
0.899671 0.779947 0.266314
0.946097 0.768917 0.272268
0.972756 0.753709 0.278473
0.987431 0.736608 0.284815
0.324337 0.862417 0.255787
0.327110 0.862262 0.255184
0.341966 0.861956 0.255549
0.369729 0.861631 0.256263
0.408968 0.860923 0.257376
0.457133 0.859708 0.258993
0.511604 0.858313 0.261022
0.570459 0.856566 0.263571
0.632018 0.854215 0.266644
0.695278 0.851581 0.270170
0.759235 0.848297 0.274096
0.823140 0.844442 0.278407
0.886779 0.840352 0.283026
0.936190 0.828411 0.287983
0.966015 0.812312 0.293050
0.983089 0.793717 0.298204
0.348400 0.910220 0.276343
0.350834 0.910199 0.275920
0.363384 0.909894 0.276216
0.387209 0.909454 0.276798
0.421547 0.908757 0.277726
0.464589 0.907714 0.279018
0.514089 0.906363 0.280692
0.568121 0.904350 0.282762
0.625369 0.902272 0.285230
0.684638 0.899494 0.288019
0.744699 0.896138 0.291153
0.805447 0.892320 0.294603
0.865741 0.887747 0.298283
0.923103 0.882399 0.302166
0.956707 0.865937 0.306128
0.976921 0.846289 0.310108
0.369354 0.940009 0.294548
0.371524 0.939911 0.294269
0.382159 0.939765 0.294510
0.402422 0.939382 0.294891
0.432306 0.938797 0.295643
0.470311 0.937960 0.296664
0.514724 0.936620 0.297921
0.563969 0.935069 0.299557
0.616662 0.933225 0.301437
0.671557 0.930766 0.303524
0.727635 0.927795 0.305942
0.784623 0.924445 0.308656
0.841539 0.920362 0.311327
0.897970 0.915643 0.314205
0.943876 0.909877 0.317058
0.967922 0.892070 0.319816
0.386684 0.958223 0.309749
0.388599 0.958142 0.309608
0.397638 0.958045 0.309784
0.414971 0.957700 0.310098
0.440817 0.957209 0.310574
0.474219 0.956357 0.311329
0.513812 0.955251 0.312251
0.558268 0.953845 0.313428
0.606253 0.952126 0.314703
0.656651 0.949993 0.316245
0.708621 0.947391 0.317889
0.761441 0.944299 0.319605
0.814474 0.940547 0.321378
0.867118 0.935952 0.323189
0.917455 0.930633 0.324858
0.954203 0.924180 0.326297
0.230643 0.191139 0.191661
0.235921 0.192103 0.192526
0.255840 0.194913 0.195063
0.291476 0.198182 0.198732
0.341419 0.201053 0.202382
0.403433 0.203236 0.205570
0.475308 0.204581 0.208067
0.554103 0.205130 0.209826
0.637330 0.205110 0.210916
0.722182 0.204774 0.211487
0.805775 0.204490 0.211738
0.885154 0.204722 0.211950
0.945212 0.205508 0.212062
0.976472 0.207251 0.212459
0.991372 0.210402 0.213800
0.997794 0.215427 0.216680
0.233754 0.197418 0.194087
0.238469 0.197896 0.194623
0.257513 0.199890 0.196437
0.292384 0.202531 0.199408
0.341834 0.204987 0.202473
0.403713 0.206906 0.205202
0.475306 0.208058 0.207310
0.554073 0.208578 0.208766
0.637316 0.208515 0.209657
0.722162 0.208185 0.210029
0.805773 0.207909 0.210184
0.885212 0.208135 0.210394
0.945155 0.208978 0.210651
0.976394 0.210724 0.211255
0.991306 0.213811 0.212856
0.997768 0.218799 0.216047
0.239898 0.217177 0.198890
0.244161 0.217393 0.199091
0.261727 0.218243 0.199894
0.294975 0.219563 0.201112
0.343293 0.220941 0.202419
0.404370 0.222103 0.203489
0.475524 0.222810 0.204153
0.554114 0.222996 0.204323
0.637248 0.222824 0.204166
0.722086 0.222490 0.203868
0.805768 0.222306 0.203709
0.884925 0.222634 0.203991
0.944760 0.223456 0.204763
0.976034 0.225163 0.206341
0.991171 0.228093 0.209117
0.997659 0.232909 0.213617
0.244505 0.249316 0.203245
0.248542 0.249386 0.203183
0.265336 0.249632 0.202874
0.297510 0.250120 0.203310
0.344672 0.252121 0.203824
0.405040 0.254368 0.204174
0.475717 0.256459 0.204319
0.554026 0.258291 0.204239
0.637216 0.259723 0.203986
0.721998 0.260728 0.203737
0.805759 0.261481 0.203825
0.884177 0.261783 0.204243
0.943852 0.261649 0.205223
0.975411 0.261682 0.207106
0.990763 0.262577 0.210277
0.997534 0.265019 0.215179
0.246601 0.293433 0.205888
0.250558 0.293451 0.205572
0.266985 0.293443 0.204242
0.300305 0.293528 0.204290
0.345255 0.293584 0.204320
0.405100 0.297617 0.204293
0.475552 0.301826 0.204146
0.553748 0.305802 0.203927
0.636993 0.309215 0.203741
0.722017 0.311940 0.203751
0.805246 0.313496 0.204099
0.882418 0.313555 0.204811
0.942314 0.312408 0.206192
0.974415 0.310524 0.208559
0.990168 0.309063 0.212344
0.997187 0.308967 0.217984
0.246662 0.349350 0.207139
0.250563 0.349346 0.206572
0.266888 0.349341 0.204158
0.302138 0.349279 0.204110
0.349323 0.349151 0.204006
0.404671 0.349022 0.203907
0.475288 0.355810 0.203743
0.553610 0.362340 0.203701
0.637057 0.368124 0.203848
0.721369 0.372138 0.204184
0.803122 0.374074 0.204835
0.879486 0.373830 0.206047
0.939808 0.371538 0.208024
0.972832 0.367859 0.211178
0.989329 0.364163 0.215848
0.996810 0.361464 0.222497
0.246036 0.416669 0.208006
0.249970 0.416671 0.207193
0.266351 0.416657 0.203710
0.303896 0.416621 0.203700
0.353789 0.416660 0.203712
0.411895 0.416783 0.203801
0.475342 0.416756 0.203927
0.553420 0.425484 0.204175
0.635625 0.432699 0.204615
0.718592 0.437626 0.205354
0.799179 0.439909 0.206605
0.874609 0.439365 0.208526
0.936110 0.436217 0.211412
0.970548 0.430945 0.215634
0.988053 0.425081 0.221521
0.996205 0.420024 0.229524
0.246744 0.493462 0.209735
0.250685 0.493436 0.208687
0.267025 0.493372 0.204262
0.306531 0.493217 0.204351
0.358503 0.492982 0.204527
0.418375 0.492581 0.204761
0.483353 0.492074 0.205176
0.551226 0.491355 0.205789
0.632175 0.499994 0.206746
0.713890 0.505922 0.208173
0.793499 0.508631 0.210277
0.868380 0.508083 0.213240
0.931191 0.504197 0.217338
0.967545 0.497662 0.222925
0.986428 0.490047 0.230321
0.995461 0.482975 0.239908
0.249984 0.573239 0.212776
0.253834 0.573249 0.211592
0.269844 0.573147 0.206603
0.310071 0.572792 0.206837
0.362813 0.572411 0.207208
0.423557 0.571696 0.207803
0.489152 0.570840 0.208681
0.557764 0.569767 0.209901
0.627927 0.568588 0.211613
0.708323 0.575598 0.214012
0.786834 0.578945 0.217188
0.860956 0.578440 0.221480
0.925098 0.574279 0.227073
0.963865 0.566780 0.234290
0.984281 0.557455 0.243177
0.994298 0.547684 0.252553
0.257964 0.652692 0.218768
0.261622 0.652601 0.217549
0.277029 0.652399 0.212568
0.316411 0.652063 0.213004
0.368451 0.651555 0.213715
0.428584 0.650746 0.214729
0.493852 0.649720 0.216241
0.562116 0.648614 0.218274
0.632165 0.647220 0.220952
0.703150 0.645794 0.224476
0.780244 0.649790 0.229063
0.853468 0.649667 0.234865
0.918263 0.645090 0.241983
0.959394 0.636510 0.249745
0.981468 0.624915 0.257777
0.992735 0.612232 0.266062
0.273250 0.728956 0.229852
0.276724 0.728958 0.228812
0.291106 0.728781 0.224393
0.327972 0.728420 0.225098
0.377474 0.727940 0.226170
0.435432 0.727144 0.227776
0.498887 0.726128 0.230001
0.565754 0.724968 0.232944
0.634632 0.723600 0.236759
0.704594 0.722364 0.241460
0.774606 0.720649 0.246827
0.845736 0.719970 0.252697
0.910164 0.714351 0.258997
0.953654 0.704171 0.265728
0.977727 0.690548 0.272697
0.990584 0.675544 0.279885
0.298007 0.800711 0.248288
0.301125 0.800728 0.247473
0.314260 0.800332 0.244120
0.346957 0.799961 0.244940
0.391996 0.799344 0.246247
0.445834 0.798455 0.248106
0.505563 0.797374 0.250479
0.569032 0.795854 0.253398
0.634907 0.794195 0.256922
0.701872 0.791838 0.260935
0.769257 0.789396 0.265478
0.836561 0.786356 0.270433
0.899671 0.779798 0.275801
0.946043 0.768548 0.281515
0.972724 0.753450 0.287418
0.987500 0.736340 0.293454
0.324456 0.862239 0.268490
0.327253 0.862191 0.267920
0.338992 0.862065 0.265528
0.367135 0.861531 0.266214
0.406796 0.860825 0.267344
0.455402 0.859689 0.268795
0.510256 0.858196 0.270782
0.569408 0.856454 0.273251
0.631298 0.854349 0.276128
0.694714 0.851515 0.279489
0.758784 0.848164 0.283232
0.823008 0.844404 0.287336
0.886788 0.840316 0.291758
0.936140 0.828297 0.296431
0.965898 0.812142 0.301293
0.983112 0.793515 0.306119
0.348514 0.910143 0.287256
0.351005 0.910105 0.286905
0.361463 0.909797 0.285318
0.385404 0.909419 0.285808
0.420020 0.908628 0.286720
0.463258 0.907645 0.287975
0.512945 0.906205 0.289502
0.567337 0.904397 0.291491
0.624692 0.902050 0.293773
0.684119 0.899398 0.296498
0.744393 0.896074 0.299459
0.805228 0.892248 0.302798
0.865703 0.887751 0.306305
0.923104 0.882317 0.309942
0.956676 0.865823 0.313712
0.976858 0.846132 0.317458
0.369377 0.939883 0.303816
0.371632 0.939928 0.303626
0.380895 0.939668 0.302646
0.401390 0.939282 0.303095
0.431275 0.938631 0.303744
0.469478 0.937805 0.304751
0.513986 0.936541 0.305878
0.563398 0.935011 0.307483
0.616111 0.933082 0.309222
0.671158 0.930668 0.311320
0.727377 0.927794 0.313501
0.784316 0.924342 0.315992
0.841375 0.920296 0.318608
0.897790 0.915528 0.321270
0.943752 0.909716 0.323930
0.967836 0.891975 0.326419
0.386680 0.958118 0.317712
0.388701 0.958080 0.317627
0.396871 0.957981 0.317069
0.414313 0.957683 0.317410
0.440218 0.957071 0.317900
0.473720 0.956284 0.318610
0.513383 0.955143 0.319479
0.557827 0.953785 0.320481
0.605917 0.952093 0.321748
0.656323 0.949927 0.323130
0.708308 0.947405 0.324630
0.761163 0.944168 0.326288
0.814299 0.940515 0.327966
0.866985 0.935956 0.329507
0.917326 0.930541 0.331063
0.954185 0.924159 0.332314
0.233462 0.193566 0.220727
0.238513 0.194176 0.221258
0.258254 0.196270 0.223035
0.292298 0.198956 0.225394
0.341812 0.201500 0.230019
0.403635 0.203437 0.234563
0.475347 0.204634 0.238612
0.554070 0.205143 0.241993
0.637315 0.205091 0.244501
0.722164 0.204764 0.246156
0.805775 0.204491 0.247067
0.885228 0.204727 0.247316
0.945172 0.205558 0.246628
0.976411 0.207348 0.245505
0.991320 0.210528 0.244854
0.997775 0.215592 0.245488
0.235620 0.199171 0.222346
0.240126 0.199348 0.222726
0.259392 0.200943 0.224094
0.293050 0.203177 0.226031
0.342224 0.205346 0.230194
0.403798 0.207074 0.234342
0.475390 0.208180 0.238070
0.554089 0.208596 0.241140
0.637261 0.208483 0.243444
0.722147 0.208171 0.244971
0.805765 0.207907 0.245777
0.885154 0.208183 0.246035
0.945007 0.209025 0.245436
0.976250 0.210769 0.244462
0.991261 0.213913 0.244028
0.997744 0.218935 0.244892
0.240652 0.218594 0.226115
0.244840 0.218626 0.226284
0.262289 0.218742 0.226940
0.295358 0.219915 0.227971
0.343478 0.221171 0.230591
0.404442 0.222217 0.233275
0.475592 0.222834 0.235695
0.554110 0.222990 0.237606
0.637227 0.222829 0.239051
0.722076 0.222468 0.239931
0.805779 0.222333 0.240455
0.884900 0.222674 0.240686
0.944718 0.223513 0.240463
0.976048 0.225217 0.240272
0.991128 0.228215 0.240788
0.997648 0.233062 0.242762
0.244771 0.249495 0.229221
0.248805 0.249564 0.229296
0.265533 0.249800 0.229521
0.297636 0.250218 0.229899
0.344797 0.250674 0.230348
0.405050 0.251005 0.230638
0.475721 0.251159 0.230801
0.554076 0.251034 0.230675
0.637191 0.250733 0.230402
0.721937 0.250514 0.230187
0.805758 0.250609 0.230287
0.884083 0.250989 0.230640
0.943713 0.251741 0.231347
0.975302 0.253306 0.232807
0.990761 0.256064 0.235432
0.997504 0.260547 0.239659
0.246655 0.293445 0.233039
0.250589 0.293461 0.232861
0.267006 0.293481 0.232144
0.298638 0.293533 0.230758
0.345254 0.293583 0.230796
0.405102 0.295915 0.230714
0.475517 0.298366 0.230592
0.553724 0.300632 0.230392
0.636990 0.302624 0.230191
0.722028 0.304205 0.230232
0.805222 0.305154 0.230541
0.882407 0.305156 0.231042
0.942225 0.304536 0.232037
0.974284 0.303847 0.233988
0.990195 0.303848 0.237208
0.997153 0.305353 0.242153
0.246625 0.349359 0.235886
0.250560 0.349353 0.235488
0.266889 0.349305 0.233792
0.298402 0.349231 0.230554
0.347519 0.349139 0.230448
0.404619 0.349005 0.230333
0.475281 0.354236 0.230233
0.553620 0.359164 0.230160
0.637075 0.363511 0.230359
0.721262 0.366540 0.230589
0.802918 0.367841 0.231040
0.879286 0.367407 0.231936
0.939723 0.365528 0.233567
0.972742 0.362750 0.236212
0.989290 0.360054 0.240273
0.996774 0.358687 0.246151
0.246037 0.416667 0.238517
0.249956 0.416658 0.237893
0.266345 0.416649 0.235245
0.297964 0.416639 0.230185
0.350047 0.416691 0.230182
0.410137 0.416749 0.230260
0.475326 0.416786 0.230407
0.553355 0.423968 0.230576
0.635508 0.429841 0.230892
0.718410 0.433791 0.231444
0.798971 0.435389 0.232370
0.874397 0.434611 0.233934
0.936039 0.431646 0.236416
0.970474 0.426925 0.240037
0.987991 0.421959 0.245260
0.996185 0.418021 0.252468
0.246767 0.493417 0.241775
0.250697 0.493404 0.240948
0.267051 0.493309 0.237449
0.298596 0.493213 0.230727
0.352983 0.492917 0.230811
0.415097 0.492553 0.231038
0.481772 0.491998 0.231324
0.551114 0.491290 0.231768
