src/luts/contrast/2.cube
LUT_3D_SIZE 16
0.000000 0.020240 0.030851
0.002486 0.020240 0.030851
0.009764 0.020240 0.030851
0.026324 0.020240 0.030851
0.060833 0.020240 0.030851
0.123953 0.020240 0.030851
0.226545 0.020240 0.030851
0.364371 0.020240 0.030851
0.521950 0.020240 0.030851
0.683238 0.020240 0.030851
0.836128 0.020240 0.030851
0.944335 0.020240 0.030851
0.984866 0.020240 0.030851
0.996813 0.020240 0.030851
0.999600 0.020240 0.030851
1.000000 0.020240 0.030851
0.000000 0.035969 0.030851
0.002486 0.035969 0.030851
0.009764 0.038465 0.030851
0.026324 0.042666 0.030851
0.060833 0.048621 0.030851
0.123953 0.056401 0.030851
0.226545 0.065549 0.030851
0.364371 0.074085 0.030851
0.521950 0.080677 0.030851
0.683238 0.084982 0.030851
0.836128 0.087234 0.030851
0.944335 0.087605 0.030851
0.984866 0.086246 0.030851
0.996813 0.083692 0.030851
0.999600 0.080651 0.030851
1.000000 0.077606 0.030851
0.000000 0.057754 0.030851
0.003139 0.057754 0.030851
0.009764 0.057754 0.030851
0.026324 0.066569 0.030851
0.060833 0.079127 0.030851
0.123953 0.095606 0.030851
0.226545 0.115061 0.030851
0.364371 0.133280 0.030851
0.521950 0.147381 0.030851
0.683238 0.156602 0.030851
0.836128 0.161424 0.030851
0.944335 0.162218 0.030851
0.984866 0.159315 0.030851
0.996813 0.153836 0.030851
0.999600 0.147329 0.030851
1.000000 0.140806 0.030851
0.000000 0.091510 0.030851
0.004357 0.091510 0.030851
0.013554 0.091510 0.030851
0.026324 0.091510 0.030851
0.060833 0.111043 0.030851
0.123953 0.136769 0.030851
0.226545 0.167169 0.030851
0.364371 0.195721 0.030851
0.521950 0.217793 0.030851
0.683238 0.232241 0.030851
0.836128 0.239814 0.030851
0.944335 0.241070 0.030851
0.984866 0.236514 0.030851
0.996813 0.227932 0.030851
0.999600 0.217708 0.030851
1.000000 0.207501 0.030851
0.000000 0.144067 0.030851
0.006310 0.144067 0.030851
0.019633 0.144067 0.030851
0.038132 0.144067 0.030851
0.060833 0.144067 0.030851
0.123953 0.179405 0.030851
0.226545 0.221239 0.030851
0.364371 0.260516 0.030851
0.521950 0.290920 0.030851
0.683238 0.310858 0.030851
0.836128 0.321278 0.030851
0.944335 0.322992 0.030851
0.984866 0.316736 0.030851
0.996813 0.304895 0.030851
0.999600 0.290808 0.030851
1.000000 0.276729 0.030851
0.000000 0.223199 0.030851
0.009219 0.223199 0.030851
0.028681 0.223199 0.030851
0.055590 0.223199 0.030851
0.087711 0.223199 0.030851
0.123953 0.223199 0.030851
0.226545 0.276797 0.030851
0.364371 0.327190 0.030851
0.521950 0.366224 0.030851
0.683238 0.391808 0.030851
0.836128 0.405111 0.030851
0.944335 0.407353 0.030851
0.984866 0.399267 0.030851
0.996813 0.384139 0.030851
0.999600 0.366081 0.030851
1.000000 0.348024 0.030851
0.000000 0.333702 0.030851
0.013093 0.333702 0.030851
0.040731 0.333702 0.030851
0.078136 0.333702 0.030851
0.122278 0.333702 0.030851
0.171970 0.333702 0.030851
0.226545 0.333702 0.030851
0.364371 0.395446 0.030851
0.521950 0.443313 0.030851
0.683238 0.474647 0.030851
0.836128 0.491023 0.030851
0.944335 0.493712 0.030851
0.984866 0.483877 0.030851
0.996813 0.465291 0.030851
0.999600 0.443113 0.030851
1.000000 0.421001 0.030851
0.000000 0.465084 0.030851
0.017102 0.465084 0.030851
0.053130 0.465084 0.030851
0.100861 0.465084 0.030851
0.156978 0.465084 0.030851
0.220146 0.465084 0.030851
0.289460 0.465084 0.030851
0.364371 0.465084 0.030851
0.521950 0.521964 0.030851
0.683238 0.559202 0.030851
0.836128 0.578656 0.030851
0.944335 0.581797 0.030851
0.984866 0.570126 0.030851
0.996813 0.548071 0.030851
0.999600 0.521702 0.030851
1.000000 0.495389 0.030851
0.000000 0.601965 0.030851
0.020436 0.601965 0.030851
0.063253 0.601965 0.030851
0.119323 0.601965 0.030851
0.185169 0.601965 0.030851
0.259252 0.601965 0.030851
0.340514 0.601965 0.030851
0.428275 0.601965 0.030851
0.521950 0.601965 0.030851
0.683238 0.645226 0.030851
0.836128 0.667855 0.030851
0.944335 0.671543 0.030851
0.984866 0.657980 0.030851
0.996813 0.632254 0.030851
0.999600 0.601747 0.030851
1.000000 0.571132 0.030851
0.000000 0.732613 0.030851
0.022717 0.732613 0.030851
0.070100 0.732613 0.030851
0.131788 0.732613 0.030851
0.204220 0.732613 0.030851
0.285652 0.732613 0.030851
0.374933 0.732613 0.030851
0.471333 0.732613 0.030851
0.574286 0.732613 0.030851
0.683238 0.732613 0.030851
0.836128 0.758459 0.030851
0.944335 0.762707 0.030851
0.984866 0.747172 0.030851
0.996813 0.717828 0.030851
0.999600 0.682945 0.030851
1.000000 0.648013 0.030851
0.000000 0.850124 0.030851
0.023938 0.850124 0.030851
0.073749 0.850124 0.030851
0.138436 0.850124 0.030851
0.214348 0.850124 0.030851
0.299590 0.850124 0.030851
0.393211 0.850124 0.030851
0.494209 0.850124 0.030851
0.602077 0.850124 0.030851
0.716242 0.850124 0.030851
0.836128 0.850124 0.030851
0.944335 0.854956 0.030851
0.984866 0.837413 0.030851
0.996813 0.804506 0.030851
0.999600 0.765185 0.030851
1.000000 0.725944 0.030851
0.000000 0.939888 0.030851
0.024143 0.939888 0.030851
0.074340 0.939888 0.030851
0.139548 0.939888 0.030851
0.216003 0.939888 0.030851
0.301955 0.939888 0.030851
0.396194 0.939888 0.030851
0.497951 0.939888 0.030851
0.606632 0.939888 0.030851
0.721833 0.939888 0.030851
0.842560 0.939888 0.030851
0.944335 0.939888 0.030851
0.984866 0.924999 0.030851
0.996813 0.892224 0.030851
0.999600 0.848591 0.030851
1.000000 0.804837 0.030851
0.000000 0.980296 0.030851
0.023401 0.980296 0.030851
0.072146 0.980296 0.030851
0.135528 0.980296 0.030851
0.209905 0.980296 0.030851
0.293468 0.980296 0.030851
0.385191 0.980296 0.030851
0.484152 0.980296 0.030851
0.589877 0.980296 0.030851
0.701780 0.980296 0.030851
0.819313 0.980296 0.030851
0.927988 0.980296 0.030851
0.984866 0.980296 0.030851
0.996813 0.960763 0.030851
0.999600 0.928047 0.030851
1.000000 0.884593 0.030851
0.000000 0.994791 0.030851
0.022023 0.994791 0.030851
0.068027 0.994791 0.030851
0.128040 0.994791 0.030851
0.198477 0.994791 0.030851
0.277651 0.994791 0.030851
0.364575 0.994791 0.030851
0.458353 0.994791 0.030851
0.558442 0.994791 0.030851
0.664537 0.994791 0.030851
0.775985 0.994791 0.030851
0.890200 0.994791 0.030851
0.966180 0.994791 0.030851
0.996813 0.994791 0.030851
0.999600 0.978959 0.030851
1.000000 0.951309 0.030851
0.000000 0.999200 0.030851
0.020421 0.999200 0.030851
0.063216 0.999200 0.030851
0.119261 0.999200 0.030851
0.185078 0.999200 0.030851
0.259085 0.999200 0.030851
0.340281 0.999200 0.030851
0.427968 0.999200 0.030851
0.521647 0.999200 0.030851
0.620805 0.999200 0.030851
0.724985 0.999200 0.030851
0.834109 0.999200 0.030851
0.931340 0.999200 0.030851
0.983626 0.999200 0.030851
0.999600 0.999200 0.030851
1.000000 0.988930 0.030851
0.000000 0.999922 0.030851
0.018856 0.999922 0.030851
0.058479 0.999922 0.030851
0.110633 0.999922 0.030851
0.171895 0.999922 0.030851
0.240809 0.999922 0.030851
0.316481 0.999922 0.030851
0.398082 0.999922 0.030851
0.485329 0.999922 0.030851
0.577725 0.999922 0.030851
0.674778 0.999922 0.030851
0.776481 0.999922 0.030851
0.881131 0.999922 0.030851
0.956464 0.999922 0.030851
0.992271 0.999922 0.030851
1.000000 0.999922 0.030851
0.000000 0.020240 0.047811
0.002486 0.020240 0.047811
0.009764 0.020240 0.050449
0.026324 0.020240 0.054868
0.060833 0.020240 0.061085
0.123953 0.020240 0.069134
0.226545 0.020240 0.078510
0.364371 0.020240 0.087189
0.521950 0.020240 0.093841
0.683238 0.020240 0.098173
0.836128 0.020240 0.100433
0.944335 0.020240 0.100796
0.984866 0.020240 0.099439
0.996813 0.020240 0.096873
0.999600 0.020240 0.093822
1.000000 0.020240 0.090739
0.000000 0.035969 0.047811
0.002486 0.035969 0.047811
0.009764 0.035969 0.047811
0.026324 0.035969 0.047811
0.060833 0.035969 0.047811
0.123953 0.035969 0.047811
0.226545 0.035969 0.047811
0.364371 0.035969 0.047811
0.521950 0.035969 0.047811
0.683238 0.035969 0.047811
0.836128 0.035969 0.047811
0.944335 0.035969 0.047811
0.984866 0.035969 0.047811
0.996813 0.035969 0.047811
0.999600 0.035969 0.047811
1.000000 0.035969 0.047811
0.000000 0.057754 0.050449
0.002486 0.057754 0.047811
0.009764 0.057754 0.047811
0.026324 0.065084 0.047811
0.060833 0.075922 0.047811
0.123953 0.090465 0.047811
0.226545 0.107820 0.047811
0.364371 0.124151 0.047811
0.521950 0.136804 0.047811
0.683238 0.145058 0.047811
0.836128 0.149354 0.047811
0.944335 0.150034 0.047811
0.984866 0.147375 0.047811
0.996813 0.142410 0.047811
0.999600 0.136501 0.047811
1.000000 0.130596 0.047811
0.000000 0.091510 0.054868
0.002486 0.091510 0.047811
0.012885 0.091510 0.047811
0.026324 0.091510 0.047811
0.060833 0.109919 0.047811
0.123953 0.134430 0.047811
0.226545 0.163539 0.047811
0.364371 0.190915 0.047811
0.521950 0.212120 0.047811
0.683238 0.225965 0.047811
0.836128 0.233147 0.047811
0.944335 0.234252 0.047811
0.984866 0.229834 0.047811
0.996813 0.221494 0.047811
0.999600 0.211615 0.047811
1.000000 0.201716 0.047811
0.000000 0.144067 0.061085
0.002486 0.144067 0.047811
0.018012 0.144067 0.047811
0.037410 0.144067 0.047811
0.060833 0.144067 0.047811
0.123953 0.178455 0.047811
0.226545 0.219322 0.047811
0.364371 0.257731 0.047811
0.521950 0.287462 0.047811
0.683238 0.306890 0.047811
0.836128 0.316957 0.047811
0.944335 0.318537 0.047811
0.984866 0.312333 0.047811
0.996813 0.300628 0.047811
0.999600 0.286761 0.047811
1.000000 0.272864 0.047811
0.000000 0.223199 0.069134
0.002486 0.223199 0.047811
0.025737 0.223199 0.047811
0.053935 0.223199 0.047811
0.086968 0.223199 0.047811
0.123953 0.223199 0.047811
0.226545 0.276015 0.047811
0.364371 0.325659 0.047811
0.521950 0.364069 0.047811
0.683238 0.389153 0.047811
0.836128 0.402249 0.047811
0.944335 0.404280 0.047811
0.984866 0.396141 0.047811
0.996813 0.381130 0.047811
0.999600 0.363174 0.047811
1.000000 0.345225 0.047811
0.000000 0.333702 0.078510
0.002486 0.333702 0.047811
0.036082 0.333702 0.047811
0.075361 0.333702 0.047811
0.120633 0.333702 0.047811
0.171217 0.333702 0.047811
0.226545 0.333702 0.047811
0.364371 0.394789 0.047811
0.521950 0.442065 0.047811
0.683238 0.472934 0.047811
0.836128 0.489010 0.047811
0.944335 0.491545 0.047811
0.984866 0.481596 0.047811
0.996813 0.463012 0.047811
0.999600 0.440886 0.047811
1.000000 0.418821 0.047811
0.000000 0.465084 0.087189
0.002486 0.465084 0.047811
0.046805 0.465084 0.047811
0.096947 0.465084 0.047811
0.154458 0.465084 0.047811
0.218618 0.465084 0.047811
0.288752 0.465084 0.047811
0.364371 0.465084 0.047811
0.521950 0.521382 0.047811
0.683238 0.558180 0.047811
0.836128 0.577253 0.047811
0.944335 0.580307 0.047811
0.984866 0.568484 0.047811
0.996813 0.546349 0.047811
0.999600 0.520045 0.047811
1.000000 0.493770 0.047811
0.000000 0.601965 0.093841
0.002486 0.601965 0.047811
0.055614 0.601965 0.047811
0.114509 0.601965 0.047811
0.181895 0.601965 0.047811
0.257036 0.601965 0.047811
0.339152 0.601965 0.047811
0.427606 0.601965 0.047811
0.521950 0.601965 0.047811
0.683238 0.644744 0.047811
0.836128 0.666971 0.047811
0.944335 0.670493 0.047811
0.984866 0.656739 0.047811
0.996813 0.631029 0.047811
0.999600 0.600417 0.047811
1.000000 0.569909 0.047811
0.000000 0.732613 0.098173
0.002486 0.732613 0.047811
0.061556 0.732613 0.047811
0.126335 0.732613 0.047811
0.200373 0.732613 0.047811
0.282907 0.732613 0.047811
0.373039 0.732613 0.047811
0.470159 0.732613 0.047811
0.573703 0.732613 0.047811
0.683238 0.732613 0.047811
0.836128 0.757956 0.047811
0.944335 0.761956 0.047811
0.984866 0.746406 0.047811
0.996813 0.716907 0.047811
0.999600 0.681928 0.047811
1.000000 0.647045 0.047811
0.000000 0.850124 0.100433
0.002486 0.850124 0.047811
0.064704 0.850124 0.047811
0.132582 0.850124 0.047811
0.210134 0.850124 0.047811
0.296586 0.850124 0.047811
0.390947 0.850124 0.047811
0.492555 0.850124 0.047811
0.601003 0.850124 0.047811
0.715671 0.850124 0.047811
0.836128 0.850124 0.047811
0.944335 0.854548 0.047811
0.984866 0.836941 0.047811
0.996813 0.803788 0.047811
0.999600 0.764478 0.047811
1.000000 0.725157 0.047811
0.000000 0.939888 0.100796
0.002486 0.939888 0.047811
0.065203 0.939888 0.047811
0.133551 0.939888 0.047811
0.211663 0.939888 0.047811
0.298718 0.939888 0.047811
0.393819 0.939888 0.047811
0.496181 0.939888 0.047811
0.605379 0.939888 0.047811
0.720778 0.939888 0.047811
0.842136 0.939888 0.047811
0.944335 0.939888 0.047811
0.984866 0.924837 0.047811
0.996813 0.891882 0.047811
0.999600 0.848039 0.047811
1.000000 0.804280 0.047811
0.000000 0.980296 0.099439
0.002486 0.980296 0.047811
0.063248 0.980296 0.047811
0.129696 0.980296 0.047811
0.205618 0.980296 0.047811
0.290203 0.980296 0.047811
0.382674 0.980296 0.047811
0.482225 0.980296 0.047811
0.588407 0.980296 0.047811
0.700850 0.980296 0.047811
0.818697 0.980296 0.047811
0.927763 0.980296 0.047811
0.984866 0.980296 0.047811
0.996813 0.960690 0.047811
0.999600 0.927729 0.047811
1.000000 0.884144 0.047811
0.000000 0.994791 0.096873
0.002486 0.994791 0.047811
0.059630 0.994791 0.047811
0.122494 0.994791 0.047811
0.194393 0.994791 0.047811
0.274541 0.994791 0.047811
0.362031 0.994791 0.047811
0.456344 0.994791 0.047811
0.556971 0.994791 0.047811
0.663312 0.994791 0.047811
0.775029 0.994791 0.047811
0.889781 0.994791 0.047811
0.966030 0.994791 0.047811
0.996813 0.994791 0.047811
0.999600 0.978902 0.047811
1.000000 0.951127 0.047811
0.000000 0.999200 0.093822
0.002486 0.999200 0.047811
0.055400 0.999200 0.047811
0.114076 0.999200 0.047811
0.181238 0.999200 0.047811
0.256113 0.999200 0.047811
0.337885 0.999200 0.047811
0.426079 0.999200 0.047811
0.520086 0.999200 0.047811
0.619542 0.999200 0.047811
0.724031 0.999200 0.047811
0.833452 0.999200 0.047811
0.930979 0.999200 0.047811
0.983574 0.999200 0.047811
0.999600 0.999200 0.047811
1.000000 0.988895 0.047811
0.000000 0.999922 0.090739
0.002486 0.999922 0.047811
0.051248 0.999922 0.047811
0.105807 0.999922 0.047811
0.168315 0.999922 0.047811
0.238016 0.999922 0.047811
0.314180 0.999922 0.047811
0.396277 0.999922 0.047811
0.483903 0.999922 0.047811
0.576476 0.999922 0.047811
0.673802 0.999922 0.047811
0.775713 0.999922 0.047811
0.880550 0.999922 0.047811
0.956232 0.999922 0.047811
0.992242 0.999922 0.047811
1.000000 0.999922 0.047811
0.000000 0.020240 0.070527
0.003139 0.020240 0.070527
0.009764 0.020240 0.070527
0.026324 0.020240 0.079555
0.060833 0.020240 0.092279
0.123953 0.020240 0.108811
0.226545 0.020240 0.128091
0.364371 0.020240 0.145980
0.521950 0.020240 0.159716
0.683238 0.020240 0.168673
0.836128 0.020240 0.173341
0.944335 0.020240 0.174098
0.984866 0.020240 0.171295
0.996813 0.020240 0.165993
0.999600 0.020240 0.159673
1.000000 0.020240 0.153327
0.000000 0.038465 0.070527
0.002486 0.035969 0.070527
0.009764 0.035969 0.070527
0.026324 0.035969 0.078037
0.060833 0.035969 0.089048
0.123953 0.035969 0.103672
0.226545 0.035969 0.120939
0.364371 0.035969 0.137036
0.521950 0.035969 0.149415
0.683238 0.035969 0.157455
0.836128 0.035969 0.161635
0.944335 0.035969 0.162286
0.984866 0.035969 0.159709
0.996813 0.035969 0.154880
0.999600 0.035969 0.149126
1.000000 0.035969 0.143356
0.000000 0.057754 0.070527
0.002486 0.057754 0.070527
0.009764 0.057754 0.070527
0.026324 0.057754 0.070527
0.060833 0.057754 0.070527
0.123953 0.057754 0.070527
0.226545 0.057754 0.070527
0.364371 0.057754 0.070527
0.521950 0.057754 0.070527
0.683238 0.057754 0.070527
0.836127 0.057754 0.070527
0.944334 0.057754 0.070527
0.984866 0.057754 0.070527
0.996813 0.057754 0.070527
0.999600 0.057754 0.070527
1.000000 0.057754 0.070527
0.000000 0.091510 0.079555
0.002486 0.091510 0.078037
0.009764 0.091510 0.070527
0.026324 0.091510 0.070527
0.060833 0.104733 0.070527
0.123953 0.123341 0.070527
0.226545 0.146171 0.070527
0.364371 0.167894 0.070527
0.521950 0.184718 0.070527
0.683238 0.195651 0.070527
0.836127 0.201235 0.070527
0.944334 0.201899 0.070527
0.984866 0.198057 0.070527
0.996813 0.191043 0.070527
0.999600 0.182847 0.070527
1.000000 0.174682 0.070527
0.000000 0.144067 0.092279
0.002486 0.144067 0.089048
0.009764 0.144067 0.070527
0.034159 0.144067 0.070527
0.060833 0.144067 0.070527
0.123953 0.174238 0.070527
0.226545 0.210716 0.070527
0.364371 0.245130 0.070527
0.521950 0.271697 0.070527
0.683238 0.288897 0.070527
0.836127 0.297649 0.070527
0.944334 0.298695 0.070527
0.984866 0.292630 0.070527
0.996813 0.281665 0.070527
0.999600 0.268717 0.070527
1.000000 0.255846 0.070527
0.000000 0.223199 0.108811
0.002486 0.223199 0.103672
0.009764 0.223199 0.070527
0.046254 0.223199 0.070527
0.083643 0.223199 0.070527
0.123953 0.223199 0.070527
0.226545 0.272413 0.070527
0.364371 0.318720 0.070527
0.521950 0.354409 0.070527
0.683238 0.377567 0.070527
0.836127 0.389307 0.070527
0.944334 0.390742 0.070527
0.984866 0.382607 0.070527
0.996813 0.367846 0.070527
0.999600 0.350464 0.070527
1.000000 0.333143 0.070527
0.000000 0.333702 0.128091
0.002486 0.333702 0.120939
0.009764 0.333702 0.070527
0.062368 0.333702 0.070527
0.113341 0.333702 0.070527
0.167892 0.333702 0.070527
0.226545 0.333702 0.070527
0.364371 0.391757 0.070527
0.521950 0.436496 0.070527
0.683238 0.465475 0.070527
0.836127 0.480232 0.070527
0.944334 0.481953 0.070527
0.984866 0.471787 0.070527
0.996813 0.453259 0.070527
0.999600 0.431499 0.070527
1.000000 0.409840 0.070527
0.000000 0.465084 0.145980
0.002486 0.465084 0.137036
0.009764 0.465084 0.070527
0.078700 0.465084 0.070527
0.143151 0.465084 0.070527
0.211833 0.465084 0.070527
0.285610 0.465084 0.070527
0.364371 0.465084 0.070527
0.521950 0.518885 0.070527
0.683238 0.553735 0.070527
0.836127 0.571483 0.070527
0.944334 0.573580 0.070527
0.984866 0.561335 0.070527
0.996813 0.539050 0.070527
0.999600 0.512866 0.070527
1.000000 0.486789 0.070527
0.000000 0.601965 0.159716
0.002486 0.601965 0.149415
0.009764 0.601965 0.070527
0.091960 0.601965 0.070527
0.167216 0.601965 0.070527
0.247284 0.601965 0.070527
0.333146 0.601965 0.070527
0.424742 0.601965 0.070527
0.521950 0.601965 0.070527
0.683238 0.642731 0.070527
0.836127 0.663554 0.070527
0.944334 0.665947 0.070527
0.984866 0.651605 0.070527
0.996813 0.625586 0.070527
0.999600 0.594982 0.070527
1.000000 0.564453 0.070527
0.000000 0.732613 0.168673
0.002486 0.732613 0.157455
0.009764 0.732613 0.070527
0.100815 0.732613 0.070527
0.183264 0.732613 0.070527
0.270868 0.732613 0.070527
0.364788 0.732613 0.070527
0.464965 0.732613 0.070527
0.571230 0.732613 0.070527
0.683238 0.732613 0.070527
0.836127 0.756330 0.070527
0.944334 0.759160 0.070527
0.984866 0.742768 0.070527
0.996813 0.712928 0.070527
0.999600 0.677807 0.070527
1.000000 0.642811 0.070527
0.000000 0.850124 0.173341
0.002486 0.850124 0.161635
0.009764 0.850124 0.070527
0.105414 0.850124 0.070527
0.191560 0.850124 0.070527
0.283074 0.850124 0.070527
0.381141 0.850124 0.070527
0.485747 0.850124 0.070527
0.596747 0.850124 0.070527
0.713569 0.850124 0.070527
0.836127 0.850124 0.070527
0.944334 0.853263 0.070527
0.984866 0.834774 0.070527
0.996813 0.801035 0.070527
0.999600 0.761394 0.070527
1.000000 0.721902 0.070527
0.000000 0.939888 0.174098
0.002486 0.939888 0.162286
0.009764 0.939888 0.070527
0.105960 0.939888 0.070527
0.192557 0.939888 0.070527
0.284552 0.939888 0.070527
0.383082 0.939888 0.070527
0.488226 0.939888 0.070527
0.599718 0.939888 0.070527
0.717202 0.939888 0.070527
0.840343 0.939888 0.070527
0.944334 0.939888 0.070527
0.984866 0.923976 0.070527
0.996813 0.890137 0.070527
0.999600 0.845933 0.070527
1.000000 0.801967 0.070527
0.000000 0.980296 0.171295
0.002486 0.980296 0.159709
0.009764 0.980296 0.070527
0.102776 0.980296 0.070527
0.186793 0.980296 0.070527
0.276064 0.980296 0.070527
0.371724 0.980296 0.070527
0.473824 0.980296 0.070527
0.582076 0.980296 0.070527
0.696187 0.980296 0.070527
0.815768 0.980296 0.070527
0.926875 0.980296 0.070527
0.984866 0.980296 0.070527
0.996813 0.960216 0.070527
0.999600 0.926640 0.070527
1.000000 0.882363 0.070527
0.000000 0.994791 0.165993
0.002486 0.994791 0.154880
0.009764 0.994791 0.070527
0.097063 0.994791 0.070527
0.176468 0.994791 0.070527
0.260882 0.994791 0.070527
0.351366 0.994791 0.070527
0.447947 0.994791 0.070527
0.550347 0.994791 0.070527
0.658372 0.994791 0.070527
0.771485 0.994791 0.070527
0.887782 0.994791 0.070527
0.965551 0.994791 0.070527
0.996813 0.994791 0.070527
0.999600 0.978591 0.070527
1.000000 0.950429 0.070527
0.000000 0.999200 0.159673
0.002486 0.999200 0.149126
0.009764 0.999200 0.070527
0.090444 0.999200 0.070527
0.164475 0.999200 0.070527
0.243267 0.999200 0.070527
0.327737 0.999200 0.070527
0.417889 0.999200 0.070527
0.513549 0.999200 0.070527
0.614384 0.999200 0.070527
0.720032 0.999200 0.070527
0.830648 0.999200 0.070527
0.929871 0.999200 0.070527
0.983300 0.999200 0.070527
0.999600 0.999200 0.070527
1.000000 0.988675 0.070527
0.000000 0.999922 0.153327
0.002486 0.999922 0.143356
0.009764 0.999922 0.070527
0.083990 0.999922 0.070527
0.152752 0.999922 0.070527
0.225994 0.999922 0.070527
0.304605 0.999922 0.070527
0.388476 0.999922 0.070527
0.477512 0.999922 0.070527
0.571357 0.999922 0.070527
0.669734 0.999922 0.070527
0.772667 0.999922 0.070527
0.878398 0.999922 0.070527
0.955487 0.999922 0.070527
0.992169 0.999922 0.070527
1.000000 0.999922 0.070527
0.000000 0.020240 0.104713
0.004357 0.020240 0.104713
0.013554 0.020240 0.104713
0.026324 0.020240 0.104713
0.060833 0.020240 0.124126
0.123953 0.020240 0.149379
0.226545 0.020240 0.178877
0.364371 0.020240 0.206289
0.521950 0.020240 0.227303
0.683238 0.020240 0.241014
0.836128 0.020240 0.248172
0.944335 0.020240 0.249355
0.984866 0.020240 0.245048
0.996813 0.020240 0.236928
0.999600 0.020240 0.227245
1.000000 0.020240 0.217522
0.000000 0.042666 0.104713
0.002486 0.035969 0.104713
0.012885 0.035969 0.104713
0.026324 0.035969 0.104713
0.060833 0.035969 0.123016
0.123953 0.035969 0.147100
0.226545 0.035969 0.175388
0.364371 0.035969 0.201698
0.521950 0.035969 0.221912
0.683238 0.035969 0.235040
0.836128 0.035969 0.241866
0.944335 0.035969 0.242913
0.984866 0.035969 0.238729
0.996813 0.035969 0.230840
0.999600 0.035969 0.221430
1.000000 0.035969 0.212003
0.000000 0.066569 0.104713
0.002486 0.065084 0.104713
0.009764 0.057754 0.104713
0.026324 0.057754 0.104713
0.060833 0.057754 0.117878
0.123953 0.057754 0.136240
0.226545 0.057754 0.158544
0.364371 0.057754 0.179583
0.521950 0.057754 0.195766
0.683238 0.057754 0.206220
0.836127 0.057754 0.211561
0.944334 0.057754 0.212175
0.984866 0.057754 0.208514
0.996813 0.057754 0.201818
0.999600 0.057754 0.193954
1.000000 0.057754 0.186125
0.000000 0.091510 0.104713
0.002486 0.091510 0.104713
0.009764 0.091510 0.104713
0.026324 0.091510 0.104713
0.060833 0.091510 0.104713
0.123953 0.091510 0.104713
0.226545 0.091510 0.104713
0.364371 0.091510 0.104713
0.521950 0.091510 0.104713
0.683238 0.091510 0.104713
0.836128 0.091510 0.104713
0.944335 0.091510 0.104713
0.984866 0.091510 0.104713
0.996813 0.091510 0.104713
0.999600 0.091510 0.104713
1.000000 0.091510 0.104713
0.000000 0.144067 0.124126
0.002486 0.144067 0.123016
0.009764 0.144067 0.117878
0.026324 0.144067 0.104713
0.060833 0.144067 0.104713
0.123953 0.164420 0.104713
0.226545 0.190256 0.104713
0.364371 0.215066 0.104713
0.521950 0.234261 0.104713
0.683238 0.246513 0.104713
0.836128 0.252460 0.104713
0.944335 0.252605 0.104713
0.984866 0.247394 0.104713
0.996813 0.238515 0.104713
0.999600 0.228271 0.104713
1.000000 0.218232 0.104713
0.000000 0.223199 0.149379
0.002486 0.223199 0.147100
0.009764 0.223199 0.136240
0.026324 0.223199 0.104713
0.076028 0.223199 0.104713
0.123953 0.223199 0.104713
0.226545 0.264422 0.104713
0.364371 0.303330 0.104713
0.521950 0.333183 0.104713
0.683238 0.352167 0.104713
0.836128 0.361378 0.104713
0.944335 0.361574 0.104713
0.984866 0.353537 0.104713
0.996813 0.339795 0.104713
0.999600 0.323932 0.104713
1.000000 0.308255 0.104713
0.000000 0.333702 0.178877
0.002486 0.333702 0.175388
0.009764 0.333702 0.158544
0.026324 0.333702 0.104713
0.096424 0.333702 0.104713
0.160536 0.333702 0.104713
0.226545 0.333702 0.104713
0.364371 0.385240 0.104713
0.521950 0.424664 0.104713
0.683238 0.449614 0.104713
0.836128 0.461731 0.104713
0.944335 0.462010 0.104713
0.984866 0.451439 0.104713
0.996813 0.433334 0.104713
0.999600 0.412392 0.104713
1.000000 0.391719 0.104713
0.000000 0.465084 0.206289
0.002486 0.465084 0.201698
0.009764 0.465084 0.179583
0.026324 0.465084 0.104713
0.117004 0.465084 0.104713
0.196992 0.465084 0.104713
0.278841 0.465084 0.104713
0.364371 0.465084 0.104713
