src/luts/contrast/2.cube
LUT_3D_SIZE 6
0.000000 0.020240 0.030851
0.026324 0.020240 0.030851
0.226545 0.020240 0.030851
0.683238 0.020240 0.030851
0.984866 0.020240 0.030851
1.000000 0.020240 0.030851
0.000000 0.091510 0.030851
0.026324 0.091510 0.030851
0.226545 0.167169 0.030851
0.683238 0.232241 0.030851
0.984866 0.236514 0.030851
1.000000 0.207501 0.030851
0.000000 0.333702 0.030851
0.078136 0.333702 0.030851
0.226545 0.333702 0.030851
0.683238 0.474647 0.030851
0.984866 0.483877 0.030851
1.000000 0.421001 0.030851
0.000000 0.732613 0.030851
0.131788 0.732613 0.030851
0.374933 0.732613 0.030851
0.683238 0.732613 0.030851
0.984866 0.747172 0.030851
1.000000 0.648013 0.030851
0.000000 0.980296 0.030851
0.135528 0.980296 0.030851
0.385191 0.980296 0.030851
0.701780 0.980296 0.030851
0.984866 0.980296 0.030851
1.000000 0.884593 0.030851
0.000000 0.999922 0.030851
0.110633 0.999922 0.030851
0.316481 0.999922 0.030851
0.577725 0.999922 0.030851
0.881131 0.999922 0.030851
1.000000 0.999922 0.030851
0.000000 0.020240 0.104713
0.026324 0.020240 0.104713
0.226545 0.020240 0.178877
0.683238 0.020240 0.241014
0.984866 0.020240 0.245048
1.000000 0.020240 0.217522
0.000000 0.091510 0.104713
0.026324 0.091510 0.104713
0.226545 0.091510 0.104713
0.683238 0.091510 0.104713
0.984866 0.091510 0.104713
1.000000 0.091510 0.104713
0.000000 0.333702 0.178877
0.026324 0.333702 0.104713
0.226545 0.333702 0.104713
0.683238 0.449614 0.104713
0.984866 0.451439 0.104713
1.000000 0.391719 0.104713
0.000000 0.732613 0.241014
0.026324 0.732613 0.104713
0.347373 0.732613 0.104713
0.683238 0.732613 0.104713
0.984866 0.735606 0.104713
1.000000 0.634597 0.104713
0.000000 0.980296 0.245048
0.026324 0.980296 0.104713
0.349343 0.980296 0.104713
0.687012 0.980296 0.104713
0.984866 0.980296 0.104713
1.000000 0.879160 0.104713
0.000000 0.999922 0.217522
0.026324 0.999922 0.104713
0.285585 0.999922 0.104713
0.561342 0.999922 0.104713
0.874451 0.999922 0.104713
1.000000 0.999922 0.104713
0.000000 0.020240 0.335948
0.078136 0.020240 0.335948
0.226545 0.020240 0.335948
0.683238 0.020240 0.465146
0.984866 0.020240 0.473522
1.000000 0.020240 0.416282
0.000000 0.167169 0.335948
0.026324 0.091510 0.335948
0.226545 0.091510 0.335948
0.683238 0.091510 0.442392
0.984866 0.091510 0.444056
1.000000 0.091510 0.389454
0.000000 0.333702 0.335948
0.026324 0.333702 0.335948
0.226545 0.333702 0.335948
0.683238 0.333702 0.335948
0.984866 0.333702 0.335948
1.000000 0.333702 0.335948
0.000000 0.732613 0.465146
0.026324 0.732613 0.442392
0.226545 0.732613 0.335948
0.683238 0.732613 0.335948
0.984866 0.700510 0.335948
1.000000 0.610656 0.335948
0.000000 0.980296 0.473522
0.026324 0.980296 0.444056
0.226545 0.980296 0.335948
0.642734 0.980296 0.335948
0.984866 0.980296 0.335948
1.000000 0.869770 0.335948
0.000000 0.999922 0.416282
0.026324 0.999922 0.389454
0.226545 0.999922 0.335948
0.532313 0.999922 0.335948
0.862388 0.999922 0.335948
1.000000 0.999922 0.335948
0.000000 0.020240 0.696234
0.131788 0.020240 0.696234
0.374933 0.020240 0.696234
0.683238 0.020240 0.696234
0.984866 0.020240 0.709204
1.000000 0.020240 0.621146
0.000000 0.232241 0.696234
0.026324 0.091510 0.696234
0.347373 0.091510 0.696234
0.683238 0.091510 0.696234
0.984866 0.091510 0.698968
1.000000 0.091510 0.609139
0.000000 0.474647 0.696234
0.026324 0.449614 0.696234
0.226545 0.333702 0.696234
0.683238 0.333702 0.696234
0.984866 0.333702 0.667866
1.000000 0.333702 0.587732
0.000000 0.732613 0.696234
0.026324 0.732613 0.696234
0.226545 0.732613 0.696234
0.683238 0.732613 0.696234
0.984866 0.732613 0.696234
1.000000 0.732613 0.696234
0.000000 0.980296 0.709204
0.026324 0.980296 0.698968
0.226545 0.980296 0.667866
0.683238 0.980296 0.696234
0.984866 0.980296 0.696234
1.000000 0.918214 0.696234
0.000000 0.999922 0.621146
0.026324 0.999922 0.609139
0.226545 0.999922 0.587732
0.683238 0.999922 0.696234
0.920300 0.999922 0.696234
1.000000 0.999922 0.696234
0.000000 0.020240 0.945013
0.135528 0.020240 0.945013
0.385191 0.020240 0.945013
0.701780 0.020240 0.945013
0.984866 0.020240 0.945013
1.000000 0.020240 0.830133
0.000000 0.236514 0.945013
0.026324 0.091510 0.945013
0.349343 0.091510 0.945013
0.687012 0.091510 0.945013
0.984866 0.091510 0.945013
1.000000 0.091510 0.825416
0.000000 0.483877 0.945013
0.026324 0.451439 0.945013
0.226545 0.333702 0.945013
0.642734 0.333702 0.945013
0.984866 0.333702 0.945013
1.000000 0.333702 0.817179
0.000000 0.747172 0.945013
0.026324 0.735606 0.945013
0.226545 0.700510 0.945013
0.683238 0.732613 0.945013
0.984866 0.732613 0.945013
1.000000 0.732613 0.861775
0.000000 0.980296 0.945013
0.026324 0.980296 0.945013
0.226545 0.980296 0.945013
0.683238 0.980296 0.945013
0.984866 0.980296 0.945013
1.000000 0.980296 0.945013
0.000000 0.999922 0.830133
0.026324 0.999922 0.825416
0.226545 0.999922 0.817179
0.683238 0.999922 0.861775
0.984866 0.999922 0.945013
1.000000 0.999922 0.945013
0.000000 0.020240 1.000033
0.110633 0.020240 1.000033
0.316481 0.020240 1.000033
0.577725 0.020240 1.000033
0.881131 0.020240 1.000033
1.000000 0.020240 1.000033
0.000000 0.207501 1.000033
0.026324 0.091510 1.000033
0.285585 0.091510 1.000033
0.561342 0.091510 1.000033
0.874451 0.091510 1.000033
1.000000 0.091510 1.000033
0.000000 0.421001 1.000033
0.026324 0.391719 1.000033
0.226545 0.333702 1.000033
0.532313 0.333702 1.000033
0.862388 0.333702 1.000033
1.000000 0.333702 1.000033
0.000000 0.648013 1.000033
0.026324 0.634597 1.000033
0.226545 0.610656 1.000033
0.683238 0.732613 1.000033
0.920300 0.732613 1.000033
1.000000 0.732613 1.000033
0.000000 0.884593 1.000033
0.026324 0.879160 1.000033
0.226545 0.869770 1.000033
0.683238 0.918214 1.000033
0.984866 0.980296 1.000033
1.000000 0.980296 1.000033
0.000000 0.999922 1.000033
0.026324 0.999922 1.000033
0.226545 0.999922 1.000033
0.683238 0.999922 1.000033
0.984866 0.999922 1.000033
1.000000 0.999922 1.000033
