src/luts/contrast/3.cube
LUT_3D_SIZE 16
0.000000 0.000000 0.000000
0.025771 0.007426 0.007426
0.067945 0.019576 0.019576
0.127646 0.036780 0.036780
0.206221 0.059416 0.059416
0.300392 0.086549 0.086549
0.406198 0.117042 0.117042
0.518681 0.149444 0.149444
0.633145 0.182429 0.182429
0.744741 0.214595 0.214595
0.849004 0.244617 0.244617
0.907374 0.261458 0.261458
0.925743 0.266722 0.266722
0.930185 0.268007 0.268007
0.931134 0.268279 0.268279
0.931215 0.268299 0.268299
0.003917 0.008594 0.003917
0.025887 0.010732 0.008054
0.067976 0.020901 0.019786
0.127664 0.037559 0.036899
0.206226 0.060019 0.059508
0.300423 0.087109 0.086637
0.406221 0.117592 0.117124
0.518664 0.149993 0.149526
0.633160 0.182941 0.182493
0.744764 0.215098 0.214672
0.849020 0.245082 0.244687
0.907390 0.261888 0.261521
0.925759 0.267137 0.266793
0.930201 0.268398 0.268073
0.931147 0.268624 0.268324
0.931226 0.268603 0.268346
0.014025 0.030775 0.014025
0.029647 0.031262 0.015411
0.068581 0.034739 0.022849
0.128009 0.048033 0.038787
0.206493 0.068917 0.060992
0.300639 0.095654 0.088019
0.406475 0.126135 0.118489
0.518947 0.158530 0.150867
0.633370 0.191325 0.183805
0.744999 0.223100 0.215928
0.849228 0.252514 0.245841
0.907648 0.268917 0.262611
0.925903 0.273776 0.267808
0.930358 0.274488 0.269006
0.931282 0.274114 0.269179
0.931340 0.273538 0.269107
0.032158 0.070562 0.032158
0.041790 0.070760 0.032743
0.079125 0.072257 0.036861
0.129569 0.076377 0.046155
0.207707 0.097345 0.067218
0.301734 0.125018 0.093869
0.407507 0.156209 0.124126
0.519922 0.188629 0.156293
0.634290 0.220715 0.188946
0.745862 0.251156 0.220693
0.850008 0.278647 0.250203
0.908333 0.293745 0.266714
0.926613 0.297443 0.271706
0.930972 0.296608 0.272619
0.931890 0.294499 0.272491
0.931875 0.292232 0.272122
0.060520 0.132795 0.060520
0.066680 0.132903 0.060851
0.099509 0.133762 0.063352
0.152309 0.136188 0.069876
0.210672 0.140507 0.080051
0.304312 0.171313 0.106071
0.409859 0.205234 0.135932
0.522107 0.239178 0.167633
0.636357 0.271598 0.199708
0.747757 0.301108 0.230758
0.851658 0.326445 0.259420
0.909996 0.339837 0.275416
0.928096 0.341794 0.279971
0.932402 0.338566 0.280346
0.933160 0.333679 0.279617
0.933020 0.328683 0.278655
0.098925 0.217069 0.098925
0.103441 0.217126 0.099159
0.131852 0.217745 0.100958
0.184777 0.219448 0.105816
0.245813 0.222424 0.113743
0.308928 0.226708 0.124174
0.414031 0.265588 0.154002
0.526016 0.303331 0.185412
0.639880 0.337916 0.216852
0.751063 0.367868 0.246996
0.854653 0.392012 0.274501
0.912735 0.404060 0.289735
0.930774 0.404116 0.293647
0.934839 0.398158 0.293186
0.935463 0.389975 0.291529
0.935111 0.381791 0.289674
0.146483 0.321408 0.146483
0.150087 0.321478 0.146669
0.174681 0.321966 0.148087
0.225094 0.323272 0.151897
0.286756 0.325504 0.158176
0.352718 0.328730 0.166779
0.420485 0.332985 0.177415
0.531945 0.376014 0.209021
0.645369 0.414313 0.240154
0.756117 0.446210 0.269472
0.859205 0.470301 0.295699
0.916977 0.481489 0.309994
0.934737 0.479925 0.313097
0.938620 0.471079 0.311568
0.938883 0.459527 0.308666
0.938358 0.447902 0.305638
0.201039 0.441075 0.201039
0.204003 0.441121 0.201180
0.225370 0.441521 0.202351
0.271569 0.442576 0.205432
0.331568 0.444340 0.210531
0.398368 0.446880 0.217658
0.468526 0.450259 0.226676
0.540227 0.454474 0.237418
0.653113 0.497592 0.268750
0.763105 0.532449 0.297569
0.865575 0.557409 0.322627
0.923026 0.568349 0.336025
0.940500 0.565217 0.338218
0.943978 0.553565 0.335413
0.943879 0.538660 0.331067
0.942887 0.523440 0.326562
0.260193 0.570933 0.260193
0.262712 0.570971 0.260315
0.281286 0.571301 0.261309
0.322624 0.572152 0.263855
0.379226 0.573591 0.268065
0.444724 0.575673 0.274019
0.515149 0.578407 0.281658
0.588431 0.581847 0.290919
0.663292 0.586018 0.301702
0.772521 0.624443 0.330408
0.874134 0.651033 0.354605
0.930981 0.662117 0.367162
0.948119 0.657582 0.368447
0.951191 0.643118 0.364230
0.950496 0.624755 0.358256
0.948941 0.606187 0.352182
0.320980 0.704312 0.320980
0.323142 0.704306 0.321077
0.339218 0.704632 0.321943
0.375770 0.705331 0.324042
0.427910 0.706495 0.327586
0.490384 0.708223 0.332598
0.559356 0.710527 0.339101
0.632230 0.713335 0.347084
0.707724 0.716864 0.356433
0.784435 0.720965 0.367125
0.884998 0.749528 0.390742
0.941234 0.761141 0.402717
0.957920 0.755073 0.402932
0.960213 0.738045 0.397353
0.958967 0.716218 0.389669
0.956752 0.694278 0.381914
0.380204 0.834241 0.380204
0.382039 0.834281 0.380262
0.395929 0.834472 0.381018
0.427945 0.835074 0.382776
0.475128 0.836104 0.385808
0.533462 0.837520 0.390007
0.599288 0.839433 0.395574
0.670230 0.841899 0.402441
0.744447 0.844788 0.410552
0.820730 0.848245 0.419958
0.898388 0.852259 0.430435
0.953886 0.864210 0.441810
0.969872 0.856959 0.441169
0.971505 0.837169 0.434139
0.969435 0.811865 0.424696
0.966448 0.786399 0.415194
0.423244 0.928680 0.423244
0.424870 0.928718 0.423302
0.437226 0.928905 0.423965
0.466000 0.929390 0.425539
0.509258 0.930308 0.428178
0.563870 0.931594 0.431932
0.626616 0.933267 0.436868
0.695012 0.935448 0.442965
0.767292 0.937998 0.450239
0.842195 0.941006 0.458644
0.918115 0.944562 0.468060
0.965370 0.946885 0.474356
0.981523 0.942928 0.474734
0.983704 0.929286 0.469839
0.981598 0.908360 0.461703
0.978245 0.882149 0.451543
0.439039 0.963331 0.439039
0.440559 0.963367 0.439125
0.452026 0.963549 0.439705
0.479062 0.964078 0.441173
0.520113 0.964887 0.443647
0.572335 0.966035 0.447147
0.632856 0.967682 0.451755
0.699332 0.969673 0.457493
0.769730 0.972000 0.464303
0.843087 0.974902 0.472227
0.918154 0.978168 0.481175
0.968160 0.980594 0.487576
0.987248 0.981489 0.490135
0.990396 0.976004 0.488375
0.989846 0.966210 0.484579
0.987858 0.952609 0.479173
0.443630 0.973431 0.443630
0.445020 0.973465 0.443701
0.455701 0.973634 0.444242
0.481146 0.974100 0.445629
0.520075 0.974838 0.447925
0.570100 0.976006 0.451222
0.628223 0.977469 0.455564
0.692367 0.979337 0.460964
0.760654 0.981573 0.467416
0.831908 0.984254 0.474920
0.905321 0.987350 0.483445
0.962160 0.989984 0.490585
0.986054 0.991237 0.493725
0.992768 0.991517 0.494596
0.993239 0.988722 0.493601
0.992486 0.983804 0.491607
0.444621 0.975616 0.444621
0.445925 0.975648 0.444695
0.455795 0.975799 0.445211
0.479675 0.976216 0.446493
0.516493 0.976972 0.448659
0.564003 0.977993 0.451752
0.619688 0.979359 0.455825
0.681294 0.981156 0.460903
0.747182 0.983297 0.466980
0.816149 0.985847 0.474072
0.887059 0.988767 0.482100
0.950824 0.991541 0.489944
0.981632 0.993107 0.493943
0.991959 0.993659 0.495321
0.993915 0.993697 0.495585
0.993812 0.992878 0.495253
0.444772 0.975974 0.444772
0.445972 0.976003 0.444841
0.455051 0.976130 0.445291
0.477403 0.976519 0.446507
0.512171 0.977203 0.448526
0.557382 0.978178 0.451437
0.610584 0.979467 0.455252
0.669705 0.981114 0.460029
0.733132 0.983160 0.465751
0.799679 0.985493 0.472442
0.868380 0.988259 0.480042
0.935851 0.991172 0.488173
0.974843 0.993069 0.493189
0.989958 0.993853 0.495167
0.993665 0.994019 0.495680
0.994045 0.994033 0.495717
0.000563 0.000563 0.003019
0.025772 0.007432 0.007771
0.067941 0.019578 0.019693
0.127647 0.036782 0.036850
0.206221 0.059417 0.059474
0.300392 0.086550 0.086607
0.406199 0.117043 0.117102
0.518681 0.149445 0.149506
0.633145 0.182431 0.182475
0.744742 0.214596 0.214670
0.849004 0.244618 0.244676
0.907374 0.261459 0.261511
0.925744 0.266723 0.266783
0.930185 0.268008 0.268063
0.931134 0.268280 0.268328
0.931215 0.268299 0.268327
0.003932 0.008600 0.004683
0.025889 0.010735 0.008364
0.067972 0.020665 0.019837
0.127652 0.037242 0.036887
0.206213 0.059655 0.059471
0.300397 0.086691 0.086585
0.406202 0.117135 0.117060
0.518683 0.149508 0.149466
0.633146 0.182459 0.182443
0.744743 0.214636 0.214608
0.849005 0.244652 0.244625
0.907375 0.261481 0.261466
0.925745 0.266755 0.266730
0.930186 0.268041 0.268015
0.931135 0.268313 0.268287
0.931216 0.268332 0.268306
0.014028 0.030773 0.014210
0.028113 0.031191 0.015353
0.068581 0.034740 0.022923
0.127992 0.047490 0.038711
0.206469 0.067944 0.060838
0.300611 0.094294 0.087800
0.406441 0.124483 0.118221
0.518878 0.156685 0.150577
0.633313 0.189376 0.183491
0.745002 0.221156 0.215614
0.849163 0.250682 0.245555
0.907583 0.267171 0.262330
0.925840 0.272122 0.267555
0.930301 0.272982 0.268776
0.931230 0.272766 0.268965
0.931295 0.272351 0.268921
0.032160 0.070563 0.032243
0.038993 0.070689 0.032597
0.077848 0.072189 0.036712
0.129569 0.076377 0.046179
0.207655 0.096616 0.067045
0.301679 0.123617 0.093561
0.407426 0.154275 0.123739
0.519848 0.186317 0.155847
0.634200 0.218234 0.188479
0.745829 0.248609 0.220243
0.849908 0.276192 0.249774
0.908292 0.291341 0.266295
0.926516 0.295158 0.271311
0.930953 0.294448 0.272261
0.931808 0.292533 0.272150
0.931801 0.290456 0.271832
0.060521 0.132795 0.060577
0.063657 0.132848 0.060703
0.096946 0.133680 0.063129
0.151200 0.136127 0.069725
0.210672 0.140507 0.080062
0.304277 0.170625 0.105872
0.409816 0.203855 0.135569
0.522023 0.237359 0.167177
0.636252 0.269436 0.199216
0.747692 0.298702 0.230223
0.851588 0.323996 0.258918
0.909871 0.337394 0.274917
0.928071 0.339387 0.279498
0.932359 0.336288 0.279914
0.933056 0.331578 0.279206
0.932999 0.326750 0.278301
0.098927 0.217070 0.098964
0.100536 0.217092 0.099012
0.128450 0.217656 0.100722
0.182672 0.219360 0.105598
0.244951 0.222371 0.113627
0.308928 0.226708 0.124183
0.414033 0.264941 0.153798
0.525904 0.302127 0.185040
0.639810 0.336343 0.216402
0.750942 0.365998 0.246496
0.854519 0.389952 0.273997
0.912630 0.401926 0.289214
0.930641 0.402100 0.293160
0.934818 0.396123 0.292719
0.935342 0.388097 0.291090
0.935000 0.379928 0.289276
0.146483 0.321408 0.146524
0.147426 0.321436 0.146533
0.170922 0.321880 0.147860
0.222302 0.323179 0.151669
0.285156 0.325442 0.157998
0.352014 0.328694 0.166687
0.420485 0.332985 0.177420
0.531875 0.375461 0.208838
0.645325 0.413363 0.239853
0.756000 0.444840 0.269042
0.859070 0.468705 0.295234
0.916899 0.479795 0.309515
0.934707 0.478223 0.312664
0.938590 0.469300 0.311086
0.938780 0.457921 0.308252
0.938233 0.446229 0.305229
0.201027 0.441075 0.201061
0.201616 0.441087 0.201050
0.221628 0.441438 0.202141
0.268520 0.442501 0.205209
0.329510 0.444272 0.210334
0.397142 0.446822 0.217497
0.467890 0.450238 0.226574
0.540227 0.454474 0.237420
0.653059 0.497127 0.268570
0.763008 0.531543 0.297263
0.865513 0.556301 0.322272
0.922887 0.567042 0.335620
0.940389 0.563839 0.337787
0.943917 0.552193 0.334982
0.943739 0.537243 0.330628
0.942842 0.522138 0.326174
0.260194 0.570934 0.260227
0.260614 0.570940 0.260220
0.277743 0.571238 0.261119
0.319544 0.572085 0.263647
0.376965 0.573530 0.267881
0.443190 0.575602 0.273868
0.514280 0.578371 0.281552
0.588026 0.581827 0.290871
0.663292 0.586018 0.301705
0.772459 0.624013 0.330238
0.874047 0.650364 0.354390
0.930929 0.661136 0.366835
0.948085 0.656513 0.368037
0.951053 0.642035 0.363842
0.950369 0.623663 0.357897
0.948891 0.605099 0.351801
0.320981 0.704312 0.321013
0.321294 0.704319 0.320996
0.336027 0.704564 0.321776
0.372850 0.705332 0.323868
0.425565 0.706500 0.327405
0.488650 0.708228 0.332450
0.558165 0.710456 0.338978
0.631505 0.713355 0.346974
0.707273 0.716835 0.356369
0.784435 0.720965 0.367127
0.884961 0.749369 0.390643
0.941204 0.760466 0.402447
0.957810 0.754372 0.402697
0.960179 0.737218 0.397073
0.958830 0.715297 0.389301
0.956721 0.693416 0.381606
0.380205 0.834242 0.380199
0.380451 0.834247 0.380224
0.393100 0.834409 0.380824
0.425246 0.835078 0.382647
0.472841 0.836038 0.385608
0.531672 0.837460 0.389928
0.598015 0.839382 0.395479
0.669364 0.841857 0.402381
0.743805 0.844759 0.410536
0.820444 0.848225 0.419892
0.898388 0.852259 0.430436
0.953811 0.863879 0.441648
0.969903 0.856632 0.441034
0.971497 0.836536 0.433901
0.969341 0.811363 0.424505
0.966419 0.785744 0.414936
0.423245 0.928680 0.423244
0.423445 0.928685 0.423225
0.434664 0.928882 0.423822
0.463512 0.929431 0.425415
0.507130 0.930315 0.428031
0.562082 0.931530 0.431793
0.625250 0.933212 0.436749
0.693953 0.935399 0.442868
0.766590 0.937958 0.450147
0.841697 0.941057 0.458587
0.917979 0.944552 0.468039
0.965370 0.946885 0.474357
0.981499 0.942841 0.474680
0.983664 0.929084 0.469760
0.981592 0.907815 0.461515
0.978135 0.881590 0.451321
0.439039 0.963331 0.439069
0.439234 0.963336 0.439052
0.449660 0.963504 0.439578
0.476701 0.964012 0.441036
0.518053 0.964825 0.443502
0.570687 0.965975 0.447030
0.631501 0.967628 0.451649
0.698192 0.969639 0.457378
0.768950 0.971960 0.464232
0.842486 0.974866 0.472172
0.917875 0.978151 0.481138
0.967925 0.980582 0.487551
0.987248 0.981489 0.490136
0.990379 0.975882 0.488341
0.989818 0.966038 0.484517
0.987894 0.952243 0.479044
0.443630 0.973431 0.443657
0.443824 0.973436 0.443643
0.453513 0.973579 0.444127
0.478962 0.974036 0.445500
0.518133 0.974778 0.447802
0.568363 0.975945 0.451124
0.626873 0.977415 0.455474
0.691287 0.979286 0.460865
0.759850 0.981529 0.467339
0.831291 0.984219 0.474853
0.904727 0.987314 0.483365
0.961950 0.989965 0.490556
0.986001 0.991234 0.493720
0.992768 0.991517 0.494597
0.993286 0.988923 0.493683
0.992491 0.983832 0.491620
0.444621 0.975617 0.444645
0.444834 0.975621 0.444634
0.453792 0.975833 0.445094
0.477628 0.976259 0.446387
0.514625 0.976913 0.448542
0.562431 0.977939 0.451645
0.618379 0.979319 0.455724
0.680285 0.981118 0.460816
0.746342 0.983254 0.466915
0.815389 0.985804 0.473986
0.886609 0.988737 0.482053
0.950585 0.991636 0.489906
0.981446 0.993098 0.493924
0.991931 0.993657 0.495319
0.993915 0.993697 0.495586
0.993869 0.993199 0.495381
0.444773 0.975974 0.444793
0.444966 0.975979 0.444785
0.453228 0.976085 0.445218
0.475529 0.976469 0.446411
0.510434 0.977152 0.448407
0.555824 0.978128 0.451333
0.609235 0.979418 0.455154
0.668671 0.981067 0.459943
0.732280 0.983121 0.465684
0.798908 0.985453 0.472363
0.867718 0.988221 0.479958
0.935501 0.991151 0.488127
0.974676 0.993061 0.493171
0.989984 0.993854 0.495171
0.993664 0.994019 0.495655
0.994045 0.994033 0.495718
0.002529 0.002529 0.013574
0.027526 0.008129 0.015017
0.067954 0.019637 0.022626
0.127655 0.036814 0.038746
0.206212 0.059446 0.061075
0.300399 0.086588 0.088224
0.406207 0.117073 0.118807
0.518689 0.149478 0.151299
0.633151 0.182470 0.184307
0.744751 0.214626 0.216438
0.849011 0.244649 0.246354
0.907381 0.261480 0.263106
0.925750 0.266753 0.268267
0.930193 0.268036 0.269415
0.931139 0.268305 0.269523
0.931219 0.268321 0.269388
0.004735 0.009525 0.013919
0.025928 0.010870 0.015073
0.067984 0.020720 0.022765
0.127660 0.037276 0.038687
0.206219 0.059681 0.060896
0.300402 0.086716 0.087936
0.406209 0.117155 0.118434
0.518689 0.149540 0.150860
0.633151 0.182486 0.183826
0.744750 0.214669 0.215963
0.849010 0.244671 0.245892
0.907380 0.261504 0.262660
0.925749 0.266778 0.267855
0.930192 0.268061 0.269040
0.931139 0.268331 0.269197
0.931219 0.268333 0.269111
0.014120 0.030807 0.018424
0.028150 0.031224 0.019264
0.068589 0.034767 0.025379
0.127909 0.045355 0.039551
0.206345 0.064253 0.060881
0.300484 0.089506 0.087428
0.406240 0.118998 0.117615
0.518694 0.150843 0.149854
0.633175 0.183498 0.182745
0.744780 0.215439 0.214837
0.849029 0.245321 0.244826
0.907398 0.262093 0.261636
0.925767 0.267363 0.266909
0.930210 0.268637 0.268193
0.931157 0.268898 0.268465
0.931238 0.268917 0.268484
0.032202 0.070579 0.034503
0.039023 0.070710 0.034715
0.072446 0.071909 0.037326
0.129575 0.076385 0.047158
0.207507 0.093516 0.066865
0.301432 0.117621 0.092626
0.407152 0.146085 0.122342
0.519497 0.176748 0.154214
0.633876 0.207953 0.186767
0.745501 0.238232 0.218524
0.849618 0.266175 0.248156
0.907986 0.281695 0.264757
0.926243 0.285932 0.269840
0.930672 0.285937 0.270927
0.931563 0.284787 0.270961
0.931592 0.283479 0.270765
0.060548 0.132804 0.062138
0.063678 0.132856 0.062088
0.085948 0.133355 0.062835
0.146389 0.135855 0.069576
0.210675 0.140511 0.080526
0.304079 0.167553 0.105279
0.409471 0.198028 0.134248
0.521618 0.229495 0.165433
0.635852 0.260161 0.197229
0.747275 0.288727 0.228188
0.851203 0.313856 0.256932
0.909484 0.327310 0.273003
0.927645 0.329555 0.277640
0.932007 0.326995 0.278184
0.932737 0.322986 0.277639
0.932695 0.318874 0.276889
0.098943 0.217065 0.100311
0.100558 0.217102 0.100142
0.114016 0.217330 0.100104
0.173432 0.219014 0.104935
0.241216 0.222154 0.113362
0.308929 0.226711 0.124427
0.413766 0.262148 0.153087
0.525553 0.297058 0.183657
0.639405 0.329494 0.214611
0.750510 0.358009 0.244512
0.854138 0.381385 0.271974
0.912213 0.393042 0.287196
0.930277 0.393163 0.291156
0.934383 0.387557 0.290830
0.934999 0.380044 0.289347
0.934741 0.372455 0.287705
0.146507 0.321412 0.147781
0.147445 0.321442 0.147541
0.155738 0.321567 0.147170
0.210187 0.322821 0.150843
0.278361 0.325143 0.157408
0.349135 0.328541 0.166432
0.420486 0.332986 0.177567
0.531666 0.373098 0.208143
0.644978 0.409023 0.238539
0.755523 0.439102 0.267387
0.858674 0.462083 0.293416
0.916400 0.472609 0.307611
0.934271 0.470779 0.310706
0.938165 0.462072 0.309231
0.938428 0.450866 0.306488
0.937929 0.439657 0.303610
0.201034 0.441083 0.202243
0.201638 0.441093 0.201979
0.207091 0.441184 0.201463
0.255211 0.442184 0.204383
0.320757 0.443987 0.209652
0.392069 0.446625 0.217026
0.465728 0.450108 0.226383
0.540228 0.454476 0.237519
0.652828 0.495127 0.267939
0.762736 0.527943 0.296101
0.865118 0.551573 0.320809
0.922452 0.561625 0.333978
0.939943 0.558003 0.336043
0.943426 0.546294 0.333249
0.943332 0.531360 0.328951
0.942404 0.516576 0.324625
0.260216 0.570940 0.261340
0.260631 0.570945 0.261060
0.264463 0.571000 0.260499
0.306268 0.571803 0.262879
0.367239 0.573259 0.267189
0.436717 0.575394 0.273314
0.510302 0.578216 0.281162
0.586240 0.581739 0.290708
0.663292 0.586018 0.301784
0.772347 0.622319 0.329700
0.873714 0.647320 0.353317
0.930526 0.657310 0.365546
0.947603 0.652096 0.366628
0.950636 0.637327 0.362293
0.949970 0.618932 0.356354
0.948572 0.600459 0.350403
0.320997 0.704320 0.322032
0.321303 0.704324 0.321780
0.324179 0.704328 0.321201
0.360290 0.704997 0.323191
0.415647 0.706223 0.326782
0.481448 0.707944 0.331909
0.553232 0.710325 0.338563
0.628470 0.713231 0.346696
0.705886 0.716796 0.356285
0.784436 0.720966 0.367205
0.884806 0.747885 0.390170
0.940880 0.758027 0.401522
0.957441 0.751307 0.401618
0.959833 0.733604 0.395807
0.958494 0.711698 0.388115
0.956386 0.689572 0.380320
0.380228 0.834248 0.381132
0.380442 0.834252 0.380869
0.382695 0.834296 0.380352
0.413824 0.834844 0.382046
0.463326 0.835812 0.385046
0.524251 0.837256 0.389341
0.592525 0.839279 0.395025
0.665609 0.841683 0.402014
0.741522 0.844682 0.410269
0.819405 0.848163 0.419804
0.898389 0.852260 0.430484
0.953696 0.862773 0.441274
0.969636 0.854602 0.440299
0.971155 0.834052 0.432999
0.969037 0.808471 0.423465
0.966021 0.782586 0.413849
0.423228 0.928687 0.424063
0.423456 0.928690 0.423858
0.425402 0.928731 0.423382
0.453075 0.929160 0.424861
0.498068 0.930045 0.427517
0.554762 0.931389 0.431300
0.619539 0.933058 0.436307
0.689756 0.935275 0.442506
0.763620 0.937879 0.449886
0.839990 0.940951 0.458409
0.917221 0.944500 0.467970
0.965370 0.946885 0.474378
0.981392 0.942304 0.474508
0.983553 0.928035 0.469410
0.981371 0.906214 0.460920
0.977877 0.879479 0.450539
0.439054 0.963338 0.439819
0.439245 0.963341 0.439606
0.441103 0.963381 0.439180
0.466901 0.963841 0.440553
0.509301 0.964653 0.443004
0.563362 0.965816 0.446550
0.625658 0.967440 0.451205
0.693714 0.969432 0.457017
0.765648 0.971883 0.463936
0.840144 0.974728 0.471937
0.916418 0.978099 0.480984
0.967647 0.980559 0.487543
0.987249 0.981489 0.490181
0.990334 0.975694 0.488284
0.989811 0.965552 0.484343
0.987752 0.951553 0.478828
0.443644 0.973437 0.444313
0.443820 0.973440 0.444135
0.445652 0.973481 0.443763
0.469814 0.973903 0.445035
0.509923 0.974627 0.447334
0.561405 0.975805 0.450680
0.621159 0.977291 0.455050
0.686697 0.979183 0.460512
0.756310 0.981452 0.467030
0.828776 0.984174 0.474602
0.903060 0.987309 0.483211
0.961262 0.989917 0.490493
0.985958 0.991224 0.493748
0.992768 0.991517 0.494639
0.993254 0.988820 0.493656
0.992499 0.983864 0.491676
0.444633 0.975622 0.445255
0.444843 0.975625 0.445095
0.446676 0.975670 0.444773
0.469181 0.976035 0.445965
0.506913 0.976784 0.448104
0.555801 0.977813 0.451220
0.612844 0.979208 0.455348
0.675748 0.981019 0.460457
0.742770 0.983076 0.466593
0.812742 0.985654 0.473736
0.884424 0.988596 0.481817
0.949624 0.991572 0.489840
0.981391 0.993090 0.493951
0.991845 0.993653 0.495354
0.993916 0.993697 0.495631
0.993861 0.993148 0.495382
0.444783 0.975979 0.445304
0.444974 0.975982 0.445187
0.446830 0.976024 0.444915
0.467796 0.976363 0.446036
0.503332 0.977043 0.448026
0.549630 0.977972 0.450949
0.604043 0.979334 0.454799
0.664311 0.980983 0.459596
0.728742 0.982948 0.465391
0.796164 0.985350 0.472102
0.865496 0.988085 0.479749
0.934336 0.991175 0.488017
0.974280 0.993032 0.493150
0.989735 0.993842 0.495187
0.993648 0.994018 0.495698
0.994045 0.994033 0.495763
0.006724 0.006724 0.036088
0.030757 0.010463 0.036587
0.075283 0.022202 0.040175
0.127688 0.037037 0.048632
0.206255 0.059629 0.070098
0.300427 0.086764 0.097395
0.406257 0.117249 0.128311
0.518694 0.149658 0.160987
0.633184 0.182629 0.193892
0.744802 0.214799 0.225671
0.849047 0.244808 0.254964
0.907416 0.261641 0.271266
0.925784 0.266893 0.275973
0.930224 0.268177 0.276483
0.931167 0.268416 0.275895
0.931246 0.268418 0.275096
0.007876 0.012035 0.036210
0.026308 0.012068 0.036494
0.073944 0.022760 0.040073
0.127705 0.037498 0.048682
0.206262 0.059860 0.069837
0.300429 0.086887 0.096866
0.406257 0.117333 0.127587
0.518693 0.149709 0.160104
0.633182 0.182667 0.192946
0.744799 0.214828 0.224710
0.849044 0.244825 0.254031
0.907414 0.261641 0.270360
0.925781 0.266908 0.275120
0.930222 0.268179 0.275701
0.931165 0.268434 0.275191
0.931244 0.268438 0.274474
0.016829 0.035441 0.038148
0.029128 0.034961 0.038350
0.068688 0.035020 0.040689
0.127956 0.045527 0.049641
0.206385 0.064405 0.069242
0.300492 0.089644 0.095064
0.406277 0.119134 0.124912
0.518725 0.150969 0.156869
0.633197 0.183609 0.189424
0.744814 0.215553 0.221105
0.849052 0.245425 0.250579
0.907421 0.262194 0.267043
0.925789 0.267453 0.271987
0.930230 0.268723 0.272847
0.931176 0.268970 0.272680
0.931256 0.268980 0.272279
0.032469 0.070666 0.045652
0.039227 0.070798 0.045898
0.072538 0.072003 0.048057
0.129621 0.076471 0.055462
0.207220 0.087276 0.070959
0.300977 0.105674 0.093885
0.406610 0.130466 0.121984
0.518947 0.159302 0.152997
0.633336 0.190004 0.185117
0.744985 0.220688 0.216750
0.849133 0.249718 0.246421
0.907547 0.266112 0.263105
0.925811 0.271262 0.268332
0.930358 0.272522 0.269604
0.931233 0.272773 0.269863
0.931315 0.272792 0.269890
0.060726 0.132862 0.070974
0.063844 0.132917 0.070824
0.086045 0.133407 0.070884
0.136160 0.135344 0.073459
0.210703 0.140544 0.084782
0.303659 0.161229 0.106514
0.408839 0.186187 0.133437
0.520923 0.213554 0.163377
0.635075 0.241683 0.194512
0.746489 0.269051 0.225229
0.850503 0.294187 0.254004
0.908761 0.307959 0.270147
0.927042 0.311039 0.274970
0.931451 0.309751 0.275796
0.932271 0.307340 0.275586
0.932236 0.304808 0.275154
0.099094 0.217111 0.108107
0.100694 0.217132 0.107724
0.114116 0.217387 0.106536
0.152941 0.218345 0.106061
0.233410 0.221746 0.114971
0.308958 0.226738 0.126796
0.413314 0.256542 0.153093
0.524901 0.286806 0.182070
0.638625 0.315804 0.212037
0.749660 0.342154 0.241429
0.853328 0.364419 0.268742
0.911411 0.375711 0.283955
0.929475 0.376111 0.288035
0.933662 0.371381 0.287993
0.934334 0.364985 0.286826
0.934134 0.358650 0.285509
0.146645 0.321469 0.154928
0.147570 0.321480 0.154415
0.155826 0.321630 0.152597
0.183593 0.322170 0.150726
0.264120 0.324611 0.157604
0.343187 0.328210 0.167199
0.420494 0.332997 0.179030
0.531252 0.368203 0.207648
0.644282 0.400379 0.236737
0.754796 0.427779 0.264811
0.857846 0.448947 0.290427
0.915649 0.458708 0.304455
0.933432 0.456619 0.307574
0.937364 0.448319 0.306292
0.937721 0.437873 0.303807
0.937207 0.427533 0.301234
0.201168 0.441117 0.208838
0.201746 0.441124 0.208246
0.207186 0.441216 0.206164
0.226833 0.441562 0.203766
0.302458 0.443422 0.209186
0.381738 0.446193 0.216943
0.461150 0.449884 0.226795
0.540235 0.454483 0.238490
