src/luts/contrast/3.cube
LUT_3D_SIZE 6
0.000000 0.000000 0.000000
0.127646 0.036780 0.036780
0.406198 0.117042 0.117042
0.744741 0.214595 0.214595
0.925743 0.266722 0.266722
0.931215 0.268299 0.268299
0.032158 0.070562 0.032158
0.129569 0.076377 0.046155
0.407507 0.156209 0.124126
0.745862 0.251156 0.220693
0.926613 0.297443 0.271706
0.931875 0.292232 0.272122
0.146483 0.321408 0.146483
0.225094 0.323272 0.151897
0.420485 0.332985 0.177415
0.756117 0.446210 0.269472
0.934737 0.479925 0.313097
0.938358 0.447902 0.305638
0.320980 0.704312 0.320980
0.375770 0.705331 0.324042
0.559356 0.710527 0.339101
0.784435 0.720965 0.367125
0.957920 0.755073 0.402932
0.956752 0.694278 0.381914
0.439039 0.963331 0.439039
0.479062 0.964078 0.441173
0.632856 0.967682 0.451755
0.843087 0.974902 0.472227
0.987248 0.981489 0.490135
0.987858 0.952609 0.479173
0.444772 0.975974 0.444772
0.477403 0.976519 0.446507
0.610584 0.979467 0.455252
0.799679 0.985493 0.472442
0.974843 0.993069 0.493189
0.994045 0.994033 0.495717
0.006724 0.006724 0.036088
0.127688 0.037037 0.048632
0.406257 0.117249 0.128311
0.744802 0.214799 0.225671
0.925784 0.266893 0.275973
0.931246 0.268418 0.275096
0.032469 0.070666 0.045652
0.129621 0.076471 0.055462
0.406610 0.130466 0.121984
0.744985 0.220688 0.216750
0.925811 0.271262 0.268332
0.931315 0.272792 0.269890
0.146645 0.321469 0.154928
0.183593 0.322170 0.150726
0.420494 0.332997 0.179030
0.754796 0.427779 0.264811
0.933432 0.456619 0.307574
0.937207 0.427533 0.301234
0.321083 0.704309 0.327406
0.335166 0.704551 0.322406
0.543393 0.709902 0.338148
0.784440 0.720972 0.367722
0.956765 0.745193 0.399869
0.955736 0.682711 0.378439
0.439133 0.963371 0.443730
0.448350 0.963475 0.439966
0.614466 0.967098 0.450729
0.835760 0.974562 0.471807
0.987252 0.981492 0.490511
0.987562 0.950207 0.478616
0.444841 0.976003 0.448161
0.453914 0.976106 0.445684
0.594359 0.979075 0.454466
0.790963 0.985173 0.471940
0.973673 0.993039 0.493407
0.994048 0.994036 0.496091
0.040675 0.040675 0.218289
0.189284 0.064031 0.221436
0.406867 0.120820 0.237470
0.745357 0.217961 0.345810
0.926242 0.269480 0.384611
0.931514 0.270364 0.361782
0.063526 0.120782 0.221346
0.132857 0.082988 0.220463
0.407263 0.133691 0.238288
0.745501 0.223449 0.332303
0.926222 0.273460 0.367969
0.931592 0.274442 0.348202
0.149268 0.322352 0.249934
0.185598 0.323101 0.250977
0.421121 0.333881 0.266059
0.751258 0.368265 0.311312
0.930500 0.395613 0.345090
0.935906 0.396496 0.346180
0.322886 0.704958 0.411529
0.336730 0.705092 0.401173
0.490479 0.708575 0.378476
0.784743 0.721233 0.407845
0.954381 0.720353 0.427999
0.954211 0.665392 0.411911
0.440416 0.963799 0.508936
0.449446 0.963910 0.497956
0.565169 0.966062 0.478403
0.817017 0.974033 0.499101
0.987422 0.981673 0.518307
0.987204 0.946328 0.505839
0.445796 0.976273 0.498072
0.454724 0.976414 0.489599
0.569203 0.978650 0.483514
0.777982 0.984847 0.499899
0.971810 0.993125 0.520709
0.994223 0.994212 0.523470
0.104982 0.104982 0.563382
0.245999 0.118561 0.564805
0.497357 0.167289 0.571883
0.747684 0.229910 0.585908
0.928043 0.279404 0.622396
0.932911 0.277955 0.565783
0.120314 0.178024 0.564992
0.157740 0.123120 0.563958
0.478721 0.171709 0.571358
0.747759 0.235445 0.586120
0.928052 0.283144 0.613287
0.932950 0.281728 0.555493
0.206042 0.418732 0.579900
0.224113 0.398988 0.578328
0.426705 0.341516 0.577794
0.753780 0.374988 0.594578
0.932292 0.401324 0.598019
0.937280 0.400748 0.549017
0.329949 0.707322 0.620161
0.343624 0.707655 0.620494
0.494991 0.711187 0.624877
0.787057 0.723848 0.639961
0.957434 0.734983 0.653053
0.962633 0.735291 0.653491
0.445485 0.965497 0.694734
0.454333 0.965596 0.686958
0.568648 0.967725 0.670947
0.828246 0.976134 0.693796
0.989140 0.983412 0.705508
0.990928 0.962101 0.700817
0.449610 0.977542 0.649860
0.458364 0.977634 0.641483
0.571791 0.979804 0.632862
0.830656 0.988530 0.696839
0.980610 0.995101 0.707698
0.995959 0.995947 0.708874
0.163967 0.163967 0.879953
0.275541 0.172203 0.880741
0.519720 0.207200 0.884857
0.772529 0.260299 0.892984
0.931736 0.298592 0.900524
0.936203 0.295276 0.842340
0.173543 0.217075 0.880919
0.197778 0.174423 0.880293
0.495458 0.209366 0.884396
0.764329 0.263101 0.892795
0.931902 0.302446 0.900638
0.936278 0.298868 0.838201
0.240557 0.444477 0.889661
0.253022 0.418797 0.888446
0.438241 0.357093 0.887784
0.748897 0.387400 0.896694
0.936336 0.414200 0.905327
0.940530 0.411580 0.836724
0.356241 0.736924 0.914389
0.364490 0.726927 0.913424
0.501377 0.704623 0.913177
0.792058 0.729448 0.923417
0.961146 0.740427 0.931352
0.965613 0.739774 0.888883
0.455806 0.969028 0.945614
0.464620 0.969258 0.945763
0.576655 0.971513 0.948232
0.832920 0.979743 0.956734
0.992708 0.987040 0.964242
0.997688 0.987308 0.964513
0.458710 0.980644 0.893440
0.467296 0.980784 0.889699
0.578423 0.982970 0.886250
0.834350 0.991384 0.917709
0.994570 0.999254 0.966147
0.999513 0.999510 0.966430
0.171089 0.171089 0.918076
0.264088 0.177494 0.918741
0.486483 0.206416 0.921910
0.721055 0.252417 0.928521
0.916889 0.297955 0.936745
0.937777 0.303054 0.937681
0.178115 0.211834 0.918760
0.203306 0.180958 0.918379
0.464180 0.209261 0.921623
0.711120 0.255141 0.928268
0.915775 0.301510 0.936821
0.937942 0.306837 0.937846
0.232196 0.409588 0.925373
0.247016 0.386851 0.924444
0.440090 0.359540 0.925465
0.702438 0.383841 0.932198
0.918111 0.413297 0.941082
0.942315 0.417020 0.942212
0.332486 0.674341 0.944203
0.341410 0.662562 0.943186
0.489493 0.648360 0.944043
0.792877 0.730440 0.959141
0.951031 0.740498 0.966136
0.966922 0.741595 0.966842
0.444662 0.939905 0.975897
0.452759 0.937687 0.975722
0.566675 0.936002 0.977475
0.829542 0.958768 0.987642
0.993306 0.987699 0.997930
0.998213 0.987860 0.998176
0.462951 0.982119 0.982090
0.471605 0.982342 0.982260
0.581815 0.984561 0.984576
0.835975 0.992643 0.992681
0.995110 0.999784 0.999751
1.000089 1.000080 1.000066
