src/luts/contrast/4.cube
LUT_3D_SIZE 6
0.005585 0.015466 0.020002
0.198252 0.042817 0.044112
0.498921 0.104211 0.104584
0.798024 0.166184 0.166400
0.957184 0.199229 0.199386
0.966430 0.201181 0.201326
0.037465 0.111027 0.040581
0.199743 0.115212 0.054603
0.500126 0.193064 0.114684
0.798953 0.253579 0.175012
0.957955 0.275124 0.206354
0.967131 0.268866 0.207386
0.123207 0.365346 0.123824
0.300807 0.367239 0.132263
0.506119 0.372633 0.152720
0.804139 0.464974 0.212254
0.962003 0.479012 0.238032
0.970722 0.456717 0.235195
0.239111 0.709105 0.239359
0.387516 0.710166 0.244308
0.605764 0.713214 0.257461
0.816161 0.718085 0.276618
0.971752 0.731842 0.296660
0.979035 0.693169 0.287783
0.323142 0.958280 0.323299
0.438863 0.958962 0.326646
0.638149 0.961016 0.335765
0.841439 0.964298 0.349567
0.986015 0.967316 0.362028
0.992940 0.939028 0.354668
0.333205 0.988081 0.333354
0.436748 0.988699 0.336268
0.622195 0.990538 0.344229
0.814694 0.993376 0.356369
0.976594 0.996571 0.369617
0.997056 0.997017 0.371487
0.014081 0.019347 0.101437
0.198398 0.043901 0.106152
0.499048 0.105110 0.178697
0.798126 0.166937 0.238009
0.957193 0.199837 0.260916
0.966513 0.201698 0.255983
0.038762 0.111320 0.105172
0.199873 0.115486 0.109662
0.499374 0.143671 0.139447
0.798189 0.189988 0.187165
0.957353 0.218300 0.215984
0.966688 0.219996 0.217693
0.123918 0.365524 0.188585
0.222617 0.366187 0.153645
0.506118 0.372711 0.173954
0.803462 0.444895 0.222332
0.961337 0.453829 0.245642
0.970064 0.432224 0.243343
0.239565 0.709164 0.288749
0.293737 0.709405 0.252739
0.587424 0.712848 0.267068
0.816184 0.718120 0.286547
0.971281 0.722115 0.303243
0.978544 0.680818 0.294244
0.323444 0.958288 0.358840
0.361612 0.958493 0.332262
0.615989 0.960742 0.342191
0.834346 0.964123 0.356237
0.986035 0.967336 0.368930
0.992741 0.935821 0.360844
0.333460 0.988163 0.363692
0.370234 0.988290 0.341969
0.600434 0.990290 0.350519
0.805286 0.993263 0.362762
0.975221 0.996547 0.376211
0.997075 0.997036 0.378130
0.044333 0.045653 0.331379
0.286925 0.070937 0.333577
0.499562 0.109557 0.339736
0.798529 0.170861 0.427684
0.957601 0.203005 0.442405
0.966864 0.204415 0.421980
0.069498 0.176243 0.333507
0.201962 0.119890 0.333028
0.499969 0.146953 0.340446
0.798687 0.193324 0.409561
0.957663 0.221048 0.419658
0.966929 0.222336 0.400076
0.127476 0.366320 0.343880
0.224406 0.367097 0.344773
0.506712 0.373571 0.351812
0.802078 0.388208 0.367636
0.960268 0.399460 0.379800
0.969628 0.400207 0.380562
0.241957 0.709734 0.452423
0.295569 0.709870 0.435909
0.533461 0.712404 0.394377
0.816425 0.718346 0.407937
0.970529 0.702655 0.415280
0.978030 0.665430 0.410403
0.325053 0.958690 0.497181
0.362955 0.958818 0.478204
0.566355 0.960411 0.442586
0.819487 0.964143 0.453393
0.986263 0.967625 0.463338
0.992621 0.931520 0.456583
0.334816 0.988491 0.485302
0.371435 0.988603 0.467577
0.571021 0.990128 0.449172
0.793470 0.993287 0.458261
0.973442 0.996698 0.468539
0.997292 0.997249 0.470073
0.087768 0.088289 0.657404
0.336884 0.106012 0.658575
0.580337 0.141363 0.661966
0.799650 0.180293 0.667374
0.958526 0.210728 0.681381
0.967640 0.211070 0.644284
0.106722 0.220730 0.658704
0.210861 0.137167 0.658022
0.561112 0.167443 0.661915
0.799887 0.201730 0.667634
0.958609 0.228048 0.672229
0.967798 0.228276 0.632731
0.167024 0.451927 0.665337
0.241466 0.431559 0.664855
0.509240 0.377472 0.665534
0.803390 0.391855 0.672168
0.961243 0.402685 0.657852
0.970351 0.402858 0.622792
0.247863 0.710974 0.680972
0.300309 0.711358 0.681300
0.535768 0.713892 0.684078
0.817727 0.719995 0.690482
0.972600 0.724757 0.695602
0.981632 0.725176 0.695967
0.329150 0.959574 0.712788
0.366524 0.959720 0.704355
0.568302 0.961297 0.689372
0.836368 0.965373 0.713783
0.987255 0.968627 0.718731
0.994673 0.948272 0.716769
0.338203 0.989172 0.681518
0.374338 0.989280 0.670959
0.572639 0.990970 0.660089
0.839023 0.994968 0.717158
0.981054 0.997882 0.721733
0.998253 0.998221 0.722323
0.122308 0.122631 0.916288
0.346452 0.134859 0.917102
0.588613 0.162769 0.919244
0.808800 0.196797 0.922714
0.960034 0.222945 0.926025
0.969015 0.222592 0.890585
0.135463 0.234712 0.917088
0.223393 0.158609 0.916640
0.563973 0.184224 0.919138
0.801391 0.214923 0.922754
0.960167 0.239374 0.926195
0.969208 0.238854 0.886845
0.185356 0.461873 0.921465
0.251871 0.435847 0.920984
0.513017 0.383157 0.921444
0.788917 0.396272 0.925368
0.962868 0.408210 0.929016
0.971786 0.407838 0.884803
0.260785 0.722526 0.931768
0.307910 0.712796 0.931434
0.537066 0.695407 0.932271
0.819752 0.722310 0.937478
0.974134 0.727061 0.940836
0.983005 0.727116 0.915512
0.335850 0.961102 0.946847
0.372499 0.961311 0.947069
0.571768 0.963011 0.948801
0.838234 0.966952 0.952924
0.988779 0.970173 0.956097
0.997638 0.970388 0.956322
0.344320 0.990615 0.914853
0.379739 0.990762 0.911202
0.575698 0.992371 0.908088
0.840724 0.996301 0.930184
0.990877 0.999582 0.958393
0.999789 0.999771 0.958616
0.128189 0.128488 0.960249
0.335319 0.139001 0.960938
0.566695 0.163761 0.962843
0.777848 0.194809 0.965772
0.948348 0.223439 0.969131
0.969667 0.227175 0.969595
0.139181 0.227752 0.960960
0.225966 0.162749 0.960697
0.542065 0.185193 0.962695
0.767934 0.212880 0.965762
0.947066 0.239595 0.969231
0.969806 0.243208 0.969714
0.182555 0.438703 0.964566
0.250464 0.413331 0.964092
0.513812 0.384369 0.965090
0.758770 0.395652 0.968254
0.947699 0.408160 0.971884
0.972484 0.410034 0.972385
0.250885 0.683276 0.972982
0.299729 0.670941 0.972658
0.533904 0.657833 0.973603
0.820132 0.722793 0.980156
0.965950 0.727330 0.983133
0.983551 0.727905 0.983474
0.328165 0.932620 0.987032
0.364936 0.929566 0.986999
0.566992 0.926791 0.988280
0.836793 0.946638 0.993261
0.989047 0.970469 0.997772
0.998002 0.970672 0.997953
0.346805 0.991162 0.991114
0.382036 0.991351 0.991300
0.577038 0.992949 0.992897
0.841376 0.996749 0.996704
0.991249 0.999830 0.999800
1.000080 1.000069 1.000054
