src/luts/contrast/4.cube
LUT_3D_SIZE 16
0.005585 0.015466 0.020002
0.066635 0.019603 0.023102
0.127078 0.029251 0.031395
0.198252 0.042817 0.044112
0.285946 0.060430 0.061240
0.389142 0.081555 0.082092
0.498921 0.104211 0.104584
0.607303 0.126638 0.126930
0.707936 0.147509 0.147741
0.798024 0.166184 0.166400
0.878208 0.182838 0.183014
0.934614 0.194535 0.194689
0.957184 0.199229 0.199386
0.964598 0.200781 0.200942
0.966187 0.201130 0.201275
0.966430 0.201181 0.201326
0.012934 0.038031 0.022341
0.067104 0.039399 0.025061
0.127298 0.045838 0.032918
0.198405 0.056989 0.045328
0.286061 0.073151 0.062283
0.389275 0.093419 0.083037
0.499045 0.115363 0.105457
0.607394 0.137071 0.127737
0.708072 0.157154 0.148477
0.798115 0.175010 0.167047
0.878297 0.190870 0.183627
0.934628 0.201981 0.195261
0.957268 0.206318 0.199927
0.964680 0.207596 0.201446
0.966265 0.207682 0.201764
0.966506 0.207490 0.201803
0.022999 0.068062 0.028561
0.073577 0.068792 0.030921
0.127916 0.070904 0.036736
0.198859 0.083168 0.048710
0.286458 0.101094 0.065469
0.389642 0.123383 0.086169
0.499382 0.146675 0.108525
0.607717 0.168664 0.130675
0.708363 0.187986 0.151249
0.798349 0.204332 0.169596
0.878546 0.218262 0.185941
0.934829 0.227746 0.197404
0.957423 0.231048 0.201980
0.964907 0.231344 0.203395
0.966477 0.230452 0.203644
0.966705 0.229319 0.203571
0.037465 0.111027 0.040581
0.085150 0.111513 0.042505
0.144225 0.112926 0.047577
0.199743 0.115212 0.054603
0.287245 0.137836 0.071384
0.390395 0.165414 0.092254
0.500126 0.193064 0.114684
0.608448 0.217789 0.136747
0.709077 0.237972 0.157042
0.798953 0.253579 0.175012
0.879067 0.265670 0.190895
0.935423 0.273241 0.202025
0.957955 0.275124 0.206354
0.965400 0.273942 0.207602
0.966953 0.271490 0.207633
0.967131 0.268866 0.207386
0.058646 0.173859 0.060372
0.103335 0.174235 0.061913
0.167671 0.175272 0.066175
0.229813 0.176974 0.072451
0.288582 0.179280 0.079981
0.391682 0.214135 0.101450
0.501433 0.248187 0.124272
0.609715 0.277637 0.146398
0.710279 0.300318 0.166423
0.800116 0.316348 0.183852
0.880074 0.327567 0.199105
0.936338 0.333670 0.209674
0.958836 0.334108 0.213680
0.966220 0.331277 0.214587
0.967757 0.327023 0.214308
0.967977 0.322592 0.213770
0.087809 0.260368 0.088806
0.128717 0.260639 0.090039
0.196962 0.261466 0.093561
0.265402 0.262792 0.098960
0.330922 0.264593 0.105720
0.393643 0.266814 0.113453
0.503375 0.308629 0.137111
0.611606 0.344017 0.159596
0.712124 0.370247 0.179449
0.801727 0.387757 0.196315
0.881625 0.398744 0.210778
0.937688 0.403879 0.220686
0.960144 0.403172 0.224228
0.967483 0.398676 0.224690
0.969013 0.392569 0.223984
0.969065 0.386213 0.222993
0.123207 0.365346 0.123824
0.159543 0.365555 0.124825
0.228367 0.366207 0.127736
0.300807 0.367239 0.132263
0.371489 0.368733 0.138109
0.439913 0.370503 0.145002
0.506119 0.372633 0.152720
0.614292 0.414699 0.175908
0.714544 0.445307 0.195820
0.804139 0.464974 0.212254
0.883721 0.476404 0.225925
0.939684 0.480929 0.235054
0.962003 0.479012 0.238032
0.969256 0.472924 0.237972
0.970697 0.464941 0.236698
0.970722 0.456717 0.235195
0.162137 0.480813 0.162559
0.193757 0.480968 0.163377
0.260024 0.481529 0.165787
0.333644 0.482365 0.169563
0.407178 0.483545 0.174546
0.479248 0.485029 0.180536
0.549355 0.486766 0.187373
0.617809 0.488812 0.194898
0.717884 0.524132 0.215135
0.807220 0.546236 0.231218
0.886596 0.558444 0.244165
0.942358 0.562591 0.252500
0.964481 0.559812 0.254927
0.971630 0.552060 0.254256
0.972962 0.542176 0.252338
0.972824 0.532018 0.250205
0.201436 0.597366 0.201748
0.228716 0.597502 0.202446
0.290332 0.597956 0.204443
0.362543 0.598665 0.207619
0.436578 0.599666 0.211840
0.510074 0.600875 0.216977
0.582265 0.602301 0.222939
0.652942 0.603989 0.229591
0.722244 0.605918 0.236852
0.811187 0.630793 0.252833
0.890248 0.644075 0.265169
0.945688 0.648049 0.272775
0.967735 0.644317 0.274587
0.974746 0.634978 0.273265
0.975840 0.623234 0.270664
0.975595 0.611058 0.267843
0.239111 0.709105 0.239359
0.262573 0.709210 0.239936
0.318702 0.709592 0.241623
0.387516 0.710166 0.244308
0.460159 0.711030 0.247895
0.533329 0.712070 0.252310
0.605764 0.713214 0.257461
0.677147 0.714676 0.263287
0.747239 0.716223 0.269690
0.816161 0.718085 0.276618
0.894752 0.732452 0.288453
0.949893 0.736529 0.295430
0.971752 0.731842 0.296660
0.978567 0.720973 0.294656
0.979439 0.707210 0.291314
0.979035 0.693169 0.287783
0.274461 0.813892 0.274658
0.294728 0.814025 0.275158
0.345244 0.814303 0.276579
0.409886 0.814870 0.278879
0.479800 0.815541 0.281946
0.551251 0.816349 0.285771
0.622724 0.817429 0.290254
0.693554 0.818652 0.295321
0.763523 0.819983 0.300969
0.832505 0.821549 0.307106
0.900254 0.823193 0.313710
0.954969 0.827312 0.320072
0.976584 0.821756 0.320742
0.983131 0.809155 0.318061
0.983831 0.793614 0.314030
0.983153 0.777443 0.309694
0.305785 0.906821 0.305945
0.323499 0.906947 0.306389
0.369010 0.907190 0.307623
0.429092 0.907637 0.309615
0.495680 0.908202 0.312299
0.564763 0.908961 0.315624
0.634491 0.909873 0.319542
0.704063 0.910890 0.324008
0.772976 0.912053 0.329014
0.841358 0.913418 0.334488
0.908529 0.914873 0.340377
0.960670 0.916108 0.345268
0.982091 0.911092 0.345825
0.988569 0.898993 0.343054
0.989002 0.882193 0.338462
0.988105 0.864046 0.333376
0.323142 0.958280 0.323299
0.339382 0.958313 0.323676
0.381809 0.958562 0.324818
0.438863 0.958962 0.326646
0.502923 0.959510 0.329090
0.570034 0.960213 0.332143
0.638149 0.961016 0.335765
0.706457 0.961928 0.339874
0.774274 0.963019 0.344496
0.841439 0.964298 0.349567
0.907968 0.965555 0.355034
0.961553 0.966789 0.359759
0.986015 0.967316 0.362028
0.992625 0.960721 0.360759
0.993528 0.950712 0.358013
0.992940 0.939028 0.354668
0.330549 0.980231 0.330719
0.345898 0.980339 0.331075
0.386346 0.980583 0.332143
0.441243 0.980937 0.333871
0.503317 0.981483 0.336173
0.568717 0.982068 0.339046
0.635300 0.982899 0.342489
0.702344 0.983755 0.346395
0.768952 0.984731 0.350778
0.835097 0.985940 0.355562
0.900633 0.987224 0.360819
0.957269 0.988407 0.365682
0.985036 0.989011 0.368149
0.994666 0.989229 0.369053
0.995924 0.985006 0.367943
0.995753 0.979344 0.366322
0.332825 0.986961 0.332974
0.347521 0.987073 0.333324
0.386441 0.987300 0.334348
0.439631 0.987619 0.335992
0.500087 0.988085 0.338215
0.563969 0.988675 0.340968
0.629207 0.989451 0.344241
0.694915 0.990352 0.348028
0.760484 0.991318 0.352220
0.825319 0.992452 0.356865
0.889649 0.993644 0.361846
0.949273 0.994871 0.366917
0.981526 0.995544 0.369760
0.993996 0.995858 0.370887
0.996716 0.995952 0.371128
0.996908 0.994624 0.370809
0.333205 0.988081 0.333354
0.347367 0.988189 0.333702
0.385006 0.988398 0.334699
0.436748 0.988699 0.336268
0.495699 0.989191 0.338423
0.558233 0.989803 0.341075
0.622195 0.990538 0.344229
0.686544 0.991389 0.347858
0.750767 0.992301 0.351935
0.814694 0.993376 0.356369
0.877999 0.994506 0.361249
0.939258 0.995751 0.366377
0.976594 0.996571 0.369617
0.992250 0.996878 0.371065
0.996564 0.997029 0.371431
0.997056 0.997017 0.371487
0.006908 0.015833 0.038843
0.066683 0.019868 0.040170
0.127099 0.029426 0.046221
0.198271 0.042943 0.056889
0.285960 0.060535 0.072579
0.389158 0.081647 0.092476
0.498932 0.104293 0.114190
0.607312 0.126708 0.135805
0.707949 0.147579 0.155873
0.798033 0.166243 0.173784
0.878216 0.182902 0.189734
0.934622 0.194592 0.200920
0.957192 0.199281 0.205330
0.964606 0.200842 0.206672
0.966194 0.201176 0.206804
0.966437 0.201204 0.206647
0.013400 0.038138 0.039825
0.067147 0.039497 0.041112
0.127281 0.044064 0.045457
0.198377 0.053024 0.054108
0.286020 0.067267 0.068048
0.389177 0.086224 0.086777
0.498960 0.107573 0.107984
0.607327 0.129229 0.129536
0.707967 0.149598 0.149861
0.798044 0.167971 0.168173
0.878227 0.184380 0.184589
0.934559 0.195962 0.196142
0.957202 0.200614 0.200785
0.964616 0.202167 0.202330
0.966204 0.202495 0.202657
0.966448 0.202545 0.202711
0.023244 0.068117 0.044635
0.068724 0.068723 0.044135
0.127933 0.070946 0.048113
0.198847 0.081891 0.056911
0.286402 0.098421 0.070988
0.389562 0.119447 0.089807
0.499306 0.141818 0.111016
0.607655 0.163290 0.132467
0.708262 0.182447 0.152614
0.798279 0.198871 0.170733
0.878477 0.213036 0.186921
0.934761 0.222761 0.198291
0.957444 0.226256 0.202830
0.964844 0.226743 0.204271
0.966417 0.226071 0.204537
0.966648 0.225140 0.204490
0.037619 0.111063 0.054487
0.073137 0.111364 0.051754
0.141681 0.112871 0.055953
0.199745 0.115232 0.061911
0.287218 0.136738 0.076424
0.390329 0.163258 0.095644
0.500097 0.190021 0.117026
0.608404 0.214114 0.138427
0.708975 0.233925 0.158326
0.798903 0.249374 0.176056
0.879041 0.261526 0.191813
0.935349 0.269171 0.202846
0.957885 0.271124 0.207169
0.965333 0.270071 0.208422
0.966889 0.267772 0.208465
0.967070 0.265247 0.208239
0.058755 0.173900 0.071896
0.083830 0.174046 0.067465
0.162448 0.175196 0.071549
0.228145 0.176922 0.077406
0.288589 0.179295 0.084491
0.391641 0.213155 0.104550
0.501376 0.246428 0.126436
0.609659 0.275259 0.147967
0.710181 0.297528 0.167626
0.800076 0.313325 0.184834
0.880000 0.324437 0.199951
0.936263 0.330451 0.210440
0.958760 0.330955 0.214418
0.966149 0.328168 0.215346
0.967782 0.324002 0.215082
0.967910 0.319670 0.214549
0.087888 0.260388 0.098228
0.104406 0.260476 0.093131
0.189434 0.261354 0.096773
0.262219 0.262717 0.102082
0.329725 0.264553 0.108704
0.393649 0.266830 0.116276
0.503343 0.307878 0.139125
0.611561 0.342588 0.161067
0.712037 0.368456 0.180584
0.801684 0.385610 0.197241
0.881554 0.396455 0.211594
0.937689 0.401444 0.221404
0.960082 0.400691 0.224911
0.967410 0.396189 0.225400
0.968943 0.390122 0.224699
0.968997 0.383883 0.223737
0.123262 0.365367 0.131568
0.134236 0.365409 0.126595
0.219380 0.366084 0.129694
0.296550 0.367230 0.134251
0.369372 0.368690 0.140081
0.439098 0.370513 0.146936
0.506123 0.372640 0.154596
0.614267 0.414029 0.177309
0.714476 0.444198 0.196918
0.804078 0.463474 0.213118
0.883651 0.474668 0.226651
0.939686 0.479027 0.235702
0.961931 0.477120 0.238682
0.969275 0.470959 0.238615
0.970624 0.462952 0.237348
0.970652 0.454786 0.235875
0.162188 0.480828 0.168972
0.169855 0.480837 0.164462
0.250442 0.481422 0.167058
0.328689 0.482317 0.170907
0.404467 0.483498 0.175900
0.477747 0.484991 0.181871
0.548787 0.486750 0.188730
0.617811 0.488793 0.196251
0.717923 0.523643 0.216188
0.807176 0.545326 0.232067
0.886539 0.557298 0.244875
0.942297 0.561339 0.253151
0.964503 0.558389 0.255533
0.971559 0.550552 0.254849
0.972893 0.540637 0.252952
0.972850 0.530480 0.250826
0.201494 0.597376 0.207130
0.207212 0.597398 0.203168
0.280841 0.597899 0.205347
0.357223 0.598608 0.208597
0.433503 0.599576 0.212848
0.508218 0.600819 0.218000
0.581215 0.602280 0.223958
0.652482 0.603980 0.230606
0.722247 0.605920 0.237874
0.811165 0.630432 0.253663
0.890202 0.643330 0.265841
0.945634 0.647191 0.273386
0.967760 0.643127 0.275140
0.974679 0.633916 0.273845
0.975785 0.622025 0.271222
0.975581 0.609921 0.268422
0.239149 0.709121 0.243892
0.243687 0.709149 0.240469
0.309649 0.709485 0.242316
0.382292 0.710082 0.245056
0.456854 0.710965 0.248675
0.531215 0.712018 0.253109
0.604372 0.713248 0.258276
0.676404 0.714653 0.264109
0.746852 0.716211 0.270507
0.816163 0.718088 0.277453
0.894733 0.732223 0.289165
0.949844 0.735857 0.296020
0.971693 0.731058 0.297187
0.978495 0.719984 0.295164
0.979379 0.706291 0.291873
0.978968 0.692095 0.288306
0.274479 0.813900 0.278538
0.278262 0.813917 0.275571
0.336863 0.814234 0.277149
0.404729 0.814816 0.279494
0.476462 0.815497 0.282616
0.549002 0.816314 0.286418
0.621231 0.817401 0.290899
0.692513 0.818630 0.295996
0.762919 0.820003 0.301656
0.832227 0.821544 0.307800
0.900256 0.823159 0.314378
0.954952 0.827081 0.320696
0.976549 0.821286 0.321298
0.983090 0.808661 0.318586
0.983781 0.792902 0.314505
0.983097 0.776707 0.310214
0.305821 0.906829 0.309316
0.309056 0.906845 0.306770
0.361293 0.907124 0.308117
0.424201 0.907585 0.310134
0.492374 0.908160 0.312876
0.562476 0.908926 0.316176
0.632878 0.909843 0.320103
0.703023 0.910930 0.324612
0.772287 0.912036 0.329590
0.840826 0.913442 0.335077
0.908347 0.914869 0.340957
0.960671 0.916110 0.345876
0.982061 0.910840 0.346353
0.988541 0.898712 0.343540
0.988946 0.881634 0.338910
0.988098 0.863384 0.333839
0.323164 0.958287 0.326364
0.326151 0.958303 0.324014
0.374597 0.958499 0.325284
0.434174 0.958999 0.327132
0.499692 0.959469 0.329596
0.567711 0.960178 0.332661
0.636490 0.960987 0.336284
0.705295 0.961904 0.340431
0.773491 0.963000 0.345048
0.840944 0.964285 0.350108
0.907624 0.965547 0.355586
0.961546 0.966789 0.360332
0.986016 0.967318 0.362603
0.992622 0.960660 0.361298
0.993538 0.950830 0.358627
0.992914 0.938821 0.355172
0.330571 0.980238 0.333579
0.333477 0.980246 0.331419
0.379419 0.980522 0.332591
0.436690 0.980889 0.334346
0.500123 0.981443 0.336689
0.566429 0.982085 0.339574
0.633704 0.982871 0.342997
0.701010 0.983730 0.346905
0.768109 0.984816 0.351321
0.834491 0.985927 0.356101
0.900135 0.987212 0.361320
0.957133 0.988404 0.366204
0.984938 0.989010 0.368743
0.994667 0.989231 0.369620
0.995916 0.984973 0.368467
0.995748 0.979265 0.366865
0.332846 0.986968 0.335746
0.335731 0.986984 0.333689
0.379803 0.987242 0.334793
0.435234 0.987573 0.336468
0.496968 0.988099 0.338700
0.561691 0.988751 0.341484
0.627507 0.989422 0.344776
0.693571 0.990327 0.348533
0.759380 0.991296 0.352748
0.824600 0.992433 0.357367
0.889151 0.993634 0.362373
0.948970 0.994864 0.367419
0.981564 0.995547 0.370301
0.993955 0.995859 0.371403
0.996718 0.995953 0.371719
0.996908 0.994611 0.371358
0.333217 0.988088 0.336017
0.336107 0.988104 0.334060
0.378648 0.988340 0.335132
0.432414 0.988765 0.336748
0.492649 0.989154 0.338923
0.555954 0.989771 0.341594
0.620510 0.990510 0.344767
0.685272 0.991365 0.348385
0.749851 0.992281 0.352447
0.814012 0.993360 0.356892
0.877392 0.994491 0.361760
0.938995 0.995743 0.366910
0.976390 0.996568 0.370196
0.992369 0.996883 0.371628
0.996562 0.997031 0.372021
0.997057 0.997019 0.372039
0.009561 0.016851 0.064311
0.071898 0.021249 0.065108
0.127152 0.029845 0.067378
0.198311 0.043275 0.078845
0.285984 0.060828 0.095762
0.389173 0.081926 0.117052
0.498970 0.104559 0.139589
0.607340 0.126971 0.161231
0.707992 0.147814 0.180555
0.798062 0.166474 0.197119
0.878245 0.183086 0.211434
0.934577 0.194771 0.221264
0.957219 0.199451 0.224820
0.964632 0.201008 0.225367
0.966219 0.201329 0.224741
0.966461 0.201360 0.223834
0.015297 0.040664 0.064886
0.067290 0.039795 0.065463
0.127340 0.044317 0.067841
0.198408 0.053287 0.078108
0.286037 0.067528 0.093792
0.389227 0.086492 0.113984
0.498998 0.107836 0.135769
0.607356 0.129479 0.156979
0.708011 0.149838 0.176159
0.798074 0.168171 0.192818
0.878256 0.184591 0.207342
0.934587 0.196150 0.217386
0.957229 0.200788 0.221090
0.964643 0.202326 0.221800
0.966230 0.202644 0.221325
0.966472 0.202698 0.220592
0.023822 0.068245 0.066460
0.068860 0.068860 0.067098
0.127989 0.071078 0.069396
0.198742 0.076086 0.074560
0.286238 0.085518 0.084223
0.389306 0.100062 0.099022
0.499051 0.118153 0.117338
0.607407 0.137593 0.136935
0.708073 0.156500 0.155951
0.798112 0.173872 0.173407
0.878289 0.189623 0.189179
0.934619 0.200775 0.200381
0.957262 0.205283 0.204898
0.964676 0.206762 0.206394
0.966264 0.207078 0.206711
0.966508 0.207141 0.206763
0.038015 0.111146 0.077345
0.073298 0.111460 0.076725
0.129904 0.112588 0.073750
0.199785 0.115299 0.078520
0.287134 0.131958 0.088944
0.390151 0.153535 0.104408
0.499864 0.176289 0.123045
0.608141 0.197663 0.142651
0.708820 0.215986 0.161442
0.798691 0.230969 0.178527
0.878789 0.243341 0.193886
0.935125 0.251488 0.204765
0.957679 0.253915 0.209039
0.965163 0.253486 0.210349
0.966718 0.251854 0.210491
0.966930 0.250046 0.210363
0.059059 0.173960 0.095305
0.084031 0.174114 0.093428
0.135046 0.174733 0.084342
0.220592 0.176735 0.089736
0.288594 0.179306 0.096181
0.391565 0.209113 0.112810
0.501199 0.238787 0.132150
0.609435 0.264863 0.151974
0.709903 0.285304 0.170541
0.799796 0.300161 0.187131
0.879808 0.310845 0.201866
0.936025 0.316849 0.212168
0.958542 0.317455 0.216128
0.965957 0.315005 0.217115
0.967545 0.311242 0.216931
0.967751 0.307337 0.216486
0.088138 0.260444 0.121267
0.104615 0.260529 0.118418
0.146753 0.260838 0.104781
0.247595 0.262418 0.110255
0.324510 0.264415 0.116735
0.393667 0.266854 0.124114
0.503237 0.304489 0.144598
0.611367 0.336485 0.164922
0.711735 0.360398 0.183399
0.801482 0.376345 0.199422
0.881346 0.386563 0.213410
0.937453 0.391272 0.223019
0.959859 0.390278 0.226482
0.967197 0.385876 0.226979
0.968756 0.380035 0.226363
0.968813 0.374052 0.225499
0.123475 0.365404 0.153179
0.134430 0.365477 0.149892
0.167099 0.365632 0.134498
0.276622 0.366922 0.139490
0.360179 0.368436 0.145441
0.435391 0.370409 0.152329
0.506088 0.372658 0.159970
0.614128 0.411309 0.181135
0.714344 0.439375 0.199705
0.803862 0.457262 0.215263
0.883490 0.467561 0.228409
0.939459 0.471321 0.237233
0.961726 0.469125 0.240140
0.969064 0.462934 0.240096
0.970438 0.455051 0.238900
0.970475 0.446922 0.237468
0.162378 0.480846 0.188582
0.170032 0.480886 0.185236
0.195016 0.480992 0.170039
0.305626 0.482024 0.174379
0.392381 0.483300 0.179582
0.471462 0.484860 0.185674
0.546146 0.486705 0.192564
0.617817 0.488804 0.200131
0.717753 0.521414 0.219026
0.806985 0.541533 0.234245
0.886371 0.552457 0.246634
0.942121 0.555709 0.254649
0.964313 0.552276 0.256923
0.971375 0.544337 0.256244
0.972698 0.534341 0.254371
0.972665 0.524185 0.252307
0.201636 0.597409 0.224537
0.207352 0.597432 0.221342
0.226946 0.597500 0.207361
0.332886 0.598347 0.211059
0.419664 0.599400 0.215479
0.500175 0.600696 0.220776
0.576743 0.602210 0.226815
0.650554 0.603936 0.233551
0.722255 0.605927 0.240866
0.811056 0.628616 0.255931
0.890095 0.640306 0.267645
0.945502 0.643314 0.274900
0.967503 0.638818 0.276548
0.974499 0.629060 0.275161
0.975600 0.617018 0.272551
0.975306 0.604877 0.269796
0.239278 0.709060 0.259124
0.243816 0.709088 0.256241
0.259723 0.709194 0.243800
0.357982 0.709861 0.246940
0.442416 0.710754 0.250732
0.522098 0.711869 0.255272
0.598775 0.713086 0.260521
0.673077 0.714543 0.266408
0.745414 0.716160 0.272867
0.816169 0.718096 0.279859
0.894711 0.730761 0.291041
0.949778 0.733552 0.297587
0.971572 0.727890 0.298583
0.978365 0.716445 0.296491
0.979234 0.702476 0.293144
0.978810 0.688125 0.289610
0.274606 0.813930 0.291806
0.278352 0.813948 0.289240
0.291727 0.814011 0.278333
0.381318 0.814612 0.281026
0.461790 0.815341 0.284274
0.539417 0.816243 0.288204
0.614854 0.817315 0.292730
0.688457 0.818543 0.297906
0.760535 0.819948 0.303605
0.831113 0.821516 0.309788
0.900261 0.823164 0.316423
0.954880 0.825991 0.322358
0.976391 0.819348 0.322721
0.982897 0.806108 0.319912
0.983609 0.790026 0.315775
0.982960 0.773554 0.311453
0.305906 0.906857 0.320922
0.309139 0.906874 0.318660
0.320784 0.906934 0.309149
0.402089 0.907360 0.311460
0.478054 0.908068 0.314270
0.552692 0.908777 0.317719
0.626129 0.909722 0.321701
0.698310 0.910833 0.326221
0.769262 0.912028 0.331275
0.838935 0.913394 0.336785
0.907518 0.914849 0.342711
0.960676 0.916115 0.347657
0.982052 0.910184 0.347898
0.988399 0.897116 0.344914
0.988880 0.879728 0.340187
0.987902 0.861192 0.335092
0.323241 0.958314 0.336992
0.326227 0.958331 0.334911
0.337057 0.958302 0.326221
0.412988 0.958780 0.328349
0.485681 0.959377 0.330949
0.557914 0.960044 0.334077
0.629529 0.960885 0.337754
0.700299 0.961893 0.341955
0.770002 0.963011 0.346579
0.838670 0.964228 0.351684
0.906260 0.965602 0.357168
0.961188 0.966783 0.362007
0.986021 0.967323 0.364301
0.992591 0.960345 0.362909
0.993448 0.949868 0.360036
0.992806 0.937694 0.356550
0.330640 0.980256 0.343574
0.333548 0.980272 0.341628
0.344063 0.980331 0.333546
0.416335 0.980781 0.335573
0.486503 0.981269 0.337987
0.556748 0.981946 0.340943
0.626599 0.982748 0.344409
0.695835 0.983679 0.348367
0.764342 0.984731 0.352775
0.831888 0.985862 0.357618
0.898326 0.987163 0.362862
0.956341 0.988379 0.367789
0.984830 0.989010 0.370314
0.994672 0.989235 0.371220
0.995907 0.984786 0.370086
0.995728 0.979038 0.368462
0.332912 0.986993 0.345217
0.335805 0.987010 0.343363
0.346200 0.987069 0.335800
0.415635 0.987479 0.337701
0.483700 0.987931 0.340027
0.552124 0.988607 0.342876
0.620537 0.989298 0.346182
0.688372 0.990220 0.349966
0.755495 0.991206 0.354200
0.821705 0.992362 0.358857
0.887033 0.993576 0.363875
0.947925 0.994834 0.368968
0.981076 0.995533 0.371872
0.993833 0.995860 0.373044
0.996723 0.995961 0.373288
0.996903 0.994481 0.372893
0.333305 0.988112 0.345073
0.336168 0.988128 0.343320
0.346569 0.988189 0.336166
0.413497 0.988570 0.338016
0.479769 0.989103 0.340237
0.546601 0.989742 0.342979
0.613534 0.990393 0.346179
0.680012 0.991264 0.349844
0.745837 0.992195 0.353911
0.810923 0.993287 0.358390
0.875164 0.994540 0.363251
0.937626 0.995705 0.368431
0.976045 0.996561 0.371722
0.992161 0.996880 0.373227
0.996538 0.997035 0.373604
0.997062 0.997022 0.373662
0.014081 0.019347 0.101437
0.080497 0.024111 0.101982
0.142060 0.033563 0.103586
0.198398 0.043901 0.106152
0.286048 0.061404 0.126966
0.389271 0.082489 0.152600
0.499048 0.105110 0.178697
0.607401 0.127510 0.202461
0.708086 0.148316 0.222263
0.798126 0.166937 0.238009
0.878257 0.183510 0.250554
0.934639 0.195165 0.258650
0.957193 0.199837 0.260916
0.964692 0.201370 0.260172
0.966274 0.201677 0.258189
0.966513 0.201698 0.255983
0.018979 0.045131 0.101820
0.067685 0.040609 0.102043
0.139619 0.046275 0.103746
0.198487 0.053767 0.106394
0.286102 0.068041 0.126202
0.389278 0.087022 0.150882
0.499037 0.108375 0.176201
0.607393 0.130005 0.199391
0.708105 0.150338 0.218913
0.798138 0.168638 0.234511
0.878268 0.185010 0.247120
0.934649 0.196551 0.255301
0.957203 0.201169 0.257667
0.964702 0.202679 0.257015
0.966284 0.202988 0.255161
0.966524 0.203012 0.253069
0.027907 0.076843 0.102957
0.069766 0.075905 0.103238
0.128165 0.071444 0.104211
0.198845 0.076418 0.107233
0.286320 0.085915 0.122721
0.389378 0.100514 0.143091
0.499133 0.118639 0.164933
0.607470 0.138082 0.185786
0.708168 0.156981 0.204065
0.798144 0.174307 0.219335
0.878300 0.190010 0.232232
0.934679 0.201141 0.240853
0.957233 0.205613 0.243669
0.964733 0.207088 0.243567
0.966319 0.207393 0.242308
0.966558 0.207425 0.240839
0.038762 0.111320 0.105172
0.073612 0.111632 0.105506
0.130060 0.112780 0.106744
0.199873 0.115486 0.109662
0.286924 0.121019 0.115590
0.389766 0.130533 0.125667
0.499374 0.143671 0.139447
0.607629 0.159037 0.155383
0.708229 0.174869 0.171679
0.798189 0.189988 0.187165
0.878379 0.204054 0.201495
0.934774 0.214164 0.211795
0.957353 0.218300 0.215984
0.964764 0.219663 0.217359
0.966443 0.219952 0.217662
0.966688 0.219996 0.217693
0.059659 0.174097 0.126656
0.084405 0.174267 0.125967
0.135260 0.174865 0.122782
0.202732 0.176286 0.116099
0.288657 0.179425 0.121595
0.391313 0.200323 0.132950
0.500792 0.222258 0.147607
0.608926 0.242539 0.163900
0.709377 0.259409 0.180078
0.799311 0.272532 0.195132
0.879344 0.282847 0.208876
0.935637 0.289201 0.218673
0.958179 0.290416 0.222508
0.965608 0.288885 0.223601
0.967138 0.286260 0.223597
0.967328 0.283519 0.223359
0.088652 0.260558 0.155542
0.105019 0.260635 0.153920
0.147025 0.260966 0.146599
0.209610 0.261748 0.130224
0.313195 0.264127 0.136389
0.393684 0.266905 0.143202
0.503020 0.297514 0.159212
0.611002 0.323939 0.176166
0.711311 0.343978 0.192323
0.800989 0.357636 0.206895
0.880910 0.366604 0.219919
0.937082 0.370795 0.229047
0.959461 0.369932 0.232392
0.966848 0.365934 0.233014
0.968418 0.360681 0.232535
0.968518 0.355364 0.231850
0.123918 0.365524 0.188585
0.134827 0.365536 0.186317
0.167405 0.365746 0.176160
0.222617 0.366187 0.153645
0.339511 0.368051 0.159781
0.427736 0.370223 0.166524
0.506118 0.372711 0.173954
0.613931 0.405785 0.191881
0.714000 0.429767 0.208237
0.803462 0.444895 0.222332
0.883072 0.453503 0.234542
0.939052 0.456400 0.242878
0.961337 0.453829 0.245642
0.968615 0.447591 0.245645
0.970093 0.439944 0.244590
0.970064 0.432224 0.243343
0.162755 0.480940 0.223248
0.170387 0.480951 0.220621
0.195304 0.481095 0.209096
0.242299 0.481373 0.184369
0.365449 0.482889 0.190001
0.458233 0.484599 0.196201
0.540788 0.486591 0.203074
0.617836 0.488834 0.210602
