src/luts/contrast/5.cube
LUT_3D_SIZE 16
0.007101 0.015231 0.013263
0.053358 0.020394 0.019148
0.102812 0.031971 0.031327
0.165638 0.048975 0.048624
0.247844 0.072135 0.071933
0.348077 0.100741 0.100608
0.463028 0.133712 0.133625
0.579151 0.167098 0.167025
0.685625 0.197724 0.197682
0.778025 0.224345 0.224284
0.855194 0.246546 0.246508
0.906161 0.261208 0.261170
0.924143 0.266396 0.266359
0.929821 0.268017 0.267990
0.930840 0.268323 0.268286
0.931205 0.268420 0.268383
0.018763 0.041077 0.021182
0.054965 0.042642 0.024800
0.103625 0.051148 0.035308
0.166223 0.066044 0.051760
0.248344 0.088051 0.074664
0.348548 0.116521 0.103234
0.463493 0.149889 0.136259
0.579626 0.183482 0.169658
0.686125 0.213897 0.200250
0.778524 0.239835 0.226749
0.855659 0.261108 0.248797
0.906483 0.274836 0.263295
0.924493 0.279197 0.268357
0.930130 0.279863 0.269836
0.931181 0.279170 0.269972
0.931373 0.278305 0.269918
0.033130 0.072654 0.034295
0.065207 0.073591 0.036864
0.105516 0.076054 0.042805
0.167683 0.092972 0.058588
0.249639 0.117531 0.081256
0.349842 0.149341 0.110017
0.464840 0.186533 0.143463
0.580988 0.222936 0.177145
0.687434 0.254477 0.207712
0.779849 0.280007 0.233950
0.856843 0.299708 0.255593
0.907642 0.311521 0.269669
0.925565 0.313882 0.274324
0.931146 0.312067 0.275322
0.932069 0.308688 0.274957
0.932240 0.305278 0.274415
0.053273 0.116876 0.053886
0.083081 0.117585 0.055929
0.127146 0.119471 0.061005
0.170048 0.122361 0.067983
0.251823 0.151769 0.090983
0.352031 0.189554 0.120493
0.467157 0.233270 0.154909
0.583400 0.274979 0.189279
0.689856 0.309533 0.220045
0.782117 0.335902 0.245982
0.858990 0.354717 0.267030
0.909690 0.364646 0.280429
0.927455 0.364627 0.284423
0.932839 0.359633 0.284639
0.933641 0.352739 0.283430
0.933711 0.345892 0.282114
0.081842 0.179586 0.082180
0.110214 0.180157 0.083940
0.158259 0.181763 0.088465
0.207490 0.184246 0.094995
0.254915 0.187520 0.102858
0.355219 0.232504 0.133748
0.470513 0.284193 0.169747
0.586909 0.332606 0.205280
0.693397 0.371558 0.236519
0.785492 0.399848 0.262276
0.862197 0.418630 0.282671
0.912640 0.427161 0.295236
0.930238 0.424929 0.298426
0.935407 0.416590 0.297556
0.935937 0.405984 0.295224
0.935692 0.395537 0.292850
0.121212 0.265954 0.121402
0.148567 0.266485 0.122992
0.200213 0.267931 0.127147
0.255998 0.270170 0.133329
0.309300 0.273007 0.140747
0.359341 0.276340 0.148899
0.474948 0.336686 0.187059
0.591508 0.392527 0.224234
0.697971 0.436783 0.256302
0.789950 0.467754 0.282066
0.866374 0.487062 0.301854
0.916558 0.494681 0.313590
0.933902 0.490399 0.315787
0.938757 0.478928 0.313694
0.938924 0.464689 0.310065
0.938473 0.450569 0.306393
0.171891 0.377134 0.172012
0.198231 0.377650 0.173460
0.252359 0.378974 0.177345
0.312809 0.380986 0.183080
0.371433 0.383515 0.189996
0.427185 0.386445 0.197727
0.480432 0.389816 0.206114
0.597284 0.453661 0.245368
0.703811 0.503293 0.278530
0.795503 0.537443 0.304535
0.871670 0.557857 0.323857
0.921479 0.564874 0.334754
0.938524 0.558756 0.335971
0.943025 0.544237 0.332544
0.942803 0.526460 0.327420
0.941871 0.508894 0.322375
0.227987 0.500248 0.228061
0.252870 0.500704 0.229402
0.307154 0.501914 0.233012
0.369313 0.503740 0.238208
0.431036 0.505988 0.244537
0.490863 0.508594 0.251725
0.548481 0.511620 0.259577
0.604134 0.514902 0.267965
0.710685 0.570461 0.302583
0.802242 0.607988 0.329061
0.878028 0.629769 0.348090
0.927398 0.636435 0.358183
0.944059 0.628458 0.358389
0.948102 0.611189 0.353624
0.947381 0.589996 0.346950
0.946111 0.568933 0.340386
0.283237 0.621495 0.283293
0.306226 0.621894 0.284534
0.358371 0.623002 0.287786
0.419719 0.624620 0.292452
0.482341 0.626600 0.298153
0.543979 0.628963 0.304713
0.603962 0.631611 0.311942
0.662268 0.634556 0.319735
0.718720 0.637746 0.327973
0.810142 0.678974 0.355149
0.885411 0.702340 0.374017
0.934359 0.708776 0.383428
0.950578 0.699138 0.382657
0.954049 0.678988 0.376460
0.952798 0.654575 0.368243
0.950943 0.630230 0.360087
0.333808 0.732408 0.333846
0.354659 0.732815 0.334938
0.403447 0.733758 0.337856
0.462329 0.735111 0.342029
0.523827 0.736891 0.347143
0.585392 0.738973 0.353070
0.645890 0.741395 0.359632
0.705038 0.744029 0.366727
0.762806 0.746891 0.374336
0.819038 0.749942 0.382301
0.893931 0.774886 0.401197
0.942390 0.781296 0.410054
0.958083 0.770219 0.408303
0.960854 0.747322 0.400710
0.958994 0.719440 0.390871
0.956625 0.692038 0.381173
0.377746 0.828884 0.377804
0.396593 0.829256 0.378787
0.441485 0.830157 0.381407
0.497009 0.831381 0.385135
0.556188 0.832996 0.389693
0.616138 0.834820 0.395001
0.675775 0.836902 0.400947
0.734509 0.839242 0.407431
0.792162 0.841754 0.414332
0.848531 0.844452 0.421639
0.903419 0.847382 0.429258
0.951323 0.853863 0.437644
0.966461 0.841224 0.434991
0.968621 0.815676 0.426024
0.966040 0.784887 0.414624
0.962888 0.754187 0.403355
0.413153 0.906502 0.413162
0.430017 0.906838 0.414010
0.470953 0.907614 0.416385
0.522691 0.908692 0.419650
0.578697 0.910136 0.423800
0.636283 0.911817 0.428574
0.693948 0.913659 0.433907
0.751246 0.915766 0.439766
0.807520 0.917986 0.446053
0.863083 0.920425 0.452725
0.917298 0.923083 0.459680
0.961042 0.925322 0.465651
0.975819 0.912122 0.462450
0.977267 0.884253 0.452222
0.973855 0.850287 0.439258
0.969985 0.816418 0.426475
0.432619 0.949230 0.432655
0.447939 0.949521 0.433449
0.485610 0.950254 0.435542
0.533892 0.951219 0.438560
0.586922 0.952492 0.442310
0.641812 0.954011 0.446673
0.697234 0.955681 0.451567
0.752450 0.957635 0.456929
0.807034 0.959634 0.462709
0.860953 0.961897 0.468844
0.913913 0.964303 0.475322
0.960126 0.966481 0.481297
0.983742 0.967781 0.484478
0.985845 0.946956 0.476817
0.982356 0.915208 0.464415
0.977708 0.878634 0.450212
0.440860 0.967276 0.440896
0.454798 0.967573 0.441599
0.489496 0.968209 0.443520
0.534596 0.969173 0.446303
0.584527 0.970286 0.449735
0.636670 0.971682 0.453752
0.689541 0.973309 0.458253
0.742454 0.974940 0.463206
0.794923 0.976855 0.468549
0.846650 0.978980 0.474234
0.897750 0.981118 0.480236
0.947236 0.983379 0.486399
0.978956 0.984978 0.490527
0.991550 0.985650 0.492232
0.989604 0.966182 0.484600
0.985841 0.937817 0.473348
0.443939 0.974126 0.443975
0.456621 0.974344 0.444605
0.488489 0.974904 0.446369
0.530500 0.975800 0.448903
0.577436 0.976849 0.452065
0.626743 0.978090 0.455771
0.676893 0.979521 0.459914
0.727277 0.981095 0.464480
0.777415 0.982874 0.469429
0.826961 0.984741 0.474661
0.875971 0.986707 0.480241
0.924182 0.988907 0.486043
0.965503 0.990826 0.491276
0.987097 0.991866 0.494146
0.993443 0.992285 0.495000
0.991591 0.978098 0.489370
0.444756 0.975886 0.444778
0.456308 0.976078 0.445374
0.485635 0.976661 0.446977
0.524851 0.977404 0.449318
0.568936 0.978388 0.452235
0.615500 0.979572 0.455646
0.663141 0.980849 0.459480
0.711000 0.982325 0.463695
0.758939 0.984010 0.468267
0.806406 0.985673 0.473168
0.853249 0.987509 0.478309
0.899669 0.989525 0.483746
0.944807 0.991608 0.489328
0.976161 0.993078 0.493341
0.990867 0.993839 0.495292
0.993945 0.993891 0.495660
0.007838 0.015499 0.024503
0.053403 0.020573 0.027545
0.102830 0.032091 0.037449
0.165646 0.049069 0.053516
0.247859 0.072213 0.076232
0.348090 0.100815 0.104787
0.463044 0.133787 0.137907
0.579164 0.167178 0.171400
0.685723 0.197805 0.202035
0.778040 0.224405 0.228509
0.855210 0.246616 0.250465
0.906176 0.261270 0.264863
0.924158 0.266457 0.269809
0.929836 0.268082 0.271157
0.930853 0.268376 0.271157
0.931216 0.268458 0.270967
0.018963 0.041148 0.028819
0.055007 0.042707 0.031303
0.103479 0.048087 0.038995
0.165979 0.059533 0.053192
0.248040 0.078792 0.074672
0.348205 0.105054 0.102355
0.463104 0.136655 0.134800
0.579208 0.169257 0.167897
0.685721 0.199453 0.198374
0.778072 0.225770 0.224855
0.855239 0.247811 0.247013
0.906205 0.262376 0.261641
0.924185 0.267532 0.266798
0.929865 0.269145 0.268435
0.930884 0.269453 0.268727
0.931249 0.269525 0.268815
0.033246 0.072695 0.039808
0.059769 0.073406 0.040477
0.105538 0.076080 0.046218
0.167562 0.091240 0.060374
0.249472 0.114185 0.081889
0.349617 0.144576 0.109892
0.464569 0.180485 0.142830
0.580734 0.215978 0.176188
0.687204 0.247027 0.206651
0.779546 0.272413 0.232828
0.856652 0.292301 0.254505
0.907380 0.304390 0.268636
0.925327 0.307115 0.273358
0.930936 0.305752 0.274456
0.931885 0.302900 0.274193
0.932120 0.300014 0.273778
0.053358 0.116904 0.058180
0.071083 0.117260 0.057429
0.124476 0.119342 0.062789
0.170046 0.122381 0.069835
0.251737 0.150554 0.091843
0.351917 0.187203 0.120669
0.466955 0.229909 0.154608
0.583179 0.270803 0.188666
0.689617 0.304884 0.219261
0.781865 0.330940 0.245141
0.858808 0.349721 0.266185
0.909471 0.359728 0.279623
0.927257 0.359882 0.283683
0.932667 0.355166 0.283954
0.933491 0.348550 0.282816
0.933508 0.342049 0.281579
0.081915 0.179581 0.085793
0.092923 0.179785 0.084202
0.153194 0.181582 0.089192
0.205796 0.184172 0.095915
0.254921 0.187502 0.103906
0.355134 0.231555 0.134163
0.470378 0.282394 0.169694
0.586723 0.330103 0.204933
0.693185 0.368588 0.236000
0.785284 0.396565 0.261663
0.862008 0.415093 0.282000
0.912459 0.423692 0.294615
0.930066 0.421436 0.297789
0.935261 0.413328 0.297037
0.935738 0.402936 0.294758
0.935583 0.392614 0.292430
0.121273 0.265976 0.124650
0.127955 0.266066 0.122585
0.193186 0.267694 0.127284
0.252935 0.270017 0.133681
0.308186 0.272940 0.141252
0.359346 0.276346 0.149520
0.474877 0.335939 0.187245
0.591397 0.391231 0.224134
0.697841 0.434831 0.255978
0.789750 0.465443 0.281615
0.866227 0.484699 0.301366
0.916439 0.492207 0.313066
0.933715 0.487878 0.315306
0.938558 0.476503 0.313246
0.938767 0.462385 0.309669
0.938379 0.448356 0.306033
0.171937 0.377160 0.175033
0.176102 0.377219 0.172734
0.243931 0.378734 0.177174
0.308752 0.380829 0.183127
0.369381 0.383403 0.190187
0.426399 0.386462 0.198051
0.480434 0.389821 0.206495
0.597191 0.452970 0.245431
0.703609 0.502235 0.278416
0.795444 0.535997 0.304276
0.871494 0.556184 0.323530
0.921359 0.563101 0.334386
0.938332 0.556878 0.335607
0.942847 0.542424 0.332211
0.942637 0.524650 0.327122
0.941788 0.507113 0.322076
0.228041 0.500269 0.230941
0.230854 0.500311 0.228561
0.298069 0.501700 0.232663
0.364584 0.503590 0.238096
0.428421 0.505857 0.244562
0.489504 0.508561 0.251850
0.547983 0.511584 0.259797
0.604135 0.514904 0.268250
0.710596 0.569970 0.302652
0.802138 0.607176 0.328981
0.877884 0.628636 0.347871
0.927323 0.635231 0.357999
0.943902 0.627165 0.358122
0.947964 0.609801 0.353339
0.947254 0.588636 0.346720
0.945972 0.567597 0.340157
0.283295 0.621511 0.285961
0.285382 0.621534 0.283682
0.349349 0.622787 0.287427
0.414793 0.624447 0.292277
0.479377 0.626494 0.298118
0.542226 0.628861 0.304748
0.603031 0.631566 0.312047
0.661857 0.634535 0.319892
0.718722 0.637748 0.328179
0.810075 0.678524 0.355166
0.885367 0.701512 0.373854
0.934319 0.707909 0.383297
0.950521 0.698105 0.382451
0.954004 0.678004 0.376250
0.952662 0.653480 0.368057
0.950901 0.629130 0.359938
0.333842 0.732432 0.336265
0.335469 0.732372 0.334119
0.394783 0.733528 0.337511
0.457383 0.735061 0.341824
0.520728 0.736848 0.347075
0.583409 0.738942 0.353054
0.644659 0.741313 0.359698
0.704352 0.743976 0.366840
0.762433 0.746864 0.374463
0.819040 0.749943 0.382471
0.893869 0.774549 0.401156
0.942276 0.780586 0.409923
0.957978 0.769523 0.408201
0.960829 0.746532 0.400570
0.958986 0.718922 0.390755
0.956505 0.691204 0.381056
0.377803 0.828900 0.379999
0.379197 0.828915 0.378098
0.433378 0.829949 0.381067
0.492194 0.831235 0.384911
0.553051 0.832886 0.389633
0.614101 0.834737 0.394988
0.674450 0.836840 0.400975
0.733520 0.839193 0.407461
0.791601 0.841721 0.414374
0.848072 0.844427 0.421740
0.903420 0.847384 0.429412
0.951249 0.853457 0.437623
0.966388 0.840789 0.434970
0.968621 0.815146 0.425957
0.965942 0.784278 0.414562
0.962785 0.753471 0.403251
0.413162 0.906518 0.415116
0.414413 0.906532 0.413375
0.463478 0.907414 0.416089
0.518074 0.908597 0.419513
0.575655 0.910026 0.423698
0.634186 0.911733 0.428536
0.692514 0.913593 0.433908
0.750184 0.915716 0.439804
0.806994 0.917957 0.446101
0.862603 0.920397 0.452778
0.917188 0.923078 0.459801
0.961043 0.925323 0.465767
0.975806 0.912021 0.462547
0.977180 0.883783 0.452175
0.973767 0.849824 0.439202
0.969912 0.816004 0.426453
0.432654 0.949245 0.434410
0.433804 0.949259 0.432844
0.478662 0.950062 0.435290
0.529547 0.951081 0.438403
0.583990 0.952470 0.442229
0.639760 0.954013 0.446646
0.695731 0.955698 0.451560
0.751387 0.957582 0.456955
0.806389 0.959598 0.462774
0.860538 0.961876 0.468943
0.913627 0.964285 0.475390
0.960047 0.966478 0.481405
0.983743 0.967782 0.484594
0.985850 0.946986 0.476976
0.982336 0.915065 0.464497
0.977654 0.878323 0.450236
0.440892 0.967289 0.442480
0.442003 0.967304 0.441076
0.483066 0.968125 0.443302
0.530483 0.969046 0.446166
0.581775 0.970283 0.449659
0.634713 0.971606 0.453723
0.688068 0.973243 0.458250
0.741273 0.974895 0.463202
0.794141 0.976809 0.468591
0.846172 0.978951 0.474289
0.897469 0.981097 0.480305
0.946960 0.983362 0.486474
0.978800 0.984972 0.490629
0.991551 0.985651 0.492343
0.989615 0.966250 0.484750
0.985828 0.937720 0.473440
0.443968 0.974139 0.445388
0.445073 0.974059 0.444148
0.482543 0.974742 0.446161
0.526744 0.975684 0.448793
0.574816 0.976759 0.452003
0.624772 0.978015 0.455747
0.675471 0.979458 0.459922
0.726251 0.981041 0.464511
0.776585 0.982829 0.469450
0.826498 0.984716 0.474749
0.875617 0.986686 0.480309
0.923965 0.988889 0.486142
0.965221 0.990808 0.491379
0.987051 0.991862 0.494249
0.993444 0.992286 0.495119
0.991578 0.978008 0.489451
0.444782 0.975897 0.446049
0.445880 0.975915 0.444965
0.480154 0.976510 0.446816
0.521304 0.977297 0.449217
0.566447 0.978304 0.452188
0.613685 0.979504 0.455637
0.661785 0.980791 0.459494
0.710099 0.982280 0.463737
0.758180 0.983973 0.468329
0.805891 0.985645 0.473212
0.852904 0.987487 0.478396
0.899353 0.989505 0.483813
0.944571 0.991587 0.489390
0.976270 0.993090 0.493473
0.990820 0.993837 0.495407
0.993946 0.993892 0.495805
0.009724 0.016320 0.041199
0.059833 0.022345 0.043225
0.102890 0.032373 0.048130
0.165690 0.049303 0.063936
0.247902 0.072434 0.086998
0.348153 0.101055 0.116639
0.463080 0.134056 0.151361
0.579213 0.167458 0.186185
0.685742 0.198102 0.217447
0.778102 0.224689 0.243797
0.855273 0.246893 0.265117
0.906238 0.261529 0.278635
0.924147 0.266693 0.282658
0.929816 0.268294 0.282849
0.930901 0.268567 0.281611
0.931259 0.268632 0.280303
0.021227 0.045129 0.044021
0.055148 0.042912 0.044906
0.103535 0.048264 0.049966
0.166023 0.059730 0.064432
0.248087 0.079002 0.086428
0.348248 0.105288 0.115212
0.463162 0.136925 0.149191
0.579259 0.169559 0.183504
0.685782 0.199747 0.214447
0.778134 0.226073 0.240698
0.855302 0.248089 0.262088
0.906228 0.262638 0.275768
0.924176 0.267769 0.279986
0.929847 0.269379 0.280427
0.930932 0.269640 0.279476
0.931218 0.269709 0.278419
0.033514 0.072786 0.049823
0.059897 0.073505 0.051024
0.105591 0.076176 0.055336
0.167084 0.082809 0.065119
0.248672 0.096246 0.082681
0.348579 0.117532 0.107699
0.463349 0.145600 0.138499
0.579405 0.176013 0.170632
0.685893 0.204865 0.200525
0.778207 0.230356 0.226681
0.855383 0.251829 0.248619
0.906255 0.266088 0.263123
0.924257 0.271139 0.268258
0.929931 0.272744 0.269860
0.930950 0.273030 0.270170
0.931314 0.273114 0.270246
0.053566 0.116975 0.067645
0.071241 0.117342 0.067734
0.111179 0.118726 0.067676
0.170093 0.122425 0.075368
0.251347 0.144972 0.094137
0.351240 0.176220 0.120420
0.466113 0.213984 0.152495
0.582219 0.251094 0.185374
0.688630 0.282799 0.215348
0.780875 0.307768 0.241011
0.857861 0.326488 0.262114
0.908551 0.337007 0.275732
0.926437 0.338103 0.280029
0.931885 0.334729 0.280680
0.932774 0.329719 0.279932
0.932891 0.324726 0.279081
0.082098 0.179656 0.095114
0.093091 0.179866 0.094371
0.124355 0.180578 0.090617
0.198034 0.183743 0.098504
0.254939 0.187528 0.107182
0.354791 0.227316 0.135134
0.469802 0.274248 0.168933
0.585978 0.318824 0.202959
0.692350 0.355048 0.233312
0.784420 0.381692 0.258618
0.861164 0.399747 0.278897
0.911688 0.408173 0.291555
0.929321 0.406349 0.294903
0.934597 0.398906 0.294362
0.935136 0.389372 0.292407
0.934995 0.380047 0.290394
0.121458 0.266033 0.134175
0.128133 0.266148 0.132857
0.150229 0.266549 0.126494
0.238111 0.269384 0.134277
0.303110 0.272664 0.142673
0.359361 0.276344 0.151520
0.474553 0.332577 0.187556
0.590878 0.384991 0.223233
0.697179 0.426530 0.254305
0.789073 0.455688 0.279480
0.865497 0.474099 0.299023
0.915776 0.481275 0.310719
0.933055 0.476951 0.312992
0.938006 0.465977 0.311122
0.938258 0.452362 0.307744
0.937863 0.438875 0.304343
0.172116 0.377227 0.184954
0.176289 0.377277 0.183214
0.191192 0.377486 0.175201
0.288892 0.380152 0.182647
0.360336 0.383026 0.190487
0.422910 0.386236 0.198889
0.480443 0.389835 0.207775
0.596917 0.450327 0.245492
0.703196 0.497523 0.277640
0.794831 0.529746 0.302941
0.870967 0.548988 0.321900
0.920791 0.555340 0.332615
0.937792 0.548911 0.333826
0.942316 0.534534 0.330517
0.942114 0.517123 0.325598
0.941339 0.499845 0.320701
0.228219 0.500347 0.240957
0.231058 0.500392 0.239016
0.241477 0.500514 0.230225
0.341790 0.502883 0.237148
0.416684 0.505426 0.244297
0.483457 0.508274 0.252051
0.545492 0.511449 0.260369
0.604140 0.514913 0.269139
0.710483 0.567876 0.302621
0.801791 0.603457 0.328318
0.877467 0.623949 0.346875
0.926822 0.629745 0.356717
0.943472 0.621407 0.356835
0.947456 0.603938 0.352081
0.946782 0.582828 0.345507
0.945553 0.562008 0.339046
0.283471 0.621573 0.295701
0.285552 0.621596 0.293736
0.293378 0.621709 0.284911
0.390870 0.623792 0.291177
0.466106 0.626027 0.297585
0.534506 0.628538 0.304601
0.598790 0.631361 0.312228
0.659965 0.634433 0.320336
0.718728 0.637753 0.328852
0.809872 0.676897 0.355154
0.885072 0.698732 0.373461
0.933863 0.704189 0.382518
0.950037 0.694121 0.381543
0.953506 0.673656 0.375333
0.952300 0.649114 0.367144
0.950487 0.624815 0.359094
0.334009 0.732440 0.345442
0.335656 0.732467 0.343486
0.341879 0.732563 0.335101
0.433594 0.734521 0.340727
0.506809 0.736396 0.346451
0.574749 0.738715 0.352768
0.639339 0.741076 0.359670
0.701311 0.743788 0.366996
0.761101 0.746749 0.374839
0.819044 0.749948 0.382994
0.893734 0.773215 0.401161
0.942037 0.778549 0.409630
0.957626 0.766720 0.407702
0.960456 0.743472 0.399995
0.958582 0.715488 0.390092
0.956145 0.687919 0.380456
0.377990 0.828964 0.388383
0.379343 0.828979 0.386567
0.384597 0.829035 0.378888
0.469280 0.830717 0.383897
0.539015 0.832479 0.389014
0.605000 0.834410 0.394636
0.668373 0.836617 0.400817
0.729849 0.839044 0.407480
0.789311 0.841593 0.414604
0.847253 0.844424 0.422097
0.903424 0.847388 0.429853
0.951094 0.852629 0.437749
0.966174 0.839077 0.434750
0.968345 0.812984 0.425610
0.965630 0.781806 0.414106
0.962588 0.750881 0.402830
0.413335 0.906580 0.422645
0.414537 0.906595 0.421038
0.419186 0.906647 0.414119
0.496469 0.908097 0.418582
0.562017 0.909697 0.423141
0.625026 0.911422 0.428215
0.686244 0.913402 0.433771
0.745940 0.915496 0.439791
0.804134 0.917794 0.446209
0.861027 0.920302 0.453034
0.916390 0.923024 0.460107
0.961047 0.925327 0.466191
0.975643 0.911155 0.462610
0.977025 0.882415 0.452081
0.973566 0.848115 0.439039
0.969700 0.814260 0.426225
0.432754 0.949302 0.441143
0.433906 0.949317 0.439697
0.438298 0.949371 0.433519
0.509261 0.950669 0.437576
0.570868 0.952108 0.441716
0.630765 0.953734 0.446340
0.689467 0.955495 0.451415
0.746961 0.957458 0.456920
0.803176 0.959509 0.462813
0.858302 0.961755 0.469073
0.912338 0.964206 0.475654
0.959725 0.966456 0.481765
0.983746 0.967786 0.484976
0.985851 0.946552 0.477148
0.982242 0.914151 0.464521
0.977516 0.877055 0.450144
0.441005 0.967341 0.448477
0.442118 0.967357 0.447204
0.446398 0.967415 0.441760
0.511560 0.968669 0.445402
0.569361 0.969942 0.449206
0.625959 0.971370 0.453460
0.681797 0.973072 0.458110
0.736798 0.974772 0.463217
0.790723 0.976725 0.468636
0.843792 0.978812 0.474423
0.895821 0.980992 0.480501
0.946156 0.983303 0.486744
0.978658 0.984963 0.491002
0.991555 0.985655 0.492713
0.989554 0.966016 0.485005
0.985667 0.936974 0.473519
0.444066 0.974088 0.450722
0.445169 0.974105 0.449569
0.449421 0.974169 0.444819
0.509111 0.975296 0.448141
0.563102 0.976466 0.451633
0.616458 0.977791 0.455507
0.669398 0.979308 0.459817
0.721651 0.980927 0.464490
0.773263 0.982760 0.469530
0.823891 0.984571 0.474859
0.873701 0.986674 0.480475
0.922716 0.988810 0.486375
0.964747 0.990779 0.491714
0.986928 0.991854 0.494593
0.993448 0.992289 0.495487
0.991636 0.977753 0.489740
0.444865 0.975938 0.450775
0.445978 0.975956 0.449789
0.450222 0.976027 0.445640
0.504962 0.977010 0.448673
0.555462 0.978083 0.451873
0.605753 0.979316 0.455463
0.655918 0.980645 0.459435
0.705662 0.982177 0.463742
0.754842 0.983808 0.468393
0.803285 0.985607 0.473359
0.851008 0.987483 0.478562
0.898017 0.989419 0.484048
0.943558 0.991519 0.489654
0.975914 0.993066 0.493816
0.990723 0.993833 0.495793
0.993948 0.993892 0.496169
0.013770 0.018645 0.067762
0.070275 0.025870 0.069263
0.120599 0.037736 0.073115
0.165772 0.049739 0.078671
0.247979 0.072866 0.103700
0.348223 0.101529 0.136349
0.463193 0.134602 0.174858
0.579327 0.168060 0.212943
0.685868 0.198727 0.246073
0.778216 0.225314 0.272826
0.855408 0.247486 0.293392
0.906244 0.262079 0.305539
0.924274 0.267198 0.307889
0.929931 0.268757 0.305879
0.931002 0.268969 0.302314
0.931276 0.268988 0.298818
0.025398 0.051876 0.069780
0.055614 0.043567 0.069688
0.118244 0.051063 0.073867
0.166118 0.060078 0.079612
0.248167 0.079398 0.103688
0.348341 0.105749 0.135516
0.463231 0.137460 0.173282
0.579373 0.170136 0.210783
0.685868 0.200360 0.243547
0.778247 0.226690 0.270107
0.855436 0.248675 0.290662
0.906271 0.263183 0.302888
0.924302 0.268271 0.305389
0.929960 0.269828 0.303607
0.930960 0.270043 0.300284
0.931308 0.270067 0.297028
0.039647 0.085001 0.074477
0.062418 0.083607 0.074815
0.105779 0.076471 0.075881
0.167176 0.083071 0.082549
0.248761 0.096580 0.102867
0.348670 0.117951 0.131226
0.463468 0.146118 0.165809
0.579511 0.176580 0.200850
0.685979 0.205445 0.232081
0.778336 0.230950 0.258017
0.855460 0.252400 0.278598
0.906346 0.266624 0.291306
0.924378 0.271630 0.294490
0.930041 0.273170 0.293692
0.931048 0.273415 0.291459
0.931373 0.273466 0.289251
0.053956 0.117106 0.081489
0.071513 0.117470 0.082099
0.111355 0.118888 0.084404
0.170190 0.122580 0.090230
0.250467 0.130843 0.102359
0.349713 0.145700 0.122224
0.464107 0.167689 0.149121
0.579962 0.193553 0.178732
0.686288 0.219308 0.207057
0.778625 0.242752 0.232218
0.855739 0.262868 0.253482
0.906558 0.276340 0.267619
0.924584 0.281125 0.272636
0.930256 0.282650 0.274216
0.931273 0.282944 0.274499
0.931574 0.283006 0.274598
0.082466 0.179779 0.110181
0.093402 0.179983 0.109984
0.124595 0.180725 0.108863
0.177812 0.182756 0.107091
0.254991 0.187628 0.116919
0.354052 0.217463 0.139494
0.468519 0.254981 0.168899
0.584348 0.292049 0.199967
0.690570 0.323332 0.228589
0.782652 0.347282 0.253115
0.859509 0.364368 0.273191
0.910050 0.373160 0.286039
0.927821 0.372557 0.289786
0.933180 0.367172 0.289873
0.933853 0.360109 0.288629
0.933907 0.353254 0.287290
0.121820 0.266154 0.150860
0.128484 0.266263 0.150014
0.150528 0.266682 0.146067
0.194693 0.267807 0.137492
0.291183 0.272034 0.147795
0.359392 0.276415 0.157722
0.473911 0.325064 0.189773
0.589770 0.371223 0.222560
0.695809 0.408153 0.251783
0.787718 0.434447 0.275970
0.864063 0.451207 0.295069
0.914353 0.457850 0.306670
0.931756 0.453863 0.309147
0.936825 0.443851 0.307727
0.937175 0.431574 0.304873
0.936863 0.419597 0.301997
0.172518 0.377379 0.203359
0.176662 0.377443 0.202008
0.191557 0.377661 0.195881
0.225381 0.378290 0.182373
0.338487 0.382080 0.192521
0.415079 0.385848 0.202099
0.480470 0.389881 0.211809
0.596354 0.444541 0.246697
0.702328 0.487246 0.276873
0.793757 0.516474 0.301040
0.869769 0.533788 0.319330
0.919594 0.539127 0.329780
0.936619 0.532427 0.330988
0.941284 0.518531 0.327974
0.941188 0.501715 0.323385
0.940464 0.485334 0.318905
0.228617 0.500471 0.260394
0.231444 0.500516 0.258718
0.241847 0.500655 0.251250
0.267321 0.501038 0.235209
0.388126 0.504410 0.244664
0.469904 0.507684 0.253503
0.540130 0.511169 0.262576
0.604157 0.514940 0.271969
