src/luts/contrast/5.cube
LUT_3D_SIZE 6
0.007101 0.015231 0.013263
0.165638 0.048975 0.048624
0.463028 0.133712 0.133625
0.778025 0.224345 0.224284
0.924143 0.266396 0.266359
0.931205 0.268420 0.268383
0.053273 0.116876 0.053886
0.170048 0.122361 0.067983
0.467157 0.233270 0.154909
0.782117 0.335902 0.245982
0.927455 0.364627 0.284423
0.933711 0.345892 0.282114
0.171891 0.377134 0.172012
0.312809 0.380986 0.183080
0.480432 0.389816 0.206114
0.795503 0.537443 0.304535
0.938524 0.558756 0.335971
0.941871 0.508894 0.322375
0.333808 0.732408 0.333846
0.462329 0.735111 0.342029
0.645890 0.741395 0.359632
0.819038 0.749942 0.382301
0.958083 0.770219 0.408303
0.956625 0.692038 0.381173
0.432619 0.949230 0.432655
0.533892 0.951219 0.438560
0.697234 0.955681 0.451567
0.860953 0.961897 0.468844
0.983742 0.967781 0.484478
0.977708 0.878634 0.450212
0.444756 0.975886 0.444778
0.524851 0.977404 0.449318
0.663141 0.980849 0.459480
0.806406 0.985673 0.473168
0.944807 0.991608 0.489328
0.993945 0.993891 0.495660
0.013770 0.018645 0.067762
0.165772 0.049739 0.078671
0.463193 0.134602 0.174858
0.778216 0.225314 0.272826
0.924274 0.267198 0.307889
0.931276 0.268988 0.298818
0.053956 0.117106 0.081489
0.170190 0.122580 0.090230
0.464107 0.167689 0.149121
0.778625 0.242752 0.232218
0.924584 0.281125 0.272636
0.931574 0.283006 0.274598
0.172518 0.377379 0.203359
0.225381 0.378290 0.182373
0.480470 0.389881 0.211809
0.793757 0.516474 0.301040
0.936619 0.532427 0.330988
0.940464 0.485334 0.318905
0.334361 0.732556 0.364055
0.358402 0.732840 0.338071
0.627888 0.740654 0.360305
0.819057 0.749962 0.384733
0.957004 0.761043 0.407150
0.955539 0.681235 0.379902
0.433034 0.949343 0.455206
0.450135 0.949594 0.435615
0.676177 0.954997 0.451599
0.854124 0.961597 0.469871
0.983758 0.967798 0.486220
0.977249 0.874507 0.450578
0.445036 0.976027 0.460603
0.461631 0.976229 0.447611
0.644098 0.980368 0.459800
0.798189 0.985397 0.474099
0.942145 0.991430 0.490715
0.993957 0.993896 0.497376
0.049516 0.050525 0.264770
0.281209 0.090572 0.270999
0.463919 0.138667 0.284969
0.779102 0.230161 0.422780
0.924989 0.271214 0.448127
0.931761 0.271810 0.407742
0.101601 0.208347 0.273651
0.173641 0.127944 0.268865
0.464975 0.171208 0.287056
0.779483 0.247252 0.406201
0.925292 0.284863 0.427492
0.932110 0.285607 0.390846
0.175409 0.378359 0.300447
0.227730 0.379438 0.301949
0.481277 0.390926 0.317582
0.787053 0.419986 0.355263
0.931239 0.439186 0.379199
0.938166 0.440204 0.380450
0.337167 0.733479 0.478934
0.361056 0.733891 0.464858
0.542148 0.737953 0.414708
0.819470 0.750359 0.441637
0.954346 0.733594 0.451906
0.954096 0.662529 0.432316
0.435082 0.950051 0.549634
0.452069 0.950295 0.534079
0.598862 0.953121 0.492801
0.833395 0.961033 0.512296
0.984037 0.968042 0.528881
0.976616 0.867599 0.495091
0.446450 0.976413 0.528718
0.462938 0.976602 0.516903
0.606640 0.979569 0.502987
0.783939 0.985137 0.516803
0.937224 0.991506 0.532314
0.994277 0.994093 0.538801
0.111396 0.111725 0.597500
0.367233 0.143628 0.601199
0.591459 0.192798 0.609408
0.781139 0.240867 0.620574
0.926691 0.280233 0.643310
0.932928 0.278164 0.568005
0.158480 0.288067 0.603346
0.193391 0.156218 0.598836
0.571819 0.210765 0.609133
0.781623 0.257610 0.621284
0.926945 0.293500 0.634902
0.933189 0.291586 0.558714
0.247771 0.514391 0.622468
0.275652 0.492777 0.620514
0.486379 0.397755 0.616417
0.789598 0.426140 0.632257
0.933010 0.444272 0.619194
0.939354 0.443537 0.554065
0.343565 0.735663 0.655123
0.367257 0.736176 0.655631
0.546498 0.740765 0.661090
0.821850 0.753067 0.675506
0.959059 0.761786 0.685548
0.965691 0.762323 0.686144
0.439828 0.951650 0.709631
0.456676 0.951863 0.702111
0.602171 0.954820 0.684030
0.854983 0.963778 0.718288
0.985913 0.969959 0.727534
0.983615 0.908757 0.714607
0.449629 0.977483 0.651658
0.466037 0.977675 0.643879
0.608778 0.980711 0.635042
0.859721 0.989892 0.724353
0.963424 0.994503 0.731602
0.996089 0.996086 0.733928
0.156731 0.156937 0.840925
0.382473 0.179351 0.843291
0.604479 0.219368 0.848591
0.794641 0.262132 0.855922
0.929577 0.295218 0.862735
0.934942 0.288913 0.753197
0.191092 0.306981 0.844733
0.218334 0.188211 0.841760
0.579227 0.233458 0.848245
0.787497 0.275432 0.855943
0.929964 0.308042 0.863195
0.935271 0.301836 0.749476
0.269215 0.529336 0.857265
0.292046 0.501571 0.855489
0.493766 0.407481 0.852822
0.772041 0.432521 0.861981
0.936284 0.453340 0.870157
0.941483 0.449488 0.750531
0.360522 0.751875 0.879368
0.379048 0.742748 0.878531
0.546856 0.718711 0.878813
0.825468 0.757169 0.891571
0.961940 0.765804 0.898502
0.967399 0.764684 0.822822
0.447992 0.954442 0.908215
0.464680 0.954785 0.908592
0.608136 0.958031 0.911993
0.858345 0.966682 0.921240
0.988737 0.972860 0.927796
0.995109 0.973149 0.928187
0.455226 0.979383 0.812202
0.471434 0.979629 0.808727
0.612587 0.982725 0.806099
0.861791 0.991533 0.852933
0.992588 0.998619 0.932109
0.998949 0.998952 0.932430
0.171079 0.171265 0.917931
0.356689 0.187509 0.919600
0.556082 0.218888 0.923334
0.728783 0.254236 0.928591
0.884160 0.290102 0.935035
0.937704 0.303086 0.937189
0.195319 0.287394 0.920488
0.227640 0.199536 0.918666
0.532332 0.233790 0.923178
0.719959 0.267934 0.928682
0.881522 0.302545 0.935247
0.938149 0.315472 0.937644
0.255905 0.477397 0.928886
0.282405 0.452329 0.927702
0.496833 0.411477 0.928478
0.712204 0.429580 0.934389
0.882655 0.449420 0.941248
0.944318 0.457691 0.943852
0.331546 0.672032 0.943864
0.352201 0.661258 0.943052
0.534028 0.646792 0.944519
0.826957 0.758824 0.963057
0.935712 0.765564 0.967973
0.969709 0.767951 0.969403
0.412205 0.864470 0.965344
0.429123 0.860565 0.965182
0.582455 0.856867 0.967331
0.849127 0.906152 0.981066
0.989856 0.973992 0.995728
0.996198 0.974264 0.995915
0.462857 0.981915 0.981629
0.478817 0.982265 0.981822
0.617943 0.985293 0.984973
0.864487 0.993686 0.993517
0.993704 0.999785 0.999500
1.000068 1.000020 0.999914
