src/luts/contrast/6.cube
LUT_3D_SIZE 16
0.002492 0.000171 0.000000
0.023529 0.000171 0.000000
0.048866 0.000171 0.000000
0.084497 0.000171 0.000000
0.135340 0.000171 0.000000
0.205858 0.000171 0.000000
0.297231 0.000171 0.000000
0.399068 0.000171 0.000000
0.499875 0.000171 0.000000
0.592354 0.000171 0.000000
0.673071 0.000171 0.000000
0.739163 0.000171 0.000000
0.787420 0.000171 0.000000
0.819773 0.000171 0.000000
0.841144 0.000171 0.000000
0.856642 0.000171 0.000000
0.002492 0.015226 0.000000
0.023529 0.015226 0.000000
0.048866 0.017596 0.000000
0.084497 0.021568 0.000000
0.135340 0.027156 0.000000
0.205858 0.034387 0.000000
0.297231 0.042795 0.000000
0.399068 0.050563 0.000000
0.499875 0.056509 0.000000
0.592354 0.060372 0.000000
0.673071 0.062380 0.000000
0.739163 0.062709 0.000000
0.787420 0.061502 0.000000
0.819773 0.059214 0.000000
0.841144 0.056485 0.000000
0.856642 0.053740 0.000000
0.002492 0.035638 0.000000
0.026578 0.035638 0.000000
0.048866 0.035638 0.000000
0.084497 0.043732 0.000000
0.135340 0.055113 0.000000
0.205858 0.069845 0.000000
0.297231 0.086961 0.000000
0.399068 0.102780 0.000000
0.499875 0.114891 0.000000
0.592354 0.122764 0.000000
0.673071 0.126867 0.000000
0.739163 0.127527 0.000000
0.787420 0.125074 0.000000
0.819773 0.120416 0.000000
0.841144 0.114855 0.000000
0.856642 0.109258 0.000000
0.002492 0.066197 0.000000
0.031611 0.066197 0.000000
0.058503 0.066197 0.000000
0.084497 0.066197 0.000000
0.135340 0.083453 0.000000
0.205858 0.105784 0.000000
0.297231 0.131736 0.000000
0.399068 0.155744 0.000000
0.499875 0.174097 0.000000
0.592354 0.186006 0.000000
0.673071 0.192239 0.000000
0.739163 0.193255 0.000000
0.787420 0.189516 0.000000
0.819773 0.182476 0.000000
0.841144 0.174027 0.000000
0.856642 0.165556 0.000000
0.002492 0.112055 0.000000
0.038555 0.112055 0.000000
0.071797 0.112055 0.000000
0.103914 0.112055 0.000000
0.135340 0.112055 0.000000
0.205858 0.142059 0.000000
0.297231 0.176927 0.000000
0.399068 0.209156 0.000000
0.499875 0.233834 0.000000
0.592354 0.249862 0.000000
0.673071 0.258205 0.000000
0.739163 0.259574 0.000000
0.787420 0.254569 0.000000
0.819773 0.245075 0.000000
0.841144 0.233742 0.000000
0.856642 0.222349 0.000000
0.002492 0.178560 0.000000
0.047367 0.178560 0.000000
0.088636 0.178560 0.000000
0.128523 0.178560 0.000000
0.167526 0.178560 0.000000
0.205858 0.178560 0.000000
0.297231 0.222418 0.000000
0.399068 0.262947 0.000000
0.499875 0.293973 0.000000
0.592354 0.314130 0.000000
0.673071 0.324596 0.000000
0.739163 0.326338 0.000000
0.787420 0.320013 0.000000
0.819773 0.308090 0.000000
0.841144 0.293844 0.000000
0.856642 0.279524 0.000000
0.002492 0.268137 0.000000
0.057397 0.268137 0.000000
0.107813 0.268137 0.000000
0.156518 0.268137 0.000000
0.204174 0.268137 0.000000
0.251007 0.268137 0.000000
0.297231 0.268137 0.000000
0.399068 0.317006 0.000000
0.499875 0.354381 0.000000
0.592354 0.378725 0.000000
0.673071 0.391371 0.000000
0.739163 0.393442 0.000000
0.787420 0.385849 0.000000
0.819773 0.371469 0.000000
0.841144 0.354288 0.000000
0.856642 0.337025 0.000000
0.002492 0.371352 0.000000
0.066514 0.371352 0.000000
0.125234 0.371352 0.000000
0.181990 0.371352 0.000000
0.237463 0.371352 0.000000
0.292016 0.371352 0.000000
0.345843 0.371352 0.000000
0.399068 0.371352 0.000000
0.499875 0.415145 0.000000
0.592354 0.443628 0.000000
0.673071 0.458420 0.000000
0.739163 0.460812 0.000000
0.787420 0.451928 0.000000
0.819773 0.435124 0.000000
0.841144 0.414970 0.000000
0.856642 0.394714 0.000000
0.002492 0.476105 0.000000
0.073410 0.476105 0.000000
0.138412 0.476105 0.000000
0.201194 0.476105 0.000000
0.262626 0.476105 0.000000
0.323020 0.476105 0.000000
0.382605 0.476105 0.000000
0.441508 0.476105 0.000000
0.499875 0.476105 0.000000
0.592354 0.508766 0.000000
0.673071 0.525761 0.000000
0.739163 0.528519 0.000000
0.787420 0.518331 0.000000
0.819773 0.499026 0.000000
0.841144 0.475945 0.000000
0.856642 0.452719 0.000000
0.002492 0.574142 0.000000
0.077849 0.574142 0.000000
0.146912 0.574142 0.000000
0.213620 0.574142 0.000000
0.278857 0.574142 0.000000
0.342999 0.574142 0.000000
0.406256 0.574142 0.000000
0.468861 0.574142 0.000000
0.530860 0.574142 0.000000
0.592354 0.574142 0.000000
0.673071 0.593332 0.000000
0.739163 0.596516 0.000000
0.787420 0.584966 0.000000
0.819773 0.563166 0.000000
0.841144 0.537104 0.000000
0.856642 0.510897 0.000000
0.002492 0.660964 0.000000
0.080151 0.660964 0.000000
0.151317 0.660964 0.000000
0.220057 0.660964 0.000000
0.287269 0.660964 0.000000
0.353313 0.660964 0.000000
0.418588 0.660964 0.000000
0.483034 0.660964 0.000000
0.546931 0.660964 0.000000
0.610304 0.660964 0.000000
0.673071 0.660964 0.000000
0.739163 0.664536 0.000000
0.787420 0.651699 0.000000
0.819773 0.627430 0.000000
0.841144 0.598341 0.000000
0.856642 0.569194 0.000000
0.002492 0.732908 0.000000
0.080529 0.732908 0.000000
0.152026 0.732908 0.000000
0.221112 0.732908 0.000000
0.288639 0.732908 0.000000
0.355017 0.732908 0.000000
0.420540 0.732908 0.000000
0.485327 0.732908 0.000000
0.549493 0.732908 0.000000
0.613288 0.732908 0.000000
0.676386 0.732908 0.000000
0.739163 0.732908 0.000000
0.787420 0.718738 0.000000
0.819773 0.691927 0.000000
0.841144 0.659888 0.000000
0.856642 0.627730 0.000000
0.002492 0.785694 0.000000
0.079149 0.785694 0.000000
0.149383 0.785694 0.000000
0.217242 0.785694 0.000000
0.283601 0.785694 0.000000
0.348808 0.785694 0.000000
0.413190 0.785694 0.000000
0.476833 0.785694 0.000000
0.539894 0.785694 0.000000
0.602485 0.785694 0.000000
0.664517 0.785694 0.000000
0.726233 0.785694 0.000000
0.787420 0.785694 0.000000
0.819773 0.756495 0.000000
0.841144 0.721494 0.000000
0.856642 0.686297 0.000000
0.002492 0.821339 0.000000
0.076520 0.821339 0.000000
0.144375 0.821339 0.000000
0.209926 0.821339 0.000000
0.274028 0.821339 0.000000
0.337028 0.821339 0.000000
0.399232 0.821339 0.000000
0.460723 0.821339 0.000000
0.521603 0.821339 0.000000
0.582072 0.821339 0.000000
0.641994 0.821339 0.000000
0.701609 0.821339 0.000000
0.760733 0.821339 0.000000
0.819773 0.821339 0.000000
0.841144 0.783257 0.000000
0.856642 0.745200 0.000000
0.002492 0.845012 0.000000
0.073384 0.845012 0.000000
0.138368 0.845012 0.000000
0.201146 0.845012 0.000000
0.262534 0.845012 0.000000
0.322873 0.845012 0.000000
0.382420 0.845012 0.000000
0.441332 0.845012 0.000000
0.499731 0.845012 0.000000
0.557585 0.845012 0.000000
0.614965 0.845012 0.000000
0.672044 0.845012 0.000000
0.728655 0.845012 0.000000
0.785119 0.845012 0.000000
0.841144 0.845012 0.000000
0.856642 0.803882 0.000000
0.002492 0.862274 0.000000
0.070202 0.862274 0.000000
0.132294 0.862274 0.000000
0.192280 0.862274 0.000000
0.250948 0.862274 0.000000
0.308604 0.862274 0.000000
0.365539 0.862274 0.000000
0.421804 0.862274 0.000000
0.477551 0.862274 0.000000
0.532866 0.862274 0.000000
0.587736 0.862274 0.000000
0.642274 0.862274 0.000000
0.696436 0.862274 0.000000
0.750372 0.862274 0.000000
0.803867 0.862274 0.000000
0.856642 0.862274 0.000000
0.002492 0.000171 0.009259
0.023529 0.000171 0.009259
0.048866 0.000171 0.010925
0.084497 0.000171 0.013782
0.135340 0.000171 0.017917
0.205858 0.000171 0.023437
0.297231 0.000171 0.030045
0.399068 0.000171 0.036306
0.499875 0.000171 0.041186
0.592354 0.000171 0.044394
0.673071 0.000171 0.046072
0.739163 0.000171 0.046349
0.787420 0.000171 0.045336
0.819773 0.000171 0.043430
0.841144 0.000171 0.041166
0.856642 0.000171 0.038904
0.002492 0.015226 0.009259
0.023529 0.015226 0.009259
0.048866 0.015226 0.009259
0.084497 0.015226 0.009259
0.135340 0.015226 0.009259
0.205858 0.015226 0.009259
0.297231 0.015226 0.009259
0.399068 0.015226 0.009259
0.499875 0.015226 0.009259
0.592354 0.015226 0.009259
0.673071 0.015226 0.009259
0.739163 0.015226 0.009259
0.787420 0.015226 0.009259
0.819773 0.015226 0.009259
0.841144 0.015226 0.009259
0.856642 0.015226 0.009259
0.002492 0.035638 0.010925
0.023529 0.035638 0.009259
0.048866 0.035638 0.009259
0.084497 0.042371 0.009259
0.135340 0.052225 0.009259
0.205858 0.065265 0.009259
0.297231 0.080618 0.009259
0.399068 0.094878 0.009259
0.499875 0.105809 0.009259
0.592354 0.112905 0.009259
0.673071 0.116581 0.009259
0.739163 0.117157 0.009259
0.787420 0.114885 0.009259
0.819773 0.110637 0.009259
0.841144 0.105550 0.009259
0.856642 0.100460 0.009259
0.002492 0.066197 0.013782
0.023529 0.066197 0.009259
0.056897 0.066197 0.009259
0.084497 0.066197 0.009259
0.135340 0.082465 0.009259
0.205858 0.103763 0.009259
0.297231 0.128671 0.009259
0.399068 0.151723 0.009259
0.499875 0.169389 0.009259
0.592354 0.180836 0.009259
0.673071 0.186766 0.009259
0.739163 0.187661 0.009259
0.787420 0.184033 0.009259
0.819773 0.177166 0.009259
0.841144 0.168958 0.009259
0.856642 0.160738 0.009259
0.002492 0.112055 0.017917
0.023529 0.112055 0.009259
0.068446 0.112055 0.009259
0.102815 0.112055 0.009259
0.135340 0.112055 0.009259
0.205858 0.141273 0.009259
0.297231 0.175354 0.009259
0.399068 0.206894 0.009259
0.499875 0.231022 0.009259
0.592354 0.246670 0.009259
0.673071 0.254757 0.009259
0.739163 0.256015 0.009259
0.787420 0.251037 0.009259
0.819773 0.241650 0.009259
0.841144 0.230462 0.009259
0.856642 0.219201 0.009259
0.002492 0.178560 0.023437
0.023529 0.178560 0.009259
0.083446 0.178560 0.009259
0.126320 0.178560 0.009259
0.166696 0.178560 0.009259
0.205858 0.178560 0.009259
0.297231 0.221759 0.009259
0.399068 0.261718 0.009259
0.499875 0.292237 0.009259
0.592354 0.312067 0.009259
0.673071 0.322337 0.009259
0.739163 0.323927 0.009259
0.787420 0.317564 0.009259
0.819773 0.305720 0.009259
0.841144 0.291544 0.009259
0.856642 0.277307 0.009259
0.002492 0.268137 0.030045
0.023529 0.268137 0.009259
0.100757 0.268137 0.009259
0.153244 0.268137 0.009259
0.202541 0.268137 0.009259
0.250340 0.268137 0.009259
0.297231 0.268137 0.009259
0.399068 0.316483 0.009259
0.499875 0.353461 0.009259
0.592354 0.377428 0.009259
0.673071 0.389808 0.009259
0.739163 0.391763 0.009259
0.787420 0.384098 0.009259
0.819773 0.369697 0.009259
0.841144 0.352527 0.009259
0.856642 0.335324 0.009259
0.002492 0.371352 0.036306
0.023529 0.371352 0.009259
0.116566 0.371352 0.009259
0.177742 0.371352 0.009259
0.235146 0.371352 0.009259
0.290780 0.371352 0.009259
0.345310 0.371352 0.009259
0.399068 0.371352 0.009259
0.499875 0.414737 0.009259
0.592354 0.442853 0.009259
0.673071 0.457364 0.009259
0.739163 0.459679 0.009259
0.787420 0.450696 0.009259
0.819773 0.433817 0.009259
0.841144 0.413683 0.009259
0.856642 0.393498 0.009259
0.002492 0.476105 0.041186
0.023529 0.476105 0.009259
0.128557 0.476105 0.009259
0.196298 0.476105 0.009259
0.259780 0.476105 0.009259
0.321303 0.476105 0.009259
0.381629 0.476105 0.009259
0.441092 0.476105 0.009259
0.499875 0.476105 0.009259
0.592354 0.508413 0.009259
0.673071 0.525126 0.009259
0.739163 0.527778 0.009259
0.787420 0.517443 0.009259
0.819773 0.498082 0.009259
0.841144 0.474935 0.009259
0.856642 0.451781 0.009259
0.002492 0.574142 0.044394
0.023529 0.574142 0.009259
0.136263 0.574142 0.009259
0.208248 0.574142 0.009259
0.275633 0.574142 0.009259
0.340948 0.574142 0.009259
0.405014 0.574142 0.009259
0.468116 0.574142 0.009259
0.530515 0.574142 0.009259
0.592354 0.574142 0.009259
0.673071 0.593021 0.009259
0.739163 0.595971 0.009259
0.787420 0.584374 0.009259
0.819773 0.562464 0.009259
0.841144 0.536350 0.009259
0.856642 0.510138 0.009259
0.002492 0.660964 0.046072
0.023529 0.660964 0.009259
0.140242 0.660964 0.009259
0.214375 0.660964 0.009259
0.283778 0.660964 0.009259
0.351085 0.660964 0.009259
0.417024 0.660964 0.009259
0.482002 0.660964 0.009259
0.546312 0.660964 0.009259
0.610014 0.660964 0.009259
0.673071 0.660964 0.009259
0.739163 0.664299 0.009259
0.787420 0.651377 0.009259
0.819773 0.626913 0.009259
0.841144 0.597828 0.009259
0.856642 0.568614 0.009259
0.002492 0.732908 0.046349
0.023529 0.732908 0.009259
0.140861 0.732908 0.009259
0.215318 0.732908 0.009259
0.285063 0.732908 0.009259
0.352673 0.732908 0.009259
0.418935 0.732908 0.009259
0.484217 0.732908 0.009259
0.548803 0.732908 0.009259
0.612726 0.732908 0.009259
0.676122 0.732908 0.009259
0.739163 0.732908 0.009259
0.787420 0.718566 0.009259
0.819773 0.691694 0.009259
0.841144 0.659517 0.009259
0.856642 0.627286 0.009259
0.002492 0.785694 0.045336
0.023529 0.785694 0.009259
0.138406 0.785694 0.009259
0.211553 0.785694 0.009259
0.280031 0.785694 0.009259
0.346396 0.785694 0.009259
0.411509 0.785694 0.009259
0.475629 0.785694 0.009259
0.539045 0.785694 0.009259
0.601931 0.785694 0.009259
0.664166 0.785694 0.009259
0.726046 0.785694 0.009259
0.787420 0.785694 0.009259
0.819773 0.756330 0.009259
0.841144 0.721224 0.009259
0.856642 0.685968 0.009259
0.002492 0.821339 0.043430
0.023529 0.821339 0.009259
0.133795 0.821339 0.009259
0.204404 0.821339 0.009259
0.270552 0.821339 0.009259
0.334691 0.821339 0.009259
0.397478 0.821339 0.009259
0.459471 0.821339 0.009259
0.520710 0.821339 0.009259
0.581413 0.821339 0.009259
0.641520 0.821339 0.009259
0.701335 0.821339 0.009259
0.760585 0.821339 0.009259
0.819773 0.821339 0.009259
0.841144 0.783173 0.009259
0.856642 0.744877 0.009259
0.002492 0.845012 0.041166
0.023529 0.845012 0.009259
0.128274 0.845012 0.009259
0.195859 0.845012 0.009259
0.259198 0.845012 0.009259
0.320589 0.845012 0.009259
0.380737 0.845012 0.009259
0.440102 0.845012 0.009259
0.498766 0.845012 0.009259
0.556858 0.845012 0.009259
0.614515 0.845012 0.009259
0.671707 0.845012 0.009259
0.728504 0.845012 0.009259
0.785059 0.845012 0.009259
0.841144 0.845012 0.009259
0.856642 0.803810 0.009259
0.002492 0.862274 0.038904
0.023529 0.862274 0.009259
0.122698 0.862274 0.009259
0.187253 0.862274 0.009259
0.247749 0.862274 0.009259
0.306411 0.862274 0.009259
0.363887 0.862274 0.009259
0.420578 0.862274 0.009259
0.476672 0.862274 0.009259
0.532170 0.862274 0.009259
0.587185 0.862274 0.009259
0.641894 0.862274 0.009259
0.696099 0.862274 0.009259
0.750114 0.862274 0.009259
0.803802 0.862274 0.009259
0.856642 0.862274 0.009259
0.002492 0.000171 0.024407
0.026578 0.000171 0.024407
0.048866 0.000171 0.024407
0.084497 0.000171 0.030792
0.135340 0.000171 0.040032
0.205858 0.000171 0.052364
0.297231 0.000171 0.067129
0.399068 0.000171 0.081027
0.499875 0.000171 0.091744
0.592354 0.000171 0.098727
0.673071 0.000171 0.102381
0.739163 0.000171 0.102978
0.787420 0.000171 0.100784
0.819773 0.000171 0.096641
0.841144 0.000171 0.091700
0.856642 0.000171 0.086745
0.002492 0.017596 0.024407
0.023529 0.015226 0.024407
0.048866 0.015226 0.024407
0.084497 0.015226 0.029708
0.135340 0.015226 0.037661
0.205858 0.015226 0.048497
0.297231 0.015226 0.061608
0.399068 0.015226 0.074069
0.499875 0.015226 0.083704
0.592354 0.015226 0.089981
0.673071 0.015226 0.093234
0.739163 0.015226 0.093757
0.787420 0.015226 0.091745
0.819773 0.015226 0.087955
0.841144 0.015226 0.083476
0.856642 0.015226 0.078980
0.002492 0.035638 0.024407
0.023529 0.035638 0.024407
0.048866 0.035638 0.024407
0.084497 0.035638 0.024407
0.135340 0.035638 0.024407
0.205858 0.035638 0.024407
0.297231 0.035638 0.024407
0.399068 0.035638 0.024407
0.499875 0.035638 0.024407
0.592354 0.035638 0.024407
0.673070 0.035638 0.024407
0.739163 0.035638 0.024407
0.787420 0.035638 0.024407
0.819773 0.035638 0.024407
0.841144 0.035638 0.024407
0.856642 0.035638 0.024407
0.002492 0.066197 0.030792
0.023529 0.066197 0.029708
0.048866 0.066197 0.024407
0.084497 0.066197 0.024407
0.135340 0.077902 0.024407
0.205858 0.094166 0.024407
0.297231 0.113859 0.024407
0.399068 0.132350 0.024407
0.499875 0.146529 0.024407
0.592354 0.155686 0.024407
0.673070 0.160344 0.024407
0.739163 0.160902 0.024407
0.787420 0.157682 0.024407
0.819773 0.151833 0.024407
0.841144 0.144956 0.024407
0.856642 0.138086 0.024407
0.002492 0.112055 0.040032
0.023529 0.112055 0.037661
0.048866 0.112055 0.024407
0.097717 0.112055 0.024407
0.135340 0.112055 0.024407
0.205858 0.137715 0.024407
0.297231 0.168232 0.024407
0.399068 0.196583 0.024407
0.499875 0.218244 0.024407
0.592354 0.232190 0.024407
0.673070 0.239252 0.024407
0.739163 0.240092 0.024407
0.787420 0.235194 0.024407
0.819773 0.226322 0.024407
0.841144 0.215824 0.024407
0.856642 0.205351 0.024407
0.002492 0.178560 0.052364
0.023529 0.178560 0.048497
0.048866 0.178560 0.024407
0.115796 0.178560 0.024407
0.162907 0.178560 0.024407
0.205858 0.178560 0.024407
0.297231 0.218834 0.024407
0.399068 0.256165 0.024407
0.499875 0.284641 0.024407
0.592354 0.302934 0.024407
0.673070 0.312208 0.024407
0.739163 0.313312 0.024407
0.787420 0.306899 0.024407
0.819773 0.295217 0.024407
0.841144 0.281455 0.024407
0.856642 0.267693 0.024407
0.002492 0.268137 0.067129
0.023529 0.268137 0.061608
0.048866 0.268137 0.024407
0.137296 0.268137 0.024407
0.195108 0.268137 0.024407
0.247370 0.268137 0.024407
0.297231 0.268137 0.024407
0.399068 0.314094 0.024407
0.499875 0.349138 0.024407
0.592354 0.371651 0.024407
0.673070 0.383024 0.024407
0.739163 0.384376 0.024407
0.787420 0.376539 0.024407
0.819773 0.362158 0.024407
0.841144 0.345220 0.024407
0.856642 0.328303 0.024407
0.002492 0.371352 0.081027
0.023529 0.371352 0.074069
0.048866 0.371352 0.024407
0.157181 0.371352 0.024407
0.224536 0.371352 0.024407
0.285214 0.371352 0.024407
0.342974 0.371352 0.024407
0.399068 0.371352 0.024407
0.499875 0.412795 0.024407
0.592354 0.439467 0.024407
0.673070 0.452970 0.024407
0.739163 0.454572 0.024407
0.787420 0.445256 0.024407
0.819773 0.428273 0.024407
0.841144 0.408151 0.024407
0.856642 0.388076 0.024407
0.002492 0.476105 0.091744
0.023529 0.476105 0.083704
0.048866 0.476105 0.024407
0.172272 0.476105 0.024407
0.246769 0.476105 0.024407
0.313711 0.476105 0.024407
0.377433 0.476105 0.024407
0.439238 0.476105 0.024407
0.499875 0.476105 0.024407
0.592354 0.506903 0.024407
0.673070 0.522520 0.024407
0.739163 0.524331 0.024407
0.787420 0.513550 0.024407
0.819773 0.493959 0.024407
0.841144 0.470797 0.024407
0.856642 0.447619 0.024407
0.002492 0.574142 0.098727
0.023529 0.574142 0.089981
0.048866 0.574142 0.024407
0.181923 0.574142 0.024407
0.260965 0.574142 0.024407
0.331916 0.574142 0.024407
0.399380 0.574142 0.024407
0.464857 0.574142 0.024407
0.529099 0.574142 0.024407
0.592354 0.574142 0.024407
0.673070 0.591803 0.024407
0.739163 0.593918 0.024407
0.787420 0.581709 0.024407
0.819773 0.559493 0.024407
0.841144 0.533219 0.024407
0.856642 0.506976 0.024407
0.002492 0.660964 0.102381
0.023529 0.660964 0.093234
0.048866 0.660964 0.024407
0.186834 0.660964 0.024407
0.268128 0.660964 0.024407
0.341081 0.660964 0.024407
0.410458 0.660964 0.024407
0.477822 0.660964 0.024407
0.543864 0.660964 0.024407
0.608828 0.660964 0.024407
0.673070 0.660964 0.024407
0.739163 0.663304 0.024407
0.787420 0.649708 0.024407
0.819773 0.624894 0.024407
0.841144 0.595570 0.024407
0.856642 0.566185 0.024407
0.002492 0.732908 0.102978
0.023529 0.732908 0.093757
0.048866 0.732907 0.024407
0.187401 0.732907 0.024407
0.268965 0.732907 0.024407
0.342186 0.732907 0.024407
0.411781 0.732907 0.024407
0.479335 0.732907 0.024407
0.545549 0.732907 0.024407
0.610868 0.732907 0.024407
0.675232 0.732907 0.024407
0.739163 0.732907 0.024407
0.787420 0.717808 0.024407
0.819773 0.690417 0.024407
0.841144 0.657986 0.024407
0.856642 0.625560 0.024407
0.002492 0.785694 0.100784
0.023529 0.785694 0.091745
0.048866 0.785694 0.024407
0.184034 0.785694 0.024407
0.264021 0.785694 0.024407
0.335829 0.785694 0.024407
0.404106 0.785694 0.024407
0.470417 0.785694 0.024407
0.535395 0.785694 0.024407
0.599416 0.785694 0.024407
0.662676 0.785694 0.024407
0.725395 0.785694 0.024407
0.787420 0.785694 0.024407
0.819773 0.755776 0.024407
0.841144 0.720229 0.024407
0.856642 0.684676 0.024407
0.002492 0.821339 0.096641
0.023529 0.821339 0.087955
0.048866 0.821339 0.024407
0.177882 0.821339 0.024407
0.255008 0.821339 0.024407
0.324282 0.821339 0.024407
0.390142 0.821339 0.024407
0.454123 0.821339 0.024407
0.516833 0.821339 0.024407
0.578660 0.821339 0.024407
0.639660 0.821339 0.024407
0.700182 0.821339 0.024407
0.760084 0.821339 0.024407
0.819773 0.821339 0.024407
0.841144 0.782711 0.024407
0.856642 0.744085 0.024407
0.002492 0.845012 0.091700
0.023529 0.845012 0.083476
0.048866 0.845012 0.024407
0.170583 0.845012 0.024407
0.244297 0.845012 0.024407
0.310571 0.845012 0.024407
0.373575 0.845012 0.024407
0.434794 0.845012 0.024407
0.494844 0.845012 0.024407
0.553975 0.845012 0.024407
0.612361 0.845012 0.024407
0.670251 0.845012 0.024407
0.727533 0.845012 0.024407
0.784635 0.845012 0.024407
0.841144 0.845012 0.024407
0.856642 0.803445 0.024407
0.002492 0.862274 0.086745
0.023529 0.862274 0.078980
0.048866 0.862274 0.024407
0.163295 0.862274 0.024407
0.233552 0.862274 0.024407
0.296768 0.862274 0.024407
0.356947 0.862274 0.024407
0.415367 0.862274 0.024407
0.472713 0.862274 0.024407
0.529172 0.862274 0.024407
0.584913 0.862274 0.024407
0.640276 0.862274 0.024407
0.694905 0.862274 0.024407
0.749406 0.862274 0.024407
0.803479 0.862274 0.024407
0.856642 0.862274 0.024407
0.002492 0.000171 0.049275
0.031611 0.000171 0.049275
0.058503 0.000171 0.049275
0.084497 0.000171 0.049275
0.135340 0.000171 0.064067
0.205858 0.000171 0.083681
0.297231 0.000171 0.106721
0.399068 0.000171 0.128257
0.499875 0.000171 0.144818
0.592354 0.000171 0.155640
0.673071 0.000171 0.161296
0.739163 0.000171 0.162235
0.787420 0.000171 0.158825
0.819773 0.000171 0.152419
0.841144 0.000171 0.144767
0.856642 0.000171 0.137108
0.002492 0.021568 0.049275
0.023529 0.015226 0.049275
0.056897 0.015226 0.049275
0.084497 0.015226 0.049275
0.135340 0.015226 0.063205
0.205858 0.015226 0.081895
0.297231 0.015226 0.103993
0.399068 0.015226 0.124649
0.499875 0.015226 0.140567
0.592354 0.015226 0.150932
0.673071 0.015226 0.156313
0.739163 0.015226 0.157139
0.787420 0.015226 0.153833
0.819773 0.015226 0.147602
0.841144 0.015226 0.140183
0.856642 0.015226 0.132767
0.002492 0.043732 0.049275
0.023529 0.042371 0.049275
0.048866 0.035638 0.049275
0.084497 0.035638 0.049275
0.135340 0.035638 0.059262
0.205858 0.035638 0.073448
0.297231 0.035638 0.090824
0.399068 0.035638 0.107268
0.499875 0.035638 0.119984
0.592354 0.035638 0.128215
0.673070 0.035638 0.132396
0.739163 0.035638 0.132901
0.787420 0.035638 0.129997
0.819773 0.035638 0.124739
0.841144 0.035638 0.118562
0.856642 0.035638 0.112407
0.002492 0.066197 0.049275
0.023529 0.066197 0.049275
0.048866 0.066197 0.049275
0.084497 0.066197 0.049275
0.135340 0.066197 0.049275
0.205858 0.066197 0.049275
0.297231 0.066197 0.049275
0.399068 0.066197 0.049275
0.499875 0.066197 0.049275
0.592354 0.066197 0.049275
0.673071 0.066197 0.049275
0.739163 0.066197 0.049275
0.787420 0.066197 0.049275
0.819773 0.066197 0.049275
0.841144 0.066197 0.049275
0.856642 0.066197 0.049275
0.002492 0.112055 0.064067
0.023529 0.112055 0.063205
0.048866 0.112055 0.059262
0.084497 0.112055 0.049275
0.135340 0.112055 0.049275
0.205858 0.129404 0.049275
0.297231 0.151171 0.049275
0.399068 0.171817 0.049275
0.499875 0.187661 0.049275
0.592354 0.197742 0.049275
0.673071 0.202585 0.049275
0.739163 0.202713 0.049275
0.787420 0.198452 0.049275
0.819773 0.191175 0.049275
0.841144 0.182763 0.049275
0.856642 0.174450 0.049275
0.002492 0.178560 0.083681
0.023529 0.178560 0.081895
0.048866 0.178560 0.073448
0.084497 0.178560 0.049275
0.154035 0.178560 0.049275
0.205858 0.178560 0.049275
0.297231 0.212342 0.049275
0.399068 0.243828 0.049275
0.499875 0.267718 0.049275
0.592354 0.282839 0.049275
0.673071 0.290120 0.049275
0.739163 0.290291 0.049275
0.787420 0.283906 0.049275
0.819773 0.272997 0.049275
0.841144 0.260335 0.049275
0.856642 0.247773 0.049275
0.002492 0.268137 0.106721
0.023529 0.268137 0.103993
0.048866 0.268137 0.090824
0.084497 0.268137 0.049275
0.177200 0.268137 0.049275
0.240722 0.268137 0.049275
0.297231 0.268137 0.049275
0.399068 0.309001 0.049275
0.499875 0.339870 0.049275
0.592354 0.359325 0.049275
0.673071 0.368762 0.049275
0.739163 0.368938 0.049275
0.787420 0.360755 0.049275
0.819773 0.346647 0.049275
0.841144 0.330276 0.049275
0.856642 0.314068 0.049275
0.002492 0.371352 0.128257
0.023529 0.371352 0.124649
0.048866 0.371352 0.107268
0.084497 0.371352 0.049275
0.198860 0.371352 0.049275
0.272761 0.371352 0.049275
0.337910 0.371352 0.049275
0.399068 0.371352 0.049275
