src/luts/contrast/6.cube
LUT_3D_SIZE 6
0.002492 0.000171 0.000000
0.084497 0.000171 0.000000
0.297231 0.000171 0.000000
0.592354 0.000171 0.000000
0.787420 0.000171 0.000000
0.856642 0.000171 0.000000
0.002492 0.066197 0.000000
0.084497 0.066197 0.000000
0.297231 0.131736 0.000000
0.592354 0.186006 0.000000
0.787420 0.189516 0.000000
0.856642 0.165556 0.000000
0.002492 0.268137 0.000000
0.156518 0.268137 0.000000
0.297231 0.268137 0.000000
0.592354 0.378725 0.000000
0.787420 0.385849 0.000000
0.856642 0.337025 0.000000
0.002492 0.574142 0.000000
0.213620 0.574142 0.000000
0.406256 0.574142 0.000000
0.592354 0.574142 0.000000
0.787420 0.584966 0.000000
0.856642 0.510897 0.000000
0.002492 0.785694 0.000000
0.217242 0.785694 0.000000
0.413190 0.785694 0.000000
0.602485 0.785694 0.000000
0.787420 0.785694 0.000000
0.856642 0.686297 0.000000
0.002492 0.862274 0.000000
0.192280 0.862274 0.000000
0.365539 0.862274 0.000000
0.532866 0.862274 0.000000
0.696436 0.862274 0.000000
0.856642 0.862274 0.000000
0.002492 0.000171 0.049275
0.084497 0.000171 0.049275
0.297231 0.000171 0.106721
0.592354 0.000171 0.155640
0.787420 0.000171 0.158825
0.856642 0.000171 0.137108
0.002492 0.066197 0.049275
0.084497 0.066197 0.049275
0.297231 0.066197 0.049275
0.592354 0.066197 0.049275
0.787420 0.066197 0.049275
0.856642 0.066197 0.049275
0.002492 0.268137 0.106721
0.084497 0.268137 0.049275
0.297231 0.268137 0.049275
0.592354 0.359325 0.049275
0.787420 0.360755 0.049275
0.856642 0.314068 0.049275
0.002492 0.574142 0.155640
0.084497 0.574142 0.049275
0.387410 0.574142 0.049275
0.592354 0.574142 0.049275
0.787420 0.576363 0.049275
0.856642 0.500794 0.049275
0.002492 0.785694 0.158825
0.084497 0.785694 0.049275
0.388758 0.785694 0.049275
0.594441 0.785694 0.049275
0.787420 0.785694 0.049275
0.856642 0.682311 0.049275
0.002492 0.862274 0.137108
0.084497 0.862274 0.049275
0.342966 0.862274 0.049275
0.523308 0.862274 0.049275
0.692788 0.862274 0.049275
0.856642 0.862274 0.049275
0.002492 0.000171 0.230914
0.156518 0.000171 0.230914
0.297231 0.000171 0.230914
0.592354 0.000171 0.334017
0.787420 0.000171 0.340713
0.856642 0.000171 0.294929
0.002492 0.131736 0.230914
0.084497 0.066197 0.230914
0.297231 0.066197 0.230914
0.592354 0.066197 0.315810
0.787420 0.066197 0.317126
0.856642 0.066197 0.273557
0.002492 0.268137 0.230914
0.084497 0.268137 0.230914
0.297231 0.268137 0.230914
0.592354 0.268137 0.230914
0.787420 0.268137 0.230914
0.856642 0.268137 0.230914
0.002492 0.574142 0.334017
0.084497 0.574142 0.315810
0.297231 0.574142 0.230914
0.592354 0.574142 0.230914
0.787420 0.550239 0.230914
0.856642 0.482661 0.230914
0.002492 0.785694 0.340713
0.084497 0.785694 0.317126
0.297231 0.785694 0.230914
0.569964 0.785694 0.230914
0.787420 0.785694 0.230914
0.856642 0.675459 0.230914
0.002492 0.862274 0.294929
0.084497 0.862274 0.273557
0.297231 0.862274 0.230914
0.506108 0.862274 0.230914
0.686447 0.862274 0.230914
0.856642 0.862274 0.230914
0.002492 0.000171 0.519480
0.213620 0.000171 0.519480
0.406256 0.000171 0.519480
0.592354 0.000171 0.519480
0.787420 0.000171 0.529862
0.856642 0.000171 0.459078
0.002492 0.186006 0.519480
0.084497 0.066197 0.519480
0.387410 0.066197 0.519480
0.592354 0.066197 0.519480
0.787420 0.066197 0.521630
0.856642 0.066197 0.449456
0.002492 0.378725 0.519480
0.084497 0.359325 0.519480
0.297231 0.268137 0.519480
0.592354 0.268137 0.519480
0.787420 0.268137 0.496603
0.856642 0.268137 0.432232
0.002492 0.574142 0.519480
0.084497 0.574142 0.519480
0.297231 0.574142 0.519480
0.592354 0.574142 0.519480
0.787420 0.574142 0.519480
0.856642 0.574142 0.519480
0.002492 0.785694 0.529862
0.084497 0.785694 0.521630
0.297231 0.785694 0.496603
0.592354 0.785694 0.519480
0.787420 0.785694 0.519480
0.856642 0.712640 0.519480
0.002492 0.862274 0.459078
0.084497 0.862274 0.449456
0.297231 0.862274 0.432232
0.592354 0.862274 0.519480
0.720593 0.862274 0.519480
0.856642 0.862274 0.519480
0.002492 0.000171 0.723677
0.217242 0.000171 0.723677
0.413190 0.000171 0.723677
0.602485 0.000171 0.723677
0.787420 0.000171 0.723677
0.856642 0.000171 0.627380
0.002492 0.189516 0.723677
0.084497 0.066197 0.723677
0.388758 0.066197 0.723677
0.594441 0.066197 0.723677
0.787420 0.066197 0.723677
0.856642 0.066197 0.623499
0.002492 0.385849 0.723677
0.084497 0.360755 0.723677
0.297231 0.268137 0.723677
0.569964 0.268137 0.723677
0.787420 0.268137 0.723677
0.856642 0.268137 0.616878
0.002492 0.584966 0.723677
0.084497 0.576363 0.723677
0.297231 0.550239 0.723677
0.592354 0.574142 0.723677
0.787420 0.574142 0.723677
0.856642 0.574142 0.652889
0.002492 0.785694 0.723677
0.084497 0.785694 0.723677
0.297231 0.785694 0.723677
0.592354 0.785694 0.723677
0.787420 0.785694 0.723677
0.856642 0.785694 0.723677
0.002492 0.862274 0.627380
0.084497 0.862274 0.623499
0.297231 0.862274 0.616878
0.592354 0.862274 0.652889
0.787420 0.862274 0.723677
0.856642 0.862274 0.723677
0.002492 0.000171 0.798150
0.192280 0.000171 0.798150
0.365539 0.000171 0.798150
0.532866 0.000171 0.798150
0.696436 0.000171 0.798150
0.856642 0.000171 0.798150
0.002492 0.165556 0.798150
0.084497 0.066197 0.798150
0.342966 0.066197 0.798150
0.523308 0.066197 0.798150
0.692788 0.066197 0.798150
0.856642 0.066197 0.798150
0.002492 0.337025 0.798150
0.084497 0.314068 0.798150
0.297231 0.268137 0.798150
0.506108 0.268137 0.798150
0.686447 0.268137 0.798150
0.856642 0.268137 0.798150
0.002492 0.510897 0.798150
0.084497 0.500794 0.798150
0.297231 0.482661 0.798150
0.592354 0.574142 0.798150
0.720593 0.574142 0.798150
0.856642 0.574142 0.798150
0.002492 0.686297 0.798150
0.084497 0.682311 0.798150
0.297231 0.675459 0.798150
0.592354 0.712640 0.798150
0.787420 0.785694 0.798150
0.856642 0.785694 0.798150
0.002492 0.862274 0.798150
0.084497 0.862274 0.798150
0.297231 0.862274 0.798150
0.592354 0.862274 0.798150
0.787420 0.862274 0.798150
0.856642 0.862274 0.798150
