src/luts/contrast/7.cube
LUT_3D_SIZE 6
0.051788 0.055222 0.051761
0.119742 0.070495 0.064565
0.293321 0.078461 0.071242
0.539867 0.080925 0.073321
0.772074 0.084744 0.076523
0.913204 0.098070 0.087750
0.074382 0.123584 0.069711
0.125669 0.124450 0.070647
0.294249 0.139645 0.072464
0.540176 0.151172 0.073810
0.772361 0.152868 0.077867
0.913449 0.151439 0.090404
0.079669 0.279021 0.073888
0.143557 0.279178 0.074055
0.296250 0.279833 0.075008
0.542390 0.309769 0.078085
0.774708 0.309676 0.086283
0.915057 0.286452 0.102960
0.096686 0.504103 0.087290
0.166219 0.504494 0.088049
0.337360 0.506243 0.091483
0.554273 0.510169 0.099110
0.781692 0.503992 0.111027
0.918258 0.455325 0.127141
0.146626 0.714657 0.126451
0.200028 0.714806 0.127256
0.353448 0.715697 0.130638
0.557827 0.717394 0.137451
0.792387 0.720107 0.148119
0.923017 0.642752 0.162855
0.210555 0.836231 0.176454
0.243577 0.836277 0.177171
0.355209 0.836762 0.180200
0.519188 0.837439 0.186309
0.714174 0.838641 0.195870
0.929535 0.840288 0.209193
0.062520 0.065428 0.102298
0.120945 0.072010 0.106343
0.293462 0.078682 0.122222
0.539900 0.080991 0.132493
0.772134 0.084887 0.133486
0.913231 0.098380 0.131372
0.074828 0.123913 0.109593
0.125914 0.124666 0.110233
0.294219 0.126210 0.111539
0.540218 0.127455 0.112598
0.772422 0.131415 0.115959
0.913439 0.144020 0.126667
0.079750 0.279065 0.123958
0.129200 0.279133 0.112809
0.296337 0.279888 0.113597
0.542460 0.302343 0.116139
0.774755 0.301501 0.123084
0.915038 0.284031 0.137822
0.097008 0.504198 0.141439
0.144297 0.504588 0.124629
0.329934 0.506378 0.127616
0.554440 0.510302 0.134379
0.781722 0.501581 0.145146
0.918282 0.455209 0.160003
0.146969 0.714681 0.167819
0.189654 0.714880 0.160111
0.348456 0.715763 0.163257
0.555983 0.717447 0.169589
0.792477 0.720170 0.179583
0.923118 0.643458 0.193398
0.210900 0.836311 0.201852
0.249462 0.836363 0.206835
0.359327 0.836744 0.209713
0.521861 0.837419 0.215518
0.715473 0.838656 0.224551
0.929492 0.840255 0.237080
0.071095 0.073536 0.238729
0.139124 0.075758 0.239765
0.293896 0.079396 0.241593
0.539988 0.081237 0.267561
0.772231 0.085555 0.266290
0.913345 0.099704 0.243768
0.076246 0.138617 0.241088
0.126710 0.125406 0.241386
0.294516 0.126458 0.242074
0.540297 0.127705 0.261116
0.772720 0.132082 0.259035
0.913689 0.145262 0.241568
0.080096 0.279170 0.242877
0.129499 0.279400 0.243064
0.296607 0.280140 0.243711
0.542837 0.282611 0.245855
0.774986 0.289077 0.251475
0.915277 0.302435 0.263093
0.098418 0.504777 0.274232
0.145550 0.505272 0.268605
0.311104 0.507048 0.255060
0.555258 0.511004 0.260404
0.781965 0.499330 0.268798
0.918343 0.468293 0.280515
0.148446 0.714973 0.286857
0.191044 0.715119 0.283063
0.346918 0.716080 0.283065
0.556241 0.717744 0.288111
0.792917 0.720648 0.296055
0.923274 0.651091 0.307108
0.212199 0.836471 0.288040
0.250736 0.836500 0.291458
0.394301 0.836844 0.320181
0.543471 0.837615 0.324835
0.725902 0.838776 0.332146
0.929703 0.840434 0.342259
0.075915 0.078077 0.433428
0.152940 0.078756 0.433677
0.326653 0.080231 0.434215
0.540222 0.081807 0.434704
0.772626 0.087087 0.431421
0.913578 0.102551 0.387485
0.077709 0.150152 0.433995
0.127605 0.126228 0.434138
0.318343 0.126856 0.434386
0.540608 0.128300 0.434991
0.772976 0.133519 0.428727
0.913923 0.147900 0.386587
0.080916 0.308209 0.435040
0.130225 0.300672 0.435130
0.297398 0.280839 0.435708
0.543645 0.283740 0.437367
0.775585 0.290822 0.427226
0.915511 0.304469 0.399089
0.101440 0.505998 0.442052
0.148227 0.506365 0.442377
0.313424 0.508297 0.444087
0.556763 0.512359 0.447662
0.782724 0.518671 0.453310
0.918689 0.527386 0.461035
0.151452 0.715529 0.446187
0.193819 0.715830 0.444767
0.349114 0.716664 0.445303
0.580259 0.718438 0.466154
0.793547 0.721140 0.471388
0.923452 0.679347 0.478683
0.214892 0.836693 0.415639
0.253230 0.836773 0.417675
0.396311 0.837206 0.435160
0.611143 0.837901 0.490454
0.758635 0.839013 0.495259
0.929849 0.840629 0.501902
0.078091 0.080124 0.616514
0.152843 0.080336 0.616548
0.323935 0.081059 0.616656
0.535017 0.083082 0.617004
0.773237 0.089986 0.618189
0.914134 0.107424 0.551048
0.078766 0.149714 0.616604
0.128362 0.126922 0.616670
0.313801 0.127526 0.616782
0.531321 0.129626 0.617240
0.773818 0.136236 0.618670
0.914510 0.152279 0.550943
0.082727 0.305785 0.617315
0.131815 0.296825 0.617329
0.298938 0.282235 0.617711
0.527518 0.285774 0.618698
0.776756 0.293925 0.620987
0.915979 0.307738 0.557319
0.106632 0.498786 0.621186
0.152881 0.496113 0.621488
0.317135 0.493549 0.622245
0.559221 0.514519 0.623988
0.783807 0.520746 0.626571
0.919143 0.529480 0.587349
0.156190 0.716484 0.630082
0.198220 0.716732 0.630314
0.352558 0.717603 0.631076
0.582467 0.719304 0.632568
0.794585 0.722022 0.635044
0.924028 0.725789 0.638471
0.219148 0.837071 0.568547
0.257294 0.837210 0.569573
0.399550 0.837471 0.577863
0.613366 0.838199 0.604772
0.808469 0.839384 0.646008
0.930373 0.841003 0.648893
0.079351 0.081302 0.727425
0.141444 0.081495 0.727473
0.290307 0.082485 0.727549
0.476198 0.085804 0.727842
0.686177 0.094987 0.728601
0.914852 0.114434 0.730054
0.080089 0.139288 0.727486
0.129491 0.127967 0.727569
0.284853 0.129027 0.727603
0.473706 0.132299 0.727871
0.685478 0.140886 0.728721
0.915271 0.158417 0.730424
0.086317 0.276114 0.727937
0.134923 0.271474 0.728015
0.301880 0.284890 0.728143
0.484855 0.289348 0.728766
0.692531 0.298659 0.729917
0.916774 0.312349 0.731600
0.114187 0.446991 0.730060
0.159618 0.445813 0.730176
0.322362 0.456747 0.730474
0.562635 0.517552 0.731274
0.730411 0.523762 0.732401
0.919891 0.532460 0.734048
0.162901 0.637142 0.733952
0.204467 0.637590 0.734085
0.357462 0.644731 0.734483
0.585701 0.673904 0.735095
0.796000 0.723259 0.736328
0.924691 0.727011 0.737836
0.225119 0.837635 0.739273
0.262937 0.837785 0.739511
0.404084 0.837982 0.739708
0.616123 0.838786 0.740414
0.809643 0.840050 0.741552
0.930950 0.841526 0.742852
