src/luts/contrast/7.cube
LUT_3D_SIZE 16
0.051788 0.055222 0.051761
0.061988 0.060367 0.056071
0.085104 0.065883 0.060692
0.119742 0.070495 0.064565
0.166051 0.074077 0.067565
0.224377 0.076691 0.069762
0.293321 0.078461 0.071242
0.370815 0.079610 0.072214
0.454132 0.080348 0.072831
0.539867 0.080925 0.073321
0.624322 0.081660 0.073934
0.703178 0.082821 0.074906
0.772074 0.084744 0.076523
0.828186 0.087748 0.079050
0.873710 0.092095 0.082706
0.913204 0.098070 0.087750
0.061094 0.068438 0.059178
0.066725 0.069405 0.060033
0.087095 0.072444 0.062569
0.120629 0.076096 0.065498
0.166506 0.079469 0.068059
0.224575 0.082238 0.070005
0.293439 0.084360 0.071379
0.370833 0.085895 0.072277
0.454089 0.086973 0.072866
0.539891 0.087817 0.073354
0.624298 0.088649 0.073976
0.703156 0.089701 0.074967
0.772118 0.091301 0.076611
0.828235 0.093749 0.079172
0.873765 0.097477 0.082870
0.913205 0.102773 0.087921
0.069190 0.091624 0.065601
0.073920 0.091879 0.065849
0.091592 0.092783 0.066745
0.123173 0.095455 0.068122
0.167899 0.098870 0.069597
0.225315 0.102496 0.070873
0.293775 0.105842 0.071847
0.371006 0.108701 0.072523
0.454211 0.110960 0.073024
0.539979 0.112617 0.073498
0.624353 0.113783 0.074165
0.703305 0.114560 0.075243
0.772169 0.115187 0.076997
0.828297 0.116019 0.079690
0.873868 0.117737 0.083530
0.913205 0.120939 0.088739
0.074382 0.123584 0.069711
0.079023 0.123645 0.069787
0.096616 0.123942 0.070100
0.125669 0.124450 0.070647
0.169426 0.128939 0.071288
0.226196 0.134295 0.071930
0.294249 0.139645 0.072464
0.371261 0.144434 0.072902
0.454403 0.148340 0.073313
0.540176 0.151172 0.073810
0.624431 0.152840 0.074597
0.703469 0.153378 0.075882
0.772361 0.152868 0.077867
0.828516 0.151729 0.080820
0.874074 0.150948 0.084924
0.913449 0.151439 0.090404
0.077163 0.165212 0.071904
0.082094 0.165258 0.071936
0.100747 0.165316 0.072034
0.131462 0.165489 0.072232
0.170531 0.165706 0.072486
0.226900 0.173430 0.072760
0.294660 0.181241 0.073046
0.371616 0.188386 0.073374
0.454696 0.194215 0.073800
0.540427 0.198412 0.074453
0.624923 0.200714 0.075491
0.704014 0.201101 0.077076
0.772821 0.199466 0.079463
0.828859 0.196343 0.082809
0.874498 0.193063 0.087331
0.913839 0.190802 0.093224
0.078520 0.217278 0.072972
0.083946 0.217290 0.072990
0.104284 0.217301 0.073024
0.137457 0.217380 0.073114
0.179398 0.217479 0.073251
0.227463 0.217613 0.073447
0.295211 0.228280 0.073714
0.372118 0.238015 0.074145
0.455275 0.245990 0.074752
0.541087 0.251710 0.075698
0.625589 0.254752 0.077140
0.704671 0.254902 0.079209
0.773516 0.252213 0.082094
0.829494 0.247076 0.086013
0.875063 0.241344 0.091094
0.914312 0.236386 0.097447
0.079669 0.279021 0.073888
0.085628 0.279060 0.073901
0.107788 0.279086 0.073961
0.143557 0.279178 0.074055
0.188488 0.279250 0.074261
0.239892 0.279448 0.074563
0.296250 0.279833 0.075008
0.373196 0.292285 0.075697
0.456454 0.302511 0.076686
0.542390 0.309769 0.078085
0.626975 0.313546 0.080065
0.706077 0.313588 0.082742
0.774708 0.309676 0.086283
0.830530 0.302575 0.090855
0.875831 0.294302 0.096572
0.915057 0.286452 0.102960
0.082082 0.348992 0.075791
0.088453 0.349010 0.075813
0.112094 0.349107 0.075918
0.150052 0.349201 0.076129
0.197668 0.349468 0.076472
0.251998 0.349762 0.076995
0.311522 0.350238 0.077765
0.375453 0.350945 0.078841
0.458743 0.363456 0.080326
0.544675 0.372186 0.082308
0.629158 0.376627 0.084922
0.707972 0.376343 0.088304
0.776488 0.371215 0.092562
0.831941 0.361869 0.097812
0.876812 0.350833 0.103547
0.915870 0.340013 0.109731
0.087289 0.425056 0.079896
0.093800 0.425085 0.079922
0.118127 0.425225 0.080088
0.157405 0.425350 0.080427
0.206836 0.425700 0.080985
0.263379 0.426153 0.081801
0.325449 0.426822 0.082955
0.392022 0.427687 0.084490
0.462764 0.428878 0.086534
0.548453 0.438950 0.089121
0.632683 0.443884 0.092449
0.711012 0.443043 0.096526
0.778778 0.436260 0.101155
0.833568 0.424288 0.106252
0.878116 0.410247 0.111783
0.917057 0.396474 0.117790
0.096686 0.504103 0.087290
0.103025 0.504142 0.087346
0.126911 0.504219 0.087576
0.166219 0.504494 0.088049
0.216251 0.504885 0.088809
0.273928 0.505429 0.089941
0.337360 0.506243 0.091483
0.405605 0.507290 0.093482
0.478085 0.508597 0.096068
0.554273 0.510169 0.099110
0.637652 0.514915 0.102631
0.714938 0.512885 0.106608
0.781692 0.503992 0.111027
0.835668 0.489232 0.115947
0.879788 0.472113 0.121300
0.918258 0.455325 0.127141
0.111242 0.582227 0.098725
0.117020 0.582185 0.098783
0.139319 0.582313 0.099048
0.177075 0.582561 0.099592
0.226164 0.582863 0.100461
0.283343 0.583487 0.101696
0.346647 0.584237 0.103323
0.414900 0.585024 0.105358
0.487485 0.586111 0.107814
0.563781 0.587430 0.110723
0.643406 0.588973 0.114064
0.719365 0.585381 0.117882
0.784870 0.574038 0.122143
0.837874 0.556308 0.126902
0.881420 0.535989 0.132098
0.919622 0.516202 0.137781
0.128250 0.653981 0.112066
0.133331 0.654027 0.112116
0.153417 0.654081 0.112375
0.188449 0.654215 0.112882
0.235097 0.654497 0.113711
0.290298 0.655038 0.114884
0.351917 0.655439 0.116420
0.418765 0.656153 0.118364
0.490004 0.657058 0.120723
0.564910 0.658015 0.123497
0.643097 0.659143 0.126723
0.724575 0.660505 0.130408
0.788507 0.646343 0.134522
0.840601 0.625268 0.139134
0.883349 0.601790 0.144203
0.921330 0.578830 0.149721
0.146626 0.714657 0.126451
0.150981 0.714610 0.126508
0.168536 0.714698 0.126757
0.200028 0.714806 0.127256
0.243080 0.714877 0.128037
0.294861 0.715241 0.129160
0.353448 0.715697 0.130638
0.417357 0.716136 0.132507
0.485744 0.716770 0.134778
0.557827 0.717394 0.137451
0.633219 0.718332 0.140580
0.711563 0.719178 0.144140
0.792387 0.720107 0.148119
0.843423 0.695695 0.152600
0.885594 0.668816 0.157500
0.923017 0.642752 0.162855
0.166540 0.762936 0.142038
0.170188 0.762851 0.142081
0.185096 0.762879 0.142334
0.212591 0.763000 0.142808
0.251130 0.763177 0.143572
0.298500 0.763453 0.144663
0.352745 0.763569 0.146063
0.412478 0.764006 0.147884
0.476839 0.764390 0.150066
0.544995 0.764841 0.152654
0.616251 0.765450 0.155672
0.690639 0.766077 0.159090
0.767350 0.766843 0.162967
0.846579 0.767715 0.167285
0.888022 0.737224 0.172021
0.924923 0.708013 0.177249
0.187829 0.801980 0.158686
0.190880 0.801998 0.158739
0.203390 0.802052 0.158992
0.226961 0.802129 0.159447
0.260793 0.802155 0.160166
0.303245 0.802274 0.161231
0.352702 0.802603 0.162584
0.407700 0.802794 0.164341
0.467421 0.803036 0.166439
0.531000 0.803440 0.168948
0.597885 0.803975 0.171823
0.667619 0.804397 0.175145
0.739708 0.804896 0.178877
0.814263 0.805521 0.183042
0.890589 0.806145 0.187631
0.927240 0.773835 0.192647
0.210555 0.836231 0.176454
0.213116 0.836248 0.176525
0.223543 0.836321 0.176744
0.243577 0.836277 0.177171
0.273029 0.836421 0.177877
0.310677 0.836473 0.178880
0.355209 0.836762 0.180200
0.405379 0.836931 0.181878
0.460345 0.837226 0.183925
0.519188 0.837439 0.186309
0.581455 0.837877 0.189098
0.646600 0.838154 0.192279
0.714174 0.838641 0.195870
0.784219 0.839178 0.199912
0.855918 0.839642 0.204340
0.929535 0.840288 0.209193
0.054992 0.058280 0.058238
0.062727 0.061115 0.060477
0.085346 0.066151 0.064624
0.119843 0.070624 0.068463
0.166119 0.074146 0.071671
0.224407 0.076715 0.074193
0.293334 0.078481 0.076090
0.370825 0.079628 0.077440
0.454136 0.080345 0.078374
0.539868 0.080928 0.079079
0.624326 0.081671 0.079772
0.703115 0.082827 0.080642
0.772079 0.084755 0.081965
0.828191 0.087763 0.084012
0.873715 0.092113 0.087111
0.913211 0.098099 0.091559
0.061484 0.068789 0.063128
0.067035 0.069702 0.063893
0.087261 0.072471 0.066216
0.120726 0.075749 0.068965
0.166538 0.078641 0.071399
0.224603 0.080867 0.073263
0.293416 0.082441 0.074591
0.370843 0.083464 0.075446
0.454092 0.084133 0.076014
0.539893 0.084699 0.076484
0.624302 0.085417 0.077090
0.703165 0.086585 0.078072
0.772122 0.088493 0.079677
0.828240 0.091453 0.082177
0.873771 0.095747 0.085788
0.913211 0.101665 0.090783
0.069299 0.091710 0.069190
0.073864 0.091970 0.069299
0.091685 0.092853 0.070140
0.123221 0.095266 0.071448
0.167906 0.098292 0.072866
0.225313 0.101487 0.074089
0.293797 0.104407 0.075025
0.371013 0.106873 0.075690
0.454214 0.108814 0.076173
0.539981 0.110274 0.076634
0.624353 0.111329 0.077282
0.703308 0.112165 0.078323
0.772161 0.113015 0.080057
0.828301 0.114191 0.082689
0.873873 0.116338 0.086446
0.913212 0.119990 0.091557
0.074415 0.123589 0.073323
0.078607 0.123682 0.073047
0.096401 0.123950 0.073352
0.125686 0.124455 0.073869
0.169457 0.128671 0.074499
0.226206 0.133699 0.075110
0.294225 0.138682 0.075640
0.371267 0.143174 0.076061
0.454405 0.146834 0.076445
0.540180 0.149502 0.076943
0.624438 0.151085 0.077713
0.703471 0.151632 0.078949
0.772366 0.151270 0.080904
0.828521 0.150361 0.083785
0.874080 0.149879 0.087805
0.913456 0.150692 0.093187
0.077181 0.165225 0.075786
0.081220 0.165254 0.075114
0.100131 0.165327 0.075206
0.131164 0.165499 0.075405
0.170539 0.165713 0.075640
0.226905 0.173124 0.075917
0.294679 0.180685 0.076206
0.371620 0.187539 0.076506
0.454698 0.193189 0.076922
0.540433 0.197230 0.077571
0.624928 0.199464 0.078566
0.703974 0.199811 0.080132
0.772827 0.198285 0.082444
0.828866 0.195312 0.085746
0.874504 0.192252 0.090172
0.913847 0.190254 0.095975
0.078521 0.217282 0.077249
0.082520 0.217293 0.076135
0.103242 0.217303 0.076179
0.136778 0.217383 0.076259
0.179084 0.217485 0.076397
0.227467 0.217615 0.076570
0.295220 0.227998 0.076855
0.372116 0.237501 0.077245
0.455279 0.245313 0.077860
0.541072 0.250860 0.078785
0.625596 0.253816 0.080172
0.704681 0.253979 0.082216
0.773524 0.251307 0.085036
0.829500 0.246347 0.088871
0.875070 0.240742 0.093877
0.914320 0.236001 0.100123
0.079674 0.279028 0.078578
0.083641 0.279070 0.077019
0.106260 0.279084 0.077062
0.142550 0.279174 0.077188
0.187860 0.279248 0.077373
0.239593 0.279462 0.077663
0.296290 0.279869 0.078110
0.373206 0.292063 0.078766
0.456461 0.302116 0.079734
0.542398 0.309200 0.081117
0.626851 0.312876 0.083041
0.706091 0.312858 0.085653
0.774716 0.309029 0.089152
0.830539 0.301979 0.093653
0.875840 0.293870 0.099280
0.915030 0.286173 0.105572
0.082081 0.348994 0.080798
0.086016 0.349016 0.078888
0.110202 0.349114 0.078994
0.148721 0.349208 0.079190
0.196760 0.349472 0.079527
0.251437 0.349770 0.080050
0.311317 0.350249 0.080800
0.375474 0.350957 0.081855
0.458756 0.363270 0.083297
0.544688 0.371831 0.085244
0.629173 0.376220 0.087811
0.707995 0.375895 0.091122
0.776499 0.370802 0.095330
0.831951 0.361445 0.100485
0.876820 0.350530 0.106172
0.915878 0.339846 0.112291
0.087301 0.425065 0.085013
0.091118 0.425095 0.082907
0.116000 0.425136 0.083070
0.155868 0.425360 0.083409
0.205744 0.425709 0.083946
0.262632 0.426134 0.084745
0.324986 0.426835 0.085871
0.391847 0.427690 0.087388
0.462781 0.428893 0.089369
0.548470 0.438793 0.091965
0.632702 0.443633 0.095203
0.711040 0.442736 0.099241
0.778790 0.435926 0.103798
0.833577 0.423979 0.108842
0.878125 0.410035 0.114333
0.917067 0.396371 0.120293
0.096702 0.504116 0.092221
0.100379 0.504155 0.090201
0.124773 0.504231 0.090420
0.164613 0.504506 0.090880
0.215097 0.504898 0.091645
0.273030 0.505443 0.092756
0.336787 0.506249 0.094257
0.405266 0.507305 0.096240
0.477890 0.508582 0.098774
0.554293 0.510185 0.101786
0.637640 0.514839 0.105268
0.714966 0.512698 0.109205
0.781703 0.503765 0.113589
0.835677 0.489027 0.118454
0.879776 0.472005 0.123777
0.918265 0.455233 0.129586
0.111270 0.582244 0.103210
0.114729 0.582202 0.101460
0.137411 0.582330 0.101725
0.175615 0.582538 0.102266
0.225005 0.582879 0.103137
0.282476 0.583504 0.104353
0.346010 0.584197 0.105958
0.414463 0.585041 0.107960
0.487231 0.586123 0.110388
0.563622 0.587442 0.113271
0.643420 0.588984 0.116601
0.719393 0.585370 0.120379
0.784881 0.573922 0.124612
0.837884 0.556213 0.129339
0.881428 0.535969 0.134513
0.919630 0.516189 0.140178
0.128265 0.653997 0.115992
0.131567 0.654007 0.114664
0.151881 0.654097 0.114917
0.187207 0.654230 0.115413
0.234125 0.654548 0.116245
0.289542 0.655054 0.117405
0.351362 0.655428 0.118930
0.418323 0.656169 0.120857
0.489717 0.657073 0.123199
0.564708 0.658030 0.125966
0.643044 0.659159 0.129159
0.724602 0.660520 0.132822
0.788518 0.646326 0.136937
0.840554 0.625254 0.141497
0.883357 0.601755 0.146526
0.921338 0.578855 0.152025
0.146656 0.714671 0.129831
0.149798 0.714623 0.128940
0.167482 0.714711 0.129190
0.199152 0.714819 0.129687
0.242361 0.714890 0.130474
0.294311 0.715254 0.131597
0.353011 0.715593 0.133055
0.417021 0.716149 0.134912
0.485514 0.716783 0.137167
0.557718 0.717407 0.139848
0.633130 0.718268 0.142932
0.711562 0.719191 0.146479
0.792398 0.720120 0.150463
0.843432 0.695675 0.154897
0.885602 0.668809 0.159762
0.923024 0.642791 0.165109
0.166578 0.762943 0.144865
0.169625 0.762858 0.144451
0.184571 0.762886 0.144670
0.212148 0.763007 0.145150
0.250796 0.763184 0.145927
0.298212 0.763460 0.146985
0.352515 0.763576 0.148417
0.412314 0.764013 0.150186
0.476699 0.764398 0.152368
0.544825 0.764848 0.154930
0.616239 0.765457 0.157936
0.690599 0.766084 0.161364
0.767335 0.766850 0.165209
0.846588 0.767721 0.169518
0.888030 0.737242 0.174232
0.924929 0.708080 0.179418
0.187881 0.801986 0.161026
0.190838 0.802004 0.161023
0.203352 0.802058 0.161254
0.226925 0.802135 0.161722
0.260772 0.802161 0.162438
0.303255 0.802280 0.163488
0.352690 0.802609 0.164851
0.407706 0.802792 0.166571
0.467424 0.803042 0.168677
0.530995 0.803446 0.171162
0.597751 0.803981 0.174049
0.667568 0.804404 0.177357
0.739748 0.804903 0.181043
0.814287 0.805443 0.185203
0.890597 0.806152 0.189765
0.927247 0.773863 0.194821
0.210628 0.836237 0.178404
0.213449 0.836254 0.178706
0.223897 0.836333 0.178906
0.243894 0.836283 0.179344
0.273308 0.836427 0.180058
0.310900 0.836479 0.181046
0.355431 0.836768 0.182384
0.405626 0.836937 0.184049
0.460503 0.837162 0.186072
0.519374 0.837445 0.188443
0.581616 0.837880 0.191252
0.646691 0.838159 0.194416
0.714287 0.838577 0.198031
0.784217 0.839184 0.202019
0.855914 0.839647 0.206399
0.929541 0.840293 0.211246
0.058853 0.061950 0.075469
0.065199 0.063404 0.076455
0.086245 0.067175 0.079070
0.120234 0.071128 0.082975
0.166304 0.074397 0.086930
0.224493 0.076846 0.090668
0.293396 0.078555 0.093897
0.370847 0.079651 0.096505
0.454072 0.080365 0.098504
0.539880 0.080957 0.099922
0.624339 0.081680 0.100854
0.703137 0.082860 0.101451
0.772098 0.084790 0.101866
0.828212 0.087818 0.102469
0.873739 0.092182 0.103772
0.913176 0.098187 0.106348
0.062898 0.070222 0.078106
0.068201 0.070803 0.078638
0.087907 0.073167 0.080383
0.121056 0.076144 0.083475
0.166697 0.078858 0.086817
0.224690 0.080983 0.090010
0.293446 0.082493 0.092762
0.370883 0.083502 0.094994
0.454108 0.084169 0.096704
0.539903 0.084711 0.097951
0.624315 0.085431 0.098805
0.703182 0.086608 0.099470
0.772141 0.088525 0.100088
0.828261 0.091510 0.100998
0.873724 0.095828 0.102696
0.913239 0.101749 0.105664
0.069730 0.092063 0.082688
0.074247 0.092268 0.082858
0.091970 0.093119 0.083573
0.123399 0.094443 0.084695
0.168022 0.095866 0.085892
0.225385 0.097146 0.086968
0.293884 0.098140 0.087800
0.371013 0.098803 0.088365
0.454226 0.099329 0.088805
0.539992 0.099821 0.089228
0.624277 0.100532 0.089822
0.703377 0.101701 0.090804
0.772170 0.103563 0.092384
0.828324 0.106459 0.094818
0.873894 0.110631 0.098348
0.913239 0.116317 0.103158
0.074558 0.123710 0.087021
0.078752 0.123777 0.086899
0.095441 0.124058 0.086314
0.125767 0.124534 0.086771
0.169514 0.127541 0.087320
0.226247 0.131088 0.087857
0.294228 0.134583 0.088329
0.371290 0.137737 0.088701
0.454418 0.140330 0.089070
0.540190 0.142274 0.089505
0.624457 0.143543 0.090217
0.703504 0.144241 0.091376
0.772388 0.144508 0.093183
0.828546 0.144704 0.095861
0.874110 0.145613 0.099642
0.913493 0.147903 0.104719
0.077221 0.165238 0.090411
0.081256 0.165270 0.089942
0.097520 0.165371 0.087942
0.129912 0.165526 0.088120
0.170548 0.165722 0.088350
0.226926 0.171950 0.088572
0.294716 0.178256 0.088819
0.371640 0.183997 0.089109
0.454712 0.188719 0.089488
0.540447 0.192146 0.090080
0.624951 0.194088 0.091018
0.703933 0.194466 0.092464
0.772852 0.193355 0.094597
0.828892 0.191171 0.097701
0.874485 0.189074 0.101866
0.913878 0.188188 0.107353
0.078549 0.217297 0.093247
0.082530 0.217287 0.092407
0.098623 0.217304 0.088809
0.133965 0.217383 0.088895
0.177783 0.217497 0.089019
0.227510 0.217652 0.089187
0.295208 0.226943 0.089431
0.372146 0.235393 0.089802
0.455302 0.242360 0.090360
0.541098 0.247342 0.091218
0.625631 0.249977 0.092500
0.704665 0.250044 0.094390
0.773544 0.247657 0.097018
0.829532 0.243268 0.100638
0.875102 0.238381 0.105360
0.914339 0.234476 0.111332
0.079686 0.279075 0.095986
0.083676 0.279057 0.094804
0.099672 0.279082 0.089637
0.138135 0.279129 0.089735
0.185249 0.279235 0.089908
0.238432 0.279498 0.090192
0.296301 0.279857 0.090579
0.373228 0.291112 0.091203
0.456497 0.300362 0.092099
0.542386 0.306852 0.093381
0.626898 0.310163 0.095161
0.706146 0.310056 0.097619
0.774754 0.306353 0.100881
0.830513 0.299675 0.105154
0.875875 0.292167 0.110517
0.915067 0.285155 0.116548
0.082144 0.349025 0.099325
0.086052 0.349033 0.097847
0.101932 0.349113 0.091415
0.142992 0.349206 0.091587
0.193001 0.349475 0.091900
0.249181 0.349794 0.092370
0.310266 0.350290 0.093081
0.375524 0.351002 0.094055
0.458744 0.362432 0.095398
0.544690 0.370431 0.097237
0.629266 0.374405 0.099640
0.708095 0.373872 0.102761
0.776398 0.368746 0.106750
0.831847 0.359833 0.111683
0.876858 0.349330 0.117111
0.915910 0.339168 0.123022
0.087373 0.425102 0.104036
0.091193 0.425134 0.102386
0.106746 0.425201 0.095197
0.149277 0.425404 0.095511
0.201187 0.425747 0.096010
0.259598 0.426204 0.096744
0.323134 0.426857 0.097807
0.390980 0.427766 0.099238
0.462841 0.428956 0.101111
0.548486 0.438179 0.103542
0.632719 0.442536 0.106636
0.711166 0.441451 0.110474
0.778838 0.434618 0.114854
0.833619 0.422859 0.119701
0.878159 0.409225 0.125000
0.916985 0.395934 0.130795
0.096810 0.504171 0.110859
0.100475 0.504209 0.109219
0.115549 0.504256 0.102106
0.157818 0.504532 0.102533
0.210176 0.504899 0.103253
0.269567 0.505553 0.104293
0.334393 0.506252 0.105716
0.403829 0.507317 0.107624
0.477250 0.508603 0.110048
0.554346 0.510220 0.112924
0.637727 0.514336 0.116255
0.714879 0.512006 0.120031
0.781673 0.502950 0.124296
0.835720 0.488276 0.129007
0.879746 0.471493 0.134196
0.918216 0.455087 0.139867
0.111380 0.582224 0.120544
0.114844 0.582273 0.119079
0.129266 0.582391 0.112857
0.169342 0.582603 0.113378
0.220335 0.583017 0.114201
0.279020 0.583599 0.115375
0.343515 0.584268 0.116922
0.412735 0.585018 0.118842
0.486190 0.586192 0.121199
0.563197 0.587490 0.123977
0.643405 0.588972 0.127189
0.719511 0.585027 0.130885
0.784928 0.573511 0.135009
0.837923 0.555800 0.139610
0.881462 0.535678 0.144670
0.919658 0.516202 0.150213
0.128377 0.654029 0.131588
0.131664 0.654001 0.130413
0.145499 0.654137 0.125570
0.182097 0.654298 0.126066
0.230145 0.654580 0.126864
0.286526 0.655080 0.127994
0.349078 0.655495 0.129469
0.416759 0.656199 0.131351
0.488543 0.657098 0.133617
0.564057 0.658014 0.136325
0.642831 0.659187 0.139445
0.724618 0.660530 0.143025
0.788499 0.646133 0.147017
0.840593 0.625081 0.151495
0.883392 0.601652 0.156420
0.921266 0.578946 0.161799
0.146750 0.714640 0.143411
0.149922 0.714680 0.142622
0.163278 0.714694 0.139479
0.195670 0.714877 0.139963
0.239541 0.714947 0.140712
0.292106 0.715310 0.141814
0.351333 0.715649 0.143251
0.415773 0.716119 0.145061
0.484581 0.716764 0.147255
0.557094 0.717383 0.149870
0.632838 0.718323 0.152895
0.711409 0.719169 0.156368
0.792411 0.720136 0.160269
0.843471 0.695645 0.164604
0.885586 0.668826 0.169399
0.923055 0.642978 0.174613
0.166663 0.762868 0.156380
0.169723 0.762890 0.155999
0.182614 0.762918 0.154607
0.210443 0.763039 0.155064
0.249369 0.763215 0.155836
0.297042 0.763454 0.156865
0.351645 0.763608 0.158257
0.411687 0.764046 0.159993
0.476242 0.764428 0.162151
0.544581 0.764879 0.164659
0.615982 0.765428 0.167601
0.690516 0.766114 0.170922
0.767289 0.766845 0.174707
0.846625 0.767752 0.178938
0.887994 0.737338 0.183586
0.924970 0.708256 0.188659
0.187967 0.802012 0.170647
0.190931 0.802031 0.170656
0.203357 0.802084 0.170805
0.226985 0.802095 0.171288
0.260813 0.802188 0.171997
0.303321 0.802357 0.173008
0.352797 0.802546 0.174333
0.407852 0.802819 0.176058
0.467580 0.803068 0.178117
0.531130 0.803463 0.180548
0.597919 0.803973 0.183358
0.667779 0.804430 0.186620
0.739903 0.804911 0.190270
0.814294 0.805470 0.194355
0.890529 0.806180 0.198848
0.927248 0.773906 0.203732
0.210709 0.836261 0.186443
0.213533 0.836279 0.186724
0.225573 0.836362 0.188165
0.245493 0.836308 0.188588
0.274693 0.836451 0.189277
0.312155 0.836504 0.190273
0.356513 0.836792 0.191579
0.406548 0.836972 0.193202
0.461348 0.837187 0.195169
0.520085 0.837370 0.197550
0.582131 0.837905 0.200257
0.647232 0.838184 0.203382
0.714691 0.838608 0.206876
0.784429 0.839208 0.210875
0.856131 0.839670 0.215183
0.929434 0.840208 0.219889
0.062520 0.065428 0.102298
0.068399 0.066250 0.102781
0.089161 0.068838 0.104358
0.120945 0.072010 0.106343
0.166671 0.074871 0.111565
0.224670 0.077102 0.117094
0.293462 0.078682 0.122222
0.370872 0.079726 0.126627
0.454103 0.080420 0.130083
0.539900 0.080991 0.132493
0.624312 0.081725 0.133829
0.703179 0.082937 0.134133
0.772134 0.084887 0.133486
0.828255 0.087949 0.132270
0.873718 0.092351 0.131307
0.913231 0.098380 0.131372
0.065043 0.072472 0.103738
0.070040 0.072540 0.104081
0.090186 0.074371 0.105269
0.121665 0.076868 0.106900
0.167020 0.079273 0.111627
0.224841 0.081206 0.116726
0.293531 0.082601 0.121485
0.370862 0.083554 0.125586
0.454120 0.084188 0.128807
0.539925 0.084752 0.131082
0.624343 0.085472 0.132335
0.703195 0.086677 0.132670
0.772165 0.088622 0.132153
0.828265 0.091631 0.131144
0.873772 0.095977 0.130454
0.913191 0.101948 0.130826
0.070509 0.093964 0.106960
0.074963 0.093912 0.107094
0.092493 0.093614 0.107659
0.123738 0.094803 0.108528
0.168225 0.096122 0.111610
0.225490 0.097289 0.115014
0.293864 0.098201 0.118265
0.371077 0.098858 0.121096
0.454254 0.099353 0.123346
0.540016 0.099858 0.124974
0.624315 0.100576 0.125995
0.703427 0.101771 0.126475
0.772197 0.103660 0.126544
0.828328 0.106582 0.126543
0.873879 0.110782 0.127114
0.913296 0.116517 0.128866
0.074828 0.123913 0.109593
0.079005 0.123966 0.109639
0.095671 0.124229 0.109866
0.125914 0.124666 0.110233
0.169584 0.125198 0.110683
0.226313 0.125749 0.111144
0.294219 0.126210 0.111539
0.371288 0.126587 0.111860
0.454423 0.126973 0.112183
0.540218 0.127455 0.112598
0.624502 0.128233 0.113260
0.703558 0.129464 0.114301
0.772422 0.131415 0.115959
0.828557 0.134344 0.118442
0.874164 0.138447 0.121936
0.913439 0.144020 0.126667
0.077311 0.165309 0.114415
0.081345 0.165350 0.114196
0.097609 0.165440 0.113272
0.127366 0.165561 0.111367
0.170580 0.165752 0.111542
0.226954 0.169565 0.111760
0.294684 0.173435 0.111976
0.371661 0.176980 0.112239
0.454718 0.179979 0.112586
0.540482 0.182195 0.113125
0.625004 0.183619 0.113980
0.704001 0.184223 0.115298
0.772905 0.184099 0.117279
0.828948 0.183721 0.120115
0.874544 0.183916 0.124002
0.913835 0.185438 0.129149
0.078581 0.217295 0.119205
0.082577 0.217306 0.118690
0.098640 0.217317 0.116494
0.128213 0.217415 0.112030
0.175204 0.217495 0.112140
0.227513 0.217650 0.112289
0.295274 0.224782 0.112516
0.372188 0.231312 0.112858
0.455352 0.236705 0.113378
0.541150 0.240498 0.114159
0.625675 0.242572 0.115352
0.704630 0.242684 0.117089
0.773534 0.240968 0.119522
0.829558 0.237837 0.122850
0.875036 0.234678 0.127265
0.914311 0.232650 0.132883
0.079750 0.279065 0.123958
0.083704 0.279030 0.123155
0.099711 0.279109 0.119755
0.129200 0.279133 0.112809
0.180053 0.279333 0.112966
0.236036 0.279511 0.113213
0.296337 0.279888 0.113597
0.373246 0.289275 0.114156
0.456508 0.296964 0.114976
0.542460 0.302343 0.116139
0.626995 0.305039 0.117790
0.706038 0.304750 0.120055
0.774755 0.301501 0.123084
0.830494 0.295780 0.127082
0.875879 0.289573 0.132110
0.915038 0.284031 0.137822
0.082225 0.349094 0.128988
0.086143 0.349117 0.127959
0.102005 0.349162 0.123510
0.131365 0.349278 0.114503
0.185540 0.349534 0.114790
0.244790 0.349863 0.115233
0.308274 0.350328 0.115868
0.375594 0.351052 0.116766
