src/luts/contrast/8.cube
LUT_3D_SIZE 6
0.092819 0.080800 0.076602
0.225221 0.093250 0.085450
0.400364 0.071338 0.069866
0.578003 0.050491 0.054984
0.768819 0.034205 0.043252
0.974020 0.021571 0.034004
0.091398 0.206593 0.075545
0.206536 0.201986 0.072381
0.386831 0.189877 0.062673
0.572074 0.179879 0.051388
0.766808 0.174583 0.041297
0.973961 0.172532 0.027305
0.058296 0.380829 0.050977
0.185116 0.379811 0.050049
0.367573 0.376554 0.046539
0.560909 0.373037 0.041022
0.763005 0.371050 0.035980
0.973951 0.370782 0.022509
0.036745 0.585338 0.035127
0.179430 0.585300 0.033276
0.362269 0.585195 0.022696
0.558108 0.585193 0.022522
0.762901 0.585193 0.022479
0.973951 0.585192 0.022413
0.019464 0.810933 0.022416
0.179081 0.810933 0.022413
0.362258 0.810933 0.022398
0.558106 0.810932 0.022372
0.762900 0.810932 0.022325
0.973950 0.810931 0.022262
0.019200 1.000001 0.022202
0.179067 1.000001 0.022196
0.362250 1.000001 0.022184
0.558103 1.000001 0.022153
0.762897 1.000001 0.022109
0.973948 1.000000 0.022042
0.106808 0.095519 0.178021
0.223102 0.090927 0.175533
0.398558 0.070129 0.159529
0.577274 0.049935 0.148738
0.768524 0.033912 0.143755
0.974012 0.020741 0.142038
0.089879 0.204917 0.164893
0.205284 0.200608 0.161834
0.416842 0.165452 0.136766
0.610015 0.123713 0.107089
0.800250 0.097603 0.088548
0.973958 0.172544 0.141812
0.057859 0.380436 0.146682
0.129611 0.387511 0.104211
0.369026 0.378157 0.097251
0.577038 0.366412 0.088145
0.783174 0.357408 0.081057
0.973951 0.370782 0.141782
0.035876 0.585324 0.142106
0.097899 0.591521 0.080406
0.347920 0.589500 0.079536
0.559236 0.586482 0.078375
0.770875 0.583026 0.077136
0.973951 0.585192 0.141778
0.019464 0.810933 0.141778
0.092153 0.815489 0.076106
0.342034 0.814753 0.075951
0.551925 0.813449 0.075713
0.763653 0.811865 0.075433
0.973950 0.810931 0.141775
0.019198 1.000001 0.141772
0.179067 1.000001 0.141772
0.362250 1.000001 0.141772
0.558103 1.000001 0.141770
0.762897 1.000001 0.141769
0.973948 1.000000 0.141766
0.099639 0.087975 0.336991
0.213787 0.082194 0.328344
0.392167 0.065493 0.307573
0.574546 0.047696 0.292869
0.767752 0.032723 0.286046
0.973982 0.016988 0.284054
0.084209 0.198938 0.314563
0.194878 0.189444 0.334744
0.409407 0.155284 0.321205
0.604777 0.119586 0.296059
0.797729 0.096034 0.280156
0.973952 0.172500 0.283987
0.056093 0.379160 0.290022
0.126135 0.383949 0.293526
0.366703 0.375649 0.287505
0.617129 0.341528 0.262894
0.855181 0.291507 0.226892
0.973951 0.370782 0.283985
0.032167 0.585254 0.284053
0.097461 0.590773 0.273346
0.274965 0.604380 0.215699
0.562004 0.589512 0.204478
0.803164 0.571809 0.191463
0.973951 0.585192 0.283983
0.019459 0.810933 0.283983
0.092084 0.815145 0.268234
0.224687 0.830171 0.176766
0.522993 0.823502 0.172944
0.766498 0.814917 0.167904
0.973950 0.810931 0.283979
0.019192 1.000001 0.283978
0.179066 1.000001 0.283978
0.362250 1.000001 0.283977
0.558102 1.000001 0.283976
0.762897 1.000001 0.283975
0.973948 1.000000 0.283974
0.085697 0.073346 0.489311
0.201922 0.069698 0.482620
0.383171 0.058001 0.464673
0.570190 0.043677 0.449553
0.766111 0.030505 0.441834
0.973953 0.006543 0.439833
0.075417 0.190942 0.471137
0.171606 0.164466 0.520342
0.395724 0.139548 0.498073
0.595816 0.112505 0.470158
0.793346 0.093267 0.451480
0.973952 0.172498 0.439831
0.052814 0.376942 0.446364
0.120133 0.377893 0.467271
0.356321 0.364360 0.495799
0.611811 0.329314 0.483071
0.848127 0.284070 0.459340
0.973951 0.370781 0.439831
0.023441 0.585199 0.439836
0.096711 0.589463 0.442928
0.269598 0.598941 0.449860
0.558108 0.585193 0.439831
0.827644 0.555339 0.417997
0.973951 0.585192 0.439830
0.019447 0.810933 0.439830
0.091944 0.814722 0.435554
0.222917 0.827807 0.414100
0.463213 0.836568 0.363947
0.768394 0.816994 0.346560
0.973949 0.810931 0.439829
0.019180 1.000001 0.439828
0.179066 1.000001 0.439828
0.362249 1.000001 0.439828
0.558102 1.000001 0.439828
0.762897 1.000000 0.439827
0.973948 1.000000 0.439827
0.072195 0.059268 0.642223
0.192428 0.057051 0.638106
0.374782 0.049256 0.625877
0.565438 0.038342 0.613740
0.764426 0.027519 0.606965
0.973952 0.005718 0.605698
0.065620 0.183759 0.630557
0.146461 0.137606 0.691371
0.380161 0.122443 0.669938
0.585228 0.103921 0.644488
0.787731 0.089800 0.626007
0.973952 0.172497 0.605698
0.048352 0.374535 0.610953
0.112776 0.370729 0.641759
0.343490 0.350320 0.689421
0.597592 0.317853 0.684866
0.837843 0.273851 0.666989
0.973951 0.370781 0.605697
0.019612 0.585193 0.605698
0.095813 0.587696 0.617001
0.262048 0.591129 0.656529
0.549204 0.575463 0.666354
0.822124 0.544611 0.654117
0.973951 0.585192 0.605697
0.019428 0.810933 0.605697
0.091753 0.814023 0.607916
0.220284 0.824285 0.615507
0.455293 0.829757 0.619550
0.762899 0.810932 0.605696
0.973949 0.810931 0.605695
0.019161 1.000001 0.605695
0.179065 1.000001 0.605695
0.362249 1.000001 0.605695
0.558102 1.000001 0.605695
0.762897 1.000000 0.605694
0.973948 1.000000 0.605694
0.105627 0.094292 0.782201
0.195691 0.092140 0.782004
0.367857 0.082727 0.781323
0.559877 0.062938 0.780243
0.763012 0.030348 0.779216
0.973951 0.005568 0.779016
0.098690 0.188187 0.781651
0.192906 0.187314 0.781467
0.366690 0.183761 0.780866
0.559360 0.177927 0.779956
0.762897 0.172927 0.779100
0.973951 0.172496 0.779016
0.067286 0.372933 0.779910
0.183443 0.372767 0.779805
0.363278 0.371903 0.779441
0.558167 0.370868 0.779085
0.762901 0.370782 0.779016
0.973951 0.370780 0.779015
0.019587 0.585193 0.779016
0.179087 0.585193 0.779016
0.362262 0.585193 0.779016
0.558107 0.585193 0.779015
0.762900 0.585192 0.779015
0.973950 0.585191 0.779014
0.019402 0.810932 0.779014
0.179077 0.810932 0.779014
0.362256 0.810932 0.779014
0.558105 0.810932 0.779014
0.762899 0.810931 0.779014
0.973949 0.810930 0.779013
0.019134 1.000001 0.779013
0.179063 1.000001 0.779013
0.362248 1.000001 0.779013
0.558102 1.000001 0.779012
0.762897 1.000000 0.779012
0.973948 1.000000 0.779011
