src/luts/contrast/8.cube
LUT_3D_SIZE 16
0.092819 0.080800 0.076602
0.117491 0.090647 0.083599
0.166221 0.095687 0.087190
0.225221 0.093250 0.085450
0.284656 0.086723 0.080817
0.342677 0.079103 0.075392
0.400364 0.071338 0.069866
0.458426 0.063871 0.064549
0.517548 0.056905 0.059575
0.578003 0.050491 0.054984
0.639929 0.044611 0.050765
0.703519 0.039182 0.046854
0.768819 0.034205 0.043252
0.835925 0.029699 0.039977
0.904460 0.026009 0.037276
0.974020 0.021571 0.034004
0.106069 0.110215 0.086511
0.121189 0.110742 0.086963
0.166148 0.110871 0.087086
0.223775 0.107386 0.084282
0.282766 0.101361 0.079794
0.341066 0.094520 0.074593
0.399069 0.087764 0.069252
0.457492 0.081540 0.064079
0.516822 0.076052 0.059214
0.577470 0.071350 0.054706
0.639519 0.067391 0.050538
0.703427 0.064137 0.046670
0.768613 0.061526 0.043108
0.835798 0.059530 0.039858
0.904356 0.058173 0.037198
0.974014 0.056800 0.033559
0.102889 0.155537 0.084128
0.117405 0.155085 0.083781
0.161023 0.153133 0.082348
0.216834 0.149373 0.079644
0.275750 0.144339 0.075883
0.335025 0.138823 0.071484
0.394232 0.133474 0.066828
0.453804 0.128679 0.062194
0.514036 0.124597 0.057745
0.575503 0.121243 0.053541
0.638113 0.118550 0.049607
0.702344 0.116449 0.045912
0.767947 0.114857 0.042481
0.835438 0.113716 0.039375
0.904105 0.112986 0.036885
0.973992 0.112169 0.031607
0.091398 0.206593 0.075545
0.106727 0.206220 0.075302
0.150885 0.204733 0.074298
0.206536 0.201986 0.072381
0.265827 0.198234 0.069663
0.326157 0.194052 0.066340
0.386831 0.189877 0.062673
0.447878 0.186000 0.058867
0.509521 0.182653 0.055080
0.572074 0.179879 0.051388
0.635587 0.177613 0.047841
0.700509 0.175868 0.044468
0.766808 0.174583 0.041297
0.834667 0.173708 0.038457
0.903751 0.173169 0.036347
0.973961 0.172532 0.027305
0.079220 0.261150 0.066474
0.096048 0.260944 0.066318
0.141409 0.260027 0.065668
0.197073 0.258284 0.064412
0.256465 0.255858 0.062559
0.317364 0.252978 0.060204
0.379048 0.249937 0.057486
0.441296 0.247007 0.054541
0.504224 0.244361 0.051477
0.567940 0.242092 0.048388
0.632547 0.240237 0.045342
0.698408 0.238783 0.042370
0.765364 0.237735 0.039594
0.833838 0.237036 0.037229
0.903391 0.236626 0.035046
0.973952 0.236279 0.022545
0.068077 0.319235 0.058210
0.087158 0.319083 0.058111
0.134205 0.318550 0.057688
0.189971 0.317529 0.056854
0.249210 0.316030 0.055598
0.310279 0.314227 0.053951
0.372432 0.312197 0.051970
0.435473 0.310143 0.049744
0.499322 0.308228 0.047333
0.563991 0.306565 0.044824
0.629586 0.305169 0.042299
0.696257 0.304075 0.039824
0.763994 0.303341 0.037618
0.833092 0.302862 0.036044
0.903357 0.302508 0.025208
0.973952 0.302504 0.022530
0.058296 0.380829 0.050977
0.080329 0.380685 0.050911
0.129176 0.380446 0.050625
0.185116 0.379811 0.050049
0.244230 0.378943 0.049177
0.305262 0.377851 0.047993
0.367573 0.376554 0.046539
0.431062 0.375347 0.044857
0.495539 0.374136 0.042993
0.560909 0.373037 0.041022
0.627226 0.372110 0.039054
0.694593 0.371437 0.037263
0.763005 0.371050 0.035980
0.832937 0.370811 0.025956
0.903352 0.370783 0.022533
0.973951 0.370782 0.022509
0.049707 0.445749 0.044646
0.075375 0.445709 0.044597
0.125881 0.445549 0.044393
0.182056 0.445259 0.043988
0.241091 0.444772 0.043354
0.302043 0.444144 0.042491
0.364520 0.443513 0.041425
0.428230 0.442803 0.040184
0.493084 0.442120 0.038839
0.558910 0.441542 0.037499
0.625811 0.441108 0.036349
0.693779 0.440838 0.032649
0.762902 0.440708 0.022547
0.832930 0.440708 0.022528
0.903352 0.440707 0.022506
0.973951 0.440707 0.022485
0.042292 0.513974 0.039200
0.072085 0.514005 0.039165
0.123900 0.513928 0.039031
0.180304 0.513777 0.038759
0.239339 0.513542 0.038346
0.300316 0.513293 0.037799
0.362891 0.513004 0.037159
0.426743 0.512753 0.036495
0.491847 0.512502 0.035930
0.558165 0.512344 0.030592
0.625441 0.512253 0.022548
0.693775 0.512252 0.022533
0.762901 0.512252 0.022516
0.832930 0.512252 0.022496
0.903352 0.512251 0.022474
0.973951 0.512251 0.022451
0.036745 0.585338 0.035127
0.070272 0.585336 0.034999
0.122864 0.585323 0.034435
0.179430 0.585300 0.033276
0.238494 0.585248 0.031370
0.299542 0.585216 0.028520
0.362269 0.585195 0.022696
0.426314 0.585193 0.022544
0.491645 0.585193 0.022536
0.558108 0.585193 0.022522
0.625441 0.585193 0.022511
0.693775 0.585193 0.022496
0.762901 0.585193 0.022479
0.832929 0.585193 0.022459
0.903351 0.585192 0.022438
0.973951 0.585192 0.022413
0.019597 0.659345 0.022524
0.068403 0.659345 0.022524
0.122171 0.659345 0.022522
0.179088 0.659345 0.022519
0.238351 0.659345 0.022520
0.299507 0.659345 0.022515
0.362262 0.659344 0.022507
0.426313 0.659344 0.022502
0.491644 0.659344 0.022489
0.558107 0.659344 0.022481
0.625441 0.659344 0.022467
0.693774 0.659344 0.022450
0.762901 0.659344 0.022435
0.832929 0.659343 0.022413
0.903351 0.659343 0.022396
0.973950 0.659343 0.022370
0.019536 0.734617 0.022475
0.068400 0.734617 0.022474
0.122166 0.734617 0.022473
0.179085 0.734617 0.022469
0.238350 0.734617 0.022466
0.299506 0.734617 0.022464
0.362260 0.734616 0.022456
0.426312 0.734616 0.022449
0.491643 0.734616 0.022440
0.558106 0.734616 0.022431
0.625440 0.734615 0.022414
0.693773 0.734615 0.022400
0.762900 0.734615 0.022384
0.832929 0.734614 0.022363
0.903350 0.734614 0.022341
0.973950 0.734613 0.022319
0.019464 0.810933 0.022416
0.068389 0.810933 0.022416
0.122161 0.810933 0.022414
0.179081 0.810933 0.022413
0.238348 0.810933 0.022411
0.299504 0.810933 0.022406
0.362258 0.810933 0.022398
0.426311 0.810933 0.022393
0.491642 0.810933 0.022382
0.558106 0.810932 0.022372
0.625440 0.810932 0.022360
0.693772 0.810932 0.022342
0.762900 0.810932 0.022325
0.832928 0.810932 0.022305
0.903350 0.810931 0.022285
0.973950 0.810931 0.022262
0.019385 0.888434 0.022352
0.068378 0.888434 0.022351
0.122155 0.888434 0.022350
0.179077 0.888434 0.022346
0.238346 0.888434 0.022343
0.299503 0.888434 0.022342
0.362255 0.888434 0.022335
0.426310 0.888434 0.022327
0.491641 0.888433 0.022319
0.558105 0.888433 0.022309
0.625439 0.888433 0.022291
0.693771 0.888433 0.022276
0.762899 0.888433 0.022261
0.832927 0.888433 0.022242
0.903349 0.888432 0.022218
0.973949 0.888432 0.022196
0.019298 0.957330 0.022279
0.068362 0.957330 0.022278
0.122149 0.957330 0.022277
0.179072 0.957330 0.022276
0.238344 0.957330 0.022270
0.299501 0.957330 0.022269
0.362253 0.957330 0.022262
0.426308 0.957330 0.022254
0.491639 0.957330 0.022247
0.558104 0.957330 0.022235
0.625438 0.957330 0.022220
0.693770 0.957330 0.022207
0.762898 0.957329 0.022187
0.832927 0.957329 0.022168
0.903348 0.957329 0.022149
0.973949 0.957329 0.022123
0.019200 1.000001 0.022202
0.068351 1.000001 0.022201
0.122155 1.000001 0.022199
0.179067 1.000001 0.022196
0.238341 1.000001 0.022193
0.299498 1.000001 0.022187
0.362250 1.000001 0.022184
0.426307 1.000001 0.022175
0.491638 1.000001 0.022166
0.558103 1.000001 0.022153
0.625463 1.000001 0.022140
0.693769 1.000001 0.022124
0.762897 1.000001 0.022109
0.832926 1.000000 0.022088
0.903347 1.000000 0.022067
0.973948 1.000000 0.022042
0.098967 0.087272 0.093149
0.118296 0.091672 0.095691
0.166255 0.095748 0.098101
0.225107 0.093073 0.096460
0.284468 0.086582 0.092099
0.342522 0.078989 0.087023
0.400187 0.071246 0.082040
0.458316 0.063803 0.077475
0.517492 0.056853 0.073475
0.577923 0.050447 0.070054
0.639920 0.044576 0.067192
0.703472 0.039160 0.064832
0.768796 0.034184 0.062941
0.835908 0.029683 0.061495
0.904449 0.025996 0.060505
0.974020 0.021524 0.059592
0.106311 0.110418 0.097649
0.121306 0.110849 0.097957
0.166102 0.110808 0.097922
0.224583 0.106549 0.094896
0.286123 0.097687 0.088600
0.345255 0.088386 0.081994
0.403392 0.079366 0.075581
0.461589 0.071001 0.069632
0.520729 0.063374 0.064196
0.581067 0.056526 0.059304
0.642889 0.050418 0.054932
0.706463 0.044980 0.051029
0.771430 0.040230 0.047609
0.838371 0.036218 0.044714
0.906740 0.033213 0.042532
0.974014 0.056789 0.059490
0.102721 0.155400 0.095244
0.116311 0.155201 0.094202
0.160955 0.153075 0.092116
0.218358 0.148667 0.088409
0.278521 0.142560 0.083587
0.338467 0.135884 0.078225
0.397909 0.129466 0.072772
0.457472 0.123749 0.067503
0.517649 0.118877 0.062588
0.578808 0.114876 0.058068
0.641264 0.111666 0.053972
0.705325 0.109145 0.050287
0.770692 0.107239 0.047036
0.837902 0.105858 0.044296
0.906390 0.104970 0.042288
0.973991 0.112164 0.059119
0.091287 0.206483 0.087158
0.101191 0.206992 0.082862
0.148791 0.205243 0.081624
0.206621 0.202050 0.079302
0.267274 0.197758 0.076066
0.328439 0.192932 0.072214
0.389565 0.188103 0.068038
0.450757 0.183619 0.063812
0.512477 0.179782 0.059701
0.574902 0.176565 0.055810
0.638398 0.173962 0.052191
0.703199 0.171986 0.048885
0.769282 0.170460 0.045963
0.837013 0.169408 0.043538
0.905890 0.168765 0.041879
0.973961 0.172544 0.058614
0.079147 0.261061 0.079102
0.086879 0.261786 0.072177
0.137423 0.260735 0.071439
0.195696 0.258771 0.070004
0.256596 0.255995 0.067908
0.318454 0.252710 0.065293
0.380742 0.249264 0.062304
0.443340 0.245924 0.059132
0.506433 0.242898 0.055902
0.570221 0.240314 0.052741
0.634849 0.238175 0.049726
0.700596 0.236496 0.046935
0.767529 0.235244 0.044486
0.835874 0.234414 0.042558
0.905340 0.233923 0.041453
0.973952 0.236279 0.058457
0.068031 0.319188 0.072424
0.074520 0.319897 0.062984
0.128809 0.319293 0.062525
0.187503 0.318130 0.061620
0.248345 0.316448 0.060264
0.310416 0.314330 0.058503
0.373245 0.312025 0.056416
0.436740 0.309742 0.054106
0.500875 0.307566 0.051687
0.565713 0.305613 0.049236
0.631391 0.304003 0.046867
0.698055 0.302727 0.044681
0.765856 0.301780 0.042867
0.834859 0.301185 0.041646
0.904885 0.300938 0.041348
0.973952 0.302504 0.058455
0.058265 0.380770 0.067327
0.064168 0.381434 0.055318
0.122807 0.381054 0.055015
0.181918 0.380433 0.054433
0.242664 0.379402 0.053538
0.304680 0.378152 0.052345
0.367744 0.376787 0.050897
0.431678 0.375311 0.049261
0.496469 0.373854 0.047507
0.562077 0.372581 0.045728
0.628560 0.371532 0.044033
0.696066 0.370712 0.042586
0.764410 0.370091 0.041600
0.834207 0.369813 0.041341
0.904646 0.369680 0.041737
0.973951 0.370782 0.058455
0.049679 0.445728 0.063635
0.055635 0.446361 0.049016
0.118843 0.446174 0.048821
0.178380 0.445801 0.048431
0.239037 0.445243 0.047840
0.300992 0.444545 0.047047
0.364145 0.443745 0.046083
0.428336 0.442914 0.044995
0.493529 0.442120 0.043854
0.559637 0.441398 0.042770
0.626795 0.440812 0.041879
0.694897 0.440409 0.041369
0.763785 0.440254 0.041448
0.833929 0.440165 0.041823
0.904383 0.440087 0.042237
0.973951 0.440707 0.058450
0.042277 0.513962 0.061189
0.048990 0.514530 0.044127
0.116455 0.514468 0.044013
0.176328 0.514261 0.043785
0.236976 0.513994 0.043445
0.298881 0.513670 0.043007
0.362103 0.513323 0.042503
0.426479 0.512916 0.041992
0.491954 0.512595 0.041559
0.558483 0.512348 0.041329
0.625916 0.512186 0.041435
0.694391 0.512119 0.041735
0.763541 0.512002 0.042063
0.833686 0.511930 0.042432
0.904126 0.511873 0.042828
0.973951 0.512251 0.058445
0.036685 0.585337 0.059857
0.045364 0.585805 0.041452
0.115396 0.585789 0.041429
0.175436 0.585711 0.041388
0.236108 0.585638 0.041344
0.298078 0.585585 0.041318
0.361366 0.585487 0.041369
0.425857 0.585400 0.041517
0.491523 0.585363 0.041697
0.558154 0.585274 0.041916
0.625660 0.585204 0.042170
0.694226 0.585165 0.042456
0.763309 0.585074 0.042777
0.833376 0.585012 0.043130
0.903946 0.584947 0.043513
0.973951 0.585192 0.058441
0.019597 0.659345 0.058454
0.045957 0.659701 0.041892
0.115453 0.659693 0.041911
0.175409 0.659676 0.041952
0.236027 0.659615 0.042016
0.297951 0.659624 0.042104
0.361182 0.659535 0.042220
0.425726 0.659541 0.042367
0.491296 0.659485 0.042545
0.557946 0.659452 0.042754
0.625479 0.659388 0.042997
0.693911 0.659362 0.043268
0.763078 0.659227 0.043573
0.833207 0.659209 0.043917
0.903778 0.659106 0.044286
0.973950 0.659343 0.058435
0.019536 0.734617 0.058449
0.047262 0.735031 0.042849
0.115686 0.735018 0.042872
0.175482 0.734988 0.042911
0.236042 0.734945 0.042971
0.297937 0.734975 0.043050
0.361155 0.734901 0.043162
0.425599 0.734807 0.043303
0.491186 0.734881 0.043473
0.557836 0.734765 0.043671
0.625348 0.734738 0.043903
0.693774 0.734615 0.044161
0.762974 0.734653 0.044454
0.833125 0.734547 0.044779
0.903669 0.734592 0.045132
0.973950 0.734613 0.058429
0.019464 0.810933 0.058441
0.048666 0.811145 0.043884
0.115974 0.811139 0.043906
0.175607 0.811129 0.043940
0.236090 0.811114 0.043996
0.297943 0.811092 0.044073
0.361088 0.811188 0.044182
0.425548 0.811154 0.044312
0.491149 0.811116 0.044475
0.557768 0.811073 0.044661
0.625242 0.811073 0.044881
0.693760 0.811054 0.045128
0.762858 0.811006 0.045405
0.832979 0.810958 0.045715
0.903514 0.810911 0.046052
0.973950 0.810931 0.058422
0.019385 0.888434 0.058431
0.050163 0.888664 0.044985
0.116304 0.888659 0.045006
0.175767 0.888651 0.045040
0.236177 0.888638 0.045090
0.297956 0.888620 0.045162
0.361094 0.888597 0.045260
0.425521 0.888569 0.045390
0.491078 0.888536 0.045541
0.557677 0.888499 0.045721
0.625189 0.888460 0.045921
0.693605 0.888494 0.046161
0.762842 0.888452 0.046429
0.832906 0.888408 0.046716
0.903450 0.888365 0.047034
0.973949 0.888432 0.058413
0.019298 0.957330 0.058420
0.051723 0.957529 0.046130
0.116671 0.957526 0.046152
0.175974 0.957521 0.046179
0.236284 0.957513 0.046235
0.298062 0.957501 0.046305
0.361158 0.957500 0.046396
0.425526 0.957482 0.046516
0.491050 0.957461 0.046656
0.557633 0.957437 0.046829
0.625140 0.957497 0.047022
0.693604 0.957469 0.047249
0.762755 0.957440 0.047495
0.832880 0.957411 0.047773
0.903408 0.957382 0.048077
0.973949 0.957329 0.058403
0.019199 1.000001 0.058413
0.068351 1.000001 0.058413
0.122155 1.000001 0.058413
0.179067 1.000001 0.058414
0.238341 1.000001 0.058413
0.299498 1.000001 0.058412
0.362250 1.000001 0.058413
0.426307 1.000001 0.058412
0.491638 1.000001 0.058411
0.558103 1.000001 0.058408
0.625463 1.000001 0.058407
0.693769 1.000001 0.058403
0.762897 1.000001 0.058401
0.832926 1.000000 0.058401
0.903347 1.000000 0.058398
0.973948 1.000000 0.058394
0.104128 0.092706 0.130831
0.120262 0.094190 0.131393
0.166295 0.095808 0.132029
0.224492 0.092364 0.130358
0.283619 0.085950 0.125961
0.341801 0.078492 0.120911
0.399650 0.070874 0.116196
0.457919 0.063522 0.112111
0.517123 0.056631 0.108746
0.577718 0.050280 0.106031
0.639740 0.044435 0.103901
0.703506 0.039053 0.102250
0.768692 0.034097 0.101019
0.835876 0.029613 0.100115
0.904404 0.025950 0.099537
0.974017 0.021259 0.099076
0.106939 0.110970 0.131955
0.121549 0.111113 0.132018
0.165830 0.110374 0.131678
0.224193 0.105541 0.129465
0.285325 0.096896 0.124498
0.344479 0.087799 0.118696
0.402733 0.078940 0.113245
0.461165 0.070682 0.108543
0.520371 0.063140 0.104639
0.580845 0.056344 0.101474
0.642722 0.050278 0.098992
0.706281 0.044869 0.097054
0.771413 0.040151 0.095593
0.838370 0.036161 0.094536
0.906679 0.033178 0.093837
0.974011 0.056731 0.099022
0.102065 0.154714 0.129130
0.115331 0.154499 0.128974
0.160263 0.152338 0.127431
0.219357 0.147194 0.123779
0.284692 0.137499 0.116893
0.350491 0.123847 0.107184
0.412275 0.110970 0.098043
0.472398 0.099381 0.089804
0.532252 0.089204 0.082572
0.592721 0.080389 0.076315
0.654315 0.072901 0.070979
0.717365 0.066600 0.066493
0.781971 0.061451 0.062823
0.848320 0.057442 0.059956
0.916077 0.054619 0.057942
0.973989 0.112144 0.098865
0.090821 0.205921 0.121053
0.100618 0.206392 0.119449
0.141590 0.206457 0.113271
0.206608 0.202036 0.109089
0.272584 0.195565 0.103490
0.337355 0.187951 0.097145
0.400561 0.180171 0.090620
0.462792 0.172991 0.084342
0.524673 0.166696 0.078542
0.586957 0.161427 0.073332
0.649931 0.157136 0.068777
0.714196 0.153782 0.064878
0.779676 0.151207 0.061678
0.846667 0.149301 0.059196
0.915031 0.148051 0.057512
0.973960 0.172535 0.098663
0.078844 0.260762 0.113544
0.086535 0.261443 0.110508
0.118581 0.263528 0.095903
0.189588 0.260590 0.093650
0.257013 0.256443 0.090428
0.322878 0.251478 0.086499
0.387726 0.246219 0.082179
0.451896 0.241114 0.077756
0.515787 0.236467 0.073457
0.579917 0.232423 0.069450
0.644540 0.229043 0.065842
0.710104 0.226340 0.062714
0.776669 0.224237 0.060145
0.844538 0.222693 0.058210
0.913618 0.221672 0.057015
0.973952 0.236279 0.098612
0.067835 0.318987 0.107898
0.074305 0.319682 0.103820
0.100688 0.322306 0.082489
0.176351 0.320564 0.081208
0.244466 0.318012 0.079313
0.310926 0.314910 0.076897
0.376596 0.311424 0.074127
0.442010 0.307890 0.071162
0.507378 0.304524 0.068160
0.572975 0.301504 0.065281
0.639024 0.298895 0.062639
0.705832 0.296775 0.060351
0.773551 0.295094 0.058521
0.842368 0.293878 0.057252
0.912140 0.293096 0.056678
0.973952 0.302504 0.098611
0.058127 0.380672 0.104002
0.064031 0.381311 0.099194
0.087064 0.383946 0.072313
0.167172 0.382903 0.071561
0.235686 0.381399 0.070429
0.302176 0.379490 0.068964
0.368221 0.377265 0.067219
0.434253 0.375036 0.065303
0.500492 0.372735 0.063335
0.567093 0.370619 0.061424
0.634198 0.368715 0.059691
0.702137 0.367256 0.058239
0.770712 0.366035 0.057197
0.840347 0.365185 0.056687
0.910906 0.364654 0.056618
0.973951 0.370782 0.098609
0.049585 0.445696 0.101453
0.055548 0.446302 0.096155
0.076970 0.448718 0.064805
0.161202 0.448145 0.064364
0.229908 0.447241 0.063708
0.296365 0.446143 0.062833
0.362487 0.444818 0.061801
0.428761 0.443403 0.060668
0.495514 0.441982 0.059506
0.562747 0.440675 0.058419
0.630626 0.439500 0.057513
0.699189 0.438507 0.056884
0.768576 0.437816 0.056647
0.838873 0.437252 0.056615
0.909500 0.436732 0.056624
0.973951 0.440707 0.098607
0.042215 0.513981 0.099933
0.048943 0.514546 0.094348
0.070048 0.516763 0.059670
0.157619 0.516382 0.059442
0.226424 0.515982 0.059102
0.292809 0.515286 0.058664
0.358915 0.514610 0.058158
0.425357 0.513841 0.057633
0.492371 0.513041 0.057150
0.560014 0.512339 0.056797
0.628384 0.511722 0.056649
0.697470 0.511220 0.056618
0.767177 0.510698 0.056613
0.837557 0.510154 0.056640
0.908339 0.509741 0.056701
0.973951 0.512250 0.098604
0.036431 0.585333 0.099187
0.045348 0.585806 0.093521
0.066415 0.587810 0.056981
0.155788 0.587672 0.056914
0.224635 0.587465 0.056829
0.290973 0.587171 0.056734
0.357031 0.586853 0.056666
0.423567 0.586508 0.056640
0.490684 0.586061 0.056621
0.558473 0.585671 0.056613
0.626946 0.585250 0.056619
0.696165 0.584847 0.056644
0.765804 0.584381 0.056690
0.836295 0.584002 0.056767
0.907158 0.583621 0.056864
0.973951 0.585192 0.098601
0.019597 0.659345 0.098610
0.045970 0.659698 0.093554
0.065921 0.661476 0.056613
0.155276 0.661425 0.056613
0.223965 0.661245 0.056614
0.290133 0.661086 0.056615
0.356079 0.660882 0.056623
0.422519 0.660634 0.056637
0.489594 0.660364 0.056655
0.557366 0.660103 0.056690
0.625834 0.659760 0.056735
0.694958 0.659412 0.056797
0.764769 0.659080 0.056883
0.835297 0.658730 0.056988
0.906224 0.658426 0.057113
0.973950 0.659343 0.098609
0.019535 0.734617 0.098606
0.047273 0.735027 0.093728
0.066054 0.736660 0.056711
0.155034 0.736499 0.056718
0.223554 0.736503 0.056731
0.289598 0.736323 0.056747
0.355490 0.736133 0.056775
0.421791 0.736010 0.056808
0.488785 0.735749 0.056851
0.556551 0.735582 0.056910
0.624886 0.735351 0.056982
0.694125 0.735021 0.057070
0.763824 0.734761 0.057176
0.834450 0.734515 0.057301
0.905426 0.734214 0.057449
0.973950 0.734613 0.098605
0.019464 0.810933 0.098601
0.048675 0.811143 0.093944
0.066418 0.812751 0.056983
0.154927 0.812690 0.056993
0.223293 0.812595 0.057012
0.289202 0.812462 0.057038
0.354959 0.812322 0.057076
0.421213 0.812205 0.057124
0.488158 0.811998 0.057183
0.555794 0.811901 0.057253
0.624201 0.811686 0.057343
0.693393 0.811490 0.057447
0.763073 0.811234 0.057569
0.833705 0.811032 0.057707
0.904713 0.810862 0.057868
0.973950 0.810931 0.098600
0.019385 0.888434 0.098608
0.050175 0.888662 0.094189
0.066974 0.889862 0.057393
0.154927 0.889810 0.057409
0.223146 0.889774 0.057432
0.288961 0.889757 0.057463
0.354651 0.889687 0.057506
0.420800 0.889510 0.057559
0.487699 0.889483 0.057629
0.555333 0.889300 0.057710
0.623642 0.889181 0.057808
0.692774 0.888966 0.057920
0.762519 0.888819 0.058055
0.833100 0.888689 0.058202
0.904077 0.888468 0.058369
0.973949 0.888432 0.098595
0.019297 0.957330 0.098602
0.051730 0.957528 0.094475
0.067683 0.958415 0.057917
0.155012 0.958381 0.057932
0.223070 0.958349 0.057956
0.288794 0.958361 0.057993
0.354358 0.958356 0.058041
0.420504 0.958236 0.058100
0.487343 0.958094 0.058170
0.554904 0.958114 0.058262
0.623265 0.957936 0.058360
0.692322 0.957923 0.058481
0.762089 0.957751 0.058618
0.832607 0.957677 0.058774
0.903616 0.957541 0.058944
0.973949 0.957329 0.098586
0.019199 1.000001 0.098596
0.068351 1.000001 0.098596
0.122155 1.000001 0.098595
0.179067 1.000001 0.098595
0.238341 1.000001 0.098595
0.299498 1.000001 0.098595
0.362250 1.000001 0.098594
0.426307 1.000001 0.098593
0.491638 1.000001 0.098592
0.558103 1.000001 0.098588
0.625463 1.000001 0.098587
0.693769 1.000001 0.098586
0.762897 1.000001 0.098584
0.832926 1.000000 0.098583
0.903347 1.000000 0.098581
0.973948 1.000000 0.098579
0.106808 0.095519 0.178021
0.121513 0.095775 0.178099
0.165926 0.095101 0.177918
0.223102 0.090927 0.175533
0.281997 0.084715 0.170413
0.340436 0.077522 0.164727
0.398558 0.070129 0.159529
0.457095 0.062950 0.155135
0.516549 0.056197 0.151546
0.577274 0.049935 0.148738
0.639420 0.044163 0.146583
0.703230 0.038832 0.144955
0.768524 0.033912 0.143755
0.835799 0.029470 0.142922
0.904373 0.025860 0.142412
0.974012 0.020741 0.142038
0.106947 0.110981 0.178067
0.121225 0.110769 0.178019
0.165053 0.109097 0.177467
0.223150 0.103487 0.175592
0.283687 0.095350 0.170461
0.342979 0.086654 0.164296
0.401554 0.078094 0.158540
0.460278 0.070054 0.153647
0.519694 0.062666 0.149644
0.580343 0.055983 0.146481
0.642355 0.049992 0.144057
0.705961 0.044659 0.142216
0.771230 0.039989 0.140851
0.838234 0.036038 0.139901
0.906669 0.033104 0.139297
0.974006 0.056614 0.142016
0.100741 0.153385 0.174089
0.113450 0.153032 0.175096
0.158713 0.150684 0.174278
0.218220 0.145277 0.171786
0.283780 0.135213 0.167299
0.349077 0.122156 0.160338
0.410921 0.109758 0.152831
0.471289 0.098518 0.146075
0.531384 0.088576 0.140388
0.592113 0.079951 0.135789
0.653883 0.072571 0.132140
0.717163 0.066354 0.129343
0.781727 0.061285 0.127200
0.848188 0.057328 0.125643
0.915965 0.054554 0.124589
0.973985 0.112106 0.141921
0.089879 0.204917 0.164893
0.099483 0.205191 0.165098
0.139621 0.204969 0.164942
0.205284 0.200608 0.161834
0.274175 0.193077 0.156464
0.345257 0.181453 0.148178
0.416842 0.165452 0.136766
0.483623 0.149856 0.125670
0.547366 0.135883 0.115737
0.610015 0.123713 0.107089
0.672487 0.113352 0.099731
0.735886 0.104664 0.093556
0.800250 0.097603 0.088548
0.866187 0.092036 0.084600
0.933256 0.087943 0.081681
0.973958 0.172544 0.141812
0.078240 0.260119 0.156652
0.085855 0.260716 0.155671
0.117531 0.262505 0.151065
0.179719 0.262154 0.142264
0.256906 0.256326 0.136419
0.330122 0.248550 0.129427
0.400225 0.239715 0.121924
0.467812 0.230793 0.114425
0.533740 0.222448 0.107295
0.598719 0.215028 0.100800
0.663634 0.208701 0.095076
0.728769 0.203474 0.090165
0.794846 0.199308 0.086125
0.861992 0.196073 0.082948
0.930305 0.193704 0.080654
0.973952 0.236279 0.141783
0.067442 0.318608 0.150671
0.073881 0.319279 0.148829
0.100106 0.321693 0.140331
0.150823 0.324660 0.120257
0.236164 0.320642 0.117050
0.311480 0.315527 0.112997
0.382993 0.309782 0.108400
0.452209 0.303794 0.103559
0.520115 0.298056 0.098747
0.587218 0.292705 0.094192
0.654089 0.287999 0.090059
0.721172 0.283979 0.086453
0.788848 0.280717 0.083477
0.857387 0.278113 0.081172
0.926837 0.276199 0.079611
0.973952 0.302504 0.141783
0.057859 0.380436 0.146682
0.063751 0.381033 0.144269
0.086717 0.383564 0.133023
0.129611 0.387511 0.104211
0.220332 0.385060 0.102383
0.296785 0.381836 0.100015
0.369026 0.378157 0.097251
0.439251 0.374136 0.094233
0.508412 0.370168 0.091149
0.577038 0.366412 0.088145
0.645415 0.362945 0.085398
0.714148 0.359901 0.082994
0.783174 0.357408 0.081057
0.853042 0.355417 0.079655
0.923324 0.353839 0.078717
0.973951 0.370782 0.141782
0.049391 0.445575 0.144177
0.055366 0.446167 0.141376
0.076765 0.448513 0.128322
0.114397 0.452697 0.092770
0.209442 0.451182 0.091732
0.286461 0.449176 0.090368
0.358880 0.446837 0.088731
0.429577 0.444303 0.086949
