src/luts/contrast/9.cube
LUT_3D_SIZE 6
0.148228 0.113277 0.068772
0.252519 0.142326 0.093213
0.414909 0.169126 0.116380
0.585312 0.197909 0.141797
0.757350 0.235310 0.175506
0.929444 0.284668 0.220954
0.208234 0.208837 0.108551
0.271266 0.212435 0.112877
0.420774 0.224721 0.127281
0.588417 0.245177 0.150278
0.759729 0.275834 0.183364
0.931233 0.319014 0.228561
0.266720 0.359503 0.151327
0.312794 0.360918 0.153785
0.442762 0.367073 0.164099
0.602477 0.379899 0.184532
0.770537 0.401441 0.216437
0.939346 0.433355 0.260121
0.351965 0.540278 0.219574
0.384268 0.541445 0.221841
0.489876 0.546369 0.231511
0.634933 0.556674 0.250814
0.794326 0.572802 0.279294
0.954594 0.594766 0.315690
0.459556 0.740274 0.314159
0.481667 0.741106 0.315889
0.562054 0.744722 0.323303
0.685400 0.751894 0.337842
0.830636 0.763417 0.359932
0.975595 0.779184 0.389316
0.566009 0.947361 0.415547
0.582159 0.948084 0.416858
0.644444 0.950686 0.422595
0.748110 0.956061 0.434046
0.877843 0.964574 0.451674
0.996755 0.976408 0.475640
0.172221 0.131631 0.134506
0.255388 0.145954 0.142753
0.415544 0.170523 0.158374
0.585595 0.198890 0.178232
0.757533 0.236185 0.206590
0.929620 0.285514 0.246935
0.210439 0.210108 0.152715
0.272578 0.213560 0.155796
0.421317 0.225579 0.166667
0.588777 0.245926 0.185185
0.759936 0.276580 0.213431
0.931385 0.319805 0.253877
0.267811 0.360038 0.186070
0.313633 0.361419 0.188107
0.443249 0.367537 0.196811
0.602829 0.380418 0.214477
0.770718 0.402009 0.242865
0.939555 0.433873 0.282865
0.352888 0.540661 0.245697
0.385095 0.541768 0.247762
0.490475 0.546773 0.256539
0.635293 0.557078 0.274277
0.794691 0.573189 0.300703
0.954845 0.595124 0.334967
0.460238 0.740532 0.333508
0.482301 0.741531 0.335195
0.562518 0.745049 0.342185
0.685769 0.752286 0.356037
0.830813 0.763593 0.377154
0.975777 0.779465 0.405362
0.566501 0.947573 0.430680
0.582621 0.948273 0.431998
0.644802 0.950866 0.437510
0.748314 0.956265 0.448578
0.878098 0.964763 0.465729
0.996853 0.976675 0.489040
0.195538 0.149955 0.266623
0.264315 0.156872 0.269131
0.418147 0.176082 0.276728
0.586979 0.203030 0.288895
0.758562 0.239915 0.308142
0.930396 0.289018 0.337774
0.218716 0.215003 0.273663
0.277783 0.217997 0.275283
0.423611 0.229197 0.281614
0.590096 0.249175 0.293456
0.760969 0.279741 0.312999
0.932265 0.322951 0.343054
0.272461 0.362067 0.294036
0.317328 0.363525 0.295422
0.445508 0.369678 0.301297
0.604297 0.382598 0.313728
0.771879 0.404307 0.334684
0.940331 0.436155 0.365620
0.356793 0.542330 0.336820
0.388500 0.543483 0.338388
0.492910 0.548475 0.345108
0.636999 0.558807 0.358860
0.795841 0.574825 0.379886
0.955508 0.596722 0.408023
0.462992 0.741748 0.406822
0.484850 0.742747 0.408206
0.564509 0.746259 0.414018
0.687215 0.753490 0.425721
0.832025 0.764841 0.443787
0.976319 0.780548 0.468321
0.568500 0.948506 0.490594
0.584522 0.949150 0.491759
0.646458 0.951791 0.496675
0.749611 0.957211 0.506508
0.879041 0.965675 0.521887
0.997091 0.977507 0.542966
0.216527 0.166834 0.425467
0.276354 0.171030 0.426623
0.422940 0.186047 0.430887
0.589706 0.211178 0.439039
0.760673 0.247430 0.452752
0.932008 0.296140 0.474591
0.232290 0.223353 0.429050
0.286974 0.225915 0.430055
0.428165 0.236195 0.434091
0.592900 0.255727 0.442228
0.763034 0.286218 0.456280
0.933897 0.329358 0.478560
0.281656 0.366311 0.442663
0.324712 0.367734 0.443625
0.450056 0.374002 0.447846
0.607403 0.387118 0.456816
0.774214 0.409044 0.472303
0.941913 0.440759 0.495532
0.364676 0.545747 0.473889
0.395496 0.546904 0.475051
0.497901 0.551970 0.480138
0.640376 0.562259 0.490432
0.798146 0.578164 0.506378
0.957023 0.599897 0.528263
0.468507 0.744343 0.527329
0.489993 0.745169 0.528432
0.568582 0.748689 0.533042
0.690206 0.755894 0.542318
0.834147 0.767212 0.556901
0.977420 0.782945 0.576923
0.572495 0.950396 0.595397
0.588373 0.950944 0.596409
0.649704 0.953718 0.600470
0.752289 0.959082 0.608797
0.881076 0.967460 0.621735
0.997735 0.979260 0.639606
0.237723 0.184230 0.601249
0.290869 0.187430 0.601954
0.430223 0.200120 0.604888
0.594241 0.223791 0.611076
0.764172 0.259300 0.621712
0.934703 0.307463 0.638830
0.250162 0.234891 0.603538
0.300035 0.237208 0.604275
0.435317 0.246905 0.607201
0.597510 0.266103 0.613486
0.766640 0.296554 0.624409
0.936548 0.339475 0.641944
0.295955 0.373177 0.613780
0.336375 0.374701 0.614536
0.457496 0.381053 0.617802
0.612469 0.394455 0.624938
0.777971 0.416788 0.636901
0.944470 0.447995 0.654840
0.377147 0.551320 0.638195
0.406531 0.552513 0.639155
0.505755 0.557575 0.643105
0.645668 0.567703 0.650985
0.802003 0.583442 0.663348
0.959180 0.604966 0.680503
0.477115 0.748203 0.679762
0.498030 0.748964 0.680525
0.575003 0.752586 0.684306
0.694937 0.759806 0.691712
0.837663 0.771053 0.703290
0.979266 0.786604 0.719546
0.578778 0.953332 0.734501
0.594405 0.953961 0.735290
0.654923 0.956563 0.738662
0.756317 0.961819 0.745431
0.884145 0.970296 0.756192
0.998639 0.981997 0.771006
0.261514 0.204156 0.790243
0.308715 0.206925 0.790816
0.440340 0.218520 0.793173
0.600877 0.241146 0.798132
0.769230 0.275909 0.807130
0.938445 0.322872 0.821104
0.272388 0.250072 0.792038
0.317273 0.252302 0.792559
0.445504 0.261727 0.795082
0.604278 0.280832 0.800306
0.771847 0.311230 0.809408
0.940310 0.353236 0.823563
0.315535 0.383215 0.800541
0.352765 0.384721 0.801139
0.468237 0.391323 0.803942
0.619874 0.405076 0.809760
0.783743 0.427653 0.819764
0.948043 0.458025 0.833939
0.394024 0.559309 0.820792
0.421671 0.560411 0.821470
0.516634 0.565411 0.824618
0.653115 0.575351 0.830844
0.807229 0.590875 0.840759
0.962385 0.612083 0.854457
0.488958 0.753836 0.853895
0.509137 0.754596 0.854552
0.583834 0.758119 0.857545
0.701593 0.765244 0.863498
0.842542 0.776319 0.872928
0.981716 0.791853 0.886098
0.587525 0.957424 0.898498
0.602783 0.958103 0.899200
0.662102 0.960689 0.902040
0.761960 0.966041 0.907646
0.888712 0.974265 0.916362
0.999581 0.985802 0.928535
