src/luts/contrast/9.cube
LUT_3D_SIZE 16
0.148228 0.113277 0.068772
0.167529 0.122204 0.076200
0.205116 0.132522 0.084879
0.252519 0.142326 0.093213
0.304680 0.151524 0.101106
0.359146 0.160369 0.108751
0.414909 0.169126 0.116380
0.471327 0.178119 0.124267
0.528196 0.187660 0.132681
0.585312 0.197909 0.141797
0.642499 0.209206 0.151898
0.700006 0.221643 0.163089
0.757350 0.235310 0.175506
0.814972 0.250386 0.189275
0.872534 0.266792 0.204376
0.929444 0.284668 0.220954
0.168875 0.134428 0.081925
0.178176 0.136273 0.083566
0.209659 0.142070 0.088730
0.254607 0.149643 0.095479
0.305789 0.157618 0.102602
0.359864 0.165690 0.109841
0.415412 0.173944 0.117252
0.471659 0.182545 0.125003
0.528439 0.191745 0.133327
0.585502 0.201766 0.142418
0.642696 0.212795 0.152485
0.700150 0.225004 0.163655
0.757489 0.238494 0.176064
0.815109 0.253376 0.189829
0.872727 0.269592 0.204941
0.929519 0.287279 0.221482
0.189638 0.167971 0.095739
0.196373 0.168563 0.096350
0.221481 0.170884 0.098719
0.261539 0.174865 0.102808
0.309942 0.180039 0.108078
0.362535 0.186051 0.114119
0.417270 0.192725 0.120780
0.473084 0.200049 0.128072
0.529584 0.208213 0.136133
0.586504 0.217269 0.145050
0.643568 0.227450 0.155004
0.700937 0.238830 0.166120
0.758134 0.251533 0.178454
0.815800 0.265673 0.192217
0.873307 0.281170 0.207310
0.930067 0.298214 0.223824
0.208234 0.208837 0.108551
0.213795 0.209119 0.108882
0.235244 0.210248 0.110252
0.271266 0.212435 0.112877
0.316627 0.215623 0.116680
0.367284 0.219742 0.121502
0.420774 0.224721 0.127281
0.475811 0.230575 0.133970
0.531856 0.237367 0.141618
0.588417 0.245177 0.150278
0.645309 0.254129 0.160063
0.702504 0.264304 0.171089
0.759729 0.275834 0.183364
0.817186 0.288779 0.197047
0.874583 0.303150 0.212073
0.931233 0.319014 0.228561
0.226232 0.255014 0.121307
0.231024 0.255183 0.121550
0.249990 0.255884 0.122517
0.282772 0.257305 0.124480
0.325379 0.259464 0.127476
0.373954 0.262446 0.131533
0.426033 0.266246 0.136626
0.480113 0.270933 0.142802
0.535485 0.276568 0.150055
0.591572 0.283230 0.158459
0.648082 0.290964 0.168061
0.705027 0.299945 0.178947
0.762053 0.310223 0.191130
0.819454 0.321883 0.204744
0.876737 0.334952 0.219680
0.933159 0.349479 0.236107
0.245281 0.305444 0.135224
0.249495 0.305569 0.135411
0.266404 0.306091 0.136237
0.296403 0.307157 0.137879
0.336309 0.308824 0.140490
0.382744 0.311152 0.144114
0.433224 0.314262 0.148819
0.486185 0.318195 0.154636
0.540680 0.323023 0.161605
0.596150 0.328783 0.169779
0.652269 0.335573 0.179234
0.708791 0.343504 0.189994
0.765637 0.352696 0.202064
0.822723 0.363195 0.215590
0.879855 0.374990 0.230438
0.935863 0.388192 0.246679
0.266720 0.359503 0.151327
0.270439 0.359650 0.151503
0.285520 0.360069 0.152258
0.312794 0.360918 0.153785
0.350015 0.362371 0.156209
0.394132 0.364393 0.159625
0.442762 0.367073 0.164099
0.494307 0.370536 0.169721
0.547761 0.374749 0.176519
0.602477 0.379899 0.184532
0.657963 0.386005 0.193847
0.714075 0.393159 0.204486
0.770537 0.401441 0.216437
0.827341 0.410952 0.229848
0.884120 0.421665 0.244529
0.939346 0.433355 0.260121
0.291427 0.416850 0.170434
0.294686 0.416934 0.170617
0.307992 0.417337 0.171332
0.332644 0.418167 0.172805
0.366976 0.419419 0.175126
0.408504 0.421226 0.178450
0.455108 0.423676 0.182796
0.504975 0.426833 0.188286
0.557150 0.430700 0.194986
0.610848 0.435384 0.202891
0.665553 0.441012 0.212066
0.721008 0.447572 0.222601
0.776840 0.455165 0.234416
0.833284 0.463814 0.247584
0.889520 0.473308 0.261556
0.943711 0.483504 0.276271
0.319824 0.477162 0.193088
0.322661 0.477269 0.193263
0.334390 0.477648 0.193971
0.356409 0.478368 0.195405
0.387776 0.479589 0.197710
0.426539 0.481259 0.200943
0.470683 0.483568 0.205239
0.518575 0.486497 0.210610
0.569156 0.490138 0.217209
0.621554 0.494545 0.224999
0.675234 0.499751 0.234065
0.729894 0.505868 0.244416
0.785000 0.512748 0.255760
0.840436 0.520320 0.268012
0.896037 0.528605 0.281047
0.948768 0.537583 0.294865
0.351965 0.540278 0.219574
0.354408 0.540386 0.219756
0.364675 0.540709 0.220438
0.384268 0.541445 0.221841
0.412647 0.542527 0.224106
0.448409 0.544221 0.227288
0.489876 0.546369 0.231511
0.535530 0.549206 0.236826
0.584190 0.552586 0.243281
0.634933 0.556674 0.250814
0.687141 0.561400 0.259337
0.740423 0.566723 0.268864
0.794326 0.572802 0.279294
0.849014 0.579476 0.290597
0.903714 0.586778 0.302772
0.954594 0.594766 0.315690
0.387446 0.605826 0.249817
0.389652 0.605908 0.249996
0.398597 0.606215 0.250657
0.415785 0.606934 0.252001
0.441275 0.607942 0.254108
0.473938 0.609466 0.257135
0.512394 0.611440 0.261055
0.555203 0.613927 0.265889
0.601498 0.617005 0.271766
0.650209 0.620550 0.278554
0.700591 0.624704 0.286349
0.752374 0.629424 0.295066
0.805111 0.634762 0.304596
0.858657 0.640716 0.315161
0.912485 0.647135 0.326450
0.961134 0.654333 0.338513
0.423703 0.672739 0.281682
0.425538 0.672742 0.281804
0.433359 0.673116 0.282398
0.448576 0.673680 0.283591
0.471399 0.674599 0.285521
0.501041 0.675905 0.288208
0.536582 0.677694 0.291769
0.576710 0.679816 0.296137
0.620526 0.682566 0.301444
0.667102 0.685868 0.307624
0.715612 0.689440 0.314786
0.765987 0.693731 0.322758
0.817275 0.698526 0.331616
0.869630 0.703796 0.341354
0.922071 0.709720 0.351838
0.968209 0.716050 0.363194
0.459556 0.740274 0.314159
0.461220 0.740396 0.314263
0.468106 0.740598 0.314843
0.481667 0.741106 0.315889
0.502191 0.742006 0.317632
0.529272 0.743175 0.320079
0.562054 0.744722 0.323303
0.599660 0.746684 0.327300
0.641048 0.749081 0.332159
0.685400 0.751894 0.337842
0.732124 0.755297 0.344363
0.780759 0.759148 0.351758
0.830636 0.763417 0.359932
0.881711 0.768196 0.368987
0.932362 0.773386 0.378769
0.975595 0.779184 0.389316
0.495330 0.808868 0.347389
0.496789 0.808813 0.347527
0.502966 0.809136 0.348018
0.515079 0.809525 0.349007
0.533702 0.810258 0.350604
0.558342 0.811374 0.352824
0.588692 0.812799 0.355777
0.623772 0.814600 0.359444
0.662857 0.816768 0.363832
0.705116 0.819271 0.369076
0.750072 0.822350 0.375109
0.796895 0.825785 0.381980
0.845236 0.829601 0.389543
0.895073 0.833989 0.397956
0.943303 0.838690 0.407098
0.983072 0.843932 0.417023
0.530753 0.877750 0.381126
0.532064 0.877777 0.381258
0.537576 0.878002 0.381700
0.548560 0.878396 0.382616
0.565420 0.879095 0.384053
0.588124 0.880051 0.386120
0.616169 0.881326 0.388802
0.648961 0.882935 0.392179
0.685862 0.884931 0.396300
0.726098 0.887272 0.401093
0.768959 0.889968 0.406710
0.814212 0.893129 0.413002
0.861029 0.896709 0.420083
0.909409 0.900608 0.427946
0.954509 0.904792 0.436485
0.990394 0.909641 0.445754
0.566009 0.947361 0.415547
0.567190 0.947370 0.415657
0.572223 0.947621 0.416054
0.582159 0.948084 0.416858
0.597568 0.948624 0.418225
0.618432 0.949489 0.420095
0.644444 0.950686 0.422595
0.675149 0.952148 0.425727
0.709870 0.953988 0.429522
0.748110 0.956061 0.434046
0.789110 0.958552 0.439170
0.832620 0.961288 0.445108
0.877843 0.964574 0.451674
0.924363 0.968227 0.458994
0.965891 0.972101 0.466950
0.996755 0.976408 0.475640
0.155163 0.118515 0.078150
0.169159 0.123543 0.082122
0.205623 0.133051 0.089736
0.252739 0.142614 0.097514
0.304808 0.151707 0.105050
0.359235 0.160500 0.112428
0.414994 0.169218 0.119826
0.471372 0.178193 0.127504
0.528241 0.187712 0.135723
0.585271 0.197994 0.144693
0.642553 0.209263 0.154607
0.699939 0.221688 0.165650
0.757383 0.235395 0.177885
0.814916 0.250438 0.191498
0.872559 0.266861 0.206483
0.929402 0.284735 0.222909
0.169772 0.135087 0.087048
0.178916 0.136840 0.088536
0.210010 0.142444 0.093307
0.254799 0.149864 0.099679
0.305889 0.157781 0.106508
0.359925 0.165813 0.113487
0.415421 0.174027 0.120664
0.471704 0.182623 0.128224
0.528482 0.191816 0.136379
0.585482 0.201849 0.145301
0.642743 0.212876 0.155193
0.700129 0.225083 0.166210
0.757521 0.238545 0.178462
0.815132 0.253440 0.192083
0.872686 0.269674 0.207024
0.929544 0.287363 0.223455
0.189948 0.168168 0.099928
0.196620 0.168770 0.100504
0.221697 0.171069 0.102792
0.261654 0.175013 0.106712
0.310023 0.180175 0.111768
0.362585 0.186151 0.117635
0.417255 0.192775 0.124109
0.473103 0.200116 0.131247
0.529627 0.208247 0.139105
0.586483 0.217324 0.147888
0.643588 0.227508 0.157669
0.700959 0.238892 0.168629
0.758171 0.251579 0.180833
0.815822 0.265705 0.194433
0.873332 0.281252 0.209351
0.930092 0.298259 0.225758
0.208420 0.208931 0.112234
0.213953 0.209196 0.112549
0.235388 0.210342 0.113878
0.271352 0.212530 0.116425
0.316717 0.215697 0.120117
0.367293 0.219798 0.124826
0.420807 0.224788 0.130469
0.475854 0.230627 0.137013
0.531866 0.237417 0.144502
0.588448 0.245222 0.153024
0.645332 0.254180 0.162657
0.702479 0.264357 0.173537
0.759663 0.275878 0.185662
0.817210 0.288830 0.199217
0.874609 0.303189 0.214121
0.931260 0.319080 0.230443
0.226331 0.255061 0.124621
0.231146 0.255242 0.124861
0.250086 0.255950 0.125816
0.282863 0.257350 0.127724
0.325444 0.259504 0.130631
0.374009 0.262495 0.134608
0.426057 0.266279 0.139604
0.480154 0.270992 0.145657
0.535530 0.276588 0.152794
0.591591 0.283259 0.161065
0.648103 0.291010 0.170539
0.705050 0.300010 0.181284
0.762087 0.310255 0.193341
0.819479 0.321945 0.206808
0.876763 0.334966 0.221658
0.933185 0.349538 0.237945
0.245365 0.305496 0.138234
0.249585 0.305620 0.138416
0.266474 0.306103 0.139225
0.296468 0.307168 0.140849
0.336366 0.308878 0.143407
0.382797 0.311231 0.146967
0.433287 0.314330 0.151584
0.486205 0.318222 0.157296
0.540724 0.323015 0.164175
0.596183 0.328763 0.172249
0.652292 0.335588 0.181590
0.708828 0.343573 0.192219
0.765667 0.352730 0.204192
0.822748 0.363221 0.217563
0.879881 0.375025 0.232306
0.935889 0.388218 0.248467
0.266789 0.359577 0.154048
0.270511 0.359702 0.154220
0.285578 0.360076 0.154961
0.312878 0.360999 0.156464
0.350050 0.362401 0.158862
0.394126 0.364390 0.162218
0.442833 0.367138 0.166638
0.494352 0.370521 0.172166
0.547809 0.374807 0.178883
0.602484 0.379913 0.186809
0.658018 0.386038 0.196035
0.714026 0.393177 0.206568
0.770430 0.401430 0.218429
0.827368 0.410935 0.231691
0.884148 0.421716 0.246333
0.939372 0.433379 0.261832
0.291490 0.416867 0.172892
0.294748 0.416991 0.173058
0.308082 0.417345 0.173764
0.332692 0.418175 0.175219
0.366998 0.419422 0.177523
0.408549 0.421266 0.180796
0.455164 0.423698 0.185104
0.505026 0.426876 0.190558
0.557206 0.430738 0.197155
0.610873 0.435428 0.204994
0.665580 0.441058 0.214114
0.720968 0.447599 0.224524
0.776881 0.455198 0.236274
0.833270 0.463869 0.249350
0.889548 0.473322 0.263201
0.943657 0.483550 0.277864
0.319882 0.477207 0.195305
0.322711 0.477313 0.195450
0.334445 0.477693 0.196157
0.356458 0.478386 0.197572
0.387851 0.479625 0.199850
0.426616 0.481306 0.203069
0.470736 0.483616 0.207324
0.518630 0.486545 0.212685
0.569195 0.490188 0.219203
0.621582 0.494559 0.226917
0.675211 0.499746 0.235911
0.729813 0.505878 0.246199
0.784985 0.512754 0.257473
0.840464 0.520340 0.269637
0.896065 0.528602 0.282640
0.948792 0.537622 0.296365
0.352025 0.540314 0.221522
0.354492 0.540375 0.221704
0.364766 0.540698 0.222390
0.384337 0.541433 0.223804
0.412733 0.542591 0.226022
0.448494 0.544209 0.229210
0.489900 0.546407 0.233373
0.535523 0.549192 0.238666
0.584234 0.552625 0.245077
0.634931 0.556714 0.252586
0.687170 0.561427 0.261055
0.740466 0.566783 0.270478
0.794350 0.572829 0.280851
0.848993 0.579482 0.292157
0.903742 0.586864 0.304233
0.954618 0.594794 0.317112
0.387536 0.605854 0.251574
0.389638 0.605960 0.251730
0.398582 0.606267 0.252369
0.415872 0.606961 0.253738
0.441364 0.607970 0.255847
0.473965 0.609457 0.258812
0.512405 0.611468 0.262718
0.555267 0.613934 0.267551
0.601541 0.617033 0.273397
0.650238 0.620578 0.280138
0.700621 0.624732 0.287888
0.752415 0.629453 0.296532
0.805139 0.634790 0.306088
0.858684 0.640745 0.316558
0.912513 0.647242 0.327816
0.961075 0.654322 0.339866
0.423733 0.672768 0.283218
0.425623 0.672771 0.283388
0.433406 0.673090 0.283977
0.448663 0.673723 0.285166
0.471458 0.674640 0.287057
0.501102 0.675946 0.289747
0.536607 0.677681 0.293300
0.576752 0.679857 0.297660
0.620574 0.682611 0.302942
0.667131 0.685871 0.309153
0.715655 0.689482 0.316157
0.766018 0.693730 0.324155
0.817303 0.698573 0.332998
0.869657 0.703842 0.342680
0.922097 0.709617 0.353136
0.968230 0.716110 0.364393
0.459597 0.740316 0.315567
0.461255 0.740438 0.315703
0.468166 0.740640 0.316231
0.481726 0.741124 0.317320
0.502251 0.742047 0.319045
0.529271 0.743170 0.321479
0.562060 0.744763 0.324680
0.599596 0.746696 0.328699
0.641061 0.749123 0.333497
0.685429 0.751922 0.339164
0.732170 0.755306 0.345668
0.780800 0.759176 0.353037
0.830664 0.763445 0.361140
0.881739 0.768224 0.370239
0.932388 0.773414 0.379920
0.975581 0.779212 0.390504
0.495389 0.808813 0.348742
0.496849 0.808842 0.348821
0.503007 0.809165 0.349294
0.515140 0.809554 0.350282
0.533713 0.810286 0.351892
0.558404 0.811403 0.354112
0.588736 0.812828 0.356992
0.623800 0.814629 0.360668
0.662886 0.816764 0.365116
0.705146 0.819300 0.370308
0.750032 0.822379 0.376318
0.796923 0.825814 0.383143
0.845215 0.829630 0.390720
0.895100 0.834018 0.399066
0.943328 0.838719 0.408214
0.983110 0.843961 0.418086
0.530782 0.877720 0.382373
0.532082 0.877806 0.382434
0.537636 0.878031 0.382908
0.548569 0.878426 0.383824
0.565463 0.879125 0.385232
0.588166 0.880081 0.387322
0.616191 0.881355 0.389978
0.648990 0.882965 0.393343
0.685890 0.884961 0.397429
0.726141 0.887302 0.402309
0.769002 0.889998 0.407840
0.814240 0.893070 0.414152
0.861057 0.896601 0.421155
0.909437 0.900638 0.429004
0.954536 0.904823 0.437532
0.990410 0.909670 0.446789
0.566052 0.947391 0.416618
0.567232 0.947401 0.416778
0.572265 0.947652 0.417132
0.582202 0.948095 0.417998
0.597611 0.948655 0.419323
0.618461 0.949520 0.421163
0.644449 0.950717 0.423662
0.675178 0.952178 0.426821
0.709841 0.954018 0.430578
0.748072 0.956092 0.435079
0.789137 0.958583 0.440226
0.832647 0.961318 0.446087
0.877812 0.964610 0.452716
0.924388 0.968164 0.459993
0.965912 0.972134 0.467967
0.996766 0.976438 0.476632
0.163737 0.125062 0.101281
0.174274 0.127748 0.103086
0.207685 0.135130 0.108155
0.253667 0.143777 0.114290
0.305300 0.152469 0.120632
0.359567 0.161027 0.127050
0.415163 0.169643 0.133670
0.471499 0.178564 0.140627
0.528341 0.188042 0.148161
0.585410 0.198291 0.156480
0.642620 0.209540 0.165752
0.700047 0.221979 0.176162
0.757436 0.235640 0.187817
0.815001 0.250696 0.200830
0.872612 0.267102 0.215200
0.929403 0.284978 0.231090
0.173119 0.137566 0.106211
0.181706 0.139015 0.107264
0.211594 0.143937 0.110894
0.255624 0.150851 0.116086
0.306375 0.158461 0.121889
0.360214 0.166317 0.127992
0.415611 0.174435 0.134410
0.471865 0.182960 0.141289
0.528592 0.192144 0.148770
0.585623 0.202130 0.157053
0.642798 0.213142 0.166310
0.700216 0.225352 0.176719
0.757574 0.238805 0.188335
0.815191 0.253691 0.201350
0.872703 0.269936 0.215740
0.929650 0.287585 0.231609
0.191233 0.169031 0.116285
0.197809 0.169579 0.116777
0.222572 0.171767 0.118699
0.262225 0.175611 0.122058
0.310398 0.180644 0.126492
0.362868 0.186533 0.131689
0.417446 0.193127 0.137541
0.473242 0.200412 0.144036
0.529740 0.208560 0.151317
0.586615 0.217605 0.159448
0.643704 0.227750 0.168649
0.700978 0.239154 0.179011
0.758306 0.251841 0.190609
0.815909 0.265956 0.203600
0.873439 0.281497 0.217998
0.930128 0.298495 0.233841
0.209088 0.209313 0.126879
0.214584 0.209607 0.127171
0.235921 0.210724 0.128353
0.271766 0.212864 0.130611
0.317009 0.216007 0.133926
0.367541 0.220100 0.138174
0.420976 0.225059 0.143340
0.476001 0.230896 0.149342
0.532010 0.237659 0.156304
0.588546 0.245459 0.164273
0.645371 0.254401 0.173357
0.702530 0.264610 0.183617
0.759801 0.276116 0.195224
0.817292 0.289082 0.208205
0.874652 0.303407 0.222553
0.931301 0.319315 0.238409
0.226805 0.255316 0.138008
0.231582 0.255475 0.138221
0.250475 0.256178 0.139081
0.283191 0.257570 0.140816
0.325693 0.259735 0.143497
0.374186 0.262713 0.147134
0.426236 0.266504 0.151758
0.480292 0.271174 0.157374
0.535598 0.276808 0.164062
0.591692 0.283450 0.171825
0.648236 0.291208 0.180803
0.705107 0.300221 0.191038
0.762138 0.310449 0.202576
0.819550 0.322142 0.215526
0.876830 0.335210 0.229864
0.933223 0.349768 0.245677
0.245752 0.305649 0.150487
0.249954 0.305774 0.150650
0.266812 0.306306 0.151405
0.296737 0.307347 0.152911
0.336609 0.309019 0.155281
0.383011 0.311389 0.158603
0.433416 0.314485 0.162921
0.486319 0.318434 0.168280
0.540837 0.323227 0.174790
0.596284 0.328994 0.182450
0.652332 0.335794 0.191329
0.708910 0.343710 0.201500
0.765728 0.352890 0.213007
0.822858 0.363412 0.225941
0.879938 0.375200 0.240202
0.935888 0.388381 0.255885
0.267127 0.359748 0.165234
0.270839 0.359746 0.165400
0.285893 0.360251 0.166094
0.313115 0.361125 0.167512
0.350250 0.362536 0.169748
0.394339 0.364580 0.172929
0.442958 0.367274 0.177108
0.494490 0.370745 0.182343
0.547908 0.374948 0.188732
0.602585 0.380078 0.196322
0.658096 0.386174 0.205157
0.714189 0.393375 0.215313
0.770494 0.401628 0.226743
0.827410 0.411133 0.239644
0.884204 0.421880 0.253856
0.939482 0.433526 0.268926
0.291825 0.416985 0.183046
0.295076 0.417132 0.183208
0.308371 0.417511 0.183877
0.332981 0.418263 0.185255
0.367283 0.419600 0.187447
0.408769 0.421420 0.190581
0.455296 0.423851 0.194680
0.505166 0.426983 0.199866
0.557325 0.430885 0.206237
0.610958 0.435585 0.213805
0.665620 0.441174 0.222548
0.721149 0.447755 0.232678
0.776914 0.455345 0.244042
0.833279 0.464026 0.256756
0.889668 0.473466 0.270291
0.943721 0.483703 0.284598
0.320178 0.477332 0.204441
0.323023 0.477440 0.204611
0.334750 0.477820 0.205273
0.356732 0.478551 0.206654
0.388060 0.479737 0.208808
0.426811 0.481446 0.211913
0.470895 0.483743 0.216010
0.518777 0.486669 0.221179
0.569349 0.490331 0.227484
0.621713 0.494725 0.234988
0.675340 0.499878 0.243722
0.729844 0.506022 0.253721
0.785072 0.512852 0.264695
0.840583 0.520469 0.276550
0.896082 0.528777 0.289245
0.948895 0.537786 0.302727
0.352304 0.540423 0.229781
0.354770 0.540473 0.229941
0.365003 0.540852 0.230584
0.384586 0.541542 0.231949
0.412934 0.542691 0.234109
0.448683 0.544333 0.237190
0.490108 0.546531 0.241265
0.535703 0.549334 0.246383
0.584307 0.552764 0.252615
0.635092 0.556864 0.259894
0.687230 0.561527 0.268173
0.740458 0.566919 0.277378
0.794469 0.572942 0.287570
0.849009 0.579609 0.298600
0.903862 0.586941 0.310468
0.954718 0.594881 0.323100
0.387778 0.605962 0.258964
0.389988 0.606020 0.259090
0.398869 0.606350 0.259746
0.416138 0.607026 0.261065
0.441494 0.608096 0.263120
0.474174 0.609652 0.265992
0.512566 0.611561 0.269817
0.555485 0.614089 0.274542
0.601668 0.617124 0.280231
0.650332 0.620653 0.286823
0.700788 0.624834 0.294405
0.752518 0.629512 0.302939
0.805245 0.634911 0.312271
0.858747 0.640828 0.322550
0.912481 0.647329 0.333637
0.961174 0.654448 0.345499
0.423954 0.672849 0.289861
0.425836 0.672938 0.290015
0.433614 0.673295 0.290562
0.448854 0.673788 0.291749
0.471623 0.674704 0.293646
0.501306 0.676083 0.296257
0.536743 0.677817 0.299681
0.576918 0.679957 0.303970
0.620690 0.682753 0.309191
0.667170 0.685897 0.315224
0.715826 0.689531 0.322185
0.765995 0.693813 0.330037
0.817368 0.698606 0.338726
0.869724 0.703870 0.348263
0.922150 0.709807 0.358597
0.968241 0.716047 0.369685
0.459833 0.740493 0.321622
0.461449 0.740409 0.321714
0.468380 0.740730 0.322245
0.481928 0.741213 0.323320
0.502387 0.742135 0.325001
0.529452 0.743352 0.327390
0.562204 0.744894 0.330536
0.599768 0.746878 0.334454
0.641152 0.749221 0.339221
0.685509 0.752043 0.344810
0.732256 0.755426 0.351224
0.780847 0.759189 0.358486
0.830782 0.763496 0.366489
0.881772 0.768345 0.375391
0.932498 0.773535 0.385030
0.975618 0.779298 0.395457
0.495536 0.808842 0.354201
0.497017 0.808927 0.354330
0.503169 0.809204 0.354794
0.515316 0.809677 0.355768
0.533830 0.810409 0.357317
0.558572 0.811525 0.359499
0.588845 0.812950 0.362394
0.623947 0.814660 0.366002
0.662996 0.816887 0.370414
0.705328 0.819422 0.375560
0.750096 0.822416 0.381465
0.797019 0.825867 0.388198
0.845333 0.829682 0.395701
0.895146 0.834065 0.403955
0.943434 0.838797 0.412992
0.983086 0.844001 0.422758
0.530952 0.877846 0.387407
0.532264 0.877864 0.387513
0.537816 0.878090 0.387956
0.548737 0.878554 0.388855
0.565602 0.879131 0.390263
0.588258 0.880208 0.392294
0.616310 0.881482 0.394930
0.649122 0.883009 0.398276
0.685977 0.885088 0.402345
0.726241 0.887344 0.407133
0.769177 0.890125 0.412612
0.814278 0.893197 0.418895
0.861078 0.896728 0.425850
0.909469 0.900622 0.433553
0.954635 0.904950 0.442006
0.990369 0.909739 0.451181
0.566173 0.947441 0.421339
0.567416 0.947532 0.421434
0.572391 0.947708 0.421793
0.582334 0.948108 0.422648
0.597750 0.948710 0.423951
0.618607 0.949572 0.425858
0.644614 0.950765 0.428287
0.675251 0.952229 0.431411
0.710020 0.954069 0.435126
0.748223 0.956143 0.439552
0.789255 0.958640 0.444666
0.832730 0.961438 0.450527
0.877930 0.964579 0.457024
0.924403 0.968286 0.464261
0.965922 0.972169 0.472155
0.996817 0.976575 0.480760
0.172221 0.131631 0.134506
0.180953 0.133246 0.135395
0.211166 0.138599 0.138416
0.255388 0.145954 0.142753
0.306204 0.153944 0.147656
0.360115 0.162117 0.152859
0.415544 0.170523 0.158374
0.471811 0.179310 0.164342
0.528537 0.188699 0.170889
0.585595 0.198890 0.178232
0.642772 0.210130 0.186542
0.700239 0.222518 0.195936
0.757533 0.236185 0.206590
0.815162 0.251229 0.218621
0.872763 0.267644 0.232015
0.929620 0.285514 0.246935
0.178414 0.141473 0.137205
0.186226 0.142577 0.137860
0.214410 0.146602 0.140311
0.257174 0.152711 0.144101
0.307272 0.159779 0.148645
0.360795 0.167309 0.153633
0.416029 0.175263 0.159027
0.472141 0.183672 0.164897
0.528812 0.192751 0.171432
0.585805 0.202710 0.178723
0.642962 0.213711 0.187028
0.700390 0.225907 0.196426
0.757771 0.239355 0.207089
0.815373 0.254214 0.219085
0.872865 0.270413 0.232509
0.929695 0.288094 0.247442
0.193640 0.170590 0.144280
0.200050 0.171131 0.144631
0.224275 0.173168 0.146113
0.263386 0.176766 0.148789
0.311159 0.181595 0.152385
0.363378 0.187347 0.156720
0.417852 0.193819 0.161681
0.473521 0.201046 0.167286
0.529953 0.209121 0.173657
0.586814 0.218145 0.180875
0.643833 0.228286 0.189126
0.701172 0.239667 0.198538
0.758509 0.252344 0.209197
0.816082 0.266483 0.221210
0.873502 0.281959 0.234637
0.930281 0.298972 0.249539
0.210439 0.210108 0.152715
0.215872 0.210371 0.152951
0.237021 0.211448 0.153915
0.272578 0.213560 0.155796
0.317603 0.216644 0.158589
0.367979 0.220682 0.162233
0.421317 0.225579 0.166667
0.476265 0.231395 0.171940
0.532217 0.238136 0.178068
0.588777 0.245926 0.185185
0.645566 0.254870 0.193398
0.702736 0.265047 0.202759
0.759936 0.276580 0.213431
0.817350 0.289533 0.225484
0.874819 0.303893 0.238924
0.931385 0.319805 0.253877
0.227748 0.255808 0.162083
0.232491 0.255959 0.162251
0.251283 0.256669 0.163002
0.283826 0.258035 0.164498
0.326182 0.260176 0.166826
0.374617 0.263133 0.169989
0.426526 0.266924 0.174056
0.480546 0.271584 0.179026
0.535859 0.277223 0.184986
0.591902 0.283860 0.192025
0.648406 0.291613 0.200200
0.705341 0.300600 0.209582
0.762245 0.310881 0.220244
0.819743 0.322526 0.232322
0.876913 0.335592 0.245798
0.933292 0.350133 0.260757
0.246520 0.305997 0.172933
0.250698 0.306123 0.173093
0.267498 0.306663 0.173743
0.297330 0.307753 0.175069
0.337057 0.309379 0.177186
0.383358 0.311735 0.180136
0.433731 0.314838 0.183982
0.486610 0.318736 0.188821
0.541050 0.323532 0.194682
0.596493 0.329293 0.201683
0.652584 0.336143 0.209832
0.709098 0.344090 0.219255
0.765949 0.353255 0.229962
0.823020 0.363755 0.242085
0.880105 0.375613 0.255576
0.936008 0.388769 0.270440
0.267811 0.360038 0.186070
0.271515 0.360105 0.186211
0.286496 0.360556 0.186834
0.313633 0.361419 0.188107
0.350708 0.362875 0.190126
0.394752 0.364919 0.193035
0.443249 0.367537 0.196811
0.494766 0.371012 0.201585
0.548171 0.375259 0.207460
0.602829 0.380418 0.214477
0.658245 0.386533 0.222644
0.714381 0.393695 0.232096
0.770718 0.402009 0.242865
0.827470 0.411532 0.255009
0.884400 0.422210 0.268497
0.939555 0.433873 0.282865
0.292448 0.417242 0.202209
0.295700 0.417367 0.202367
0.308963 0.417780 0.202993
0.333495 0.418573 0.204251
0.367732 0.419876 0.206278
0.409183 0.421677 0.209137
0.455623 0.424138 0.212934
0.505443 0.427267 0.217754
