src/luts/12.cube
TITLE "Generated by Resolve"
LUT_3D_SIZE 5
0.0194247 0 0
0.0311894 0.00935378 0
0.391974 0 0
1 0 0
1 0 0.0336614
0.0194247 0.154452 0
0.0939345 0.158373 0
0.560601 0.0720989 0
0.964523 0 0
1 0 0.00228885
0.0194247 0.370138 0
0.211582 0.362295 0
0.537072 0.338766 0
0.866484 0.307393 0
1 0.315236 0
0.195895 0.636805 0
0.301778 0.636805 0
0.548837 0.632883 0
0.831189 0.628962 0
1 0.621118 0
0.599817 0.942687 0
0.642954 0.942687 0
0.772366 0.938766 0
0.917464 0.930922 0
1 0.907393 0.0258183
0.0194247 0 0
0.035111 0.0211185 0
0.45864 0 0.0846418
0.972366 0 0.0415045
1 0 0.0650339
0.0194247 0.17406 0.0807202
0.0743267 0.166217 0.0885634
0.537072 0.0877852 0.0454261
0.929229 0 0.0179751
1 0 0.0532692
0.0194247 0.37406 0.0807202
0.176287 0.370138 0.0807202
0.497856 0.354452 0.0493477
0.846876 0.323079 0
1 0.319158 0.0179751
0.160601 0.640726 0.0297398
0.274327 0.640726 0.0297398
0.525307 0.640726 0
0.811582 0.636805 0
1 0.617197 0
0.144915 0.923079 0
0.262562 0.923079 0
0.529229 0.915236 0
0.917464 0.930922 0
1 0.907393 0.0258183
0.0311894 0.0132753 0
0.035111 0.0485695 0.0728771
0.33315 0.0289616 0.237583
0.737072 0 0.300328
1 0 0.316014
0.0194247 0.193668 0.225818
0.0194247 0.193668 0.261112
0.384131 0.15053 0.265034
0.811582 0 0.296407
1 0 0.296407
0.0194247 0.381903 0.241505
0.180209 0.377981 0.249348
0.462562 0.366217 0.257191
0.842954 0.334844 0.210132
1 0.334844 0.214054
0.148836 0.648569 0.272877
0.254719 0.648569 0.276799
0.490013 0.648569 0.276799
0.776287 0.648569 0.245426
1 0.62504 0.163073
0.0194247 0.911315 0.194446
0.0194247 0.911315 0.186603
0.33315 0.89955 0.147387
0.623346 0.883864 0.00228885
1 0.907393 0.0336614
0.0194247 0.0603342 0.131701
0.0194247 0.0681773 0.265034
0.305699 0.0485695 0.476799
0.623346 0 0.50425
0.968444 0 0.563073
0.0194247 0.217197 0.453269
0.0194247 0.221118 0.476799
0.317464 0.170138 0.492485
0.642954 0.138766 0.516014
0.991974 0 0.578759
0.0194247 0.456413 0.625818
0.0194247 0.460334 0.625818
0.0194247 0.47602 0.614054
0.686091 0.377981 0.535622
1 0.327001 0.594446
0.13315 0.656413 0.484642
0.250797 0.656413 0.492485
0.478248 0.656413 0.516014
0.73315 0.652491 0.531701
1 0.609354 0.445426
0.0194247 0.89955 0.445426
0.0194247 0.89955 0.441505
0.235111 0.887785 0.421897
0.544915 0.872099 0.366995
0.940993 0.848569 0.217975
0.0194247 0.0760204 0.617975
0.0194247 0.0760204 0.735622
0.0468757 0.0838636 0.825818
0.497856 0.0760204 0.845426
0.897856 0 0.861112
0.0194247 0.217197 0.798367
0.0194247 0.213275 0.80621
0.0821698 0.201511 0.821897
0.509621 0.193668 0.845426
0.913542 0.130922 0.865034
0.0194247 0.444648 0.810132
0.0194247 0.440726 0.814054
0.137072 0.436805 0.825818
0.53315 0.436805 0.849348
0.937072 0.413275 0.868955
0.0194247 0.707393 0.825818
0.0194247 0.703471 0.825818
0.168444 0.69955 0.833661
0.0194247 0.746609 0.845426
0.913542 0.613275 0.841505
0.0194247 0.887785 0.751308
0.0194247 0.883864 0.751308
0.0194247 0.87602 0.743465
0.423346 0.856413 0.731701
0.913542 0.864256 0.790524
