src/luts/12.cube
TITLE "Generated by Resolve"
LUT_3D_SIZE 33
0.0194247 0 0
0.0194247 0 0
0.0194247 0 0
0.0194247 0 0
0.0194247 0 0
0.0233463 0 0
0.0272679 0.00151064 0
0.0272679 0.00151064 0
0.0311894 0.00935378 0
0.0311894 0.0171969 0
0.035111 0.0250401 0
0.0468757 0.0368048 0
0.0704051 0.0446479 0
0.121386 0.0485695 0
0.199817 0.0446479 0
0.290013 0.0211185 0
0.391974 0 0
0.509621 0 0
0.615503 0 0
0.709621 0 0
0.795895 0 0
0.866484 0 0
0.925307 0 0
0.968444 0 0
1 0 0
1 0 0
1 0 0
1 0 0
1 0 0
1 0 0
1 0 0
1 0 0
1 0 0.0336614
0.0194247 0 0
0.0194247 0 0
0.0194247 0 0
0.0194247 0 0
0.0194247 0 0
0.0233463 0 0
0.0272679 0.00151064 0
0.0272679 0.00543221 0
0.0311894 0.00935378 0
0.0311894 0.0171969 0
0.035111 0.0250401 0
0.0468757 0.0368048 0
0.0743267 0.0485695 0
0.125307 0.052491 0
0.203738 0.0446479 0
0.297856 0.0171969 0
0.399817 0 0
0.513542 0 0
0.619425 0 0
0.709621 0 0
0.795895 0 0
0.866484 0 0
0.925307 0 0
0.968444 0 0
1 0 0
1 0 0
1 0 0
1 0 0
1 0 0
1 0 0
1 0 0
1 0 0
1 0 0.0336614
0.0194247 0 0
0.0233463 0 0
0.0233463 0 0
0.0233463 0 0
0.0272679 0.00151064 0
0.0272679 0.00151064 0
0.0311894 0.00543221 0
0.0311894 0.00935378 0
0.0311894 0.0171969 0
0.035111 0.0250401 0
0.0390326 0.0368048 0
0.0547189 0.0446479 0
0.090013 0.052491 0
0.148836 0.052491 0
0.227268 0.0446479 0
0.317464 0.0132753 0
0.419425 0 0
0.53315 0 0
0.631189 0 0
0.721386 0 0
0.799817 0 0
0.870405 0 0
0.925307 0 0
0.968444 0 0
1 0 0
1 0 0
1 0 0
1 0 0
1 0 0
1 0 0
1 0 0
1 0 0
1 0 0.0297398
0.0272679 0.00151064 0
0.0272679 0.00151064 0
0.0272679 0.00543221 0
0.0311894 0.00543221 0
0.0311894 0.00935378 0
0.0311894 0.0132753 0
0.0311894 0.0171969 0
0.0311894 0.0250401 0
0.035111 0.0328832 0
0.0390326 0.0407263 0
0.0507973 0.0485695 0
0.0782483 0.0564126 0
0.129229 0.0603342 0
0.191974 0.0564126 0
0.274327 0.0368048 0
0.360601 0.00543221 0
0.45864 0 0
0.560601 0 0
0.650797 0 0
0.73315 0 0
0.80766 0 0
0.874327 0 0
0.929229 0 0
0.972366 0 0
1 0 0
1 0 0
1 0 0
1 0 0
1 0 0
1 0 0
1 0 0
1 0 0
1 0 0.0297398
0.0311894 0.0171969 0
0.0311894 0.0171969 0
0.0311894 0.0171969 0
0.0311894 0.0211185 0
0.0311894 0.0289616 0
0.0311894 0.0328832 0
0.0311894 0.0407263 0
0.035111 0.0485695 0
0.0390326 0.0564126 0
0.0507973 0.0642557 0
0.0782483 0.0681773 0
0.121386 0.0720989 0
0.180209 0.0681773 0
0.250797 0.0564126 0
0.325307 0.0368048 0
0.411582 0 0
0.505699 0 0
0.591974 0 0
0.674327 0 0
0.748837 0 0
0.815503 0 0
0.878248 0 0
0.929229 0 0
0.968444 0 0
1 0 0
1 0 0
1 0 0
1 0 0
1 0 0
1 0 0
1 0 0
1 0 0
1 0 0.0258183
0.0233463 0.0446479 0
0.0233463 0.0446479 0
0.0233463 0.0485695 0
0.0233463 0.052491 0
0.0233463 0.0564126 0
0.0233463 0.0642557 0
0.0272679 0.0681773 0
0.035111 0.0760204 0
0.0468757 0.079942 0
0.0782483 0.0838636 0
0.117464 0.0877852 0
0.168444 0.0838636 0
0.235111 0.0760204 0
0.301778 0.0642557 0
0.372366 0.0407263 0
0.454719 0 0
0.540993 0 0
0.615503 0 0
0.690013 0 0
0.75668 0 0
0.819425 0 0
0.878248 0 0
0.925307 0 0
0.964523 0 0
0.995895 0 0
1 0 0
1 0 0
1 0 0
1 0 0
1 0 0
1 0 0
1 0 0
1 0 0.0218967
0.0194247 0.079942 0
0.0194247 0.079942 0
0.0194247 0.079942 0
0.0194247 0.0838636 0
0.0194247 0.0917067 0
0.0194247 0.0956283 0
0.0194247 0.0995499 0
0.035111 0.103471 0
0.0664836 0.107393 0
0.105699 0.107393 0
0.152758 0.107393 0
0.211582 0.103471 0
0.274327 0.0917067 0
0.340993 0.0760204 0
0.411582 0.0564126 0
0.486091 0.0171969 0
0.560601 0 0
0.627268 0 0
0.693935 0 0
0.75668 0 0
0.815503 0 0
0.870405 0 0
0.917464 0 0
0.95668 0 0
0.988052 0 0
1 0 0
1 0 0
1 0 0
1 0 0
1 0 0
1 0 0
1 0 0
1 0 0.0179751
0.0194247 0.119158 0
0.0194247 0.119158 0
0.0194247 0.119158 0
0.0194247 0.123079 0
0.0194247 0.127001 0
0.0194247 0.127001 0
0.0194247 0.130922 0
0.035111 0.134844 0
0.0821698 0.134844 0
0.129229 0.134844 0
0.180209 0.127001 0
0.242954 0.119158 0
0.305699 0.111315 0
0.364523 0.0995499 0
0.431189 0.079942 0
0.497856 0.052491 0
0.560601 0.0171969 0
0.627268 0 0
0.690013 0 0
0.748837 0 0
0.80766 0 0
0.862562 0 0
0.905699 0 0
0.944915 0 0
0.976287 0 0
1 0 0
1 0 0
1 0 0
1 0 0
1 0 0
1 0 0
1 0 0
1 0 0.010132
0.0194247 0.154452 0
0.0194247 0.154452 0
0.0194247 0.158373 0
0.0194247 0.158373 0
0.0194247 0.158373 0
0.0194247 0.162295 0
0.0194247 0.162295 0
0.0390326 0.162295 0
0.0939345 0.158373 0
0.148836 0.158373 0
0.203738 0.15053 0
0.262562 0.142687 0
0.321386 0.134844 0
0.380209 0.123079 0
0.439033 0.111315 0
0.497856 0.0917067 0
0.560601 0.0720989 0
0.623346 0.0368048 0
0.68217 0 0
0.737072 0 0
0.791974 0 0
0.842954 0 0
0.890013 0 0
0.929229 0 0
0.964523 0 0
0.995895 0 0
1 0 0
1 0 0
1 0 0
1 0 0
1 0 0
1 0 0
1 0 0.00228885
0.0194247 0.189746 0
0.0194247 0.189746 0
0.0194247 0.189746 0
0.0194247 0.189746 0
0.0194247 0.189746 0
0.0194247 0.189746 0
0.0194247 0.189746 0
0.0390326 0.185824 0
0.105699 0.185824 0
0.164523 0.181903 0
0.223346 0.17406 0
0.278248 0.166217 0
0.329229 0.158373 0
0.388052 0.15053 0
0.446876 0.138766 0
0.497856 0.127001 0
0.552758 0.111315 0
0.611582 0.0917067 0
0.666484 0.0681773 0
0.717464 0.0328832 0
0.772366 0 0
0.823346 0 0
0.870405 0 0
0.913542 0 0
0.948837 0 0
0.984131 0 0
1 0 0
1 0 0
1 0 0
1 0 0
1 0 0
1 0 0
1 0 0
0.0194247 0.221118 0
0.0194247 0.221118 0
0.0194247 0.221118 0
0.0194247 0.221118 0
0.0194247 0.217197 0
0.0194247 0.217197 0
0.0194247 0.217197 0
0.0468757 0.213275 0
0.117464 0.209354 0
0.176287 0.205432 0
0.235111 0.197589 0
0.286091 0.193668 0
0.340993 0.185824 0
0.395895 0.177981 0
0.446876 0.166217 0
0.497856 0.158373 0
0.544915 0.15053 0
0.599817 0.134844 0
0.650797 0.119158 0
0.701778 0.103471 0
0.752758 0.0760204 0
0.803738 0.0407263 0
0.850797 0 0
0.897856 0 0
0.937072 0 0
0.972366 0 0
0.999817 0 0
1 0 0
1 0 0
1 0 0
1 0 0
1 0 0
1 0 0
0.0194247 0.248569 0
0.0194247 0.248569 0
0.0194247 0.248569 0
0.0194247 0.244648 0
0.0194247 0.244648 0
0.0194247 0.244648 0
0.0194247 0.240726 0
0.062562 0.236805 0
0.13315 0.232883 0
0.191974 0.228962 0
0.242954 0.22504 0
0.293935 0.217197 0
0.344915 0.213275 0
0.395895 0.205432 0
0.442954 0.197589 0
0.493935 0.189746 0
0.540993 0.181903 0
0.591974 0.170138 0
0.639033 0.158373 0
0.686091 0.146609 0
0.737072 0.130922 0
0.788052 0.111315 0
0.835111 0.0877852 0
0.88217 0.0603342 0
0.925307 0.0289616 0
0.960601 0 0
0.991974 0 0
1 0 0
1 0 0
1 0 0
1 0 0
1 0.0250401 0
1 0.079942 0
0.0194247 0.272099 0
0.0194247 0.272099 0
0.0194247 0.272099 0
0.0194247 0.272099 0
0.0194247 0.272099 0
0.0194247 0.268177 0
0.0194247 0.264256 0
0.0860914 0.260334 0
0.148836 0.256413 0
0.203738 0.252491 0
0.254719 0.248569 0
0.301778 0.244648 0
0.352758 0.236805 0
0.399817 0.232883 0
0.446876 0.22504 0
0.490013 0.217197 0
0.537072 0.213275 0
0.584131 0.205432 0
0.631189 0.193668 0
0.678248 0.185824 0
0.725307 0.17406 0
0.776287 0.162295 0
0.823346 0.146609 0
0.870405 0.130922 0
0.909621 0.115236 0
0.948837 0.0995499 0
0.980209 0.0877852 0
1 0.079942 0
1 0.0760204 0
1 0.079942 0
1 0.0917067 0
1 0.111315 0
1 0.138766 0
0.0194247 0.295628 0
0.0194247 0.295628 0
0.0194247 0.295628 0
0.0194247 0.295628 0
0.0194247 0.295628 0
0.0194247 0.291707 0
0.035111 0.287785 0
0.113542 0.283864 0
0.168444 0.279942 0
0.215503 0.27602 0
0.262562 0.272099 0
0.309621 0.268177 0
0.35668 0.264256 0
0.399817 0.256413 0
0.446876 0.252491 0
0.490013 0.248569 0
0.537072 0.240726 0
0.584131 0.236805 0
0.627268 0.228962 0
0.670405 0.221118 0
0.717464 0.213275 0
0.764523 0.201511 0
0.811582 0.193668 0
0.854719 0.181903 0
0.897856 0.170138 0
0.937072 0.162295 0
0.968444 0.154452 0
1 0.15053 0
1 0.146609 0
1 0.146609 0
1 0.154452 0
1 0.170138 0
1 0.189746 0
0.0194247 0.319158 0
0.0194247 0.319158 0
0.0194247 0.319158 0
0.0194247 0.319158 0
0.0194247 0.315236 0
0.0194247 0.315236 0
0.0782483 0.311315 0
0.137072 0.307393 0
0.184131 0.307393 0
0.227268 0.303471 0
0.270405 0.29955 0
0.313542 0.295628 0
0.360601 0.291707 0
0.403738 0.287785 0
0.446876 0.283864 0
0.493935 0.27602 0
0.537072 0.272099 0
0.580209 0.268177 0
0.623346 0.264256 0
0.666484 0.256413 0
0.709621 0.248569 0
0.75668 0.240726 0
0.799817 0.232883 0
0.842954 0.22504 0
0.886091 0.217197 0
0.925307 0.213275 0
0.960601 0.205432 0
0.991974 0.201511 0
1 0.201511 0
1 0.201511 0
1 0.205432 0
1 0.217197 0
1 0.232883 0
0.0194247 0.342687 0
0.0194247 0.342687 0
0.0194247 0.342687 0
0.0194247 0.342687 0
0.0194247 0.342687 0
0.0468757 0.338766 0
0.105699 0.338766 0
0.152758 0.334844 0
0.195895 0.334844 0
0.239033 0.330922 0
0.28217 0.327001 0
0.321386 0.323079 0
0.364523 0.319158 0
0.40766 0.319158 0
0.450797 0.315236 0
0.493935 0.311315 0
0.537072 0.307393 0
0.580209 0.29955 0
0.623346 0.295628 0
0.666484 0.291707 0
0.705699 0.287785 0
0.748837 0.279942 0
0.791974 0.27602 0
0.835111 0.268177 0
0.874327 0.264256 0
0.913542 0.260334 0
0.948837 0.256413 0
0.980209 0.252491 0
1 0.252491 0
1 0.252491 0
1 0.252491 0
1 0.260334 0
1 0.27602 0
0.0194247 0.370138 0
0.0194247 0.370138 0
0.0194247 0.370138 0
0.0194247 0.370138 0
0.0272679 0.370138 0
0.0821698 0.366217 0
0.129229 0.366217 0
0.168444 0.366217 0
0.211582 0.362295 0
0.250797 0.358373 0
0.290013 0.358373 0
0.329229 0.354452 0
0.368444 0.354452 0
0.411582 0.35053 0
0.454719 0.346609 0
0.497856 0.342687 0
0.537072 0.338766 0
0.580209 0.334844 0
0.623346 0.330922 0
0.662562 0.327001 0
0.705699 0.323079 0
0.744915 0.319158 0
0.784131 0.315236 0
0.827268 0.311315 0
0.866484 0.307393 0
0.901778 0.303471 0
0.937072 0.29955 0
0.972366 0.295628 0
1 0.295628 0
1 0.295628 0
1 0.29955 0
1 0.303471 0
1 0.315236 0
0.0194247 0.401511 0
0.0194247 0.401511 0
0.0194247 0.401511 0
0.0272679 0.401511 0
0.0664836 0.397589 0
0.109621 0.397589 0
0.148836 0.397589 0
0.188052 0.397589 0
0.223346 0.393668 0
0.262562 0.393668 0
0.297856 0.389746 0
0.337072 0.389746 0
0.376287 0.385824 0
0.415503 0.385824 0
0.454719 0.381903 0
0.497856 0.377981 0
0.540993 0.37406 0
0.580209 0.37406 0
0.623346 0.370138 0
0.662562 0.366217 0
0.701778 0.362295 0
0.740993 0.358373 0
0.780209 0.354452 0
0.819425 0.35053 0
0.85864 0.35053 0
0.893935 0.346609 0
0.929229 0.342687 0
0.964523 0.342687 0
0.995895 0.338766 0
1 0.338766 0
1 0.342687 0
1 0.346609 0
1 0.354452 0
0.035111 0.432883 0
0.035111 0.432883 0
0.0468757 0.432883 0
0.0743267 0.428962 0
0.105699 0.428962 0
0.137072 0.428962 0
0.168444 0.428962 0
0.203738 0.428962 0
0.235111 0.42504 0
0.270405 0.42504 0
0.305699 0.42504 0
0.340993 0.421118 0
0.380209 0.421118 0
0.419425 0.417197 0
0.45864 0.417197 0
0.497856 0.413275 0
0.537072 0.413275 0
0.580209 0.409354 0
0.623346 0.405432 0
0.662562 0.401511 0
0.701778 0.401511 0
0.740993 0.397589 0
0.780209 0.393668 0
0.815503 0.393668 0
0.850797 0.389746 0
0.886091 0.385824 0
0.921386 0.385824 0
0.952758 0.385824 0
0.988052 0.381903 0
1 0.381903 0
1 0.381903 0
1 0.385824 0
1 0.393668 0
0.0821698 0.464256 0
0.0860914 0.464256 0
0.090013 0.464256 0
0.105699 0.460334 0
0.129229 0.460334 0
0.15668 0.460334 0
0.184131 0.460334 0
0.215503 0.460334 0
0.246876 0.460334 0
0.278248 0.460334 0
0.313542 0.456413 0
0.348837 0.456413 0
0.388052 0.452491 0
0.423346 0.452491 0
0.462562 0.452491 0
0.501778 0.448569 0
0.540993 0.448569 0
0.580209 0.444648 0
0.623346 0.440726 0
0.662562 0.440726 0
0.701778 0.436805 0
0.737072 0.436805 0
0.776287 0.432883 0
0.811582 0.428962 0
0.846876 0.428962 0
0.88217 0.428962 0
0.913542 0.42504 0
0.948837 0.42504 0
0.980209 0.42504 0
1 0.421118 0
1 0.42504 0
1 0.428962 0
1 0.432883 0
0.117464 0.495628 0
0.117464 0.495628 0
0.125307 0.495628 0
0.13315 0.495628 0
0.148836 0.495628 0
0.172366 0.495628 0
0.199817 0.495628 0
0.227268 0.491707 0
0.254719 0.491707 0
0.290013 0.491707 0
0.321386 0.491707 0
0.35668 0.491707 0
0.391974 0.487785 0
0.427268 0.487785 0
0.466484 0.487785 0
0.501778 0.483864 0
0.540993 0.483864 0
0.580209 0.479942 0
0.623346 0.479942 0
0.662562 0.47602 0
0.701778 0.47602 0
0.737072 0.472099 0
0.772366 0.472099 0
0.811582 0.468177 0
0.842954 0.468177 0
0.878248 0.468177 0
0.909621 0.464256 0
0.940993 0.464256 0
0.976287 0.464256 0
1 0.464256 0
1 0.464256 0
1 0.468177 0
1 0.472099 0
0.140993 0.527001 0
0.140993 0.527001 0
0.144915 0.527001 0
0.15668 0.527001 0
0.168444 0.527001 0
0.188052 0.527001 0
0.211582 0.527001 0
0.239033 0.527001 0
0.266484 0.527001 0
0.301778 0.527001 0
0.329229 0.527001 0
0.364523 0.523079 0
0.395895 0.523079 0
0.435111 0.523079 0
0.470405 0.523079 0
0.505699 0.523079 0
0.544915 0.519158 0
0.584131 0.519158 0
0.623346 0.515236 0
0.65864 0.515236 0
0.697856 0.511315 0
0.737072 0.511315 0
0.772366 0.511315 0
0.80766 0.507393 0
0.842954 0.507393 0
0.874327 0.507393 0
0.905699 0.503471 0
0.937072 0.503471 0
0.968444 0.503471 0
1 0.503471 0
1 0.503471 0
1 0.507393 0
1 0.511315 0
0.160601 0.562295 0
0.160601 0.562295 0
0.164523 0.562295 0
0.176287 0.562295 0
0.188052 0.562295 0
0.203738 0.562295 0
0.227268 0.562295 0
0.254719 0.562295 0
0.28217 0.562295 0
0.309621 0.562295 0
0.340993 0.562295 0
0.372366 0.562295 0
0.403738 0.558373 0
0.439033 0.558373 0
0.474327 0.558373 0
0.509621 0.558373 0
0.548837 0.554452 0
0.584131 0.554452 0
0.623346 0.554452 0
0.65864 0.55053 0
0.697856 0.55053 0
0.73315 0.55053 0
0.772366 0.546609 0
0.80766 0.546609 0
0.839033 0.546609 0
0.870405 0.542687 0
0.901778 0.542687 0
0.93315 0.542687 0
0.964523 0.542687 0
0.995895 0.542687 0
1 0.542687 0
1 0.546609 0
1 0.546609 0
0.180209 0.597589 0
0.180209 0.597589 0
0.184131 0.597589 0
0.191974 0.597589 0
0.20766 0.597589 0
0.223346 0.597589 0
0.242954 0.597589 0
0.266484 0.597589 0
0.293935 0.597589 0
0.321386 0.597589 0
0.348837 0.597589 0
0.380209 0.597589 0
0.411582 0.597589 0
0.442954 0.593668 0
0.478248 0.593668 0
0.513542 0.593668 0
0.548837 0.593668 0
0.588052 0.593668 0
0.623346 0.593668 0
0.65864 0.589746 0
0.697856 0.589746 0
0.73315 0.589746 0
0.768444 0.585824 0
0.803738 0.585824 0
0.835111 0.585824 0
0.866484 0.585824 0
0.897856 0.585824 0
0.929229 0.585824 0
0.960601 0.585824 0
0.991974 0.585824 0
1 0.585824 0
1 0.585824 0
1 0.585824 0
0.195895 0.636805 0
0.195895 0.636805 0
0.199817 0.636805 0
0.20766 0.636805 0
0.219425 0.636805 0
0.239033 0.636805 0
0.254719 0.636805 0
0.278248 0.636805 0
0.301778 0.636805 0
0.329229 0.636805 0
0.35668 0.636805 0
0.384131 0.636805 0
0.415503 0.636805 0
0.446876 0.632883 0
0.48217 0.632883 0
0.513542 0.632883 0
0.548837 0.632883 0
0.584131 0.632883 0
0.623346 0.632883 0
0.65864 0.628962 0
0.693935 0.628962 0
0.729229 0.628962 0
0.764523 0.628962 0
0.799817 0.628962 0
0.831189 0.628962 0
0.862562 0.628962 0
0.893935 0.628962 0
0.925307 0.628962 0
0.95668 0.62504 0
0.988052 0.62504 0
1 0.62504 0
1 0.621118 0
1 0.621118 0
0.211582 0.67602 0
0.211582 0.67602 0
0.215503 0.67602 0
0.219425 0.67602 0
0.231189 0.67602 0
0.242954 0.67602 0
0.262562 0.67602 0
0.28217 0.67602 0
0.309621 0.67602 0
0.33315 0.67602 0
0.360601 0.67602 0
0.391974 0.67602 0
0.419425 0.67602 0
0.450797 0.67602 0
0.48217 0.67602 0
0.517464 0.67602 0
0.548837 0.67602 0
0.584131 0.67602 0
0.619425 0.67602 0
0.654719 0.672099 0
0.690013 0.672099 0
0.725307 0.672099 0
0.760601 0.672099 0
0.795895 0.672099 0
0.827268 0.672099 0
0.85864 0.672099 0
0.890013 0.672099 0
0.921386 0.668177 0
0.952758 0.668177 0
0.980209 0.664256 0
1 0.664256 0
1 0.660334 0
1 0.656413 0
0.215503 0.719158 0
0.215503 0.719158 0
0.219425 0.719158 0
0.227268 0.719158 0
0.239033 0.719158 0
0.250797 0.719158 0
0.270405 0.719158 0
0.290013 0.719158 0
0.313542 0.719158 0
0.337072 0.719158 0
0.364523 0.719158 0
0.391974 0.719158 0
0.423346 0.719158 0
0.450797 0.719158 0
0.486091 0.719158 0
0.517464 0.719158 0
0.548837 0.719158 0
0.584131 0.719158 0
0.619425 0.715236 0
0.654719 0.715236 0
0.686091 0.715236 0
0.721386 0.715236 0
0.752758 0.715236 0
0.788052 0.715236 0
0.819425 0.715236 0
0.850797 0.711315 0
0.88217 0.711315 0
0.913542 0.707393 0
0.944915 0.707393 0
0.972366 0.703471 0
0.999817 0.69955 0
1 0.691707 0
1 0.687785 0
0.227268 0.762295 0
0.227268 0.762295 0
0.231189 0.762295 0
0.239033 0.762295 0
0.246876 0.762295 0
0.262562 0.762295 0
0.278248 0.762295 0
0.297856 0.762295 0
0.321386 0.762295 0
