src/luts/12.cube
TITLE "Generated by Resolve"
LUT_3D_SIZE 9
0.0194247 0 0
0.0194247 0 0
0.0311894 0.00935378 0
0.0704051 0.0446479 0
0.391974 0 0
0.795895 0 0
1 0 0
1 0 0
1 0 0.0336614
0.0311894 0.0171969 0
0.0311894 0.0289616 0
0.0390326 0.0564126 0
0.180209 0.0681773 0
0.505699 0 0
0.815503 0 0
1 0 0
1 0 0
1 0 0.0258183
0.0194247 0.154452 0
0.0194247 0.158373 0
0.0939345 0.158373 0
0.321386 0.134844 0
0.560601 0.0720989 0
0.791974 0 0
0.964523 0 0
1 0 0
1 0 0.00228885
0.0194247 0.272099 0
0.0194247 0.272099 0
0.148836 0.256413 0
0.352758 0.236805 0
0.537072 0.213275 0
0.725307 0.17406 0
0.909621 0.115236 0
1 0.0760204 0
1 0.138766 0
0.0194247 0.370138 0
0.0272679 0.370138 0
0.211582 0.362295 0
0.368444 0.354452 0
0.537072 0.338766 0
0.705699 0.323079 0
0.866484 0.307393 0
1 0.295628 0
1 0.315236 0
0.117464 0.495628 0
0.148836 0.495628 0
0.254719 0.491707 0
0.391974 0.487785 0
0.540993 0.483864 0
0.701778 0.47602 0
0.842954 0.468177 0
0.976287 0.464256 0
1 0.472099 0
0.195895 0.636805 0
0.219425 0.636805 0
0.301778 0.636805 0
0.415503 0.636805 0
0.548837 0.632883 0
0.693935 0.628962 0
0.831189 0.628962 0
0.95668 0.62504 0
1 0.621118 0
0.246876 0.801511 0
0.266484 0.801511 0
0.33315 0.801511 0
0.435111 0.797589 0
0.552758 0.797589 0
0.678248 0.793667 0
0.799817 0.785824 0
0.925307 0.770138 0
1 0.742687 0
0.599817 0.942687 0
0.611582 0.942687 0
0.642954 0.942687 0
0.705699 0.942687 0
0.772366 0.938766 0
0.846876 0.938766 0
0.917464 0.930922 0
0.976287 0.923079 0
1 0.907393 0.0258183
0.0194247 0 0
0.0233463 0 0
0.0311894 0.0132753 0
0.117464 0.0446479 0.00621042
0.45864 0 0
0.791974 0 0
0.988052 0 0
1 0 0
1 0 0.0140536
0.0272679 0.0289616 0
0.0272679 0.0446479 0.00228885
0.0429541 0.0642557 0.0140536
0.223346 0.0603342 0
0.529229 0 0
0.803738 0 0
0.980209 0 0
1 0 0
1 0 0.010132
0.0194247 0.162295 0.0218967
0.0194247 0.166217 0.0179751
0.0782483 0.162295 0.010132
0.305699 0.138766 0
0.540993 0.0838636 0
0.772366 0 0
0.948837 0 0
1 0 0
1 0 0
0.0194247 0.27602 0
0.0194247 0.272099 0
0.13315 0.260334 0
0.33315 0.240726 0
0.521385 0.217197 0
0.713542 0.177981 0
0.901778 0.123079 0
1 0.0838636 0
1 0.142687 0
0.0194247 0.37406 0
0.0194247 0.370138 0
0.195895 0.366217 0
0.35668 0.358373 0
0.525307 0.342687 0
0.693935 0.327001 0
0.85864 0.311315 0
0.999817 0.29955 0
1 0.315236 0
0.101778 0.495628 0
0.137072 0.495628 0
0.246876 0.495628 0
0.384131 0.491707 0
0.53315 0.487785 0
0.690013 0.479942 0
0.839033 0.472099 0
0.972366 0.464256 0
1 0.472099 0
0.188052 0.636805 0
0.211582 0.636805 0
0.293935 0.636805 0
0.40766 0.636805 0
0.544915 0.632883 0
0.686091 0.632883 0
0.827268 0.628962 0
0.952758 0.628962 0
1 0.621118 0
0.239033 0.801511 0
0.25864 0.801511 0
0.329229 0.801511 0
0.427268 0.801511 0
0.544915 0.797589 0
0.670405 0.793667 0
0.795895 0.785824 0
0.921386 0.770138 0
1 0.742687 0
0.501778 0.934844 0
0.53315 0.934844 0
0.642954 0.942687 0
0.705699 0.942687 0
0.772366 0.938766 0
0.846876 0.938766 0
0.917464 0.930922 0
0.976287 0.923079 0
1 0.907393 0.0258183
0.0194247 0 0
0.0272679 0.00151064 0
0.035111 0.0211185 0
0.117464 0.0485695 0.0571908
0.45864 0 0.0846418
0.784131 0 0.0689555
0.972366 0 0.0415045
1 0 0.0532692
1 0 0.0650339
0.0233463 0.0407263 0.00621042
0.0194247 0.052491 0.0218967
0.0390326 0.0720989 0.0571908
0.203738 0.0681773 0.0846418
0.525307 0 0.0807202
0.788052 0 0.0493477
0.964523 0 0.0336614
1 0 0.0493477
1 0 0.0611124
0.0194247 0.17406 0.0807202
0.0194247 0.17406 0.0846418
0.0743267 0.166217 0.0885634
0.305699 0.142687 0.0650339
0.537072 0.0877852 0.0454261
0.748837 0 0.0297398
0.929229 0 0.0179751
1 0 0.0179751
1 0 0.0532692
0.0194247 0.27602 0.0885634
0.0194247 0.272099 0.0885634
0.117464 0.264256 0.0885634
0.301778 0.248569 0.0728771
0.497856 0.22504 0.0493477
0.697856 0.193668 0.0218967
0.893935 0.142687 0.00621042
1 0.111315 0.00228885
1 0.138766 0.0415045
0.0194247 0.37406 0.0807202
0.0194247 0.37406 0.0807202
0.176287 0.370138 0.0807202
0.329229 0.362295 0.0689555
0.497856 0.354452 0.0493477
0.674327 0.338766 0.0297398
0.846876 0.323079 0
0.995895 0.315236 0
1 0.319158 0.0179751
0.0586404 0.49955 0.0611124
0.105699 0.49955 0.0611124
0.223346 0.49955 0.0611124
0.360601 0.49955 0.0532692
0.509621 0.495628 0.037583
0.670405 0.487785 0.010132
0.823346 0.479942 0
0.964523 0.472099 0
1 0.47602 0
0.160601 0.640726 0.0297398
0.188052 0.640726 0.0297398
0.274327 0.640726 0.0297398
0.388052 0.640726 0.0179751
0.525307 0.640726 0
0.666484 0.636805 0
0.811582 0.636805 0
0.944915 0.632883 0
1 0.617197 0
0.219425 0.801511 0
0.239033 0.801511 0
0.309621 0.801511 0
0.411582 0.801511 0
0.529229 0.797589 0
0.654719 0.793667 0
0.780209 0.785824 0
0.905699 0.766217 0
1 0.734844 0
0.144915 0.923079 0
0.176287 0.923079 0
0.262562 0.923079 0
0.380209 0.919158 0
0.529229 0.915236 0
0.846876 0.938766 0
0.917464 0.930922 0
0.976287 0.923079 0
1 0.907393 0.0258183
0.0272679 0.00151064 0
0.0311894 0.00543221 0
0.035111 0.0328832 0.0258183
0.140993 0.052491 0.112093
0.344915 0.0171969 0.163073
0.635111 0 0.190524
0.909621 0 0.186603
1 0 0.174838
1 0 0.178759
0.0194247 0.0603342 0.037583
0.0194247 0.0681773 0.0571908
0.0311894 0.0838636 0.108171
0.195895 0.0720989 0.147387
0.388052 0.0368048 0.174838
0.666484 0 0.190524
0.913542 0 0.178759
1 0 0.163073
1 0 0.174838
0.0194247 0.185824 0.151308
0.0194247 0.185824 0.159152
0.0194247 0.181903 0.178759
0.242954 0.158373 0.174838
0.470405 0.111315 0.178759
0.713542 0 0.166995
0.913542 0 0.143465
1 0 0.127779
1 0 0.159152
0.0194247 0.279942 0.159152
0.0194247 0.27602 0.159152
0.125307 0.264256 0.163073
0.286091 0.252491 0.166995
0.497856 0.228962 0.139544
0.697856 0.197589 0.119936
0.886091 0.15053 0.112093
1 0.119158 0.108171
1 0.158373 0.119936
0.0194247 0.377981 0.163073
0.0194247 0.37406 0.166995
0.180209 0.370138 0.170916
0.313542 0.370138 0.170916
0.478248 0.362295 0.151308
0.65864 0.346609 0.127779
0.842954 0.334844 0.100328
0.991974 0.319158 0.0924849
1 0.334844 0.100328
0.0429541 0.503471 0.166995
0.101778 0.503471 0.166995
0.215503 0.503471 0.166995
0.344915 0.503471 0.163073
0.486091 0.49955 0.15523
0.646876 0.495628 0.135622
0.80766 0.483864 0.116014
0.960601 0.483864 0.0807202
1 0.491707 0.0767987
0.140993 0.644648 0.15523
0.172366 0.644648 0.15523
0.25864 0.644648 0.159152
0.376287 0.644648 0.15523
0.505699 0.644648 0.147387
0.646876 0.644648 0.135622
0.795895 0.640726 0.116014
0.93315 0.632883 0.0807202
1 0.613275 0.0611124
0.195895 0.801511 0.147387
0.215503 0.801511 0.147387
0.293935 0.801511 0.147387
0.395895 0.801511 0.147387
0.509621 0.797589 0.143465
0.631189 0.793667 0.127779
0.75668 0.781903 0.100328
0.890013 0.766217 0.0493477
1 0.730922 0
0.0194247 0.919158 0
0.0194247 0.915236 0
0.0586404 0.915236 0
0.25864 0.911315 0
0.395895 0.907393 0
0.537072 0.89955 0
0.701778 0.891707 0
0.976287 0.923079 0
1 0.907393 0.0297398
0.0311894 0.0132753 0
0.0311894 0.0211185 0
0.035111 0.0485695 0.0728771
0.152758 0.052491 0.182681
0.33315 0.0289616 0.237583
0.517464 0 0.268956
0.737072 0 0.300328
0.976287 0 0.312093
1 0 0.316014
0.0194247 0.0760204 0.0885634
0.0194247 0.079942 0.108171
0.0194247 0.0877852 0.166995
0.188052 0.079942 0.225818
0.352758 0.0603342 0.249348
0.53315 0.00151064 0.276799
0.752758 0 0.300328
0.984131 0 0.308171
1 0 0.312093
0.0194247 0.193668 0.225818
0.0194247 0.193668 0.237583
0.0194247 0.193668 0.261112
0.195895 0.170138 0.257191
0.384131 0.15053 0.265034
0.576288 0.107393 0.284642
0.811582 0 0.296407
0.999817 0 0.292485
1 0 0.296407
0.0194247 0.303471 0.300328
0.0194247 0.303471 0.323857
0.0194247 0.303471 0.331701
0.0194247 0.303471 0.343465
0.427268 0.244648 0.276799
0.639033 0.209354 0.276799
0.850797 0.15053 0.268956
1 0.115236 0.249348
1 0.154452 0.241505
0.0194247 0.381903 0.241505
0.0194247 0.381903 0.241505
0.180209 0.377981 0.249348
0.309621 0.37406 0.257191
0.462562 0.366217 0.257191
0.65864 0.35053 0.233661
0.842954 0.334844 0.210132
0.988052 0.323079 0.20621
1 0.334844 0.214054
0.109621 0.507393 0.257191
0.140993 0.507393 0.257191
0.231189 0.503471 0.265034
0.344915 0.503471 0.272877
0.466484 0.507393 0.272877
0.627268 0.49955 0.253269
0.795895 0.495628 0.225818
0.95668 0.495628 0.194446
1 0.491707 0.194446
0.148836 0.648569 0.272877
0.172366 0.648569 0.272877
0.254719 0.648569 0.276799
0.364523 0.648569 0.276799
0.490013 0.648569 0.276799
0.623346 0.648569 0.268956
0.776287 0.648569 0.245426
0.925307 0.632883 0.214054
1 0.62504 0.163073
0.180209 0.801511 0.28072
0.203738 0.801511 0.28072
0.278248 0.801511 0.28072
0.376287 0.801511 0.276799
0.490013 0.797589 0.276799
0.60766 0.789746 0.265034
0.737072 0.781903 0.241505
0.874327 0.762295 0.198367
1 0.719158 0.119936
0.0194247 0.911315 0.194446
0.0194247 0.911315 0.190524
0.0194247 0.911315 0.186603
0.172366 0.907393 0.170916
0.33315 0.89955 0.147387
0.474327 0.895628 0.108171
0.623346 0.883864 0.00228885
0.788052 0.868177 0
1 0.907393 0.0336614
0.0272679 0.0368048 0.0336614
0.0233463 0.0446479 0.0532692
0.0272679 0.0603342 0.151308
0.152758 0.0564126 0.272877
0.329229 0.0368048 0.347387
0.490013 0 0.374838
0.646876 0 0.390524
0.835111 0 0.421897
1 0 0.461112
0.0194247 0.0877852 0.163073
0.0194247 0.0917067 0.182681
0.0194247 0.0956283 0.249348
0.164523 0.0877852 0.327779
0.340993 0.0681773 0.366995
0.497856 0.0407263 0.374838
0.654719 0 0.390524
0.842954 0 0.425818
1 0 0.461112
0.0194247 0.205432 0.331701
0.0194247 0.205432 0.339544
0.0194247 0.205432 0.363073
0.0194247 0.213275 0.390524
0.352758 0.158373 0.378759
0.517464 0.142687 0.382681
0.678248 0.111315 0.402289
0.88217 0 0.433661
1 0 0.461112
0.0194247 0.323079 0.42974
0.0194247 0.323079 0.42974
0.0194247 0.323079 0.437583
0.0194247 0.327001 0.445426
0.325307 0.27602 0.386603
0.544915 0.248569 0.394446
0.725307 0.217197 0.417975
0.93315 0.158373 0.437583
1 0.134844 0.445426
0.0194247 0.409354 0.40621
0.0194247 0.413275 0.42974
0.0194247 0.436805 0.523857
0.0194247 0.436805 0.527779
0.0194247 0.440726 0.516014
0.591974 0.366217 0.410132
0.780209 0.338766 0.410132
0.964523 0.315236 0.40621
1 0.323079 0.398367
0.0586404 0.511315 0.35523
0.101778 0.511315 0.35523
0.215503 0.511315 0.359152
0.340993 0.511315 0.370916
0.462562 0.511315 0.386603
0.60766 0.507393 0.386603
0.795895 0.49955 0.363073
0.95668 0.495628 0.339544
1 0.491707 0.335622
0.191974 0.648569 0.378759
0.211582 0.648569 0.378759
0.278248 0.648569 0.382681
0.372366 0.648569 0.394446
0.48217 0.652491 0.40621
0.603738 0.656413 0.40621
0.752758 0.652491 0.386603
0.917464 0.648569 0.331701
1 0.617197 0.292485
0.184131 0.801511 0.402289
0.203738 0.801511 0.402289
0.274327 0.801511 0.402289
0.368444 0.797589 0.402289
0.474327 0.793667 0.402289
0.588052 0.789746 0.394446
0.713542 0.777981 0.374838
0.854719 0.758373 0.331701
1 0.715236 0.241505
0.0194247 0.907393 0.327779
0.0194247 0.907393 0.323857
0.0194247 0.903471 0.319936
0.0429541 0.89955 0.308171
0.28217 0.895628 0.292485
0.431189 0.887785 0.265034
0.580209 0.87602 0.221897
0.740993 0.864256 0.135622
0.964523 0.848569 0
0.0194247 0.0603342 0.131701
0.0194247 0.0603342 0.15523
0.0194247 0.0681773 0.265034
0.129229 0.0642557 0.402289
0.305699 0.0485695 0.476799
0.474327 0.0132753 0.500328
0.623346 0 0.50425
0.772366 0 0.519936
0.968444 0 0.563073
0.0194247 0.0995499 0.272877
0.0194247 0.0995499 0.296407
0.0194247 0.103471 0.374838
0.13315 0.0956283 0.445426
0.309621 0.079942 0.488563
0.478248 0.0564126 0.500328
0.627268 0.0211185 0.508171
0.780209 0 0.523857
0.976287 0 0.566995
0.0194247 0.217197 0.453269
0.0194247 0.217197 0.457191
0.0194247 0.221118 0.476799
0.0194247 0.228962 0.500328
0.317464 0.170138 0.492485
0.490013 0.154452 0.508171
0.642954 0.138766 0.516014
0.795895 0.107393 0.531701
0.991974 0 0.578759
0.0194247 0.342687 0.535622
0.0194247 0.342687 0.535622
0.0194247 0.346609 0.539544
0.0194247 0.354452 0.543465
0.0194247 0.366217 0.551308
0.509621 0.260334 0.516014
0.666484 0.248569 0.523857
0.827268 0.232883 0.547387
1 0.181903 0.594446
0.0194247 0.456413 0.625818
0.0194247 0.456413 0.625818
0.0194247 0.460334 0.625818
0.0194247 0.464256 0.621897
0.0194247 0.47602 0.614054
0.497856 0.393668 0.523857
0.686091 0.377981 0.535622
0.866484 0.358373 0.563073
1 0.327001 0.594446
0.0194247 0.527001 0.488563
0.0194247 0.530922 0.500328
0.0194247 0.542687 0.563073
0.0194247 0.570138 0.676799
0.0194247 0.577981 0.68072
0.0194247 0.581903 0.653269
0.721386 0.511315 0.551308
0.913542 0.487785 0.559152
1 0.464256 0.551308
0.13315 0.656413 0.484642
0.160601 0.656413 0.488563
0.250797 0.656413 0.492485
0.360601 0.656413 0.500328
0.478248 0.656413 0.516014
0.595895 0.656413 0.531701
0.73315 0.652491 0.531701
0.913542 0.640726 0.484642
1 0.609354 0.445426
0.219425 0.797589 0.50425
0.239033 0.797589 0.508171
0.293935 0.797589 0.508171
0.380209 0.793667 0.516014
0.474327 0.789746 0.519936
0.576288 0.785824 0.519936
0.693935 0.77406 0.508171
0.835111 0.754452 0.461112
1 0.715236 0.35523
0.0194247 0.89955 0.445426
0.0194247 0.89955 0.445426
0.0194247 0.89955 0.441505
0.0194247 0.895628 0.433661
0.235111 0.887785 0.421897
0.395895 0.883864 0.398367
0.544915 0.872099 0.366995
0.709621 0.856413 0.319936
0.940993 0.848569 0.217975
0.0194247 0.0720989 0.308171
0.0194247 0.0760204 0.343465
0.0194247 0.0760204 0.457191
0.0194247 0.0720989 0.574838
0.250797 0.0642557 0.641505
0.427268 0.0485695 0.661112
0.591974 0.00543221 0.672877
0.752758 0 0.68072
0.925307 0 0.692485
0.0194247 0.111315 0.465034
0.0194247 0.111315 0.48072
0.0194247 0.107393 0.547387
0.0194247 0.103471 0.60621
0.250797 0.0956283 0.645426
0.427268 0.0838636 0.661112
0.595895 0.052491 0.672877
0.75668 0 0.68072
0.929229 0 0.696406
0.0194247 0.205432 0.590524
0.0194247 0.205432 0.594446
0.0194247 0.201511 0.602289
0.0194247 0.193668 0.617975
0.262562 0.185824 0.637583
0.435111 0.17406 0.665034
0.60766 0.154452 0.68072
0.768444 0.130922 0.688563
0.940993 0.0956283 0.70425
0.0194247 0.307393 0.598367
0.0194247 0.307393 0.598367
0.0194247 0.381903 0.668956
0.0194247 0.393668 0.672877
0.0194247 0.405432 0.68072
0.364523 0.303471 0.668956
0.623346 0.268177 0.688563
0.791974 0.256413 0.700328
0.95668 0.244648 0.712093
0.0194247 0.495628 0.727779
0.0194247 0.495628 0.727779
0.0194247 0.49955 0.727779
0.0194247 0.507393 0.723857
0.0194247 0.519158 0.716014
0.0194247 0.530922 0.716014
0.635111 0.401511 0.692485
0.811582 0.389746 0.708171
0.976287 0.385824 0.723857
0.0194247 0.601511 0.770916
0.0194247 0.601511 0.770916
0.0194247 0.601511 0.770916
0.0194247 0.605432 0.763073
0.0194247 0.613275 0.75523
0.0194247 0.62504 0.747387
0.239033 0.609354 0.727779
0.827268 0.527001 0.712093
0.991974 0.503471 0.727779
0.0194247 0.687785 0.716014
0.0194247 0.687785 0.723857
0.0194247 0.695628 0.747387
0.0194247 0.707393 0.778759
0.0194247 0.711315 0.774838
0.0194247 0.711315 0.763073
0.340993 0.711315 0.751308
0.827268 0.644648 0.700328
1 0.585824 0.700328
0.0782483 0.801511 0.645426
0.121386 0.797589 0.645426
0.215503 0.797589 0.645426
0.329229 0.793667 0.645426
0.439033 0.789746 0.649348
0.552758 0.781903 0.649348
0.670405 0.770138 0.649348
0.803738 0.746609 0.637583
0.991974 0.69955 0.539544
0.0194247 0.891707 0.566995
0.0194247 0.891707 0.566995
0.0194247 0.891707 0.566995
0.0194247 0.887785 0.563073
0.219425 0.879942 0.559152
0.372366 0.872099 0.551308
0.513542 0.864256 0.535622
0.68217 0.852491 0.508171
0.925307 0.852491 0.519936
0.0194247 0.0760204 0.617975
0.0194247 0.0760204 0.649348
0.0194247 0.0760204 0.735622
0.0194247 0.079942 0.798367
0.0468757 0.0838636 0.825818
0.313542 0.0877852 0.837583
0.497856 0.0760204 0.845426
0.686091 0.0407263 0.853269
0.897856 0 0.861112
0.0194247 0.111315 0.743465
0.0194247 0.111315 0.751308
0.0194247 0.111315 0.782681
0.0194247 0.111315 0.810132
0.0507973 0.115236 0.825818
0.313542 0.115236 0.837583
0.501778 0.107393 0.845426
0.686091 0.079942 0.853269
0.901778 0 0.861112
0.0194247 0.217197 0.798367
0.0194247 0.213275 0.798367
0.0194247 0.213275 0.80621
0.0194247 0.205432 0.810132
0.0821698 0.201511 0.821897
0.325307 0.201511 0.833661
0.509621 0.193668 0.845426
0.697856 0.177981 0.857191
0.913542 0.130922 0.865034
0.0194247 0.327001 0.802289
0.0194247 0.327001 0.802289
0.0194247 0.319158 0.80621
0.0194247 0.315236 0.814054
0.121386 0.311315 0.821897
0.348837 0.311315 0.833661
0.521385 0.307393 0.849348
0.709621 0.29955 0.861112
0.929229 0.27602 0.868955
0.0194247 0.444648 0.810132
0.0194247 0.444648 0.810132
0.0194247 0.440726 0.814054
0.0194247 0.436805 0.817975
0.137072 0.436805 0.825818
0.368444 0.436805 0.837583
0.53315 0.436805 0.849348
0.721386 0.432883 0.861112
0.937072 0.413275 0.868955
0.0194247 0.57406 0.817975
0.0194247 0.57406 0.817975
0.0194247 0.57406 0.821897
0.0194247 0.570138 0.825818
0.160601 0.570138 0.833661
0.384131 0.57406 0.841505
0.544915 0.57406 0.849348
0.348837 0.640726 0.853269
0.929229 0.523079 0.861112
0.0194247 0.707393 0.825818
0.0194247 0.707393 0.825818
0.0194247 0.703471 0.825818
0.0194247 0.703471 0.82974
0.168444 0.69955 0.833661
0.0194247 0.75053 0.853269
0.0194247 0.746609 0.845426
0.321386 0.730922 0.845426
0.913542 0.613275 0.841505
0.0194247 0.809354 0.814054
0.0194247 0.809354 0.814054
0.0194247 0.805432 0.814054
0.0194247 0.801511 0.814054
0.0194247 0.813275 0.849348
0.0194247 0.805432 0.845426
0.211582 0.793667 0.833661
0.462562 0.777981 0.825818
0.886091 0.687785 0.80621
0.0194247 0.887785 0.751308
0.0194247 0.887785 0.751308
0.0194247 0.883864 0.751308
0.0194247 0.879942 0.747387
0.0194247 0.87602 0.743465
0.137072 0.868177 0.735622
0.423346 0.856413 0.731701
0.654719 0.852491 0.743465
0.913542 0.864256 0.790524
