src/luts/16.cube
LUT_3D_SIZE 6
0.043249 0.058569 0.067273
0.131425 0.089745 0.075517
0.296356 0.123883 0.072705
0.486722 0.159353 0.110033
0.680816 0.193221 0.157656
0.858203 0.241313 0.180894
0.043230 0.152213 0.064864
0.144556 0.153979 0.074006
0.346654 0.169869 0.053817
0.539293 0.210437 0.090740
0.730537 0.259403 0.119992
0.894450 0.308252 0.140046
0.043200 0.261554 0.060718
0.162680 0.294128 0.050294
0.405434 0.277964 0.050731
0.649476 0.284446 0.073462
0.824590 0.350872 0.085079
0.946361 0.427371 0.067056
0.043200 0.366501 0.060253
0.215943 0.410076 0.045975
0.471706 0.457618 0.043941
0.693858 0.475469 0.047032
0.871099 0.456913 0.043570
0.952894 0.508509 0.043200
0.080024 0.466656 0.086881
0.257880 0.502388 0.088926
0.493561 0.574055 0.052934
0.705014 0.679086 0.044559
0.874279 0.715514 0.045031
0.945281 0.642349 0.050897
0.044122 0.757180 0.043841
0.217906 0.797821 0.044270
0.502546 0.829568 0.043224
0.702125 0.850600 0.044698
0.853074 0.871661 0.044702
0.951198 0.874930 0.044902
0.043255 0.105592 0.127760
0.176841 0.115619 0.144286
0.353302 0.130766 0.127010
0.528168 0.157707 0.129800
0.697521 0.194899 0.164706
0.858420 0.235814 0.188294
0.043345 0.154448 0.157341
0.127638 0.173142 0.177918
0.348478 0.189687 0.145360
0.551666 0.182869 0.117187
0.715643 0.221892 0.142698
0.885807 0.277940 0.159030
0.043200 0.291689 0.161582
0.072653 0.321045 0.109385
0.406018 0.309825 0.125613
0.643514 0.308963 0.054330
0.799439 0.369972 0.058752
0.930538 0.449402 0.044924
0.043200 0.349376 0.147372
0.140300 0.428829 0.082615
0.453956 0.472743 0.116185
0.692365 0.504964 0.047334
0.870953 0.474986 0.043435
0.952899 0.535726 0.043200
0.043200 0.401633 0.189309
0.201126 0.508409 0.120376
0.472234 0.569443 0.139332
0.702941 0.692555 0.045510
0.872882 0.715140 0.044749
0.943919 0.647669 0.052258
0.044270 0.774476 0.044066
0.146238 0.805913 0.044095
0.467438 0.840275 0.043224
0.689684 0.867263 0.044651
0.854525 0.883923 0.044702
0.951199 0.885316 0.048255
0.043499 0.174325 0.213913
0.125270 0.175506 0.225325
0.416247 0.198779 0.215683
0.621263 0.205278 0.195555
0.775945 0.238176 0.207019
0.908557 0.272370 0.210289
0.043498 0.189689 0.223242
0.079184 0.224060 0.267617
0.407015 0.234631 0.255565
0.621800 0.231995 0.226243
0.777428 0.256972 0.228583
0.907350 0.292498 0.229890
0.043621 0.294594 0.296561
0.043697 0.339275 0.334032
0.323705 0.368796 0.364740
0.601581 0.377666 0.342946
0.779265 0.377580 0.307423
0.927137 0.415557 0.286611
0.043844 0.500499 0.402687
0.043308 0.472136 0.345729
0.318471 0.506051 0.278774
0.664037 0.548008 0.272882
0.840951 0.535823 0.262154
0.952446 0.591633 0.264562
0.043213 0.527165 0.378286
0.043967 0.485545 0.330482
0.383583 0.600476 0.250411
0.668041 0.695594 0.284025
0.864585 0.724101 0.135220
0.950225 0.668290 0.214010
0.043200 0.800624 0.324153
0.043231 0.808369 0.207447
0.335239 0.948173 0.089029
0.653854 0.913297 0.203352
0.843524 0.902704 0.264915
0.951472 0.899276 0.270653
0.043656 0.247666 0.303741
0.104307 0.241245 0.296023
0.367630 0.270201 0.303265
0.676116 0.268643 0.231428
0.804919 0.288015 0.233615
0.898479 0.347641 0.311910
0.043665 0.257398 0.312570
0.050593 0.282059 0.348413
0.332478 0.280005 0.358358
0.667063 0.291993 0.272100
0.800148 0.313051 0.281291
0.891631 0.377778 0.366172
0.043719 0.314400 0.362546
0.043875 0.360386 0.415155
0.246575 0.392032 0.474670
0.633228 0.402094 0.424908
0.788499 0.423801 0.438589
0.893361 0.456421 0.456432
0.043978 0.450764 0.469699
0.044078 0.498056 0.506618
0.148098 0.554715 0.571479
0.600411 0.585878 0.578819
0.798696 0.608838 0.576928
0.926219 0.612383 0.551932
0.044374 0.660763 0.604481
0.044395 0.693679 0.624168
0.062809 0.664353 0.560411
0.590324 0.706527 0.498257
0.843320 0.755291 0.467142
0.952855 0.739676 0.503153
0.043762 0.867751 0.656773
0.043223 0.866262 0.542231
0.043200 0.876301 0.454885
0.559769 0.950679 0.390899
0.816455 0.919874 0.482435
0.951758 0.914000 0.472055
0.043794 0.316075 0.390312
0.074670 0.311735 0.375014
0.299835 0.322579 0.385276
0.617428 0.344786 0.335410
0.821243 0.369326 0.376473
0.883660 0.420403 0.453196
0.043874 0.326483 0.405861
0.043900 0.342315 0.433669
0.234899 0.336107 0.423755
0.594594 0.374330 0.409389
0.813133 0.396128 0.447148
0.885951 0.446546 0.510146
0.043926 0.373662 0.453892
0.044025 0.406746 0.498912
0.171066 0.428098 0.560107
0.577996 0.420534 0.578852
0.818407 0.460137 0.576903
0.899564 0.519159 0.615126
0.044184 0.462134 0.550353
0.044249 0.510109 0.603731
0.100673 0.543109 0.651975
0.507651 0.580405 0.711674
0.822305 0.597437 0.699774
0.910320 0.645018 0.710127
0.044390 0.610605 0.674222
0.044395 0.643424 0.696347
0.044492 0.683949 0.736300
0.435197 0.733879 0.772127
0.805763 0.781686 0.765776
0.936388 0.791348 0.765329
0.044596 0.796836 0.806671
0.044694 0.847099 0.819581
0.044845 0.900743 0.828388
0.276550 0.935448 0.735236
0.771212 0.951139 0.669507
0.952066 0.931637 0.698168
0.044091 0.403778 0.504170
0.044775 0.399568 0.480039
0.234514 0.395977 0.450604
0.587422 0.430649 0.520892
0.794211 0.456259 0.583160
0.925234 0.504947 0.701601
0.044092 0.414545 0.534550
0.043870 0.425519 0.557775
0.189661 0.418861 0.528711
0.542368 0.413641 0.603314
0.807519 0.450116 0.646945
0.935109 0.511984 0.743268
0.044191 0.445022 0.568893
0.044291 0.468573 0.606460
0.077215 0.487687 0.663395
0.404429 0.451070 0.695037
0.790387 0.483192 0.763998
0.945583 0.548598 0.806573
0.044389 0.527138 0.664676
0.044451 0.566015 0.710425
0.044503 0.577562 0.733641
0.389810 0.601054 0.804417
0.750948 0.594204 0.823195
0.949482 0.635033 0.855559
0.044493 0.617491 0.754395
0.044592 0.651039 0.786451
0.044593 0.668224 0.805821
0.364841 0.692556 0.831545
0.761782 0.762946 0.858156
0.948554 0.768141 0.885472
0.044694 0.739780 0.848319
0.044694 0.772685 0.866481
0.044696 0.802235 0.882083
0.255137 0.836650 0.899151
0.707047 0.889529 0.906165
0.948155 0.946844 0.906171
