src/luts/16.cube
LUT_3D_SIZE 16
0.043249 0.058569 0.067273
0.051346 0.065963 0.070457
0.086998 0.075858 0.073514
0.131425 0.089745 0.075517
0.181764 0.102613 0.074929
0.237782 0.112812 0.072852
0.296356 0.123883 0.072705
0.352728 0.139520 0.079037
0.418289 0.149775 0.093336
0.486722 0.159353 0.110033
0.554774 0.169185 0.127885
0.618857 0.180122 0.144142
0.680816 0.193221 0.157656
0.742640 0.208357 0.167660
0.801911 0.224438 0.175527
0.858203 0.241313 0.180894
0.043250 0.081608 0.067881
0.050436 0.082315 0.072327
0.090977 0.085863 0.070273
0.133618 0.098879 0.073737
0.185899 0.107742 0.074059
0.243993 0.114455 0.072434
0.302441 0.124469 0.073544
0.359542 0.138001 0.082323
0.424508 0.149776 0.095435
0.492333 0.161187 0.110504
0.559529 0.172398 0.126471
0.623737 0.185490 0.139913
0.686390 0.199898 0.151418
0.747999 0.214903 0.161741
0.807250 0.231585 0.169267
0.863154 0.249305 0.174693
0.043251 0.115161 0.067808
0.047822 0.124184 0.067330
0.084131 0.120144 0.070769
0.147156 0.112024 0.065302
0.202325 0.124408 0.062363
0.258646 0.138823 0.060666
0.319939 0.150712 0.062192
0.378849 0.163476 0.070511
0.444960 0.172553 0.085989
0.512193 0.182043 0.101696
0.578255 0.192613 0.116469
0.641177 0.205139 0.129097
0.702768 0.219068 0.139973
0.762907 0.234376 0.149434
0.820053 0.250820 0.156790
0.874569 0.268722 0.162221
0.043230 0.152213 0.064864
0.045093 0.166846 0.056226
0.087224 0.164524 0.064521
0.144556 0.153979 0.074006
0.215436 0.143470 0.058608
0.285139 0.154028 0.047375
0.346654 0.169869 0.053817
0.410086 0.184519 0.065355
0.473840 0.197737 0.077721
0.539293 0.210437 0.090740
0.604760 0.226495 0.101206
0.668506 0.243450 0.110545
0.730537 0.259403 0.119992
0.789371 0.275639 0.128112
0.843979 0.291643 0.134994
0.894450 0.308252 0.140046
0.043202 0.190780 0.062958
0.043791 0.205049 0.052468
0.084419 0.210415 0.054134
0.151659 0.199178 0.080075
0.222354 0.191694 0.065179
0.296339 0.178142 0.048856
0.372650 0.186928 0.049147
0.449061 0.200935 0.066535
0.519400 0.216102 0.079950
0.584120 0.232974 0.089780
0.644988 0.251316 0.097173
0.704706 0.271475 0.102783
0.763140 0.294557 0.106033
0.819544 0.320073 0.106738
0.872116 0.345774 0.105883
0.909890 0.363500 0.105749
0.043200 0.225666 0.062549
0.043707 0.238970 0.051114
0.081360 0.252885 0.044434
0.156132 0.244516 0.068121
0.236842 0.240481 0.069952
0.306422 0.227953 0.064335
0.387438 0.215339 0.044569
0.472215 0.222119 0.057459
0.554994 0.238640 0.075380
0.625839 0.257775 0.085851
0.685573 0.277214 0.092109
0.740852 0.297871 0.095901
0.796009 0.321844 0.097249
0.850283 0.349156 0.095690
0.901644 0.380048 0.090085
0.926754 0.397107 0.085531
0.043200 0.261554 0.060718
0.043785 0.270584 0.051102
0.083999 0.285549 0.043498
0.162680 0.294128 0.050294
0.243888 0.285314 0.071510
0.329776 0.295976 0.048321
0.405434 0.277964 0.050731
0.494559 0.265029 0.044279
0.577523 0.268990 0.058574
0.649476 0.284446 0.073462
0.714208 0.303962 0.081821
0.772422 0.326299 0.085479
0.824590 0.350872 0.085079
0.875750 0.379881 0.080481
0.925433 0.411859 0.072534
0.946361 0.427371 0.067056
0.043200 0.295378 0.062570
0.043887 0.302366 0.053564
0.094590 0.319845 0.043330
0.177142 0.335473 0.045408
0.259483 0.331703 0.069137
0.351320 0.346848 0.047130
0.433278 0.359516 0.044214
0.516510 0.334719 0.045047
0.599027 0.323172 0.044058
0.669109 0.323536 0.050258
0.732746 0.336676 0.061028
0.791162 0.355683 0.068067
0.847413 0.381468 0.067947
0.898704 0.411646 0.061689
0.945553 0.444613 0.050799
0.952702 0.457769 0.045102
0.043200 0.325834 0.069784
0.045814 0.341547 0.048446
0.113228 0.356665 0.043232
0.196375 0.373973 0.044912
0.279324 0.374147 0.065339
0.364246 0.389540 0.056922
0.458539 0.411079 0.043909
0.538194 0.428475 0.044846
0.614814 0.399590 0.045698
0.686712 0.388368 0.044036
0.748248 0.384765 0.044086
0.805912 0.394346 0.045414
0.860662 0.414126 0.047150
0.913360 0.441925 0.044294
0.952039 0.476331 0.043224
0.952881 0.484735 0.043202
0.043200 0.366501 0.060253
0.063494 0.380202 0.043525
0.133368 0.393438 0.043200
0.215943 0.410076 0.045975
0.297694 0.412498 0.063645
0.376114 0.426967 0.061404
0.471706 0.457618 0.043941
0.551433 0.481519 0.044158
0.622695 0.504663 0.044745
0.693858 0.475469 0.047032
0.760551 0.460071 0.044750
0.817584 0.452239 0.043714
0.871099 0.456913 0.043570
0.923036 0.477394 0.043266
0.952722 0.504957 0.043201
0.952894 0.508509 0.043200
0.043200 0.411424 0.055791
0.070872 0.423328 0.043461
0.142435 0.437578 0.043761
0.229382 0.445461 0.055521
0.311440 0.450829 0.069752
0.386707 0.463980 0.068918
0.472795 0.495672 0.046090
0.562851 0.529233 0.044197
0.626899 0.556732 0.044284
0.692375 0.584783 0.044378
0.760492 0.558082 0.046628
0.824059 0.534706 0.046864
0.879554 0.521899 0.043529
0.930034 0.520887 0.043200
0.952856 0.540315 0.043200
0.952899 0.539357 0.043200
0.053639 0.446531 0.065605
0.084485 0.452785 0.059270
0.155278 0.468726 0.058072
0.242582 0.476017 0.070307
0.324787 0.486195 0.080178
0.400149 0.500658 0.077865
0.480061 0.531598 0.050172
0.565281 0.569496 0.044240
0.639860 0.602309 0.044347
0.693271 0.631643 0.044444
0.753758 0.666005 0.044610
0.819188 0.640660 0.045805
0.880119 0.606798 0.049943
0.933656 0.588214 0.045827
0.951959 0.584201 0.044134
0.951966 0.581154 0.044134
0.080024 0.466656 0.086881
0.108594 0.473889 0.082649
0.174753 0.491894 0.079703
0.257880 0.502388 0.088926
0.340107 0.517025 0.096014
0.416262 0.538982 0.088760
0.493561 0.574055 0.052934
0.568329 0.609561 0.044296
0.640174 0.645582 0.044373
0.705014 0.679086 0.044559
0.750655 0.705643 0.044625
0.808066 0.743057 0.044737
0.874279 0.715514 0.045031
0.935816 0.674814 0.049888
0.945012 0.652541 0.051161
0.945281 0.642349 0.050897
0.080241 0.529013 0.078565
0.108410 0.542108 0.071914
0.168458 0.573257 0.055361
0.252068 0.591512 0.050644
0.335364 0.600313 0.048012
0.415394 0.628126 0.044141
0.497235 0.662822 0.043603
0.572177 0.690844 0.044386
0.637801 0.714046 0.044447
0.697543 0.735779 0.044497
0.756471 0.759999 0.044580
0.801256 0.778156 0.044630
0.859567 0.810635 0.044745
0.929014 0.781210 0.044992
0.950719 0.734294 0.045381
0.950517 0.721866 0.045596
0.046479 0.616107 0.043328
0.095247 0.625116 0.043200
0.169017 0.644887 0.043275
0.245341 0.669970 0.043773
0.324864 0.700333 0.044058
0.411845 0.733069 0.043399
0.498769 0.762499 0.043222
0.575944 0.784841 0.043288
0.641172 0.799270 0.044595
0.699496 0.812218 0.044599
0.753550 0.823830 0.044601
0.804682 0.832625 0.044693
0.849310 0.843999 0.044703
0.909921 0.872242 0.044874
0.950198 0.827030 0.044989
0.951064 0.797648 0.045037
0.044122 0.757180 0.043841
0.044209 0.764871 0.043895
0.094092 0.780075 0.043958
0.217906 0.797821 0.044270
0.315954 0.810740 0.044187
0.411839 0.820155 0.043316
0.502546 0.829568 0.043224
0.580479 0.838103 0.043225
0.645302 0.844605 0.044010
0.702125 0.850600 0.044698
0.754871 0.857125 0.044699
0.805585 0.864254 0.044700
0.853074 0.871661 0.044702
0.905036 0.899226 0.044874
0.950329 0.905480 0.044900
0.951198 0.874930 0.044902
0.043246 0.069650 0.081781
0.058195 0.073385 0.088431
0.101135 0.077035 0.089196
0.143487 0.082445 0.088776
0.189145 0.085075 0.083106
0.240760 0.102513 0.078938
0.296812 0.115124 0.078785
0.353242 0.128114 0.087692
0.418437 0.139564 0.101872
0.486796 0.151309 0.118156
0.552518 0.162099 0.136730
0.615343 0.174798 0.151895
0.678433 0.189579 0.163077
0.740185 0.204740 0.172653
0.799561 0.220224 0.180287
0.855724 0.236605 0.185593
0.043251 0.082473 0.089642
0.050362 0.083651 0.091315
0.086878 0.093681 0.094310
0.133896 0.105993 0.095543
0.187476 0.116507 0.091903
0.246689 0.126089 0.082604
0.308803 0.136141 0.075134
0.366773 0.148231 0.077569
0.429265 0.156782 0.091982
0.496649 0.164744 0.109213
0.562780 0.173341 0.126986
0.625480 0.183859 0.142646
0.687595 0.197834 0.154465
0.748427 0.212954 0.164337
0.807672 0.229412 0.171889
0.863383 0.246636 0.177227
0.043243 0.118482 0.087835
0.050171 0.121277 0.090768
0.083030 0.120706 0.094875
0.142921 0.120308 0.090371
0.197029 0.132799 0.088846
0.258545 0.139874 0.079483
0.323863 0.148074 0.071981
0.383292 0.159194 0.075157
0.447019 0.169328 0.088925
0.513386 0.178482 0.104645
0.578518 0.189297 0.119108
0.640839 0.201813 0.131560
0.701702 0.215414 0.142551
0.761409 0.230696 0.151908
0.818762 0.247198 0.159441
0.873794 0.265203 0.164647
0.043221 0.153382 0.077086
0.043934 0.166759 0.081826
0.078214 0.167411 0.085536
0.144234 0.158709 0.093370
0.219208 0.149402 0.074070
0.283335 0.159724 0.061487
0.347410 0.174261 0.056632
0.408371 0.188696 0.061508
0.472351 0.200366 0.075228
0.538604 0.211436 0.089821
0.603353 0.225689 0.101324
0.665663 0.239524 0.112304
0.725857 0.253806 0.122317
0.784097 0.268641 0.131366
0.839118 0.284461 0.138463
0.891315 0.301987 0.143371
0.043203 0.189167 0.068920
0.043317 0.203142 0.073923
0.071236 0.213430 0.068118
0.147064 0.205958 0.090676
0.225179 0.196257 0.078824
0.305301 0.182477 0.055244
0.377519 0.191527 0.046956
0.446421 0.205259 0.062006
0.515422 0.220399 0.075350
0.579766 0.236665 0.085555
0.639404 0.254648 0.092843
0.697568 0.273910 0.098629
0.755292 0.295213 0.102800
0.812055 0.317939 0.105666
0.865262 0.341292 0.106816
0.909018 0.359422 0.108410
0.043200 0.225868 0.067146
0.043200 0.236371 0.068054
0.065765 0.258079 0.050146
0.149895 0.251339 0.073840
0.236063 0.244479 0.082231
0.313205 0.233593 0.073046
0.400162 0.220409 0.045919
0.486471 0.227849 0.058216
0.561060 0.243768 0.073598
0.624334 0.261825 0.082324
0.681228 0.280477 0.088171
0.736172 0.301301 0.091763
0.790936 0.324984 0.093066
0.844286 0.351958 0.091372
0.894283 0.382014 0.085702
0.923742 0.401303 0.081044
0.043200 0.261826 0.066770
0.043206 0.268500 0.065367
0.067441 0.293171 0.043665
0.154965 0.300591 0.053887
0.242231 0.290052 0.080470
0.330389 0.299774 0.054883
0.414414 0.285566 0.054953
0.508703 0.271428 0.044773
0.594084 0.275608 0.059390
0.663647 0.291179 0.073339
0.719407 0.309566 0.079285
0.770385 0.330205 0.081495
0.821255 0.354877 0.080509
0.872341 0.384134 0.075561
0.922323 0.416970 0.066647
0.944328 0.432448 0.061534
0.043200 0.295576 0.070770
0.043238 0.300940 0.066971
0.079322 0.326542 0.043444
0.168277 0.343032 0.047227
0.256608 0.336454 0.077238
0.350675 0.350552 0.054955
0.433689 0.363145 0.045781
0.525547 0.342908 0.045044
0.611127 0.331104 0.044070
0.681206 0.330902 0.049547
0.745136 0.344123 0.059360
0.800112 0.363130 0.064972
0.848540 0.387310 0.063045
0.896248 0.416095 0.056140
0.943672 0.449486 0.046863
0.952821 0.462781 0.043264
0.043200 0.325476 0.080833
0.043983 0.340254 0.062402
0.099733 0.362991 0.043260
0.186348 0.380826 0.046957
0.275132 0.378755 0.073164
0.362649 0.392464 0.067334
0.459985 0.415154 0.043907
0.537975 0.432091 0.044789
0.621469 0.408524 0.045983
0.695666 0.397092 0.044020
0.755854 0.392253 0.044055
0.814171 0.401975 0.044673
0.869355 0.422569 0.044966
0.917159 0.449795 0.043520
0.951959 0.481312 0.043209
0.952884 0.490236 0.043201
0.043200 0.363747 0.076340
0.050015 0.385083 0.046757
0.120230 0.399409 0.043225
0.205084 0.414531 0.049822
0.292453 0.416475 0.072334
0.374257 0.429822 0.075223
0.472009 0.461753 0.044090
0.553201 0.485679 0.044158
0.623356 0.509120 0.044588
0.696851 0.482806 0.047465
0.766662 0.469118 0.044713
0.822665 0.459770 0.043653
0.877199 0.464564 0.043493
0.931565 0.485964 0.043212
0.952862 0.511620 0.043200
0.952897 0.514923 0.043200
0.043200 0.410774 0.072461
0.057817 0.426791 0.046804
0.130360 0.440078 0.046232
0.218230 0.446944 0.060246
0.304895 0.453436 0.077793
0.384513 0.466679 0.083217
0.472723 0.499157 0.054108
0.565004 0.534340 0.044201
0.627945 0.560077 0.044286
0.692449 0.588095 0.044379
0.761521 0.564067 0.046950
0.827586 0.543006 0.047896
0.883990 0.528317 0.043530
0.936517 0.528135 0.043200
0.952900 0.544154 0.043200
0.952900 0.543108 0.043200
0.053917 0.448129 0.079798
0.077184 0.452712 0.065662
0.146264 0.467754 0.063276
0.232168 0.476595 0.074053
0.317363 0.486726 0.086940
0.397347 0.502675 0.090689
0.479972 0.534575 0.064599
0.566239 0.573319 0.044248
0.641844 0.606960 0.044355
0.693664 0.634064 0.044450
0.753072 0.667935 0.044599
0.818900 0.643887 0.045586
0.884410 0.614078 0.050299
0.938985 0.594696 0.045876
0.951953 0.587696 0.044152
0.951966 0.584046 0.044134
0.081691 0.468641 0.100211
0.103817 0.474069 0.088641
0.167889 0.491001 0.084859
0.249148 0.502442 0.092119
0.332495 0.516198 0.101134
0.411903 0.537235 0.101160
0.491681 0.575712 0.068095
0.568688 0.614322 0.044430
0.640070 0.649835 0.044365
0.706257 0.683292 0.044547
0.750819 0.707094 0.044626
0.806336 0.742147 0.044737
0.873686 0.716256 0.044986
0.941872 0.682990 0.048909
0.944743 0.654516 0.051425
0.944185 0.643453 0.051915
0.073935 0.539779 0.084586
0.099905 0.548567 0.073633
0.161722 0.573799 0.060526
0.243333 0.595034 0.053938
0.328980 0.606883 0.051655
0.409909 0.621549 0.046502
0.493008 0.659867 0.043823
0.570704 0.693598 0.044392
0.638087 0.718929 0.044486
0.697985 0.739380 0.044497
0.756513 0.761360 0.044579
0.800506 0.777619 0.044629
0.857570 0.808807 0.044743
0.929425 0.781278 0.044992
0.950925 0.738434 0.045175
0.950517 0.722245 0.045596
0.043884 0.627084 0.043665
0.080089 0.631883 0.043201
0.162685 0.647403 0.043251
0.240636 0.667138 0.043742
0.319651 0.691380 0.044039
0.404187 0.721440 0.043455
0.491922 0.754856 0.043222
0.572493 0.783785 0.043267
0.640108 0.801970 0.044598
0.699144 0.814549 0.044599
0.752781 0.823946 0.044601
0.803933 0.831502 0.044669
0.848515 0.842817 0.044703
0.908578 0.870379 0.044874
0.950119 0.826301 0.044991
0.951063 0.798292 0.045039
0.044204 0.767308 0.043912
0.044237 0.769726 0.043931
0.081147 0.782442 0.043985
0.211811 0.796245 0.044241
0.308542 0.811204 0.044201
0.401505 0.823018 0.043347
0.492278 0.832774 0.043225
0.573464 0.841780 0.043225
0.642233 0.848874 0.043986
0.700969 0.854869 0.044698
0.754147 0.861192 0.044699
0.804837 0.867806 0.044700
0.853240 0.874001 0.044702
0.902658 0.898343 0.044874
0.950204 0.907559 0.044900
0.951199 0.877333 0.044901
0.043241 0.086386 0.102991
0.053030 0.087061 0.104565
0.111093 0.091746 0.116397
0.159058 0.098374 0.113248
0.211981 0.104490 0.112914
0.269579 0.105857 0.104919
0.328946 0.111442 0.100995
0.378150 0.122987 0.102747
0.435531 0.135809 0.113682
0.498577 0.148813 0.128250
0.561413 0.162137 0.142938
0.622183 0.175595 0.155445
0.681646 0.189181 0.166913
0.740591 0.203150 0.177140
0.797361 0.217120 0.185575
0.851881 0.231492 0.191891
0.043338 0.090939 0.105317
0.051666 0.098163 0.112539
0.097541 0.101843 0.122534
0.152012 0.108364 0.119597
0.206118 0.110067 0.113734
0.263822 0.107514 0.099877
0.323019 0.112467 0.095385
0.375980 0.124739 0.099597
0.437072 0.137652 0.111862
0.501094 0.150378 0.126693
0.563064 0.163185 0.141184
0.623440 0.176628 0.153697
0.684048 0.190769 0.164452
0.744249 0.205705 0.173543
0.802309 0.221070 0.180911
0.858114 0.237327 0.186236
0.043330 0.114374 0.120591
0.047193 0.119544 0.124142
0.083140 0.122269 0.128526
0.137162 0.134226 0.129688
0.197087 0.144286 0.124375
0.262745 0.149952 0.107966
0.330488 0.155503 0.093193
0.398085 0.159554 0.085704
0.455214 0.166307 0.093983
0.518646 0.172188 0.111450
0.580482 0.181307 0.126815
0.640710 0.193315 0.139195
0.700480 0.207717 0.149342
0.759703 0.223222 0.158171
0.817313 0.240010 0.165187
0.872355 0.258187 0.170122
0.043362 0.164541 0.134376
0.043621 0.163149 0.120735
0.075081 0.168131 0.125158
0.135564 0.166473 0.125403
0.210018 0.163776 0.118825
0.275230 0.172859 0.105000
0.343083 0.180564 0.091731
0.413076 0.187066 0.081267
0.474832 0.192440 0.082767
0.536066 0.199707 0.097188
0.598701 0.211114 0.110070
0.659715 0.225701 0.120118
0.719162 0.240624 0.129436
0.777320 0.256183 0.137960
0.833728 0.273041 0.144808
0.887553 0.291850 0.149371
0.043200 0.202874 0.118839
0.043200 0.198652 0.104377
0.056728 0.219487 0.105891
0.129500 0.218267 0.110746
0.221886 0.204363 0.109615
0.301323 0.191092 0.085955
0.372985 0.200203 0.069722
0.441868 0.213057 0.063668
0.504834 0.227312 0.068329
0.566505 0.240911 0.077911
0.626602 0.255872 0.087518
0.685006 0.272301 0.095485
0.743430 0.290012 0.102530
0.800615 0.309433 0.107931
0.855661 0.328629 0.112588
0.906983 0.348181 0.115956
0.043200 0.235191 0.103545
0.043200 0.231595 0.086896
0.046498 0.260005 0.085902
0.124638 0.265573 0.085523
0.228446 0.253098 0.108816
0.310901 0.242155 0.097057
0.398710 0.227492 0.061771
0.478520 0.235311 0.050033
0.550506 0.250664 0.063967
0.613530 0.267985 0.073556
0.670784 0.286222 0.079969
0.724560 0.306321 0.083764
0.778052 0.328598 0.085606
0.830345 0.354064 0.084572
0.881363 0.381752 0.081046
0.920714 0.403465 0.077888
0.043200 0.264344 0.087321
0.043200 0.265480 0.083074
0.045513 0.294280 0.075700
0.127422 0.313717 0.064013
0.233979 0.301564 0.097933
0.330127 0.308779 0.080284
0.412260 0.294668 0.077695
0.504222 0.278752 0.044865
0.588497 0.281755 0.052879
0.655385 0.297275 0.064972
0.711116 0.316308 0.070528
0.762834 0.336932 0.073149
0.813708 0.361128 0.072324
0.863553 0.389809 0.067027
0.912267 0.422027 0.057506
0.938175 0.440455 0.051545
0.043200 0.293094 0.085871
0.043200 0.298292 0.087892
0.047473 0.333612 0.066401
0.142185 0.355875 0.056314
0.247077 0.347476 0.091999
0.345122 0.357094 0.084438
0.433236 0.371145 0.056834
0.521691 0.352597 0.049962
0.607531 0.339373 0.044052
0.678179 0.338198 0.046115
0.740849 0.350072 0.052771
0.793378 0.369874 0.055846
0.842026 0.394502 0.053354
0.890275 0.423714 0.047872
0.938098 0.457164 0.043473
0.952409 0.470677 0.043240
0.043200 0.320862 0.096864
0.043200 0.328959 0.097312
0.057704 0.378284 0.050003
0.162070 0.391253 0.056363
0.263732 0.388472 0.087978
0.355502 0.397575 0.097277
0.459221 0.422791 0.045458
0.536603 0.439626 0.044568
0.618952 0.418713 0.046158
0.692846 0.405874 0.044261
0.753413 0.399514 0.044024
0.811503 0.407376 0.043962
0.864668 0.428092 0.043760
0.911213 0.456763 0.043434
0.951255 0.488836 0.043202
0.952889 0.498877 0.043201
0.043200 0.346184 0.108658
0.043261 0.366794 0.094658
0.084133 0.412539 0.048798
0.183279 0.421647 0.060083
0.279601 0.424213 0.087376
0.366546 0.434379 0.103698
0.467439 0.467507 0.058176
0.554994 0.493625 0.044158
0.622474 0.516160 0.044277
0.695486 0.492481 0.047716
0.763913 0.476381 0.045479
0.820086 0.465443 0.043619
0.874943 0.469015 0.043467
0.927767 0.490197 0.043217
0.952752 0.519297 0.043200
0.952898 0.524447 0.043200
0.043200 0.374769 0.121625
0.044158 0.414594 0.091711
0.104389 0.440681 0.061233
0.197836 0.451943 0.069313
0.290984 0.458103 0.091417
0.376952 0.471297 0.106580
0.467585 0.503029 0.084224
0.564428 0.540997 0.044431
0.631242 0.567749 0.044288
0.691696 0.593710 0.044381
0.760785 0.570379 0.046546
0.824607 0.547143 0.048085
0.880257 0.531309 0.043766
0.933914 0.530937 0.043200
0.952889 0.548588 0.043200
0.952900 0.549944 0.043200
0.043200 0.421691 0.126661
0.058459 0.451199 0.099188
0.124725 0.466485 0.078621
0.214065 0.480007 0.082418
0.303705 0.488632 0.098547
0.388400 0.504552 0.110221
0.474418 0.536256 0.100750
0.563616 0.576939 0.052977
0.642889 0.613435 0.044363
0.695931 0.639441 0.044461
0.751371 0.669852 0.044607
0.817707 0.645703 0.045502
0.881165 0.615286 0.050250
0.935059 0.595093 0.046700
0.951519 0.590329 0.044648
0.951928 0.588395 0.044181
0.058351 0.461863 0.133931
0.087675 0.472407 0.117791
0.149653 0.489390 0.099725
0.232951 0.505476 0.100035
0.319463 0.516417 0.110964
0.402013 0.535226 0.117719
0.484316 0.573233 0.102935
0.565454 0.618186 0.060564
0.638097 0.654951 0.044594
0.705750 0.688250 0.044533
0.752148 0.710555 0.044606
0.804091 0.740749 0.044737
0.872575 0.715479 0.044953
0.940114 0.682661 0.048908
0.944804 0.656404 0.051364
0.944184 0.644919 0.051916
0.048517 0.535115 0.123251
0.070247 0.557841 0.094164
0.139494 0.579198 0.072507
0.225250 0.598963 0.065298
0.316158 0.609990 0.067589
0.402793 0.628381 0.057347
0.484334 0.652656 0.048045
0.564986 0.693129 0.044582
0.635514 0.723538 0.044486
0.696686 0.743678 0.044497
0.755521 0.762959 0.044581
0.800587 0.778274 0.044629
0.855418 0.806284 0.044724
0.929018 0.779800 0.044989
0.950922 0.739956 0.045178
0.950519 0.723705 0.045592
0.043279 0.628386 0.062123
0.045594 0.643060 0.046936
0.138491 0.656762 0.043240
0.227229 0.669852 0.043686
0.309038 0.686284 0.044014
0.393503 0.710268 0.043543
0.481464 0.743453 0.043221
0.564536 0.778644 0.043263
0.635341 0.802974 0.044564
0.696410 0.816529 0.044599
0.750832 0.824289 0.044600
0.802899 0.830811 0.044669
0.846310 0.840215 0.044703
0.906742 0.868197 0.044874
0.950064 0.826132 0.044991
0.951062 0.798551 0.045039
0.044274 0.774813 0.043970
0.044335 0.781389 0.044021
0.055171 0.788980 0.044063
0.194907 0.798352 0.044203
0.296449 0.808118 0.044299
0.389887 0.821793 0.043418
0.480612 0.837276 0.043225
0.563693 0.846896 0.043226
0.635050 0.854920 0.043590
0.696110 0.860656 0.044698
0.750474 0.866515 0.044698
0.802800 0.872561 0.044700
0.854055 0.878907 0.044702
0.900350 0.898525 0.044874
0.950026 0.910324 0.044900
0.951199 0.881079 0.044901
0.043255 0.105592 0.127760
0.053803 0.105092 0.127498
0.093145 0.110765 0.140522
0.176841 0.115619 0.144286
0.228919 0.120232 0.137005
0.289405 0.124800 0.131696
0.353302 0.130766 0.127010
0.418619 0.137143 0.123252
0.475656 0.145984 0.121743
0.528168 0.157707 0.129800
0.586588 0.169789 0.142837
0.642537 0.182240 0.154218
0.697521 0.194899 0.164706
0.752232 0.207900 0.174174
0.806049 0.221580 0.182215
0.858420 0.235814 0.188294
0.043332 0.108834 0.129612
0.051609 0.115843 0.137049
0.085858 0.118629 0.143400
0.170016 0.123918 0.152158
0.225476 0.129197 0.143666
0.289555 0.131070 0.135883
0.354937 0.134112 0.127922
0.422871 0.140422 0.124093
0.482804 0.148764 0.122287
0.533684 0.160185 0.129060
0.590465 0.171971 0.141435
0.645095 0.183790 0.152826
0.698763 0.195892 0.163519
0.753274 0.208758 0.173132
0.807309 0.222414 0.181320
0.859864 0.236756 0.187754
0.043327 0.120097 0.137420
0.046273 0.128226 0.144884
0.078961 0.137842 0.155313
0.151387 0.142494 0.165955
0.217961 0.147619 0.156601
0.286473 0.141882 0.139982
0.356192 0.142808 0.129222
0.427294 0.148375 0.125413
0.493527 0.154923 0.122988
0.541902 0.165290 0.126714
0.594548 0.176032 0.137861
0.647292 0.186838 0.149269
0.700791 0.198521 0.160219
0.755405 0.211492 0.170131
0.810993 0.226031 0.177922
0.865373 0.242477 0.183140
0.043345 0.154448 0.157341
0.043827 0.161906 0.162424
0.067342 0.168957 0.170755
0.127638 0.173142 0.177918
0.202049 0.184134 0.175031
0.274481 0.189740 0.161419
0.348478 0.189687 0.145360
0.422465 0.188105 0.133870
0.495049 0.182596 0.123066
0.551666 0.182869 0.117187
0.603435 0.193528 0.124905
0.658696 0.206386 0.134531
0.715643 0.221892 0.142698
0.774036 0.240110 0.149120
0.831160 0.258728 0.154808
0.885807 0.277940 0.159030
0.043421 0.207509 0.176783
0.043423 0.217542 0.175052
0.046144 0.220157 0.164807
0.106336 0.226403 0.165937
0.208426 0.219768 0.162302
0.289035 0.214073 0.155933
0.360751 0.222287 0.145783
0.434016 0.229704 0.136211
0.505844 0.234956 0.124796
0.573891 0.237859 0.113314
0.631397 0.243464 0.106572
0.680654 0.254555 0.108230
0.735105 0.269899 0.114182
0.793275 0.289430 0.119558
0.850686 0.310890 0.123653
0.904418 0.331497 0.127028
0.043242 0.261937 0.177211
0.043200 0.256166 0.157019
0.043200 0.252091 0.141498
0.078707 0.278153 0.133978
0.200600 0.274358 0.139013
0.304811 0.257909 0.140688
0.390969 0.243106 0.122410
0.471085 0.251309 0.102253
0.543871 0.264833 0.088053
0.606236 0.280122 0.081900
0.660384 0.295846 0.080276
0.710368 0.310871 0.081528
0.763602 0.328331 0.082880
0.817989 0.351098 0.082846
0.872518 0.377068 0.081572
0.919702 0.400872 0.079528
0.043200 0.291689 0.161582
0.043200 0.284240 0.142709
0.043200 0.280641 0.124419
0.072653 0.321045 0.109385
0.202055 0.323574 0.118635
0.319838 0.321664 0.127980
0.406018 0.309825 0.125613
0.499492 0.290924 0.087030
0.579594 0.293134 0.053070
0.643514 0.308963 0.054330
0.699121 0.327426 0.057726
0.750249 0.347254 0.059500
0.799439 0.369972 0.058752
0.848747 0.397117 0.054174
0.897363 0.427884 0.047764
0.930538 0.449402 0.044924
0.043200 0.316368 0.153868
0.043200 0.308300 0.132887
0.043210 0.311322 0.121071
0.085439 0.362502 0.090936
0.218162 0.367015 0.109713
0.328350 0.366089 0.133633
0.430175 0.382712 0.102036
0.515960 0.367702 0.093126
