src/luts/23.cube
TITLE "Generated by Resolve"
LUT_3D_SIZE 9
0 0 0
0.104082 0 0
0.460349 0 0
0.671641 0 0
0.130632 0.130632 0.130632
0.198245 0.198245 0.198245
0.239399 0.239399 0.239399
0.270344 0.270344 0.270344
0.270344 0.270344 0.270344
0 0.075639 0
0.130297 0.0780804 0
0.494301 0.0410925 0
0.765026 0.00340276 0
0.174807 0.174807 0.174807
0.197436 0.197436 0.197436
0.239063 0.239063 0.239063
0.270344 0.270344 0.270344
0.270344 0.270344 0.270344
0 0.386831 0
0.0545815 0.39588 0
0.463722 0.379507 0
0.763699 0.354925 0
0.717174 0.392615 0.205463
0.462593 0.462593 0.462593
0.398154 0.398154 0.398154
0.270344 0.270344 0.270344
0.270344 0.270344 0.270344
0 0.645579 0
0 0.644068 0
0.358465 0.623499 0
0.678691 0.591348 0
0.762982 0.584665 0.236194
0.626932 0.626932 0.626932
0.622431 0.622431 0.622431
0.581628 0.581628 0.581628
0.383658 0.383658 0.383658
0.438056 0.642237 0.438987
0.424018 0.645441 0.42504
0.238499 0.827314 0
0.601328 0.780179 0
0.725689 0.723735 0.702342
0.752773 0.752773 0.752773
0.758709 0.758709 0.758709
0.748089 0.748089 0.748089
0.697658 0.697658 0.697658
0.72784 0.72784 0.72784
0.726909 0.726909 0.726909
0.73611 0.73611 0.73611
0.793713 0.793713 0.793713
0.825162 0.825162 0.825162
0.851087 0.851087 0.851087
0.859388 0.859388 0.859388
0.858213 0.858213 0.858213
0.838239 0.838239 0.838239
0.80766 0.80766 0.80766
0.807431 0.807431 0.807431
0.807034 0.807034 0.807034
0.843061 0.843061 0.843061
0.878889 0.878889 0.878889
0.906706 0.906706 0.906706
0.919951 0.919951 0.919951
0.92607 0.92607 0.92607
0.921431 0.921431 0.921431
0.849058 0.849058 0.849058
0.848966 0.848966 0.848966
0.848798 0.848798 0.848798
0.848539 0.848539 0.848539
0.897185 0.897185 0.897185
0.930434 0.930434 0.930434
0.950591 0.950591 0.950591
0.959396 0.959396 0.959396
0.95906 0.95906 0.95906
0.868345 0.868345 0.868345
0.868345 0.868345 0.868345
0.868345 0.868345 0.868345
0.868345 0.868345 0.868345
0.868345 0.868345 0.868345
0.93138 0.93138 0.93138
0.964004 0.964004 0.964004
0.977081 0.977081 0.977081
0.98056 0.98056 0.98056
0 0 0.0755779
0.0317235 0 0.0792248
0.433921 0 0.0497749
0.729946 0 0.00236515
0.131701 0.131701 0.131701
0.196719 0.196719 0.196719
0.238758 0.238758 0.238758
0.270344 0.270344 0.270344
0.270344 0.270344 0.270344
0 0.0535744 0.060441
0.051606 0.0522469 0.0521859
0.453819 0.0206607 0.00926223
0.743358 0 0
0.151675 0.151675 0.151675
0.195895 0.195895 0.195895
0.238392 0.238392 0.238392
0.270344 0.270344 0.270344
0.270344 0.270344 0.270344
0 0.374197 0
0 0.374975 0
0.422995 0.36759 0
0.746029 0.341741 0
0.737835 0.37319 0.176455
0.451392 0.451392 0.451392
0.380026 0.380026 0.380026
0.270344 0.270344 0.270344
0.270344 0.270344 0.270344
0 0.639063 0
0 0.634913 0
0.311772 0.621637 0
0.658869 0.586526 0
0.77731 0.576532 0.188266
0.622141 0.622141 0.622141
0.617639 0.617639 0.617639
0.575479 0.575479 0.575479
0.365728 0.365728 0.365728
0.414649 0.647761 0.415717
0.400427 0.651728 0.401587
0.194537 0.822629 0
0.576608 0.782269 0
0.728099 0.722377 0.651987
0.749859 0.749859 0.749859
0.756237 0.756237 0.756237
0.745922 0.745922 0.745922
0.694347 0.694347 0.694347
0.726329 0.726329 0.726329
0.725368 0.725368 0.725368
0.72398 0.72398 0.72398
0.789761 0.789761 0.789761
0.82266 0.82266 0.82266
0.849439 0.849439 0.849439
0.858137 0.858137 0.858137
0.857374 0.857374 0.857374
0.837186 0.837186 0.837186
0.807294 0.807294 0.807294
0.807065 0.807065 0.807065
0.806668 0.806668 0.806668
0.83856 0.83856 0.83856
0.877241 0.877241 0.877241
0.905577 0.905577 0.905577
0.919493 0.919493 0.919493
0.925673 0.925673 0.925673
0.92108 0.92108 0.92108
0.848905 0.848905 0.848905
0.848814 0.848814 0.848814
0.848661 0.848661 0.848661
0.848402 0.848402 0.848402
0.895338 0.895338 0.895338
0.929564 0.929564 0.929564
0.950225 0.950225 0.950225
0.959228 0.959228 0.959228
0.958923 0.958923 0.958923
0.868345 0.868345 0.868345
0.868345 0.868345 0.868345
0.868345 0.868345 0.868345
0.868345 0.868345 0.868345
0.868345 0.868345 0.868345
0.930159 0.930159 0.930159
0.963653 0.963653 0.963653
0.976974 0.976974 0.976974
0.98056 0.98056 0.98056
0 0 0.438056
0 0 0.436271
0.359213 0 0.438056
0.690257 0 0.410651
0.619455 0.00799573 0.270573
0.226505 0.226505 0.226505
0.253239 0.253239 0.253239
0.270344 0.270344 0.270344
0.270344 0.270344 0.270344
0 0.00497444 0.4495
0 0 0.433722
0.364569 0 0.422736
0.695659 0 0.37586
0.619883 0.00369268 0.236347
0.220752 0.220752 0.220752
0.244678 0.244678 0.244678
0.270237 0.270237 0.270237
0.270344 0.270344 0.270344
0 0.354528 0.372549
0 0.346029 0.358892
0.345388 0.348226 0.350027
0.71429 0.318395 0.305409
0.996689 0.289601 0.243839
0.441825 0.441825 0.441825
0.347646 0.347646 0.347646
0.269932 0.269932 0.269932
0.270344 0.270344 0.270344
0 0.628809 0.155795
0 0.624689 0.136568
0.215869 0.618784 0.106706
0.622095 0.57792 0.0225681
0.881529 0.555383 0
0.613382 0.613382 0.613382
0.608957 0.608957 0.608957
0.564004 0.564004 0.564004
0.333181 0.333181 0.333181
0.374258 0.657954 0.375555
0.358236 0.661891 0.359625
0.160388 0.789517 0.06009
0.531029 0.786145 0
0.733166 0.721553 0.545922
0.745113 0.745113 0.745113
0.752361 0.752361 0.752361
0.74136 0.74136 0.74136
0.688807 0.688807 0.688807
0.723903 0.723903 0.723903
0.722927 0.722927 0.722927
0.721233 0.721233 0.721233
0.782086 0.782086 0.782086
0.818173 0.818173 0.818173
0.846433 0.846433 0.846433
0.856382 0.856382 0.856382
0.855375 0.855375 0.855375
0.835004 0.835004 0.835004
0.806653 0.806653 0.806653
0.806424 0.806424 0.806424
0.806027 0.806027 0.806027
0.828855 0.828855 0.828855
0.874357 0.874357 0.874357
0.903593 0.903593 0.903593
0.918807 0.918807 0.918807
0.924987 0.924987 0.924987
0.92047 0.92047 0.92047
0.848661 0.848661 0.848661
0.848554 0.848554 0.848554
0.848402 0.848402 0.848402
0.848142 0.848142 0.848142
0.891447 0.891447 0.891447
0.927901 0.927901 0.927901
0.949599 0.949599 0.949599
0.958862 0.958862 0.958862
0.958694 0.958694 0.958694
0.868345 0.868345 0.868345
0.868345 0.868345 0.868345
0.868345 0.868345 0.868345
0.868345 0.868345 0.868345
0.868345 0.868345 0.868345
0.928176 0.928176 0.928176
0.963149 0.963149 0.963149
0.976776 0.976776 0.976776
0.98056 0.98056 0.98056
0 0 0.635096
0 0 0.64184
0.201587 0 0.724041
0.625345 0 0.708888
0.524285 0.0409705 0.406943
0.249821 0.249821 0.249821
0.288746 0.288746 0.288746
0.308156 0.308156 0.308156
0.270344 0.270344 0.270344
0 0 0.707164
0 0 0.696498
0.179812 0 0.716533
0.612222 0 0.685206
0.578088 0.0165103 0.430365
0.246387 0.246387 0.246387
0.285725 0.285725 0.285725
0.304677 0.304677 0.304677
0.270344 0.270344 0.270344
0 0.313695 0.719799
0 0.303883 0.714015
0.165087 0.309499 0.726833
0.649973 0.271122 0.704234
0.965103 0.234195 0.691508
1 0.238651 0.611124
0.334783 0.334783 0.334783
0.297032 0.297032 0.297032
0.270344 0.270344 0.270344
0 0.599084 0.619165
0 0.595148 0.612741
0.014786 0.593393 0.606592
0.54461 0.54844 0.550958
0.871061 0.517922 0.510079
1 0.499214 0.464469
1 0.472328 0.37882
0.550683 0.550683 0.550683
0.278416 0.278416 0.278416
0 0.816785 0.438911
0 0.816388 0.42771
0 0.815457 0.407385
0.420615 0.78352 0.324697
0.78497 0.745373 0.236484
1 0.729732 0.127001
0.749569 0.749569 0.749569
0.734203 0.734203 0.734203
0.679286 0.679286 0.679286
0.722469 0.722469 0.722469
0.720577 0.720577 0.720577
0.717403 0.717403 0.717403
0.767544 0.767544 0.767544
0.810605 0.810605 0.810605
0.842069 0.842069 0.842069
0.852811 0.852811 0.852811
0.852049 0.852049 0.852049
0.831601 0.831601 0.831601
0.805615 0.805615 0.805615
0.805386 0.805386 0.805386
0.805005 0.805005 0.805005
0.805692 0.805692 0.805692
0.869093 0.869093 0.869093
0.900694 0.900694 0.900694
0.917403 0.917403 0.917403
0.924056 0.924056 0.924056
0.919493 0.919493 0.919493
0.848234 0.848234 0.848234
0.848142 0.848142 0.848142
0.84799 0.84799 0.84799
0.847715 0.847715 0.847715
0.884688 0.884688 0.884688
0.92488 0.92488 0.92488
0.948562 0.948562 0.948562
0.958221 0.958221 0.958221
0.958328 0.958328 0.958328
0.868345 0.868345 0.868345
0.868345 0.868345 0.868345
0.868345 0.868345 0.868345
0.868345 0.868345 0.868345
0.868345 0.868345 0.868345
0.924605 0.924605 0.924605
0.962188 0.962188 0.962188
0.97644 0.97644 0.97644
0.98056 0.98056 0.98056
0 0 0
0 0 0
0 0 0
0.275456 0 0.506722
0.176516 0.176516 0.176516
0.267796 0.267796 0.267796
0.313237 0.313237 0.313237
0.338155 0.338155 0.338155
0.328161 0.328161 0.328161
0 0 0
0 0 0
0 0 0
0.295857 0 0.568048
0.173297 0.173297 0.173297
0.265324 0.265324 0.265324
0.311315 0.311315 0.311315
0.336797 0.336797 0.336797
0.326238 0.326238 0.326238
0.0831617 0.2374 0.612741
0.0780652 0.227329 0.610391
0.0698711 0.209445 0.602136
0.526238 0.196765 0.983719
0.912337 0.147021 0.976822
0.369451 0.369451 0.369451
0.308141 0.308141 0.308141
0.333516 0.333516 0.333516
0.322332 0.322332 0.322332
0.0644694 0.530312 0.784024
0.0537881 0.528557 0.789883
0.0368505 0.524422 0.798474
0.3953 0.524712 0.894926
0.813596 0.480583 0.865095
1 0.455238 0.857221
1 0.405768 0.8421
0.836362 0.454047 0.632471
0.315816 0.315816 0.315816
0.304006 0.685084 0.693721
0.282994 0.688197 0.69688
0.24918 0.692958 0.701289
0.227756 0.772488 0.78648
0.710521 0.71516 0.718593
0.992004 0.689647 0.684169
1 0.666575 0.635203
1 0.625223 0.538659
0.9552 0.617365 0.488716
0.742321 0.742321 0.742321
0.741146 0.741146 0.741146
0.7393 0.7393 0.7393
0.204379 0.9281 0.676356
0.590585 0.915892 0.506111
0.90634 0.875822 0.417227
1 0.860792 0.316457
1 0.852003 0.45008
0.825986 0.825986 0.825986
0.814282 0.814282 0.814282
0.813611 0.813611 0.813611
0.812421 0.812421 0.812421
0.810422 0.810422 0.810422
0.86331 0.86331 0.86331
0.895506 0.895506 0.895506
0.915145 0.915145 0.915145
0.92221 0.92221 0.92221
0.918013 0.918013 0.918013
0.847562 0.847562 0.847562
0.847471 0.847471 0.847471
0.847303 0.847303 0.847303
0.847044 0.847044 0.847044
0.868132 0.868132 0.868132
0.919966 0.919966 0.919966
0.946975 0.946975 0.946975
0.957229 0.957229 0.957229
0.957702 0.957702 0.957702
0.868345 0.868345 0.868345
0.868345 0.868345 0.868345
0.868345 0.868345 0.868345
0.868345 0.868345 0.868345
0.868345 0.868345 0.868345
0.91812 0.91812 0.91812
0.960311 0.960311 0.960311
0.975891 0.975891 0.975891
0.98056 0.98056 0.98056
0 0 0
0 0 0
0 0 0
0.0452888 0.0452888 0.0452888
0.169482 0.169482 0.169482
0.277943 0.277943 0.277943
0.335393 0.335393 0.335393
0.365423 0.365423 0.365423
0.36199 0.36199 0.36199
0 0 0
0 0 0
0 0 0
0.0362249 0.0362249 0.0362249
0.165972 0.165972 0.165972
0.275502 0.275502 0.275502
0.334234 0.334234 0.334234
0.364202 0.364202 0.364202
0.36083 0.36083 0.36083
0.143587 0.143587 0.143587
0.131502 0.131502 0.131502
0.110399 0.110399 0.110399
0.127657 0.127657 0.127657
0.220478 0.220478 0.220478
0.271214 0.271214 0.271214
0.332143 0.332143 0.332143
0.362081 0.362081 0.362081
0.359075 0.359075 0.359075
0.433127 0.433127 0.433127
0.429465 0.429465 0.429465
0.422812 0.422812 0.422812
0.429709 0.429709 0.429709
0.708568 0.43209 1
1 0.393393 1
1 0.377066 1
0.486336 0.486336 0.486336
0.356023 0.356023 0.356023
0.604318 0.604318 0.604318
0.602335 0.602335 0.602335
0.599115 0.599115 0.599115
0.593896 0.593896 0.593896
0.573175 0.697627 1
0.947936 0.656397 0.991775
1 0.629053 0.984466
1 0.579568 0.97116
1 0.473487 0.941436
0.74844 0.74844 0.74844
0.747372 0.747372 0.747372
0.745708 0.745708 0.745708
0.742657 0.742657 0.742657
0.41857 0.909758 0.921752
0.842863 0.846784 0.850004
1 0.823636 0.820447
1 0.799405 0.774594
1 0.764401 0.685008
0.829877 0.829877 0.829877
0.829526 0.829526 0.829526
0.828931 0.828931 0.828931
0.827955 0.827955 0.827955
0.180697 1 0.803067
0.748241 0.974701 0.675364
0.961288 0.950957 0.602045
1 0.942626 0.500145
1 0.942031 0.297368
0.860212 0.860212 0.860212
0.859922 0.859922 0.859922
0.859419 0.859419 0.859419
0.858579 0.858579 0.858579
0.857267 0.857267 0.857267
0.654917 1 0.163699
0.948394 0.948394 0.948394
0.955612 0.955612 0.955612
0.956878 0.956878 0.956878
0.868345 0.868345 0.868345
0.868345 0.868345 0.868345
0.868345 0.868345 0.868345
0.868345 0.868345 0.868345
0.868345 0.868345 0.868345
0.904112 0.904112 0.904112
0.956909 0.956909 0.956909
0.974945 0.974945 0.974945
0.98056 0.98056 0.98056
0 0 0
0 0 0
0 0 0
0 0 0
0.115251 0.115251 0.115251
0.254429 0.254429 0.254429
0.341405 0.341405 0.341405
0.37789 0.37789 0.37789
0.383764 0.383764 0.383764
0 0 0
0 0 0
0 0 0
0 0 0
0.11104 0.11104 0.11104
0.252171 0.252171 0.252171
0.340658 0.340658 0.340658
0.377508 0.377508 0.377508
0.38349 0.38349 0.38349
0 0 0
0 0 0
0 0 0
0 0 0
0.103349 0.103349 0.103349
0.248692 0.248692 0.248692
0.339345 0.339345 0.339345
0.376715 0.376715 0.376715
0.382971 0.382971 0.382971
0.368505 0.368505 0.368505
0.363409 0.363409 0.363409
0.354421 0.354421 0.354421
0.338491 0.338491 0.338491
0.407797 0.364813 0.923369
0.801999 0.351202 0.957092
0.471931 0.471931 0.471931
0.375433 0.375433 0.375433
0.382071 0.382071 0.382071
0.581308 0.581308 0.581308
0.579522 0.579522 0.579522
0.575906 0.575906 0.575906
0.570443 0.570443 0.570443
0.274006 0.674083 1
0.865003 0.610162 1
1 0.57792 1
1 0.519768 1
1 0.490745 0.979217
0.742077 0.742077 0.742077
0.741222 0.741222 0.741222
0.739422 0.739422 0.739422
0.736706 0.736706 0.736706
0.739086 0.739086 0.739086
0.728115 0.834791 1
0.996002 0.798413 1
1 0.76936 1
1 0.725383 1
0.836851 0.836851 0.836851
0.836637 0.836637 0.836637
0.83624 0.83624 0.83624
0.835462 0.835462 0.835462
0.834363 0.834363 0.834363
0.589776 0.980163 0.992523
0.927642 0.93167 0.936065
1 0.917082 0.920378
1 0.903105 0.892485
0.875242 0.875242 0.875242
0.875105 0.875105 0.875105
0.874846 0.874846 0.874846
0.874418 0.874418 0.874418
0.873808 0.873808 0.873808
0.36611 1 0.926192
0.871672 1 0.827176
0.993408 0.98854 0.779126
1 0.984314 0.700465
0.885512 0.885512 0.885512
0.88539 0.88539 0.88539
0.885176 0.885176 0.885176
0.88484 0.88484 0.88484
0.88426 0.88426 0.88426
0.883284 0.883284 0.883284
0.794842 1 0.313512
0.991241 1 0.427558
0.98056 0.98056 0.98056
0 0 0
0 0 0
0 0 0
0 0 0
0 0 0
0.183856 0.183856 0.183856
0.331701 0.331701 0.331701
0.381415 0.381415 0.381415
0.394659 0.394659 0.394659
0 0 0
0 0 0
0 0 0
0 0 0
0 0 0
0.180972 0.180972 0.180972
0.330785 0.330785 0.330785
0.381079 0.381079 0.381079
0.394568 0.394568 0.394568
0 0 0
0 0 0
0 0 0
0 0 0
0 0 0
0.175387 0.175387 0.175387
0.329198 0.329198 0.329198
0.380484 0.380484 0.380484
0.3944 0.3944 0.3944
0.129717 0.129717 0.129717
0.117632 0.117632 0.117632
0.0968643 0.0968643 0.0968643
0.0644388 0.0644388 0.0644388
0.00410468 0.00410468 0.00410468
0.166842 0.166842 0.166842
0.326833 0.326833 0.326833
0.379507 0.379507 0.379507
0.394141 0.394141 0.394141
0.523964 0.523964 0.523964
0.521462 0.521462 0.521462
0.517205 0.517205 0.517205
0.510262 0.510262 0.510262
0.498405 0.498405 0.498405
0.585534 0.526085 1
1 0.469032 1
0.901015 0.537346 0.915602
0.463859 0.463859 0.463859
0.71754 0.71754 0.71754
0.716442 0.716442 0.716442
0.714534 0.714534 0.714534
0.711391 0.711391 0.711391
0.706294 0.706294 0.706294
0.376974 0.840558 1
0.959548 0.760525 1
1 0.725658 1
1 0.670863 1
0.834546 0.834546 0.834546
0.834318 0.834318 0.834318
0.833829 0.833829 0.833829
0.833005 0.833005 0.833005
0.831632 0.831632 0.831632
0.856168 0.856168 0.856168
0.857618 0.924422 1
1 0.902632 1
1 0.883741 1
0.878721 0.878721 0.878721
0.87863 0.87863 0.87863
0.878431 0.878431 0.878431
0.878141 0.878141 0.878141
0.877653 0.877653 0.877653
0.87686 0.87686 0.87686
0.758175 1 1
0.972717 0.977478 0.983337
1 0.97145 0.976898
0.900023 0.900023 0.900023
0.900008 0.900008 0.900008
0.899977 0.899977 0.899977
0.899931 0.899931 0.899931
0.899825 0.899825 0.899825
0.899687 0.899687 0.899687
0.552956 1 0.980346
0.934142 1 0.921431
1 1 0.893248
0 0 0
0 0 0
0 0 0
0 0 0
0 0 0
0 0 0
0.254093 0.254093 0.254093
0.369192 0.369192 0.369192
0.397253 0.397253 0.397253
0 0 0
0 0 0
0 0 0
0 0 0
0 0 0
0 0 0
0.251911 0.251911 0.251911
0.368887 0.368887 0.368887
0.397253 0.397253 0.397253
0 0 0
0 0 0
0 0 0
0 0 0
0 0 0
0 0 0
0.248814 0.248814 0.248814
0.368338 0.368338 0.368338
0.397253 0.397253 0.397253
0 0 0
0 0 0
0 0 0
0 0 0
0 0 0
0 0 0
0.242481 0.242481 0.242481
0.36762 0.36762 0.36762
0.397253 0.397253 0.397253
0.353079 0.353079 0.353079
0.347066 0.347066 0.347066
0.337041 0.337041 0.337041
0.319799 0.319799 0.319799
0.288396 0.288396 0.288396
0.224277 0.224277 0.224277
0.329992 0.329992 0.329992
0.366339 0.366339 0.366339
0.397253 0.397253 0.397253
0.657313 0.657313 0.657313
0.655955 0.655955 0.655955
0.653452 0.653452 0.653452
0.649287 0.649287 0.649287
0.642405 0.642405 0.642405
0.630625 0.630625 0.630625
0.745174 0.689296 1
1 0.633677 1
1 0.552636 1
0.82118 0.82118 0.82118
0.820798 0.820798 0.820798
0.820127 0.820127 0.820127
0.819028 0.819028 0.819028
0.817258 0.817258 0.817258
0.814496 0.814496 0.814496
0.543008 0.946761 1
0.983383 0.880262 1
1 0.848203 1
0.876265 0.876265 0.876265
0.876188 0.876188 0.876188
0.876051 0.876051 0.876051
0.875792 0.875792 0.875792
0.875319 0.875319 0.875319
0.874678 0.874678 0.874678
0.33669 1 1
0.929076 0.972473 1
1 0.959289 1
0.903655 0.903655 0.903655
0.903655 0.903655 0.903655
0.903655 0.903655 0.903655
0.903655 0.903655 0.903655
0.903655 0.903655 0.903655
0.903655 0.903655 0.903655
0.903655 0.903655 0.903655
0.872496 1 1
1 1 1
