src/luts/23.cube
TITLE "Generated by Resolve"
LUT_3D_SIZE 5
0 0 0
0.460349 0 0
0.130632 0.130632 0.130632
0.239399 0.239399 0.239399
0.270344 0.270344 0.270344
0 0.386831 0
0.463722 0.379507 0
0.717174 0.392615 0.205463
0.398154 0.398154 0.398154
0.270344 0.270344 0.270344
0.438056 0.642237 0.438987
0.238499 0.827314 0
0.725689 0.723735 0.702342
0.758709 0.758709 0.758709
0.697658 0.697658 0.697658
0.80766 0.80766 0.80766
0.807034 0.807034 0.807034
0.878889 0.878889 0.878889
0.919951 0.919951 0.919951
0.921431 0.921431 0.921431
0.868345 0.868345 0.868345
0.868345 0.868345 0.868345
0.868345 0.868345 0.868345
0.964004 0.964004 0.964004
0.98056 0.98056 0.98056
0 0 0.438056
0.359213 0 0.438056
0.619455 0.00799573 0.270573
0.253239 0.253239 0.253239
0.270344 0.270344 0.270344
0 0.354528 0.372549
0.345388 0.348226 0.350027
0.996689 0.289601 0.243839
0.347646 0.347646 0.347646
0.270344 0.270344 0.270344
0.374258 0.657954 0.375555
0.160388 0.789517 0.06009
0.733166 0.721553 0.545922
0.752361 0.752361 0.752361
0.688807 0.688807 0.688807
0.806653 0.806653 0.806653
0.806027 0.806027 0.806027
0.874357 0.874357 0.874357
0.918807 0.918807 0.918807
0.92047 0.92047 0.92047
0.868345 0.868345 0.868345
0.868345 0.868345 0.868345
0.868345 0.868345 0.868345
0.963149 0.963149 0.963149
0.98056 0.98056 0.98056
0 0 0
0 0 0
0.176516 0.176516 0.176516
0.313237 0.313237 0.313237
0.328161 0.328161 0.328161
0.0831617 0.2374 0.612741
0.0698711 0.209445 0.602136
0.912337 0.147021 0.976822
0.308141 0.308141 0.308141
0.322332 0.322332 0.322332
0.304006 0.685084 0.693721
0.24918 0.692958 0.701289
0.710521 0.71516 0.718593
1 0.666575 0.635203
0.9552 0.617365 0.488716
0.814282 0.814282 0.814282
0.812421 0.812421 0.812421
0.86331 0.86331 0.86331
0.915145 0.915145 0.915145
0.918013 0.918013 0.918013
0.868345 0.868345 0.868345
0.868345 0.868345 0.868345
0.868345 0.868345 0.868345
0.960311 0.960311 0.960311
0.98056 0.98056 0.98056
0 0 0
0 0 0
0.115251 0.115251 0.115251
0.341405 0.341405 0.341405
0.383764 0.383764 0.383764
0 0 0
0 0 0
0.103349 0.103349 0.103349
0.339345 0.339345 0.339345
0.382971 0.382971 0.382971
0.581308 0.581308 0.581308
0.575906 0.575906 0.575906
0.274006 0.674083 1
1 0.57792 1
1 0.490745 0.979217
0.836851 0.836851 0.836851
0.83624 0.83624 0.83624
0.834363 0.834363 0.834363
0.927642 0.93167 0.936065
1 0.903105 0.892485
0.885512 0.885512 0.885512
0.885176 0.885176 0.885176
0.88426 0.88426 0.88426
0.794842 1 0.313512
0.98056 0.98056 0.98056
0 0 0
0 0 0
0 0 0
0.254093 0.254093 0.254093
0.397253 0.397253 0.397253
0 0 0
0 0 0
0 0 0
0.248814 0.248814 0.248814
0.397253 0.397253 0.397253
0.353079 0.353079 0.353079
0.337041 0.337041 0.337041
0.288396 0.288396 0.288396
0.329992 0.329992 0.329992
0.397253 0.397253 0.397253
0.82118 0.82118 0.82118
0.820127 0.820127 0.820127
0.817258 0.817258 0.817258
0.543008 0.946761 1
1 0.848203 1
0.903655 0.903655 0.903655
0.903655 0.903655 0.903655
0.903655 0.903655 0.903655
0.903655 0.903655 0.903655
1 1 1
