src/luts/23.cube
TITLE "Generated by Resolve"
LUT_3D_SIZE 33
0 0 0
0 0 0
0 0 0
0.00579843 0 0
0.104082 0 0
0.201419 0 0
0.295583 0 0
0.380072 0 0
0.460349 0 0
0.541253 0 0
0.612604 0 0
0.67924 0 0
0.671641 0 0
0.518212 0 0
0.228153 0.0607767 0.0607767
0.113344 0.113344 0.113344
0.130632 0.130632 0.130632
0.149279 0.149279 0.149279
0.168994 0.168994 0.168994
0.184558 0.184558 0.184558
0.198245 0.198245 0.198245
0.21001 0.21001 0.21001
0.220813 0.220813 0.220813
0.230518 0.230518 0.230518
0.239399 0.239399 0.239399
0.247761 0.247761 0.247761
0.256062 0.256062 0.256062
0.263539 0.263539 0.263539
0.270344 0.270344 0.270344
0.270344 0.270344 0.270344
0.270344 0.270344 0.270344
0.270344 0.270344 0.270344
0.270344 0.270344 0.270344
0 0 0
0 0 0
0 0 0
0.00355535 0 0
0.102007 0 0
0.199527 0 0
0.294041 0 0
0.378851 0 0
0.459266 0 0
0.540368 0 0
0.611856 0 0
0.678859 0 0
0.672251 0 0
0.519966 0 0
0.229603 0.0602579 0.0602579
0.113252 0.113252 0.113252
0.130541 0.130541 0.130541
0.149187 0.149187 0.149187
0.168917 0.168917 0.168917
0.184512 0.184512 0.184512
0.198199 0.198199 0.198199
0.209979 0.209979 0.209979
0.220798 0.220798 0.220798
0.230488 0.230488 0.230488
0.239384 0.239384 0.239384
0.24773 0.24773 0.24773
0.256062 0.256062 0.256062
0.263523 0.263523 0.263523
0.270344 0.270344 0.270344
0.270344 0.270344 0.270344
0.270344 0.270344 0.270344
0.270344 0.270344 0.270344
0.270344 0.270344 0.270344
0 0 0
0 0 0
0 0 0
0.00514229 0 0
0.101061 0 0
0.198337 0 0
0.293568 0 0
0.37937 0 0
0.460197 0 0
0.535073 0 0
0.607538 0 0
0.675944 0 0
0.675914 0 0
0.529824 0 0
0.241291 0.0562448 0.0562448
0.112612 0.112612 0.112612
0.129946 0.129946 0.129946
0.148638 0.148638 0.148638
0.168383 0.168383 0.168383
0.184253 0.184253 0.184253
0.197955 0.197955 0.197955
0.209796 0.209796 0.209796
0.220676 0.220676 0.220676
0.230365 0.230365 0.230365
0.239277 0.239277 0.239277
0.247654 0.247654 0.247654
0.255985 0.255985 0.255985
0.263462 0.263462 0.263462
0.270344 0.270344 0.270344
0.270344 0.270344 0.270344
0.270344 0.270344 0.270344
0.270344 0.270344 0.270344
0.270344 0.270344 0.270344
0 0 0
0 0 0
0 0 0
0.0171054 0 0
0.122881 0 0
0.223682 0 0
0.320119 0 0
0.406378 0 0
0.484199 0 0
0.555993 0 0
0.623331 0 0
0.688579 0 0
0.721584 0 0
0.604578 0 0
0.298833 0.0555276 0.0527962
0.111986 0.111986 0.111986
0.129351 0.129351 0.129351
0.148089 0.148089 0.148089
0.167834 0.167834 0.167834
0.184009 0.184009 0.184009
0.197696 0.197696 0.197696
0.209583 0.209583 0.209583
0.220554 0.220554 0.220554
0.230228 0.230228 0.230228
0.239185 0.239185 0.239185
0.247562 0.247562 0.247562
0.255909 0.255909 0.255909
0.263386 0.263386 0.263386
0.270344 0.270344 0.270344
0.270344 0.270344 0.270344
0.270344 0.270344 0.270344
0.270344 0.270344 0.270344
0.270344 0.270344 0.270344
0 0.075639 0
0 0.0747234 0
0 0.0734417 0
0.0357671 0.0774701 0
0.130297 0.0780804 0
0.229389 0.0715038 0
0.327001 0.0609903 0
0.414969 0.0507515 0
0.494301 0.0410925 0
0.567987 0.0320439 0
0.636576 0.0225681 0
0.703655 0.013077 0
0.765026 0.00340276 0
0.736049 0.0166629 0
0.531212 0.0741283 0.0407568
0.201907 0.16492 0.162676
0.174807 0.174807 0.174807
0.175601 0.175601 0.175601
0.174853 0.174853 0.174853
0.183749 0.183749 0.183749
0.197436 0.197436 0.197436
0.209384 0.209384 0.209384
0.220432 0.220432 0.220432
0.230091 0.230091 0.230091
0.239063 0.239063 0.239063
0.247471 0.247471 0.247471
0.255818 0.255818 0.255818
0.263325 0.263325 0.263325
0.270344 0.270344 0.270344
0.270344 0.270344 0.270344
0.270344 0.270344 0.270344
0.270344 0.270344 0.270344
0.270344 0.270344 0.270344
0 0.160678 0
0 0.160143 0
0 0.15787 0
0.0297856 0.161486 0
0.125017 0.164126 0
0.227115 0.15993 0
0.329122 0.151659 0
0.421347 0.143008 0
0.504326 0.135134 0
0.581247 0.127169 0
0.652873 0.119448 0
0.720897 0.110384 0
0.78616 0.100053 0
0.822812 0.0962387 0
0.7308 0.123186 0.024979
0.465095 0.193835 0.15671
0.251392 0.251392 0.251392
0.252216 0.252216 0.252216
0.25156 0.25156 0.25156
0.243305 0.243305 0.243305
0.229252 0.229252 0.229252
0.209415 0.209415 0.209415
0.220233 0.220233 0.220233
0.229953 0.229953 0.229953
0.238941 0.238941 0.238941
0.247379 0.247379 0.247379
0.255741 0.255741 0.255741
0.263249 0.263249 0.263249
0.270344 0.270344 0.270344
0.270344 0.270344 0.270344
0.270344 0.270344 0.270344
0.270344 0.270344 0.270344
0.270344 0.270344 0.270344
0 0.236622 0
0 0.236088 0
0 0.232959 0
0.0100404 0.239063 0
0.106966 0.244511 0
0.213077 0.244251 0
0.318776 0.237888 0
0.415808 0.230549 0
0.501457 0.224277 0
0.58146 0.217929 0
0.655253 0.211704 0
0.726696 0.205264 0
0.794858 0.198276 0
0.85716 0.191119 0
0.846036 0.199451 0.00660716
0.699733 0.239857 0.122942
0.412222 0.314 0.290898
0.334585 0.334585 0.334585
0.333898 0.333898 0.333898
0.32697 0.32697 0.32697
0.313848 0.313848 0.313848
0.295201 0.295201 0.295201
0.271 0.271 0.271
0.240406 0.240406 0.240406
0.238788 0.238788 0.238788
0.247288 0.247288 0.247288
0.255634 0.255634 0.255634
0.263172 0.263172 0.263172
0.270344 0.270344 0.270344
0.270344 0.270344 0.270344
0.270344 0.270344 0.270344
0.270344 0.270344 0.270344
0.270344 0.270344 0.270344
0 0.312474 0
0 0.311955 0
0 0.308721 0
0 0.315801 0
0.0813001 0.322606 0
0.190188 0.325154 0
0.297276 0.319203 0
0.396475 0.312245 0
0.485252 0.306065 0
0.566049 0.299611 0
0.641306 0.293797 0
0.713741 0.287739 0
0.783169 0.281392 0
0.849699 0.274693 0
0.87953 0.274937 0
0.809949 0.296773 0.0823224
0.610239 0.349294 0.248966
0.404013 0.404013 0.404013
0.408255 0.408255 0.408255
0.40679 0.40679 0.40679
0.39881 0.39881 0.39881
0.383307 0.383307 0.383307
0.361791 0.361791 0.361791
0.334295 0.334295 0.334295
0.300221 0.300221 0.300221
0.258991 0.258991 0.258991
0.255528 0.255528 0.255528
0.263066 0.263066 0.263066
0.270344 0.270344 0.270344
0.270344 0.270344 0.270344
0.270344 0.270344 0.270344
0.270344 0.270344 0.270344
0.270344 0.270344 0.270344
0 0.386831 0
0 0.386404 0
0 0.383673 0
0 0.388479 0
0.0545815 0.39588 0
0.163775 0.399207 0
0.271122 0.393912 0
0.373312 0.386206 0
0.463722 0.379507 0
0.544564 0.372778 0
0.620798 0.366918 0
0.693309 0.361151 0
0.763699 0.354925 0
0.830823 0.348806 0
0.876326 0.346197 0
0.847166 0.358343 0.0470436
0.717174 0.392615 0.205463
0.502541 0.445731 0.415961
0.462501 0.462501 0.462501
0.46482 0.46482 0.46482
0.462593 0.462593 0.462593
0.45626 0.45626 0.45626
0.444892 0.444892 0.444892
0.426657 0.426657 0.426657
0.398154 0.398154 0.398154
0.36202 0.36202 0.36202
0.317143 0.317143 0.317143
0.262974 0.262974 0.262974
0.270344 0.270344 0.270344
0.270344 0.270344 0.270344
0.270344 0.270344 0.270344
0.270344 0.270344 0.270344
0.270344 0.270344 0.270344
0 0.457115 0
0 0.456809 0
0 0.454749 0
0 0.456794 0
0.0270085 0.463706 0
0.135973 0.467063 0
0.243336 0.462196 0
0.348013 0.454139 0
0.440558 0.446342 0
0.523003 0.439506 0
0.599954 0.433371 0
0.672572 0.4271 0
0.743252 0.420844 0
0.810376 0.414755 0
0.860319 0.411032 0
0.850767 0.417868 0.0259098
0.760784 0.441108 0.181827
0.586786 0.481834 0.4056
0.506416 0.506416 0.506416
0.510857 0.510857 0.510857
0.51136 0.51136 0.51136
0.508507 0.508507 0.508507
0.502831 0.502831 0.502831
0.493309 0.493309 0.493309
0.479088 0.479088 0.479088
0.457877 0.457877 0.457877
0.423682 0.423682 0.423682
0.376287 0.376287 0.376287
0.31725 0.31725 0.31725
0.270344 0.270344 0.270344
0.270344 0.270344 0.270344
0.270344 0.270344 0.270344
0.270344 0.270344 0.270344
0 0.523583 0
0 0.523323 0
0 0.521416 0
0 0.520562 0
0 0.526848 0
0.104891 0.530312 0
0.213947 0.526192 0
0.320562 0.517372 0
0.415793 0.508476 0
0.500328 0.501015 0
0.578088 0.493996 0
0.651209 0.487648 0
0.722118 0.480781 0
0.790143 0.474525 0
0.840467 0.470497 0
0.840909 0.474098 0.0193179
0.774914 0.490211 0.178653
0.635554 0.520546 0.409567
0.545419 0.545419 0.545419
0.550622 0.550622 0.550622
0.552758 0.552758 0.552758
0.552041 0.552041 0.552041
0.548714 0.548714 0.548714
0.543175 0.543175 0.543175
0.534493 0.534493 0.534493
0.522133 0.522133 0.522133
0.504555 0.504555 0.504555
0.478752 0.478752 0.478752
0.436164 0.436164 0.436164
0.368124 0.368124 0.368124
0.282078 0.282078 0.282078
0.270344 0.270344 0.270344
0.270344 0.270344 0.270344
0 0.58613 0
0 0.58587 0
0 0.584268 0
0 0.582773 0
0 0.586816 0
0.0688792 0.589883 0
0.180941 0.58648 0
0.29012 0.577127 0
0.388769 0.567117 0
0.475624 0.558694 0
0.554681 0.55108 0
0.628946 0.544137 0
0.700603 0.537118 0
0.769574 0.530556 0
0.818235 0.525994 0
0.824308 0.527199 0.0272526
0.772534 0.538399 0.196414
0.65864 0.560647 0.437308
0.581369 0.581369 0.581369
0.587945 0.587945 0.587945
0.59086 0.59086 0.59086
0.591577 0.591577 0.591577
0.590021 0.590021 0.590021
0.58677 0.58677 0.58677
0.580789 0.580789 0.580789
0.572396 0.572396 0.572396
0.560739 0.560739 0.560739
0.544808 0.544808 0.544808
0.522347 0.522347 0.522347
0.484581 0.484581 0.484581
0.421698 0.421698 0.421698
0.331701 0.331701 0.331701
0.270344 0.270344 0.270344
0 0.645579 0
0 0.64535 0
0 0.644221 0
0 0.642985 0
0 0.644068 0
0.0301976 0.646906 0
0.144488 0.644022 0
0.255787 0.634318 0
0.358465 0.623499 0
0.448875 0.613947 0
0.530465 0.605936 0
0.605814 0.598398 0
0.678691 0.591348 0
0.747738 0.584573 0
0.795422 0.578988 0
0.80502 0.577798 0.0510109
0.762982 0.584665 0.236194
0.67013 0.600214 0.486107
0.616159 0.616159 0.616159
0.623102 0.623102 0.623102
0.626932 0.626932 0.626932
0.628626 0.628626 0.628626
0.628351 0.628351 0.628351
0.626291 0.626291 0.626291
0.622431 0.622431 0.622431
0.616556 0.616556 0.616556
0.60824 0.60824 0.60824
0.596948 0.596948 0.596948
0.581628 0.581628 0.581628
0.556344 0.556344 0.556344
0.522789 0.522789 0.522789
0.47274 0.47274 0.47274
0.383658 0.383658 0.383658
0 0.701518 0
0 0.701366 0
0 0.700465 0
0 0.699672 0
0 0.698802 0
0 0.70193 0
0.102373 0.699733 0
0.216205 0.690471 0
0.324346 0.679149 0
0.418997 0.668589 0
0.503609 0.660197 0
0.581048 0.652522 0
0.65565 0.64509 0
0.723415 0.637201 0
0.770886 0.629709 0
0.783093 0.625696 0.0968795
0.749691 0.628107 0.303517
0.675074 0.637827 0.558556
0.649302 0.649302 0.649302
0.656641 0.656641 0.656641
0.661234 0.661234 0.661234
0.66331 0.66331 0.66331
0.663798 0.663798 0.663798
0.663035 0.663035 0.663035
0.6607 0.6607 0.6607
0.656382 0.656382 0.656382
0.650492 0.650492 0.650492
0.642283 0.642283 0.642283
0.631373 0.631373 0.631373
0.612543 0.612543 0.612543
0.58851 0.58851 0.58851
0.556878 0.556878 0.556878
0.513191 0.513191 0.513191
0 0.729397 0
0 0.729381 0
0 0.729198 0
0 0.728969 0
0 0.728817 0
0 0.746807 0
0.0534676 0.754147 0
0.172915 0.746868 0
0.285969 0.734829 0
0.386114 0.723491 0
0.474968 0.714336 0
0.554421 0.706401 0
0.630594 0.697246 0
0.698863 0.686671 0
0.746059 0.676341 0.013077
0.761135 0.669291 0.173907
0.73431 0.666789 0.410025
0.678904 0.671702 0.651377
0.68101 0.68101 0.68101
0.688685 0.688685 0.688685
0.693446 0.693446 0.693446
0.696117 0.696117 0.696117
0.697398 0.697398 0.697398
0.697276 0.697276 0.697276
0.695781 0.695781 0.695781
0.693095 0.693095 0.693095
0.688807 0.688807 0.688807
0.682933 0.682933 0.682933
0.674861 0.674861 0.674861
0.660319 0.660319 0.660319
0.641917 0.641917 0.641917
0.618891 0.618891 0.618891
0.588922 0.588922 0.588922
0.135668 0.711147 0.137926
0.135042 0.711284 0.137316
0.13138 0.712108 0.133654
0.127626 0.712871 0.129931
0.124498 0.713268 0.126802
0.103471 0.726329 0.0965744
0.062562 0.782559 0
0.132998 0.798901 0
0.244877 0.790204 0
0.351019 0.778347 0
0.445686 0.767147 0
0.530831 0.756069 0
0.609552 0.743908 0
0.678019 0.729915 0
0.726497 0.716579 0.103929
0.743404 0.705486 0.296803
0.723674 0.698573 0.550439
0.702419 0.702419 0.702419
0.711284 0.711284 0.711284
0.719051 0.719051 0.719051
0.724041 0.724041 0.724041
0.727031 0.727031 0.727031
0.728557 0.728557 0.728557
0.729061 0.729061 0.729061
0.728389 0.728389 0.728389
0.726741 0.726741 0.726741
0.723842 0.723842 0.723842
0.719463 0.719463 0.719463
0.713481 0.713481 0.713481
0.702235 0.702235 0.702235
0.687816 0.687816 0.687816
0.670558 0.670558 0.670558
0.648173 0.648173 0.648173
0.438056 0.642237 0.438987
0.437293 0.64242 0.438224
0.433021 0.643366 0.433982
0.429023 0.644205 0.430014
0.424018 0.645441 0.42504
0.418341 0.646845 0.419394
0.270039 0.730358 0.235981
0.185336 0.80824 0.0371099
0.238499 0.827314 0
0.336172 0.820554 0
0.433066 0.808301 0
0.521553 0.794842 0
0.601328 0.780179 0
0.669825 0.763302 0.0915847
0.71812 0.746685 0.246387
0.735439 0.731289 0.475517
0.725689 0.723735 0.702342
0.731487 0.731487 0.731487
0.740093 0.740093 0.740093
0.747494 0.747494 0.747494
0.752773 0.752773 0.752773
0.755749 0.755749 0.755749
0.757809 0.757809 0.757809
0.75877 0.75877 0.75877
0.758709 0.758709 0.758709
0.757641 0.757641 0.757641
0.75552 0.75552 0.75552
0.752682 0.752682 0.752682
0.748089 0.748089 0.748089
0.739483 0.739483 0.739483
0.728054 0.728054 0.728054
0.714473 0.714473 0.714473
0.697658 0.697658 0.697658
0.621057 0.621057 0.621057
0.620981 0.620981 0.620981
0.620508 0.620508 0.620508
0.62002 0.62002 0.62002
0.619669 0.619669 0.619669
0.619257 0.619257 0.619257
0.622599 0.622599 0.622599
0.454658 0.72604 0.41033
0.339498 0.815274 0.155337
0.379095 0.833707 0.0610056
0.45919 0.828641 0.0466163
0.541543 0.816281 0.0774243
0.617304 0.800778 0.14667
0.682185 0.782803 0.267323
0.726192 0.763287 0.45594
0.744244 0.748257 0.671427
0.750515 0.750515 0.750515
0.758953 0.758953 0.758953
0.767071 0.767071 0.767071
0.774578 0.774578 0.774578
0.779644 0.779644 0.779644
0.782895 0.782895 0.782895
0.785016 0.785016 0.785016
0.786114 0.786114 0.786114
0.78648 0.78648 0.78648
0.786038 0.786038 0.786038
0.784863 0.784863 0.784863
0.782757 0.782757 0.782757
0.779614 0.779614 0.779614
0.772625 0.772625 0.772625
0.763699 0.763699 0.763699
0.753216 0.753216 0.753216
0.740093 0.740093 0.740093
0.657435 0.657435 0.657435
0.657359 0.657359 0.657359
0.657038 0.657038 0.657038
0.656733 0.656733 0.656733
0.656352 0.656352 0.656352
0.655879 0.655879 0.655879
0.655375 0.655375 0.655375
0.669825 0.669825 0.669825
0.614618 0.727184 0.583001
0.520195 0.801099 0.355413
0.545449 0.818387 0.283543
0.604349 0.814389 0.302861
0.665293 0.801694 0.382742
0.718318 0.785382 0.517357
0.754498 0.769924 0.685969
0.768856 0.768856 0.768856
0.776837 0.776837 0.776837
0.784802 0.784802 0.784802
0.792401 0.792401 0.792401
0.800061 0.800061 0.800061
0.8047 0.8047 0.8047
0.808209 0.808209 0.808209
0.810498 0.810498 0.810498
0.811688 0.811688 0.811688
0.81239 0.81239 0.81239
0.81236 0.81236 0.81236
0.811597 0.811597 0.811597
0.810407 0.810407 0.810407
0.808072 0.808072 0.808072
0.802655 0.802655 0.802655
0.795544 0.795544 0.795544
0.786984 0.786984 0.786984
0.776776 0.776776 0.776776
0.693324 0.693324 0.693324
0.693278 0.693278 0.693278
0.693004 0.693004 0.693004
0.692729 0.692729 0.692729
0.692393 0.692393 0.692393
0.691981 0.691981 0.691981
0.691539 0.691539 0.691539
0.692897 0.692897 0.692897
0.715404 0.715404 0.715404
0.734859 0.734859 0.734859
0.696712 0.774563 0.638453
0.710353 0.787839 0.621912
0.743114 0.786236 0.674327
0.77438 0.780499 0.761166
0.78613 0.78613 0.78613
0.794079 0.794079 0.794079
0.801816 0.801816 0.801816
0.809339 0.809339 0.809339
0.816587 0.816587 0.816587
0.823728 0.823728 0.823728
0.828611 0.828611 0.828611
0.831861 0.831861 0.831861
0.834287 0.834287 0.834287
0.835813 0.835813 0.835813
0.836744 0.836744 0.836744
0.837049 0.837049 0.837049
0.836713 0.836713 0.836713
0.835737 0.835737 0.835737
0.83418 0.83418 0.83418
0.829862 0.829862 0.829862
0.824186 0.824186 0.824186
0.817395 0.817395 0.817395
0.8094 0.8094 0.8094
0.72784 0.72784 0.72784
0.72781 0.72781 0.72781
0.72752 0.72752 0.72752
0.727214 0.727214 0.727214
0.726909 0.726909 0.726909
0.726558 0.726558 0.726558
0.726177 0.726177 0.726177
0.725734 0.725734 0.725734
0.73611 0.73611 0.73611
0.758129 0.758129 0.758129
0.773037 0.773037 0.773037
0.784161 0.784161 0.784161
0.793713 0.793713 0.793713
0.802457 0.802457 0.802457
0.810513 0.810513 0.810513
0.81799 0.81799 0.81799
0.825162 0.825162 0.825162
0.832258 0.832258 0.832258
0.8392 0.8392 0.8392
0.845853 0.845853 0.845853
0.851087 0.851087 0.851087
0.854353 0.854353 0.854353
0.856901 0.856901 0.856901
0.858274 0.858274 0.858274
0.859388 0.859388 0.859388
0.859922 0.859922 0.859922
0.859922 0.859922 0.859922
0.859358 0.859358 0.859358
0.858213 0.858213 0.858213
0.854994 0.854994 0.854994
0.850401 0.850401 0.850401
0.844862 0.844862 0.844862
0.838239 0.838239 0.838239
0.755764 0.755764 0.755764
0.755734 0.755734 0.755734
0.755535 0.755535 0.755535
0.755352 0.755352 0.755352
0.755154 0.755154 0.755154
0.75494 0.75494 0.75494
0.754711 0.754711 0.754711
0.754559 0.754559 0.754559
0.754376 0.754376 0.754376
0.773175 0.773175 0.773175
0.791867 0.791867 0.791867
0.804181 0.804181 0.804181
0.814023 0.814023 0.814023
0.822675 0.822675 0.822675
0.830747 0.830747 0.830747
0.838117 0.838117 0.838117
0.845365 0.845365 0.845365
0.852201 0.852201 0.852201
0.858976 0.858976 0.858976
0.86566 0.86566 0.86566
0.872206 0.872206 0.872206
0.8757 0.8757 0.8757
0.878111 0.878111 0.878111
0.879973 0.879973 0.879973
0.881041 0.881041 0.881041
0.881773 0.881773 0.881773
0.882017 0.882017 0.882017
0.881773 0.881773 0.881773
0.881041 0.881041 0.881041
0.87837 0.87837 0.87837
0.874571 0.874571 0.874571
0.869978 0.869978 0.869978
0.86453 0.86453 0.86453
0.776776 0.776776 0.776776
0.776745 0.776745 0.776745
0.776608 0.776608 0.776608
0.776486 0.776486 0.776486
0.776379 0.776379 0.776379
0.776272 0.776272 0.776272
0.776135 0.776135 0.776135
0.775998 0.775998 0.775998
0.775845 0.775845 0.775845
0.78024 0.78024 0.78024
0.802243 0.802243 0.802243
0.816953 0.816953 0.816953
0.827756 0.827756 0.827756
0.836789 0.836789 0.836789
0.844938 0.844938 0.844938
0.852308 0.852308 0.852308
0.859556 0.859556 0.859556
0.866545 0.866545 0.866545
0.873365 0.873365 0.873365
0.880064 0.880064 0.880064
0.88574 0.88574 0.88574
0.88983 0.88983 0.88983
0.892821 0.892821 0.892821
0.895323 0.895323 0.895323
0.897017 0.897017 0.897017
0.898405 0.898405 0.898405
0.899504 0.899504 0.899504
0.900206 0.900206 0.900206
0.900465 0.900465 0.900465
0.898939 0.898939 0.898939
0.897322 0.897322 0.897322
0.893599 0.893599 0.893599
0.889235 0.889235 0.889235
0.793561 0.793561 0.793561
0.793545 0.793545 0.793545
0.793454 0.793454 0.793454
0.793347 0.793347 0.793347
0.793256 0.793256 0.793256
0.793133 0.793133 0.793133
0.793027 0.793027 0.793027
0.792889 0.792889 0.792889
0.792721 0.792721 0.792721
0.792554 0.792554 0.792554
0.804532 0.804532 0.804532
0.824643 0.824643 0.824643
0.837186 0.837186 0.837186
0.846784 0.846784 0.846784
0.855421 0.855421 0.855421
0.863203 0.863203 0.863203
0.870451 0.870451 0.870451
0.877379 0.877379 0.877379
0.884215 0.884215 0.884215
0.890944 0.890944 0.890944
0.897124 0.897124 0.897124
0.901686 0.901686 0.901686
0.90483 0.90483 0.90483
0.907607 0.907607 0.907607
0.909499 0.909499 0.909499
0.911345 0.911345 0.911345
0.912825 0.912825 0.912825
0.913817 0.913817 0.913817
0.914656 0.914656 0.914656
0.914 0.914 0.914
0.912276 0.912276 0.912276
0.910002 0.910002 0.910002
0.907668 0.907668 0.907668
0.80766 0.80766 0.80766
0.807645 0.807645 0.807645
0.807584 0.807584 0.807584
0.807507 0.807507 0.807507
0.807431 0.807431 0.807431
0.807355 0.807355 0.807355
0.807263 0.807263 0.807263
0.807157 0.807157 0.807157
0.807034 0.807034 0.807034
0.806912 0.806912 0.806912
0.806745 0.806745 0.806745
0.826017 0.826017 0.826017
0.843061 0.843061 0.843061
0.854109 0.854109 0.854109
0.86331 0.86331 0.86331
0.871275 0.871275 0.871275
0.878889 0.878889 0.878889
0.885969 0.885969 0.885969
0.892973 0.892973 0.892973
0.89987 0.89987 0.89987
0.906706 0.906706 0.906706
0.911192 0.911192 0.911192
0.914809 0.914809 0.914809
0.917647 0.917647 0.917647
0.919951 0.919951 0.919951
0.92195 0.92195 0.92195
0.923598 0.923598 0.923598
0.92488 0.92488 0.92488
0.92607 0.92607 0.92607
0.925994 0.925994 0.925994
0.924651 0.924651 0.924651
0.92314 0.92314 0.92314
0.921431 0.921431 0.921431
0.81976 0.81976 0.81976
0.819745 0.819745 0.819745
0.819684 0.819684 0.819684
0.819638 0.819638 0.819638
0.819577 0.819577 0.819577
0.819516 0.819516 0.819516
0.81944 0.81944 0.81944
0.819364 0.819364 0.819364
0.819272 0.819272 0.819272
0.819165 0.819165 0.819165
0.819043 0.819043 0.819043
0.821607 0.821607 0.821607
0.8448 0.8448 0.8448
0.85864 0.85864 0.85864
0.868986 0.868986 0.868986
0.877668 0.877668 0.877668
0.885634 0.885634 0.885634
0.893034 0.893034 0.893034
0.900267 0.900267 0.900267
0.907317 0.907317 0.907317
0.914122 0.914122 0.914122
0.919432 0.919432 0.919432
0.923293 0.923293 0.923293
0.926375 0.926375 0.926375
0.928878 0.928878 0.928878
0.930983 0.930983 0.930983
0.932937 0.932937 0.932937
0.934447 0.934447 0.934447
0.935683 0.935683 0.935683
0.936049 0.936049 0.936049
0.935088 0.935088 0.935088
0.934066 0.934066 0.934066
0.932677 0.932677 0.932677
0.830579 0.830579 0.830579
0.830564 0.830564 0.830564
0.830518 0.830518 0.830518
0.830488 0.830488 0.830488
0.830427 0.830427 0.830427
0.830381 0.830381 0.830381
0.830335 0.830335 0.830335
0.830259 0.830259 0.830259
0.830198 0.830198 0.830198
0.830121 0.830121 0.830121
0.830014 0.830014 0.830014
0.829908 0.829908 0.829908
0.838697 0.838697 0.838697
0.860182 0.860182 0.860182
0.872694 0.872694 0.872694
0.882475 0.882475 0.882475
0.890929 0.890929 0.890929
0.898711 0.898711 0.898711
0.906233 0.906233 0.906233
0.91342 0.91342 0.91342
0.920531 0.920531 0.920531
0.926558 0.926558 0.926558
0.930694 0.930694 0.930694
0.934157 0.934157 0.934157
0.936751 0.936751 0.936751
0.939208 0.939208 0.939208
0.94107 0.94107 0.94107
0.942824 0.942824 0.942824
0.944442 0.944442 0.944442
0.94522 0.94522 0.94522
0.944366 0.944366 0.944366
0.943389 0.943389 0.943389
0.94226 0.94226 0.94226
0.840146 0.840146 0.840146
0.840146 0.840146 0.840146
0.840116 0.840116 0.840116
0.840101 0.840101 0.840101
0.84007 0.84007 0.84007
0.84004 0.84004 0.84004
0.839994 0.839994 0.839994
0.839963 0.839963 0.839963
0.839918 0.839918 0.839918
