src/luts/29.cube
LUT_3D_SIZE 16
0.025237 0.044061 0.068440
0.025237 0.044061 0.068440
0.025237 0.044061 0.068440
0.025988 0.044141 0.068493
0.032588 0.044732 0.068865
0.054429 0.045599 0.069212
0.100860 0.046892 0.069601
0.167285 0.046789 0.069233
0.246584 0.045847 0.068295
0.335420 0.043753 0.067372
0.441684 0.042350 0.067671
0.554743 0.042263 0.068343
0.678258 0.041891 0.068902
0.829421 0.041672 0.069024
0.944763 0.041672 0.068332
0.999422 0.041949 0.071270
0.025237 0.044061 0.068440
0.025237 0.044061 0.068440
0.025237 0.044061 0.068440
0.026341 0.044177 0.068515
0.033277 0.044762 0.068888
0.055808 0.045634 0.069220
0.102069 0.046910 0.069598
0.168422 0.046789 0.069217
0.247388 0.045838 0.068283
0.335971 0.043739 0.067372
0.442059 0.042359 0.067671
0.561802 0.042249 0.068391
0.713522 0.041849 0.068977
0.843131 0.041672 0.069014
0.948054 0.041672 0.068284
0.999541 0.041976 0.071539
0.025237 0.044061 0.068440
0.025237 0.044061 0.068440
0.025237 0.044061 0.068440
0.026523 0.044193 0.068528
0.033608 0.044787 0.068902
0.056445 0.045659 0.069220
0.102655 0.046910 0.069598
0.168966 0.046775 0.069208
0.247721 0.045826 0.068272
0.336258 0.043729 0.067372
0.450341 0.042348 0.067706
0.593269 0.042186 0.068585
0.726122 0.041842 0.068997
0.848027 0.041672 0.069003
0.949347 0.041672 0.068262
0.999516 0.041991 0.071670
0.025237 0.044061 0.068440
0.025237 0.044061 0.068440
0.025237 0.044061 0.068440
0.026645 0.044214 0.068540
0.033860 0.044797 0.068912
0.056960 0.045676 0.069220
0.103208 0.046922 0.069594
0.169523 0.046766 0.069208
0.249789 0.045779 0.068255
0.351035 0.043407 0.067376
0.490185 0.042347 0.067911
0.611514 0.042121 0.068683
0.733934 0.041803 0.069005
0.851564 0.041672 0.068991
0.950269 0.041672 0.068243
0.999558 0.042014 0.071775
0.024933 0.046131 0.068792
0.024819 0.046668 0.068852
0.024758 0.046919 0.068876
0.025598 0.046935 0.068835
0.035260 0.048140 0.069166
0.072255 0.049247 0.069630
0.125178 0.049023 0.069374
0.196205 0.048233 0.068620
0.280474 0.046780 0.067495
0.389821 0.043331 0.067289
0.527097 0.042323 0.068143
0.624269 0.042044 0.068736
0.740086 0.041791 0.069011
0.854241 0.041672 0.068991
0.951106 0.041672 0.068230
0.999565 0.042017 0.071859
0.023647 0.057672 0.069543
0.023551 0.058755 0.069571
0.023498 0.059258 0.069583
0.023952 0.059506 0.069605
0.028582 0.056441 0.069001
0.050591 0.057282 0.068859
0.115477 0.059361 0.068899
0.208480 0.058683 0.067810
0.306592 0.054449 0.066716
0.426174 0.046916 0.066751
0.556875 0.043662 0.068017
0.640455 0.041948 0.068801
0.747557 0.041761 0.069031
0.858016 0.041672 0.068977
0.952286 0.041672 0.068211
0.999595 0.042032 0.072003
0.022602 0.088177 0.069533
0.022575 0.089471 0.069521
0.022562 0.090078 0.069512
0.022624 0.090548 0.069546
0.023899 0.085494 0.069137
0.034041 0.081570 0.068649
0.078759 0.079244 0.068040
0.163368 0.080913 0.067289
0.272938 0.076898 0.066515
0.399144 0.064532 0.066410
0.538179 0.050962 0.066890
0.664891 0.043323 0.068423
0.756722 0.041734 0.069025
0.863663 0.041672 0.068963
0.954199 0.041672 0.068179
0.999598 0.042045 0.072217
0.022522 0.128241 0.068674
0.022521 0.129172 0.068655
0.022520 0.129600 0.068636
0.022530 0.130483 0.068757
0.022718 0.127989 0.068935
0.024605 0.122639 0.068464
0.049973 0.117598 0.067674
0.120628 0.111058 0.066908
0.231113 0.109019 0.066410
0.363245 0.104943 0.066376
0.518283 0.090019 0.066381
0.690606 0.062282 0.066644
0.771882 0.042282 0.068708
0.871522 0.041672 0.068949
0.957072 0.041672 0.068129
0.999555 0.042077 0.072572
0.022520 0.180879 0.067337
0.022520 0.181752 0.067314
0.022520 0.182178 0.067297
0.022520 0.181132 0.067355
0.022520 0.183003 0.067341
0.022686 0.176273 0.067200
0.027847 0.169871 0.066674
0.086174 0.162489 0.066395
0.184211 0.149474 0.066379
0.322629 0.150532 0.066376
0.503270 0.164304 0.066376
0.680838 0.157273 0.066376
0.791494 0.085399 0.066457
0.882226 0.041907 0.068653
0.961196 0.041672 0.068043
0.999611 0.042133 0.073146
0.022520 0.255406 0.066386
0.022520 0.256113 0.066386
0.022520 0.256367 0.066386
0.022520 0.248766 0.066396
0.022520 0.247513 0.066395
0.022520 0.244026 0.066386
0.022819 0.237024 0.066386
0.042478 0.231928 0.066376
0.154847 0.231552 0.066376
0.309092 0.228417 0.066376
0.481988 0.246374 0.066376
0.659485 0.259878 0.066376
0.804960 0.259081 0.066376
0.897638 0.163153 0.066380
0.965818 0.041775 0.067873
0.999710 0.042217 0.074052
0.022520 0.340617 0.066376
0.022520 0.338518 0.066376
0.022520 0.342869 0.066376
0.022520 0.356990 0.066376
0.022520 0.353275 0.066376
0.022520 0.351205 0.066376
0.022520 0.354405 0.066376
0.027059 0.353975 0.066376
0.135142 0.358670 0.066376
0.333682 0.357131 0.066376
0.469984 0.333335 0.066376
0.636170 0.347334 0.066376
0.787728 0.361222 0.066376
0.913007 0.363912 0.066376
0.974836 0.200925 0.066384
0.999756 0.042439 0.075037
0.022520 0.419086 0.066376
0.022520 0.419662 0.066376
0.022520 0.442949 0.066376
0.022520 0.459586 0.066376
0.022520 0.469141 0.066376
0.022520 0.478765 0.066376
0.022520 0.479013 0.066376
0.022645 0.516002 0.066376
0.084821 0.516911 0.066376
0.334577 0.514238 0.066376
0.527431 0.493348 0.066376
0.649342 0.458095 0.066376
0.782091 0.463659 0.066376
0.904570 0.474822 0.066376
0.990399 0.462961 0.066376
0.999789 0.043783 0.076532
0.022507 0.509429 0.066376
0.022507 0.533129 0.066376
0.022507 0.550741 0.066377
0.022507 0.559376 0.066378
0.022507 0.565310 0.066388
0.022507 0.572161 0.066388
0.022507 0.580796 0.066408
0.022507 0.589320 0.066409
0.027687 0.655206 0.066378
0.280836 0.675755 0.066377
0.569578 0.662985 0.066376
0.733036 0.620214 0.066377
0.834249 0.587966 0.066380
0.935575 0.584447 0.066398
0.991831 0.576502 0.066376
0.999657 0.468818 0.066552
0.022507 0.620115 0.066495
0.022507 0.649605 0.066611
0.022507 0.657028 0.066700
0.022507 0.661624 0.066760
0.022507 0.665070 0.066791
0.022507 0.669416 0.066816
0.022507 0.675564 0.066891
0.022507 0.683605 0.067059
0.022507 0.693867 0.067170
0.054152 0.782640 0.067442
0.477605 0.825029 0.067319
0.787731 0.796175 0.067144
0.934816 0.745875 0.067674
0.983644 0.713392 0.068332
0.993420 0.669052 0.066606
0.999612 0.669206 0.066376
0.022507 0.758614 0.068202
0.022507 0.767923 0.068643
0.022507 0.771152 0.068957
0.022507 0.773529 0.069197
0.022507 0.775428 0.069363
0.022507 0.778026 0.069605
0.022507 0.781922 0.069997
0.022507 0.787694 0.070614
0.022507 0.795497 0.071907
0.022507 0.804714 0.072968
0.031127 0.847091 0.072964
0.598129 0.918817 0.076945
0.926926 0.883465 0.074405
0.995291 0.849684 0.079996
0.998629 0.796114 0.072595
0.999520 0.753687 0.066376
0.022507 0.897339 0.066834
0.022507 0.899830 0.066979
0.022507 0.900869 0.067028
0.022507 0.901535 0.067051
0.022507 0.902377 0.067060
0.022507 0.903235 0.067083
0.022507 0.904878 0.067110
0.022507 0.907424 0.067303
0.022507 0.910650 0.067772
0.022507 0.914559 0.068170
0.022507 0.919337 0.068767
0.022508 0.922018 0.068352
0.318216 0.977424 0.080472
0.906567 0.942538 0.074920
0.995004 0.897546 0.067618
0.999261 0.836694 0.066376
0.025237 0.044061 0.068440
0.025237 0.044061 0.068440
0.025237 0.044061 0.068440
0.027309 0.044283 0.068587
0.034971 0.044864 0.068943
0.059353 0.045884 0.069257
0.105188 0.046924 0.069594
0.171107 0.046747 0.069194
0.249125 0.045805 0.068263
0.336347 0.043730 0.067364
0.436727 0.042350 0.067649
0.558373 0.042267 0.068367
0.687050 0.041888 0.068925
0.833920 0.041672 0.069011
0.945880 0.041672 0.068319
0.999472 0.041961 0.071319
0.025237 0.044061 0.068440
0.025237 0.044061 0.068440
0.025237 0.044061 0.068440
0.027892 0.044347 0.068621
0.036017 0.044925 0.068979
0.061663 0.046045 0.069275
0.107263 0.046941 0.069586
0.172901 0.046730 0.069178
0.249903 0.045794 0.068252
0.334439 0.043722 0.067450
0.444381 0.042338 0.067730
0.590358 0.042195 0.068562
0.726066 0.041829 0.068997
0.848104 0.041672 0.069002
0.949439 0.041672 0.068263
0.999521 0.041999 0.071673
0.025237 0.044061 0.068440
0.025237 0.044061 0.068440
0.025237 0.044061 0.068440
0.028078 0.044370 0.068638
0.036340 0.044944 0.068987
0.062190 0.046058 0.069280
0.107755 0.046956 0.069581
0.173434 0.046727 0.069177
0.251605 0.045726 0.068237
0.343670 0.043499 0.067484
0.466339 0.042375 0.067820
0.604314 0.042158 0.068648
0.732187 0.041816 0.069005
0.851054 0.041672 0.068991
0.950151 0.041672 0.068251
0.999553 0.042004 0.071770
0.025265 0.044701 0.068608
0.025131 0.045287 0.068676
0.025101 0.045460 0.068700
0.028366 0.045944 0.068910
0.041153 0.046866 0.069346
0.071314 0.047399 0.069497
0.120778 0.047836 0.069363
0.193128 0.047505 0.068777
0.276839 0.046293 0.067761
0.370136 0.043313 0.067455
0.484861 0.042371 0.067926
0.615081 0.042120 0.068707
0.737701 0.041791 0.069012
0.853747 0.041672 0.068991
0.950992 0.041672 0.068229
0.999560 0.042017 0.071860
0.024340 0.049548 0.069145
0.024251 0.050847 0.069240
0.024228 0.051137 0.069261
0.026160 0.050457 0.069029
0.034404 0.050620 0.068933
0.071994 0.052928 0.069378
0.139317 0.053828 0.069187
0.227494 0.052977 0.068029
0.309615 0.049437 0.067138
0.392214 0.044180 0.067271
0.498905 0.042476 0.067952
0.623428 0.042059 0.068730
0.742222 0.041791 0.069011
0.855974 0.041672 0.068977
0.951729 0.041672 0.068216
0.999590 0.042019 0.071946
0.023180 0.064382 0.069635
0.023066 0.066855 0.069644
0.023059 0.067392 0.069639
0.024252 0.065928 0.069511
0.029200 0.062489 0.068996
0.049639 0.061599 0.068663
0.110218 0.064939 0.068609
0.202696 0.065329 0.067600
0.317414 0.061949 0.066710
0.423467 0.049568 0.066756
0.518811 0.044064 0.067771
0.634145 0.042019 0.068773
0.748552 0.041760 0.069025
0.859239 0.041672 0.068977
0.952910 0.041672 0.068200
0.999617 0.042032 0.072072
0.022526 0.094938 0.069474
0.022540 0.097289 0.069438
0.022540 0.097735 0.069428
0.022723 0.096748 0.069403
0.024295 0.092211 0.069005
0.034878 0.088908 0.068511
0.080825 0.086411 0.067957
0.169968 0.090578 0.067255
0.302471 0.092188 0.066450
0.448230 0.082120 0.066409
0.549488 0.053381 0.066943
0.648885 0.043652 0.068332
0.757250 0.041732 0.069025
0.864399 0.041672 0.068959
0.954781 0.041672 0.068162
0.999609 0.042055 0.072295
0.022520 0.133657 0.068547
0.022520 0.135624 0.068546
0.022520 0.136201 0.068578
0.022524 0.139180 0.068853
0.022772 0.135759 0.068746
0.025048 0.132776 0.068270
0.058330 0.131451 0.067458
0.145800 0.130805 0.066730
0.282390 0.136408 0.066401
0.435736 0.137421 0.066377
0.584956 0.117938 0.066391
0.672309 0.060433 0.066775
0.768531 0.042527 0.068622
0.871979 0.041672 0.068946
0.957465 0.041672 0.068121
0.999557 0.042087 0.072635
0.022520 0.185788 0.067248
0.022520 0.185098 0.067801
0.022520 0.185635 0.067928
0.022520 0.200986 0.067796
0.022520 0.209283 0.067629
0.022793 0.208007 0.067238
0.034600 0.207412 0.066637
0.129431 0.208700 0.066396
0.260620 0.201213 0.066376
0.419981 0.205163 0.066377
0.578163 0.204954 0.066376
0.709533 0.178726 0.066376
0.784116 0.085623 0.066462
0.881509 0.041971 0.068556
0.961325 0.041672 0.068037
0.999624 0.042134 0.073195
0.022520 0.251794 0.066592
0.022520 0.247280 0.067251
0.022520 0.251036 0.067301
0.022520 0.268239 0.067110
0.022520 0.286067 0.066892
0.022520 0.308149 0.066598
0.023861 0.311890 0.066410
0.081424 0.311618 0.066376
0.254873 0.312938 0.066376
0.403982 0.289723 0.066376
0.567031 0.294868 0.066376
0.715271 0.293540 0.066376
0.820149 0.274214 0.066376
0.894210 0.164163 0.066378
0.965838 0.041796 0.067865
0.999717 0.042218 0.074077
0.022520 0.323394 0.066479
0.022520 0.321372 0.066807
0.022520 0.335766 0.066801
0.022520 0.352795 0.066761
0.022520 0.363241 0.066739
0.022520 0.382409 0.066730
0.022520 0.427439 0.066532
0.035385 0.444028 0.066396
0.196929 0.442636 0.066378
0.429698 0.433699 0.066391
0.563259 0.394953 0.066389
0.718498 0.398359 0.066387
0.830886 0.391257 0.066376
0.916733 0.369964 0.066376
0.974153 0.203974 0.066377
0.999757 0.042439 0.075051
0.022520 0.410187 0.066503
0.022520 0.422081 0.066859
0.022520 0.441941 0.066926
0.022520 0.454097 0.066972
0.022520 0.462384 0.066977
0.022520 0.471768 0.066994
0.022520 0.486568 0.066992
0.022957 0.552114 0.066661
0.127008 0.586238 0.066454
0.400670 0.578238 0.066444
0.609684 0.551567 0.066450
0.728686 0.509273 0.066384
0.858183 0.512530 0.066394
0.935449 0.498371 0.066422
0.989963 0.462188 0.066376
0.999780 0.043814 0.076491
0.022525 0.505161 0.066561
0.022507 0.541497 0.067139
0.022507 0.550929 0.067225
0.022507 0.557781 0.067268
0.022507 0.563111 0.067320
0.022507 0.569685 0.067395
0.022507 0.578029 0.067441
0.022507 0.588746 0.067457
0.028929 0.671148 0.067304
0.317162 0.720793 0.066934
0.616392 0.706846 0.066892
0.790355 0.659797 0.066919
0.893730 0.627076 0.067260
0.978869 0.627279 0.067426
0.994053 0.584651 0.066397
0.999651 0.469008 0.066552
0.022507 0.622979 0.067093
0.022507 0.652704 0.068210
0.022507 0.657245 0.068516
0.022507 0.661125 0.068757
0.022507 0.664369 0.068912
0.022507 0.668587 0.069122
0.022507 0.674508 0.069476
0.022507 0.682342 0.070517
0.022507 0.692523 0.071683
0.057241 0.791724 0.073082
0.494482 0.845985 0.070336
0.811640 0.817188 0.069767
0.954057 0.765496 0.071242
0.991729 0.734410 0.075102
0.997362 0.695742 0.068391
0.999620 0.670777 0.066376
0.022507 0.758751 0.070796
0.022507 0.769124 0.073636
0.022507 0.771252 0.074051
0.022507 0.773341 0.074366
0.022507 0.775087 0.074615
0.022507 0.777654 0.075065
0.022524 0.781437 0.076002
0.022520 0.787013 0.077713
0.022520 0.794764 0.079900
0.022520 0.803751 0.082909
0.031023 0.850513 0.080516
0.603558 0.923028 0.088392
0.927150 0.889068 0.084717
0.994631 0.857428 0.095271
0.999112 0.814579 0.083134
0.999530 0.754813 0.066376
0.022507 0.896586 0.067386
0.022507 0.899471 0.067643
0.022507 0.900255 0.067679
0.022507 0.900994 0.067695
0.022507 0.901487 0.067700
0.022507 0.902452 0.067792
0.022507 0.904178 0.067966
0.022507 0.906340 0.068392
0.022507 0.909469 0.068869
0.022507 0.913517 0.069326
0.022507 0.918174 0.070062
0.022508 0.920843 0.070697
0.317066 0.979907 0.094352
0.906522 0.948134 0.082905
0.995966 0.905248 0.069809
0.999269 0.837411 0.066376
0.025237 0.044061 0.068440
0.025237 0.044061 0.068440
0.025237 0.044061 0.068440
0.028006 0.044369 0.068629
0.036115 0.044942 0.068976
0.061705 0.046047 0.069277
0.107191 0.046947 0.069584
0.172729 0.046730 0.069177
0.248670 0.045820 0.068264
0.333639 0.043649 0.067600
0.439097 0.042326 0.067794
0.561691 0.042260 0.068428
0.692034 0.041869 0.068933
0.835970 0.041672 0.069011
0.946324 0.041672 0.068310
0.999488 0.041961 0.071354
0.025237 0.044061 0.068440
0.025237 0.044061 0.068440
0.025267 0.044061 0.068440
0.028553 0.044410 0.068665
0.037063 0.044991 0.069011
0.063308 0.046092 0.069281
0.108411 0.046957 0.069579
0.172459 0.046728 0.069231
0.247724 0.045731 0.068589
0.335910 0.043372 0.067998
0.450360 0.042277 0.068098
0.594769 0.042178 0.068696
0.727667 0.041822 0.068997
0.848887 0.041672 0.069002
0.949592 0.041672 0.068261
0.999528 0.041999 0.071698
0.025237 0.044061 0.068440
0.025250 0.044091 0.068446
0.025334 0.044153 0.068507
0.028861 0.044525 0.068768
0.037999 0.045136 0.069144
0.064902 0.046101 0.069562
0.111392 0.046955 0.069861
0.178860 0.046572 0.069681
0.263375 0.045510 0.069025
0.361243 0.042835 0.068390
0.479785 0.042222 0.068552
0.612500 0.042107 0.068955
0.736473 0.041803 0.069005
0.853032 0.041672 0.068991
0.950934 0.041672 0.068231
0.999554 0.042017 0.071839
0.025022 0.045770 0.068738
0.024865 0.046341 0.068835
0.024876 0.046708 0.068965
0.028488 0.046882 0.069011
0.044363 0.048684 0.069770
0.082129 0.049542 0.070141
0.136122 0.049466 0.070103
0.209956 0.048619 0.069689
0.294415 0.046729 0.068885
0.386538 0.043136 0.068350
0.491309 0.042218 0.068663
0.619478 0.042064 0.069032
0.740313 0.041791 0.069011
0.855081 0.041672 0.068991
0.951450 0.041672 0.068228
0.999578 0.042017 0.071912
0.024201 0.051548 0.069286
0.024104 0.052657 0.069382
0.024109 0.053596 0.069699
0.026909 0.053079 0.069580
0.036382 0.053224 0.069575
0.080057 0.057072 0.070156
0.156659 0.058279 0.070217
0.236440 0.054893 0.069452
0.319900 0.049512 0.068690
0.415489 0.044329 0.068203
0.509940 0.042631 0.068756
0.626216 0.042013 0.069107
0.744227 0.041776 0.069012
0.857225 0.041672 0.068977
0.952231 0.041672 0.068213
0.999601 0.042032 0.071994
0.023040 0.067927 0.069645
0.022987 0.070100 0.069772
0.022973 0.071814 0.070272
0.024464 0.074162 0.070561
0.030652 0.071936 0.070172
0.060911 0.072306 0.070049
0.138420 0.078331 0.070121
0.253645 0.079047 0.069132
0.351238 0.066200 0.067807
0.442234 0.049828 0.067662
0.542087 0.044440 0.068836
0.637978 0.042026 0.069219
0.750027 0.041751 0.069025
0.860360 0.041672 0.068976
0.953349 0.041672 0.068192
0.999633 0.042045 0.072118
0.022539 0.098294 0.069489
0.022542 0.099579 0.069924
0.022572 0.100859 0.070726
0.023030 0.111561 0.071338
0.024822 0.110737 0.071006
0.040652 0.109531 0.070448
0.108720 0.108504 0.069836
0.223443 0.114054 0.068721
0.362100 0.112070 0.067162
0.479984 0.087429 0.066956
0.570976 0.054607 0.068028
0.662093 0.044181 0.068906
0.758179 0.041735 0.069040
0.865231 0.041672 0.068964
0.955113 0.041672 0.068162
0.999623 0.042060 0.072334
0.022520 0.135785 0.069095
0.022520 0.134073 0.069871
0.022520 0.136965 0.070889
0.022521 0.157435 0.071400
0.022923 0.167383 0.071463
0.026813 0.165752 0.070595
0.079565 0.164879 0.069389
0.187814 0.159995 0.067972
0.334004 0.162729 0.066763
0.488898 0.158726 0.066640
0.612541 0.124479 0.066739
0.688275 0.062977 0.067405
0.771402 0.042993 0.068609
0.872540 0.041672 0.068942
0.957754 0.041672 0.068116
0.999568 0.042088 0.072684
0.022520 0.181140 0.068844
0.022520 0.179143 0.069730
0.022520 0.185112 0.070829
0.022520 0.208621 0.071013
0.022535 0.232219 0.070859
0.023158 0.245937 0.069956
0.041823 0.244398 0.068094
0.158235 0.243769 0.066952
0.303800 0.230405 0.066642
0.468572 0.229985 0.066587
0.623315 0.226573 0.066595
0.736605 0.189366 0.066468
0.785675 0.092653 0.066462
0.881866 0.042095 0.068422
0.961489 0.041672 0.068027
0.999633 0.042135 0.073253
0.022520 0.244424 0.068049
0.022520 0.242887 0.068918
0.022520 0.254456 0.070010
0.022520 0.268172 0.070004
0.022520 0.289927 0.069694
0.022531 0.325712 0.068795
0.024789 0.348928 0.067236
0.093499 0.348155 0.066457
0.289586 0.347887 0.066499
0.444339 0.316276 0.066634
0.607975 0.318219 0.066592
0.753499 0.315979 0.066520
0.843721 0.289969 0.066383
0.893902 0.172475 0.066377
0.965930 0.041828 0.067841
0.999719 0.042224 0.074125
0.022520 0.318279 0.067203
0.022520 0.318425 0.067838
0.022520 0.341297 0.068653
0.022520 0.352028 0.068707
0.022520 0.360845 0.068811
0.022520 0.384421 0.068710
0.022520 0.441423 0.067942
0.042263 0.476135 0.066710
0.221676 0.473211 0.066601
0.465481 0.462471 0.066666
0.597028 0.418110 0.066748
0.754282 0.420282 0.066516
0.866679 0.414370 0.066408
0.929554 0.381379 0.066376
0.974257 0.213352 0.066376
0.999758 0.042454 0.075083
0.022520 0.406798 0.067008
0.022520 0.422175 0.067605
0.022520 0.446309 0.068600
0.022520 0.454620 0.068754
0.022520 0.461772 0.068847
0.022520 0.470883 0.069010
0.022520 0.487636 0.069076
0.023320 0.563321 0.067685
0.149531 0.608705 0.067043
0.427352 0.600006 0.066790
0.637118 0.571431 0.066850
0.754273 0.527252 0.066836
0.887203 0.531161 0.066789
0.960458 0.519984 0.066671
0.990015 0.465155 0.066376
0.999780 0.044918 0.076437
0.022520 0.503356 0.067154
0.022525 0.541536 0.067751
0.022507 0.553659 0.068290
0.022507 0.558755 0.068409
0.022507 0.563434 0.068514
0.022507 0.569846 0.068683
0.022507 0.577937 0.069004
0.022507 0.588902 0.069314
0.031206 0.681875 0.069192
0.337353 0.735040 0.068067
0.634319 0.720192 0.067740
0.808185 0.671738 0.067796
0.910032 0.639719 0.068438
0.987515 0.642997 0.069232
0.995503 0.592339 0.066498
0.999649 0.474228 0.066537
0.022507 0.624261 0.067900
0.022507 0.652627 0.069330
0.022507 0.658858 0.070460
0.022507 0.661755 0.070616
0.022507 0.664672 0.070770
0.022507 0.668820 0.071193
0.022507 0.674615 0.072117
0.022511 0.682506 0.073434
0.022520 0.692498 0.075945
0.064326 0.800800 0.078623
0.506739 0.852613 0.072316
0.822064 0.823413 0.071577
0.958757 0.771724 0.073761
0.993454 0.741285 0.080012
0.998133 0.707595 0.070121
0.999617 0.672159 0.066376
0.022507 0.758887 0.072847
0.022524 0.768999 0.075565
0.022520 0.772026 0.077167
0.022520 0.773549 0.077515
0.022520 0.775367 0.077928
0.022520 0.777741 0.078702
0.022520 0.781584 0.080124
0.022520 0.787311 0.082515
0.022520 0.794866 0.086217
0.022520 0.803639 0.090062
0.036272 0.857084 0.086583
0.611476 0.923951 0.093732
0.928486 0.890689 0.089799
0.994239 0.859812 0.102661
0.999184 0.820210 0.089606
0.999528 0.755663 0.066376
0.022507 0.896354 0.067666
0.022507 0.899161 0.067854
0.022507 0.900130 0.067976
0.022507 0.900796 0.068021
0.022507 0.901418 0.068082
0.022507 0.902367 0.068194
0.022507 0.903783 0.068470
0.022507 0.906214 0.068878
0.022507 0.909253 0.069327
0.022507 0.913023 0.069966
0.022507 0.917772 0.070969
0.022516 0.920324 0.072147
0.332185 0.980214 0.101066
0.907421 0.949803 0.087293
0.996184 0.908193 0.071300
0.999277 0.837555 0.066376
0.025237 0.044061 0.068440
0.025302 0.044136 0.068593
0.025427 0.044249 0.068885
0.028488 0.044334 0.069074
0.036788 0.044849 0.069285
0.062315 0.045928 0.069638
0.106905 0.046869 0.069866
0.170571 0.046620 0.069670
0.247358 0.045610 0.069056
0.336283 0.043194 0.068322
0.442473 0.042224 0.068293
0.564422 0.042241 0.068693
0.696569 0.041853 0.068943
0.837450 0.041672 0.069029
0.946613 0.041672 0.068303
0.999508 0.041961 0.071383
0.025429 0.044250 0.068902
0.025575 0.044395 0.069738
0.025670 0.044455 0.070076
0.028906 0.044275 0.070074
0.037302 0.044657 0.070046
0.063229 0.045682 0.070427
0.107823 0.046620 0.070588
0.172165 0.046392 0.070336
0.249050 0.045393 0.069644
0.339718 0.042950 0.068739
0.457272 0.042148 0.068686
0.598782 0.042108 0.069155
0.729505 0.041818 0.068997
0.849702 0.041672 0.069000
0.949840 0.041672 0.068254
0.999538 0.041999 0.071723
0.025515 0.044356 0.069386
0.025621 0.044567 0.070318
0.025768 0.044779 0.070853
0.029246 0.044561 0.070736
0.038664 0.045006 0.070821
0.066255 0.045790 0.071118
0.113683 0.046575 0.071229
0.185109 0.046335 0.070876
0.269734 0.045227 0.070077
0.366941 0.042569 0.069118
0.482786 0.042044 0.069122
0.614471 0.042043 0.069512
0.737502 0.041791 0.069043
0.853693 0.041672 0.068991
0.950986 0.041672 0.068229
0.999557 0.042017 0.071863
0.024544 0.046509 0.069795
0.024289 0.046869 0.070584
0.024344 0.047217 0.071069
0.030095 0.049391 0.072927
0.045602 0.049643 0.072901
0.085099 0.050084 0.072807
0.144862 0.050126 0.072453
0.224348 0.048962 0.071557
0.308965 0.046674 0.070452
0.400818 0.043022 0.069299
0.499277 0.042033 0.069530
0.623298 0.041945 0.069864
0.742777 0.041776 0.069165
0.856335 0.041672 0.068977
0.951934 0.041672 0.068216
0.999595 0.042032 0.071950
0.023874 0.052715 0.070432
0.023713 0.052948 0.071200
0.023712 0.053446 0.071823
0.027839 0.060000 0.074557
0.041996 0.059946 0.074417
0.096838 0.062341 0.074696
0.165977 0.059133 0.073521
0.251956 0.055490 0.072031
0.339858 0.049635 0.070329
0.431064 0.044655 0.069187
0.521717 0.042798 0.069741
0.629210 0.041903 0.069957
0.746092 0.041761 0.069198
0.858232 0.041672 0.068977
0.952618 0.041672 0.068210
0.999604 0.042032 0.072035
0.022903 0.069231 0.070924
0.022861 0.069233 0.071740
0.022907 0.070440 0.072538
0.024838 0.085794 0.075702
0.031518 0.086704 0.075447
0.071862 0.085841 0.074996
0.168241 0.089963 0.074533
0.275027 0.084163 0.072837
0.366414 0.067378 0.070020
0.465221 0.050773 0.069004
0.561679 0.044989 0.070021
0.643769 0.042035 0.070098
0.751774 0.041749 0.069255
0.861456 0.041672 0.068969
0.953738 0.041672 0.068182
0.999585 0.042045 0.072164
0.022540 0.097043 0.071243
0.022526 0.096583 0.072064
0.022572 0.099027 0.073011
0.023371 0.119378 0.076069
0.025538 0.130138 0.076737
0.042155 0.128079 0.075155
0.127525 0.126441 0.074088
0.257178 0.129617 0.072168
0.396904 0.123314 0.069301
0.498956 0.089295 0.068129
0.592318 0.056421 0.069202
0.681439 0.044696 0.069884
0.759375 0.041720 0.069328
0.866220 0.041672 0.068964
0.955513 0.041672 0.068155
0.999637 0.042060 0.072383
0.022520 0.130193 0.071253
0.022520 0.129344 0.072136
0.022520 0.134985 0.073190
0.022594 0.161014 0.075621
0.023305 0.183219 0.076835
0.028480 0.189060 0.075609
0.088724 0.187658 0.073316
0.214393 0.180445 0.070927
