src/luts/29.cube
LUT_3D_SIZE 6
0.025237 0.044061 0.068440
0.025988 0.044141 0.068493
0.100860 0.046892 0.069601
0.335420 0.043753 0.067372
0.678258 0.041891 0.068902
0.999422 0.041949 0.071270
0.025237 0.044061 0.068440
0.026645 0.044214 0.068540
0.103208 0.046922 0.069594
0.351035 0.043407 0.067376
0.733934 0.041803 0.069005
0.999558 0.042014 0.071775
0.022602 0.088177 0.069533
0.022624 0.090548 0.069546
0.078759 0.079244 0.068040
0.399144 0.064532 0.066410
0.756722 0.041734 0.069025
0.999598 0.042045 0.072217
0.022520 0.255406 0.066386
0.022520 0.248766 0.066396
0.022819 0.237024 0.066386
0.309092 0.228417 0.066376
0.804960 0.259081 0.066376
0.999710 0.042217 0.074052
0.022507 0.509429 0.066376
0.022507 0.559376 0.066378
0.022507 0.580796 0.066408
0.280836 0.675755 0.066377
0.834249 0.587966 0.066380
0.999657 0.468818 0.066552
0.022507 0.897339 0.066834
0.022507 0.901535 0.067051
0.022507 0.904878 0.067110
0.022507 0.914559 0.068170
0.318216 0.977424 0.080472
0.999261 0.836694 0.066376
0.025237 0.044061 0.068440
0.028488 0.044334 0.069074
0.106905 0.046869 0.069866
0.336283 0.043194 0.068322
0.696569 0.041853 0.068943
0.999508 0.041961 0.071383
0.024544 0.046509 0.069795
0.030095 0.049391 0.072927
0.144862 0.050126 0.072453
0.400818 0.043022 0.069299
0.742777 0.041776 0.069165
0.999595 0.042032 0.071950
0.022540 0.097043 0.071243
0.023371 0.119378 0.076069
0.127525 0.126441 0.074088
0.498956 0.089295 0.068129
0.759375 0.041720 0.069328
0.999637 0.042060 0.072383
0.022520 0.240284 0.070237
0.022520 0.271073 0.073550
0.025920 0.372738 0.069943
0.470066 0.335390 0.067456
0.864734 0.304401 0.066457
0.999727 0.042225 0.074174
0.022520 0.502110 0.067739
0.022520 0.559773 0.070182
0.022520 0.578224 0.071031
0.357164 0.744406 0.069311
0.918271 0.647233 0.069830
0.999688 0.480514 0.066517
0.022507 0.896111 0.067892
0.022507 0.900699 0.068320
0.022507 0.903868 0.068885
0.022507 0.912965 0.070634
0.351450 0.980119 0.105594
0.999284 0.837888 0.066376
0.025233 0.044729 0.108668
0.027282 0.044270 0.108746
0.099232 0.043180 0.104227
0.347351 0.041685 0.077930
0.713546 0.041735 0.071689
0.999534 0.041976 0.071513
0.023738 0.049317 0.109778
0.028550 0.055911 0.138737
0.138403 0.053327 0.136531
0.412847 0.042046 0.093112
0.741965 0.041672 0.074405
0.999615 0.042032 0.072070
0.022564 0.085809 0.102639
0.023593 0.111628 0.128768
0.111705 0.168708 0.169726
0.542706 0.099181 0.113330
0.760675 0.041694 0.080621
0.999545 0.042078 0.072535
0.022520 0.226742 0.090801
0.022520 0.264555 0.108850
0.027425 0.399778 0.145262
0.540085 0.409132 0.106171
0.933264 0.348842 0.077321
0.999713 0.042238 0.074280
0.022520 0.496337 0.076485
0.022520 0.554924 0.093108
0.022520 0.572759 0.107824
0.396446 0.784432 0.110175
0.942311 0.679425 0.098064
0.999685 0.489851 0.066499
0.022507 0.895232 0.069167
0.022507 0.899173 0.070693
0.022507 0.902374 0.072156
0.022520 0.910640 0.076491
0.379520 0.980242 0.129567
0.999304 0.839001 0.066376
0.023011 0.044192 0.227322
0.029397 0.045044 0.261816
0.055325 0.043687 0.250132
0.374400 0.041716 0.232179
0.710490 0.041691 0.186990
0.999633 0.042045 0.072158
0.022602 0.062922 0.214777
0.028075 0.094164 0.294063
0.077633 0.107158 0.335307
0.505385 0.049743 0.305885
0.722951 0.041691 0.200039
0.999567 0.042087 0.072609
0.022580 0.090368 0.208105
0.024774 0.133722 0.286612
0.082153 0.189499 0.358888
0.560456 0.135011 0.350467
0.816975 0.041860 0.241175
0.999601 0.042120 0.073032
0.022553 0.195422 0.198576
0.022541 0.256913 0.256450
0.034126 0.356702 0.344010
0.522722 0.483599 0.381415
0.933833 0.354469 0.297437
0.999714 0.042246 0.074312
0.022520 0.494325 0.194192
0.022520 0.534581 0.231505
0.022520 0.549377 0.254557
0.273552 0.780470 0.337620
0.932718 0.725200 0.323297
0.999652 0.454728 0.066601
0.022520 0.888381 0.116285
0.022520 0.890909 0.129285
0.022520 0.893003 0.143991
0.022520 0.900665 0.148864
0.275554 0.976079 0.282688
0.999478 0.861701 0.071430
0.022760 0.166745 0.473209
0.044773 0.207536 0.532382
0.087973 0.232385 0.570446
0.467864 0.210932 0.591453
0.918893 0.059110 0.519600
0.998794 0.041672 0.350243
0.022525 0.185473 0.465771
0.039181 0.241348 0.529990
0.079735 0.272336 0.568237
0.493095 0.279647 0.596630
0.941624 0.125326 0.545602
0.998829 0.041672 0.361047
0.022523 0.202637 0.460001
0.034258 0.266872 0.525612
0.078726 0.317306 0.571302
0.510638 0.367291 0.596750
0.952692 0.192547 0.561491
0.998813 0.041672 0.370148
0.022520 0.276619 0.435758
0.023418 0.363428 0.507555
0.043643 0.427285 0.555900
0.416245 0.559032 0.610986
0.940624 0.466484 0.581253
0.999101 0.041672 0.367342
0.022520 0.497755 0.424633
0.022520 0.509013 0.432845
0.022518 0.549853 0.467277
0.181842 0.748710 0.609158
0.921362 0.798489 0.598198
0.999872 0.446885 0.444451
0.022507 0.881267 0.446432
0.022507 0.884270 0.454692
0.022507 0.886658 0.461276
0.022507 0.893845 0.466786
0.053823 0.959146 0.541199
0.999738 0.943480 0.463208
0.130084 0.621078 0.821683
0.164240 0.649721 0.828002
0.192926 0.674352 0.833434
0.536821 0.750653 0.835393
0.969220 0.745279 0.828524
0.999834 0.069722 0.743521
0.124359 0.630493 0.821134
0.160519 0.661415 0.827829
0.191343 0.686621 0.833396
0.544204 0.760901 0.834445
0.970183 0.756110 0.828023
0.999867 0.086274 0.749784
0.119179 0.638534 0.820963
0.155225 0.669026 0.827338
0.189820 0.697259 0.833297
0.549115 0.769172 0.833473
0.970665 0.767643 0.827372
0.999876 0.111216 0.756169
0.091649 0.671526 0.818294
0.128325 0.701007 0.824504
0.159435 0.727032 0.830151
0.457489 0.787044 0.832854
0.960910 0.808490 0.824192
0.999845 0.280887 0.768716
0.022507 0.722292 0.781956
0.024769 0.759221 0.795231
0.031036 0.786974 0.802619
0.198574 0.849859 0.821381
0.886725 0.878300 0.813858
0.999864 0.769022 0.794728
0.022507 0.894960 0.684836
0.022507 0.896220 0.685989
0.022507 0.897608 0.686858
0.022507 0.901805 0.690425
0.023419 0.937162 0.722385
0.999487 0.987342 0.814212
