src/luts/30.cube
TITLE "Generated by Resolve"
LUT_3D_SIZE 5
0.00526436 0.00889601 0.00883497
0.163806 0.0163119 0.00575265
0.470527 0.0848554 0.00474556
0.655604 0.115206 0.00537118
0.78407 0.126986 0.00564584
0.0109255 0.151598 0.0491035
0.142123 0.141955 0.0276493
0.423835 0.176165 0.00593576
0.641367 0.209781 0.00523384
0.786282 0.225727 0.00527962
0.0399786 0.399771 0.174868
0.142473 0.385412 0.161898
0.446983 0.399893 0.0780652
0.691203 0.410315 0.00120546
0.825589 0.377829 0.0027924
0.0607919 0.633661 0.295247
0.178332 0.623117 0.282383
0.36289 0.630686 0.258473
0.713817 0.634211 0.124712
0.903761 0.637125 0
0.0415351 0.817685 0.377203
0.181704 0.816999 0.371756
0.331167 0.818189 0.362402
0.611185 0.835538 0.318898
0.943023 0.849271 0.20412
0.0117037 0.0364843 0.13991
0.148318 0.0335546 0.140612
0.475471 0.0642405 0.106538
0.659556 0.110613 0.104829
0.784283 0.123827 0.106477
0.0147402 0.164462 0.166201
0.145815 0.155688 0.155856
0.432563 0.170733 0.121004
0.645289 0.206226 0.107164
0.788403 0.223285 0.104005
0 0.421897 0.303471
0.103563 0.420722 0.293935
0.465492 0.410483 0.173587
0.696498 0.40531 0.0965591
0.825528 0.371283 0.0978561
0 0.644236 0.422293
0.0914931 0.643122 0.412268
0.353857 0.636896 0.365393
0.730053 0.644434 0.214267
0.904387 0.633112 0.0914931
0 0.820035 0.500053
0.0914931 0.82855 0.500618
0.335637 0.836637 0.47866
0.609339 0.845457 0.419165
0.94966 0.859129 0.311299
0.0573129 0.113222 0.335561
0.162387 0.111391 0.335134
0.393576 0.141741 0.378012
0.653529 0.119768 0.364675
0.820462 0.0788586 0.316777
0.0632639 0.252323 0.391394
0.170092 0.242054 0.37792
0.39321 0.2448 0.384771
0.665721 0.196902 0.343664
0.829038 0.176913 0.281376
0.0111086 0.462501 0.48098
0.115419 0.465492 0.479912
0.458518 0.465278 0.464897
0.690074 0.437461 0.407782
0.835874 0.386236 0.341054
0 0.655055 0.545129
0.0914931 0.661891 0.550118
0.391455 0.699916 0.574151
0.728878 0.678859 0.458991
0.930114 0.657923 0.340536
0 0.835416 0.628046
0.0914931 0.8477 0.63772
0.362722 0.892119 0.664103
0.617456 0.884688 0.596643
0.949126 0.888151 0.534096
0.0929274 0.174533 0.504891
0.217746 0.186221 0.51928
0.37908 0.194553 0.543236
0.559533 0.208988 0.557382
0.689647 0.213169 0.564202
0.105364 0.328008 0.579004
0.215625 0.322576 0.570489
0.397238 0.325734 0.583688
0.566384 0.312322 0.567254
0.712886 0.309194 0.566232
0.0742809 0.53315 0.684169
0.192508 0.531929 0.684016
0.460227 0.541863 0.685222
0.648554 0.527291 0.667521
0.807568 0.4813 0.624094
0.00723278 0.695293 0.727123
0.113695 0.708797 0.741283
0.453895 0.724956 0.741741
0.699443 0.715434 0.719265
0.891081 0.708995 0.689845
0 0.845457 0.750988
0.0914931 0.863752 0.765026
0.448035 0.909834 0.805676
0.678828 0.934585 0.821103
0.943847 0.927489 0.783017
0.114763 0.215702 0.647776
0.286763 0.260395 0.697765
0.408331 0.240757 0.695232
0.538399 0.235126 0.681498
0.670527 0.240787 0.686397
0.126436 0.385229 0.740398
0.252552 0.38761 0.739483
0.438361 0.392126 0.746426
0.559716 0.365118 0.725048
0.685527 0.350484 0.705821
0.107942 0.568078 0.827192
0.246906 0.573922 0.835096
0.471229 0.59266 0.851926
0.643229 0.590402 0.854643
0.779995 0.569451 0.824369
0.0691997 0.727749 0.881941
0.212589 0.738857 0.895079
0.460014 0.770672 0.930541
0.666926 0.77734 0.938613
0.855421 0.766079 0.916182
0.0339818 0.877317 0.920302
0.172366 0.890791 0.932448
0.511772 0.941192 0.976211
0.727596 0.968353 0.998398
0.955703 0.986679 0.996109
