src/luts/30.cube
TITLE "Generated by Resolve"
LUT_3D_SIZE 9
0.00526436 0.00889601 0.00883497
0.0627909 0.00886549 0.00767529
0.163806 0.0163119 0.00575265
0.327138 0.052079 0.00477607
0.470527 0.0848554 0.00474556
0.574166 0.103593 0.00503548
0.655604 0.115206 0.00537118
0.728786 0.124041 0.00550851
0.78407 0.126986 0.00564584
0.00791943 0.0691691 0.020737
0.0621653 0.066331 0.0159457
0.148135 0.0681468 0.0087129
0.296757 0.0921492 0.0056611
0.445655 0.124926 0.00527962
0.561761 0.147555 0.00546273
0.647349 0.160266 0.00556954
0.723491 0.169741 0.0055848
0.782681 0.174182 0.00563058
0.0109255 0.151598 0.0491035
0.059617 0.147082 0.0440375
0.142123 0.141955 0.0276493
0.277043 0.154162 0.00881972
0.423835 0.176165 0.00593576
0.548653 0.195926 0.00543221
0.641367 0.209781 0.00523384
0.722515 0.220325 0.00518807
0.786282 0.225727 0.00527962
0.016083 0.26772 0.105364
0.0632181 0.260456 0.0987106
0.130129 0.250797 0.086244
0.270878 0.255848 0.054963
0.441199 0.275914 0.00578317
0.561044 0.281758 0.00476081
0.65124 0.278264 0.00469978
0.729946 0.279286 0.00466926
0.79765 0.284703 0.00456245
0.0399786 0.399771 0.174868
0.0849775 0.393637 0.169574
0.142473 0.385412 0.161898
0.231525 0.381033 0.142596
0.446983 0.399893 0.0780652
0.599634 0.41735 0.000610361
0.691203 0.410315 0.00120546
0.764797 0.394156 0.0021973
0.825589 0.377829 0.0027924
0.0632181 0.523613 0.239292
0.11136 0.51841 0.234318
0.159838 0.513756 0.229892
0.235126 0.51429 0.224537
0.377478 0.512749 0.191073
0.599054 0.529656 0.100816
0.722057 0.541588 0.00131228
0.804349 0.533364 0
0.873976 0.523476 0
0.0607919 0.633661 0.295247
0.119173 0.628107 0.288792
0.178332 0.623117 0.282383
0.242847 0.624567 0.281498
0.36289 0.630686 0.258473
0.525643 0.62298 0.234607
0.713817 0.634211 0.124712
0.829953 0.647349 0.0144198
0.903761 0.637125 0
0.0537118 0.736156 0.345251
0.111543 0.732097 0.340459
0.18558 0.727291 0.332647
0.251621 0.724041 0.326955
0.346838 0.730755 0.318944
0.494774 0.733013 0.281041
0.652354 0.723507 0.270878
0.832715 0.73991 0.150484
0.930053 0.739544 0.0236362
0.0415351 0.817685 0.377203
0.100496 0.817456 0.375723
0.181704 0.816999 0.371756
0.257084 0.815412 0.366339
0.331167 0.818189 0.362402
0.4748 0.83003 0.335073
0.611185 0.835538 0.318898
0.761852 0.827558 0.309667
0.943023 0.849271 0.20412
0.00807202 0.0166476 0.0631571
0.062089 0.0146181 0.0621195
0.162692 0.0168307 0.0610819
0.326284 0.0463722 0.0547646
0.469413 0.0829633 0.0564889
0.575479 0.102892 0.0556649
0.657252 0.114763 0.055024
0.729824 0.123476 0.054551
0.784543 0.12636 0.0546578
0.00975052 0.0708629 0.0710002
0.0620432 0.0683146 0.0681468
0.14902 0.0676127 0.0617227
0.298299 0.0903944 0.0563363
0.447379 0.123857 0.0538949
0.562844 0.146639 0.0532998
0.648356 0.159533 0.0531014
0.724315 0.169085 0.0529946
0.783505 0.173571 0.0531472
0.0128939 0.154894 0.101808
0.062562 0.150881 0.0962692
0.142321 0.14316 0.0779278
0.278218 0.151995 0.0581674
0.424949 0.173953 0.0536812
0.549371 0.194278 0.0526436
0.6421 0.208392 0.0522621
0.722835 0.219089 0.0520943
0.786221 0.224491 0.0522621
0.0137484 0.274647 0.159274
0.0641184 0.266285 0.150942
0.129152 0.254597 0.137407
0.273472 0.256718 0.101778
0.441245 0.273289 0.0534371
0.560586 0.279088 0.051606
0.65098 0.276051 0.0513924
0.729107 0.277424 0.0514076
0.796094 0.282704 0.0513924
0.0308232 0.407782 0.229511
0.0819715 0.399908 0.221836
0.138796 0.389807 0.21178
0.230732 0.38323 0.191241
0.448203 0.399924 0.122652
0.59942 0.415381 0.0465553
0.690303 0.408225 0.0472877
0.76379 0.391318 0.0484321
0.823865 0.374243 0.0492714
0.0398718 0.533074 0.296498
0.0978866 0.525567 0.288411
0.156847 0.517784 0.279805
0.233295 0.514733 0.271717
0.376501 0.513298 0.237507
0.600473 0.530068 0.14432
0.721019 0.540139 0.0470283
0.803037 0.531182 0.0457465
0.87219 0.519936 0.0457465
0.0225986 0.641794 0.353338
0.0906844 0.636469 0.345464
0.168856 0.627894 0.333883
0.241459 0.624811 0.328115
0.360021 0.630808 0.306218
0.526009 0.62417 0.281315
0.714137 0.634348 0.170001
0.828717 0.645808 0.0592203
0.90341 0.635386 0.0457465
0.00546273 0.738293 0.401709
0.0676432 0.739727 0.39823
0.166735 0.73312 0.386053
0.246723 0.726223 0.375433
0.342855 0.730694 0.366384
0.492607 0.733318 0.327291
0.651286 0.723812 0.316869
0.831952 0.739498 0.196765
0.929686 0.738033 0.0656138
0.00274662 0.816922 0.432563
0.0603037 0.821576 0.432197
0.154238 0.824933 0.427863
0.250355 0.819501 0.417182
0.32932 0.819638 0.410712
0.471107 0.830869 0.383886
0.609369 0.83595 0.365164
0.761868 0.827802 0.35555
0.942199 0.84892 0.250324
0.0117037 0.0364843 0.13991
0.0662089 0.0304417 0.131151
0.148318 0.0335546 0.140612
0.333043 0.0273289 0.124468
0.475471 0.0642405 0.106538
0.579919 0.0949264 0.104601
0.659556 0.110613 0.104829
0.730236 0.120867 0.106096
0.784283 0.123827 0.106477
0.0126192 0.0899672 0.147814
0.0636759 0.0861067 0.142733
0.140551 0.0826276 0.139544
0.308156 0.0770733 0.122408
0.453925 0.111467 0.108186
0.566827 0.141253 0.10721
0.649897 0.157275 0.108598
0.724468 0.167742 0.108034
0.78294 0.172137 0.107744
0.0147402 0.164462 0.166201
0.0640726 0.161089 0.162768
0.145815 0.155688 0.155856
0.285344 0.152804 0.133059
0.432563 0.170733 0.121004
0.554116 0.191333 0.113756
0.645289 0.206226 0.107164
0.725704 0.217655 0.104204
0.788403 0.223285 0.104005
0.00595102 0.285191 0.224201
0.0531624 0.281559 0.220768
0.121889 0.280995 0.215717
0.285451 0.267399 0.165515
0.451469 0.270039 0.115267
0.567025 0.272786 0.108843
0.653727 0.271748 0.105241
0.730922 0.274556 0.10341
0.796475 0.280064 0.10312
0 0.421897 0.303471
0.0457465 0.417533 0.298222
0.103563 0.420722 0.293935
0.232731 0.400671 0.260182
0.465492 0.410483 0.173587
0.61001 0.414328 0.0942245
0.696498 0.40531 0.0965591
0.768032 0.389624 0.0968032
0.825528 0.371283 0.0978561
0 0.542031 0.370108
0.0457465 0.53843 0.364538
0.0922408 0.542092 0.361654
0.233143 0.527581 0.334142
0.384024 0.525383 0.29395
0.617258 0.539757 0.190234
0.727794 0.540551 0.0916304
0.803693 0.529137 0.0914931
0.871366 0.515206 0.0919661
0 0.644236 0.422293
0.0457465 0.641245 0.416999
0.0914931 0.643122 0.412268
0.223941 0.64097 0.393164
0.353857 0.636896 0.365393
0.537697 0.633234 0.334905
0.730053 0.644434 0.214267
0.832212 0.646021 0.10251
0.904387 0.633112 0.0914931
0 0.740337 0.468788
0.0457465 0.738354 0.464729
0.0914931 0.740368 0.460395
0.18088 0.753323 0.456443
0.337652 0.736904 0.424277
0.493141 0.74078 0.381277
0.658747 0.73315 0.370428
0.837278 0.745464 0.251026
0.933516 0.738384 0.105715
0 0.820035 0.500053
0.0457465 0.821485 0.499367
0.0914931 0.82855 0.500618
0.152636 0.848783 0.505974
0.335637 0.836637 0.47866
0.458289 0.840482 0.449104
0.609339 0.845457 0.419165
0.770871 0.837766 0.409659
0.94966 0.859129 0.311299
0.0314336 0.0733501 0.238407
0.0790875 0.0683909 0.231907
0.146151 0.0722057 0.240284
0.279103 0.0878767 0.261265
0.468132 0.0694743 0.24892
0.603342 0.0584878 0.212604
0.682582 0.0749828 0.180987
0.745876 0.101442 0.1635
0.794949 0.111421 0.159655
0.0322118 0.126131 0.246281
0.079118 0.121233 0.240177
0.140856 0.118074 0.237064
0.264454 0.128695 0.253071
0.460426 0.107637 0.236133
0.592386 0.106676 0.196506
0.673152 0.12961 0.172137
0.738003 0.155291 0.163485
0.790921 0.16463 0.16083
0.0291447 0.206012 0.280964
0.0785382 0.200809 0.27602
0.147311 0.195224 0.269078
0.267948 0.192828 0.265553
0.45304 0.165072 0.231113
0.581186 0.165484 0.193942
0.666285 0.187152 0.175921
0.735576 0.209751 0.170916
0.791959 0.219409 0.169711
0.0123293 0.306996 0.316442
0.0619516 0.303243 0.311589
0.133501 0.305547 0.311482
0.287175 0.297124 0.296468
0.450813 0.283162 0.254078
0.568139 0.28069 0.231006
0.656229 0.274403 0.210971
0.735241 0.274678 0.189319
0.800626 0.27953 0.176761
0.000396735 0.43122 0.368719
0.0459754 0.428595 0.365148
0.0934005 0.438392 0.37322
0.232273 0.445228 0.372625
0.471214 0.429221 0.285115
0.616556 0.419944 0.220844
0.70547 0.406577 0.204944
0.779995 0.387533 0.184421
0.836271 0.36878 0.169833
0 0.549798 0.434928
0.0457465 0.548959 0.433417
0.0914931 0.554589 0.43714
0.176577 0.576028 0.444678
0.388678 0.551369 0.378744
0.625559 0.555169 0.285801
0.748211 0.549905 0.17998
0.825299 0.534066 0.157336
0.892821 0.519814 0.145586
0 0.650523 0.485649
0.0457465 0.650202 0.484489
0.0914931 0.656229 0.488182
0.144106 0.670893 0.490272
0.35729 0.655741 0.449516
0.542779 0.653452 0.404059
0.740017 0.658503 0.299123
0.854307 0.657069 0.166613
0.917861 0.640055 0.139879
0 0.748425 0.534554
0.0457465 0.747768 0.532876
0.0914931 0.753628 0.535653
0.137331 0.759075 0.532128
0.338247 0.762066 0.509285
0.495201 0.75787 0.452949
0.666331 0.750378 0.436454
0.848127 0.759487 0.323735
0.958419 0.753689 0.162234
0 0.829648 0.567849
0.0457465 0.831769 0.568826
0.0914931 0.840116 0.573449
0.13724 0.84892 0.574273
0.314534 0.870176 0.573327
0.46334 0.857023 0.527687
0.609476 0.862547 0.487022
0.777508 0.854368 0.476295
0.955184 0.872831 0.393896
0.0573129 0.113222 0.335561
0.103716 0.109941 0.331411
0.162387 0.111391 0.335134
0.263005 0.129076 0.36492
0.393576 0.141741 0.378012
0.534157 0.139437 0.378851
0.653529 0.119768 0.364675
0.758267 0.0896162 0.335012
0.820462 0.0788586 0.316777
0.0603037 0.171069 0.350027
0.105638 0.164981 0.342504
0.161975 0.160204 0.336461
0.252903 0.171344 0.359487
0.385229 0.183429 0.371939
0.53521 0.176349 0.368215
0.6598 0.151888 0.348089
0.760449 0.128191 0.314549
0.823362 0.122362 0.290776
0.0632639 0.252323 0.391394
0.110628 0.24744 0.385657
0.170092 0.242054 0.37792
0.264302 0.241672 0.379812
0.39321 0.2448 0.384771
0.53843 0.226459 0.369833
0.665721 0.196902 0.343664
0.767178 0.176867 0.307301
0.829038 0.176913 0.281376
0.0474403 0.356863 0.444099
0.0963455 0.353124 0.44033
0.160479 0.352255 0.440085
0.286213 0.350591 0.434592
0.425238 0.340642 0.421759
0.573419 0.309606 0.388937
0.684489 0.273945 0.352132
0.773083 0.250874 0.31313
0.835767 0.252537 0.289433
0.0111086 0.462501 0.48098
0.0563058 0.459464 0.476905
0.115419 0.465492 0.479912
0.270054 0.470436 0.479118
0.458518 0.465278 0.464897
0.596094 0.450706 0.432578
0.690074 0.437461 0.407782
0.770077 0.416983 0.376349
0.835874 0.386236 0.341054
0 0.560494 0.506691
0.0457465 0.559304 0.50396
0.0915694 0.566247 0.506996
0.228016 0.593545 0.52958
0.420233 0.595117 0.526162
0.612238 0.579889 0.458747
0.728252 0.567605 0.40972
0.81561 0.553506 0.381186
0.888991 0.539193 0.350484
0 0.655055 0.545129
0.0457465 0.654612 0.54403
0.0914931 0.661891 0.550118
0.166033 0.69688 0.580011
0.391455 0.699916 0.574151
0.5411 0.681971 0.514534
0.728878 0.678859 0.458991
0.843885 0.670085 0.383337
0.930114 0.657923 0.340536
0 0.752972 0.593576
0.0457465 0.752407 0.592325
0.0914931 0.759777 0.598093
0.138354 0.778531 0.613291
0.374533 0.800809 0.621439
0.514946 0.780713 0.575784
0.660624 0.776104 0.531975
0.843946 0.777111 0.462348
0.956237 0.766064 0.36257
0 0.835416 0.628046
0.0457465 0.837736 0.629557
0.0914931 0.8477 0.63772
0.13727 0.860533 0.647471
0.362722 0.892119 0.664103
0.517449 0.887022 0.642603
0.617456 0.884688 0.596643
0.769284 0.879866 0.575967
0.949126 0.888151 0.534096
0.0772106 0.146944 0.424277
0.124346 0.143603 0.419974
0.184512 0.146456 0.424338
0.271641 0.158984 0.449439
0.375723 0.173068 0.464378
0.487297 0.181125 0.476005
0.580667 0.183871 0.479438
0.675914 0.177188 0.473701
0.74049 0.171145 0.468788
0.0818189 0.207904 0.442786
0.128359 0.203891 0.437659
0.189075 0.202533 0.434379
0.27332 0.211307 0.453971
0.369619 0.218647 0.4645
0.482826 0.224445 0.472526
0.580438 0.225681 0.473747
0.683879 0.215442 0.465583
0.757305 0.206317 0.45803
0.0878462 0.293828 0.490333
0.135225 0.289464 0.484993
0.193973 0.284764 0.478157
0.28661 0.286976 0.479362
0.38349 0.288914 0.490623
0.491646 0.285817 0.486549
0.586206 0.278248 0.479622
0.697261 0.262821 0.465995
0.77612 0.250584 0.454887
0.0791638 0.397635 0.547723
0.127474 0.394171 0.544533
0.18912 0.394232 0.545586
0.306706 0.397055 0.543648
0.419776 0.392447 0.539467
0.526146 0.380468 0.526421
0.618112 0.357626 0.506081
0.720363 0.324758 0.476936
0.801953 0.307546 0.460304
0.0457923 0.503807 0.595209
0.0942092 0.500633 0.592233
0.157702 0.503578 0.594903
0.293568 0.508278 0.596918
0.452506 0.509651 0.590661
0.571557 0.500404 0.577935
0.677928 0.480247 0.554803
0.780926 0.449409 0.52224
0.852674 0.412467 0.489067
0.00697337 0.591974 0.618158
0.0529183 0.591196 0.617243
0.107637 0.6 0.623514
0.274113 0.609659 0.625711
0.446448 0.613184 0.621057
0.595041 0.604334 0.605112
0.702373 0.595758 0.585962
0.794293 0.588296 0.566644
0.869459 0.579141 0.5449
6.10361e-05 0.668452 0.626429
0.0457465 0.666819 0.623453
0.0914931 0.67335 0.62649
0.250004 0.705287 0.650263
0.427771 0.713314 0.655207
0.572747 0.710781 0.649317
0.710369 0.698619 0.605524
0.820035 0.691051 0.571801
0.906355 0.684871 0.548806
0 0.758221 0.655009
0.0457465 0.757565 0.653605
0.0914931 0.765393 0.659663
0.180453 0.802884 0.692729
0.404974 0.815885 0.702434
0.560388 0.81387 0.694194
0.66334 0.797909 0.648692
0.826322 0.794888 0.612039
0.934264 0.786847 0.561257
0 0.839902 0.687602
0.0457465 0.84213 0.688838
0.0914931 0.852888 0.697932
0.149828 0.885908 0.726818
0.396735 0.904189 0.7411
0.558694 0.914534 0.742794
0.648936 0.911513 0.727733
0.77319 0.902007 0.692943
0.939132 0.906432 0.68423
0.0929274 0.174533 0.504891
0.14342 0.174411 0.504204
0.217746 0.186221 0.51928
0.298589 0.192157 0.536263
0.37908 0.194553 0.543236
0.472297 0.204654 0.549142
0.559533 0.208988 0.557382
0.634974 0.21239 0.563439
0.689647 0.213169 0.564202
0.0986191 0.238346 0.526741
0.146914 0.23508 0.522393
0.220752 0.243198 0.529564
0.30782 0.252461 0.549905
0.378042 0.247364 0.551598
0.469596 0.250996 0.549126
0.557794 0.254063 0.555673
0.635813 0.257496 0.561852
0.696147 0.257511 0.561593
0.105364 0.328008 0.579004
0.152911 0.324193 0.574334
0.215625 0.322576 0.570489
0.319814 0.331579 0.577249
0.397238 0.325734 0.583688
0.482109 0.320943 0.575357
0.566384 0.312322 0.567254
0.645777 0.311421 0.56939
0.712886 0.309194 0.566232
0.0999008 0.429343 0.63624
0.147555 0.426093 0.633204
0.212436 0.427222 0.635157
0.32903 0.433631 0.635645
0.43505 0.433173 0.630869
0.518624 0.424384 0.629694
0.600397 0.406928 0.610269
0.670756 0.3832 0.592248
0.738659 0.371023 0.579171
0.0742809 0.53315 0.684169
0.122728 0.529488 0.681086
0.192508 0.531929 0.684016
0.320653 0.537255 0.687816
0.460227 0.541863 0.685222
0.563638 0.53814 0.679072
0.648554 0.527291 0.667521
0.736233 0.509285 0.649897
0.807568 0.4813 0.624094
0.0405737 0.620981 0.715373
0.0891432 0.619669 0.714565
0.163775 0.624369 0.718654
0.306249 0.631083 0.72163
0.456703 0.636637 0.721187
0.586831 0.635493 0.712047
0.681361 0.628702 0.701427
0.783871 0.619715 0.686656
0.870665 0.60798 0.668742
0.00723278 0.695293 0.727123
0.0540169 0.693889 0.72575
0.113695 0.708797 0.741283
0.289418 0.718517 0.744091
0.453895 0.724956 0.741741
0.590875 0.724071 0.73463
0.699443 0.715434 0.719265
0.803143 0.710384 0.704341
0.891081 0.708995 0.689845
0 0.773175 0.737987
0.0457465 0.772885 0.736934
0.0914931 0.781491 0.742626
0.267155 0.809827 0.763165
0.452613 0.820676 0.768856
0.583978 0.825757 0.772793
0.685771 0.821653 0.76463
0.812818 0.810117 0.728771
0.919249 0.8056 0.699596
0 0.845457 0.750988
0.0457465 0.84741 0.75108
0.0914931 0.863752 0.765026
0.225681 0.894133 0.792203
0.448035 0.909834 0.805676
0.581704 0.924437 0.818448
0.678828 0.934585 0.821103
0.77319 0.932158 0.802884
0.943847 0.927489 0.783017
0.107622 0.201801 0.58468
0.160937 0.204059 0.586633
0.259861 0.231739 0.619562
0.336156 0.23331 0.63154
0.394125 0.221378 0.62591
0.465126 0.220874 0.620462
0.542229 0.227665 0.624781
0.620127 0.231052 0.62916
0.676753 0.231312 0.631708
0.113649 0.270497 0.61239
0.163058 0.266224 0.606729
0.252155 0.282155 0.621134
0.341436 0.292775 0.642557
0.398718 0.279332 0.637995
0.467109 0.272725 0.627237
0.542107 0.274189 0.624933
0.622293 0.277272 0.62948
0.683024 0.277424 0.632776
0.118639 0.361654 0.666056
0.166934 0.358404 0.662135
0.23827 0.360418 0.661585
0.352773 0.373892 0.670176
0.424002 0.366262 0.673365
0.486976 0.352407 0.664378
0.557214 0.341772 0.648112
0.632807 0.33518 0.641367
0.696056 0.334142 0.644083
0.114336 0.45626 0.716381
0.161822 0.453559 0.713924
0.235019 0.457801 0.718135
0.34966 0.466056 0.720729
0.453239 0.467567 0.715404
0.529686 0.461616 0.719753
0.596414 0.447959 0.707225
0.664225 0.421836 0.679301
0.719203 0.402716 0.665827
0.0953078 0.554437 0.761471
0.143816 0.551598 0.759213
0.222965 0.555856 0.764141
0.344762 0.56199 0.769436
0.471504 0.569772 0.770443
0.56997 0.569787 0.765423
0.642786 0.562234 0.764157
0.72105 0.550347 0.747921
0.785138 0.530602 0.731914
0.0705577 0.640101 0.793133
0.118929 0.638575 0.792065
0.202167 0.643549 0.797391
0.334874 0.650599 0.802594
0.470878 0.658244 0.80621
0.583001 0.662501 0.80705
0.671641 0.659449 0.800793
0.759701 0.653178 0.790646
0.840497 0.646738 0.779995
0.0436713 0.71841 0.816861
0.0905318 0.717632 0.81622
0.173663 0.724804 0.823575
0.325612 0.734813 0.830304
0.471855 0.743755 0.833432
0.585092 0.748486 0.836896
0.684581 0.746609 0.831525
0.784817 0.739391 0.815503
0.879271 0.735805 0.803891
0.0106966 0.795087 0.830991
0.0565652 0.794034 0.829526
0.121904 0.807431 0.84332
0.317693 0.822126 0.85301
0.481209 0.83331 0.857694
0.597513 0.839094 0.859632
0.697597 0.838315 0.854856
0.80676 0.830625 0.838544
0.911116 0.826307 0.823209
0.00109865 0.864866 0.842191
0.0461738 0.866407 0.841413
0.114931 0.883894 0.855802
0.295964 0.899779 0.866285
0.500923 0.917128 0.876677
0.623072 0.930068 0.88603
0.71548 0.943954 0.897536
0.804257 0.960739 0.908553
0.953902 0.95169 0.876432
0.114763 0.215702 0.647776
0.170352 0.22002 0.651942
0.286763 0.260395 0.697765
0.359884 0.259449 0.707042
0.408331 0.240757 0.695232
0.464958 0.229694 0.679896
0.538399 0.235126 0.681498
0.613458 0.239612 0.685023
0.670527 0.240787 0.686397
0.12195 0.291737 0.684276
0.172366 0.287739 0.678904
0.272435 0.309026 0.697551
0.361685 0.320043 0.717739
0.419913 0.30692 0.714565
0.472084 0.290471 0.697597
0.537591 0.285206 0.687221
0.612726 0.289296 0.689433
0.673686 0.290654 0.690837
0.126436 0.385229 0.740398
0.17586 0.384039 0.738918
0.252552 0.38761 0.739483
0.367727 0.397757 0.741894
0.438361 0.392126 0.746426
0.497765 0.379049 0.742901
0.559716 0.365118 0.725048
0.623423 0.351644 0.707271
0.685527 0.350484 0.705821
0.122286 0.475029 0.785306
0.171069 0.474128 0.785016
0.252705 0.480613 0.791608
0.362936 0.489662 0.794629
0.46334 0.49102 0.790768
0.538079 0.487495 0.79588
0.602884 0.478035 0.790707
0.662974 0.457862 0.768017
0.712093 0.430014 0.739391
0.107942 0.568078 0.827192
0.15787 0.567254 0.827283
0.246906 0.573922 0.835096
0.362936 0.581842 0.842542
0.471229 0.59266 0.851926
0.563745 0.595651 0.855161
0.643229 0.590402 0.854643
0.718395 0.582315 0.843336
0.779995 0.569451 0.824369
0.0900587 0.651331 0.858488
0.140017 0.651392 0.859586
0.232273 0.658915 0.868116
0.35819 0.668299 0.877348
0.465766 0.680491 0.893492
0.564935 0.688807 0.904387
0.661112 0.687144 0.89955
0.751736 0.681117 0.891569
0.826719 0.676783 0.882612
0.0691997 0.727749 0.881941
0.119081 0.728573 0.883818
0.212589 0.738857 0.895079
0.355047 0.753079 0.9084
0.460014 0.770672 0.930541
0.558923 0.778546 0.943191
0.666926 0.77734 0.938613
0.772778 0.76997 0.923125
0.855421 0.766079 0.916182
0.0446021 0.808423 0.907546
0.0930495 0.808927 0.908675
0.181247 0.819013 0.918929
0.359838 0.838102 0.936217
0.473884 0.864286 0.963958
0.582788 0.873137 0.971771
0.680339 0.874556 0.973999
0.786923 0.867048 0.966186
0.889342 0.856214 0.947967
0.0339818 0.877317 0.920302
0.0818647 0.880217 0.923125
0.172366 0.890791 0.932448
0.354543 0.910857 0.94905
0.511772 0.941192 0.976211
0.636255 0.954772 0.983124
0.727596 0.968353 0.998398
0.834287 0.980926 0.999985
0.955703 0.986679 0.996109
