src/luts/30.cube
TITLE "Generated by Resolve"
LUT_3D_SIZE 33
0.00526436 0.00889601 0.00883497
0.0166934 0.00889601 0.00883497
0.0306706 0.00868238 0.00846876
0.0459754 0.00857557 0.00799573
0.0627909 0.00886549 0.00767529
0.0809491 0.00939956 0.00741588
0.101686 0.0102693 0.00695811
0.129442 0.0123445 0.00608835
0.163806 0.0163119 0.00575265
0.201724 0.0226139 0.0052491
0.242466 0.0314488 0.005066
0.284733 0.0419318 0.00494392
0.327138 0.052079 0.00477607
0.367025 0.0618448 0.004654
0.405753 0.070985 0.00463874
0.438437 0.0779278 0.00469978
0.470527 0.0848554 0.00474556
0.49926 0.0905165 0.00482185
0.526741 0.0957046 0.00489815
0.551308 0.0999924 0.0049897
0.574166 0.103593 0.00503548
0.595666 0.106828 0.005066
0.616297 0.109895 0.00514229
0.636133 0.112688 0.00527962
0.655604 0.115206 0.00537118
0.674495 0.117525 0.00540169
0.693111 0.119799 0.00541695
0.711208 0.121965 0.00541695
0.728786 0.124041 0.00550851
0.744961 0.125551 0.0055848
0.761166 0.12697 0.00564584
0.772641 0.126986 0.00564584
0.78407 0.126986 0.00564584
0.00526436 0.020325 0.00883497
0.0166934 0.020325 0.00883497
0.0298009 0.0201877 0.00860609
0.0455329 0.0200046 0.0080415
0.0623789 0.020264 0.00770581
0.0806592 0.0208133 0.00741588
0.101946 0.0217136 0.00694286
0.130465 0.0239109 0.00604257
0.165423 0.0281224 0.00570687
0.20293 0.0343633 0.00521859
0.242557 0.0429236 0.005066
0.284306 0.0532082 0.00494392
0.32639 0.0632639 0.00477607
0.366155 0.0729839 0.004654
0.404761 0.0820783 0.00463874
0.437507 0.0890516 0.00469978
0.469718 0.0960403 0.0047303
0.49839 0.101671 0.00482185
0.525994 0.106889 0.00489815
0.550591 0.111192 0.00497444
0.573556 0.114824 0.00503548
0.595056 0.118059 0.005066
0.615717 0.121126 0.00512703
0.635599 0.123934 0.00526436
0.65507 0.126482 0.00535592
0.673976 0.128786 0.00538643
0.692576 0.131075 0.00541695
0.710704 0.133257 0.00541695
0.728298 0.135317 0.00549325
0.744595 0.136873 0.0055848
0.760784 0.138293 0.00564584
0.772641 0.138415 0.00564584
0.78407 0.138415 0.00564584
0.00547799 0.0328832 0.00976577
0.0168765 0.0326848 0.00961318
0.0285954 0.0322271 0.00918593
0.0451057 0.031754 0.00831617
0.0619516 0.0318761 0.00784314
0.0801709 0.0323339 0.00750744
0.101076 0.0332189 0.00706493
0.128588 0.0352178 0.00616464
0.162646 0.0390478 0.00579843
0.199741 0.0450752 0.00527962
0.239078 0.053254 0.00508125
0.280308 0.063447 0.00500496
0.322408 0.0734875 0.00480659
0.362356 0.0832532 0.00469978
0.400916 0.0923476 0.00466926
0.434256 0.0995499 0.00471504
0.466773 0.1066 0.00474556
0.495735 0.112383 0.00483711
0.52372 0.117708 0.00492866
0.548562 0.122118 0.0049897
0.571756 0.125872 0.00508125
0.593393 0.129107 0.00508125
0.614115 0.132189 0.00514229
0.63415 0.135058 0.00527962
0.653635 0.137652 0.00538643
0.672694 0.140032 0.00543221
0.691325 0.142306 0.00543221
0.709514 0.144488 0.00544747
0.727169 0.146563 0.00550851
0.743664 0.148226 0.0055848
0.759838 0.149676 0.00564584
0.77232 0.150011 0.00567636
0.783749 0.150011 0.00567636
0.00677501 0.0507515 0.0151522
0.018204 0.0506905 0.0150912
0.029572 0.0503548 0.0148165
0.0453956 0.0493172 0.0130312
0.0627451 0.0486763 0.0107729
0.0799725 0.0488136 0.0101625
0.0987106 0.0494545 0.00979629
0.122408 0.0502632 0.00831617
0.152911 0.0526436 0.00694286
0.187625 0.0564279 0.00601205
0.225757 0.0634012 0.00578317
0.265827 0.0719768 0.00546273
0.307897 0.0817884 0.00520333
0.348287 0.0915694 0.00514229
0.386801 0.100435 0.00505074
0.422187 0.108339 0.00500496
0.455177 0.115282 0.00502022
0.486397 0.121889 0.00508125
0.515938 0.127642 0.00515755
0.542168 0.132418 0.00518807
0.5664 0.136614 0.00529488
0.588586 0.139971 0.00529488
0.609705 0.143038 0.00529488
0.630243 0.146044 0.00535592
0.650111 0.148806 0.00550851
0.66952 0.151278 0.00555428
0.688411 0.153582 0.00556954
0.706844 0.155779 0.00556954
0.724697 0.1579 0.00556954
0.741588 0.159731 0.00563058
0.757748 0.161257 0.00569162
0.771359 0.161913 0.00570687
0.782788 0.161929 0.00570687
0.00791943 0.0691691 0.020737
0.0193332 0.0690166 0.0206149
0.0307164 0.0686503 0.020325
0.0450599 0.0674144 0.0187076
0.0621653 0.066331 0.0159457
0.0805676 0.0656291 0.0130465
0.0990311 0.0662394 0.0124208
0.120272 0.0670024 0.0115358
0.148135 0.0681468 0.0087129
0.180407 0.0708476 0.00706493
0.216083 0.0757153 0.00654612
0.254917 0.0827649 0.00596628
0.296757 0.0921492 0.0056611
0.33727 0.101152 0.00550851
0.376028 0.109834 0.00535592
0.411978 0.1178 0.00527962
0.445655 0.124926 0.00527962
0.477653 0.131563 0.00531014
0.508492 0.137819 0.00535592
0.536248 0.142977 0.00538643
0.561761 0.147555 0.00546273
0.584726 0.151202 0.00546273
0.606195 0.154345 0.00543221
0.627115 0.157351 0.00544747
0.647349 0.160266 0.00556954
0.667216 0.16289 0.00564584
0.686503 0.165301 0.00564584
0.705287 0.167575 0.00561532
0.723491 0.169741 0.0055848
0.740703 0.171679 0.00561532
0.756954 0.173281 0.00563058
0.771252 0.174166 0.00563058
0.782681 0.174182 0.00563058
0.0089723 0.087953 0.0264744
0.0203861 0.0877546 0.0263218
0.0317693 0.0873426 0.0260014
0.0452125 0.0860151 0.0243839
0.0609598 0.0848096 0.0221714
0.079408 0.0836194 0.018616
0.0997177 0.0836042 0.0155032
0.120287 0.084535 0.0145724
0.146242 0.0855421 0.0119173
0.176287 0.0873426 0.00877394
0.209537 0.0905623 0.00733959
0.24654 0.0960861 0.00660716
0.286839 0.103838 0.00624094
0.327367 0.111894 0.00584421
0.366583 0.120256 0.0056611
0.403082 0.128023 0.00556954
0.437049 0.135042 0.00549325
0.469596 0.14168 0.00550851
0.500984 0.148058 0.00553903
0.529839 0.153552 0.00555428
0.556939 0.158495 0.00555428
0.580652 0.162463 0.0055848
0.603037 0.165896 0.00550851
0.624308 0.168994 0.00546273
0.644984 0.171923 0.00547799
0.665217 0.174746 0.00553903
0.685145 0.177371 0.00550851
0.704448 0.179797 0.00546273
0.72311 0.182071 0.00538643
0.740703 0.184054 0.00540169
0.757031 0.185672 0.00543221
0.771908 0.186755 0.00543221
0.783352 0.186755 0.00543221
0.00999466 0.107744 0.0329747
0.0213931 0.107515 0.0327916
0.0327916 0.107118 0.0324712
0.0454871 0.105562 0.0305486
0.0602731 0.10396 0.0284581
0.0781262 0.102281 0.0251011
0.0977646 0.101549 0.0212863
0.12015 0.102052 0.0179294
0.146777 0.10367 0.0154421
0.175235 0.104814 0.0109407
0.206928 0.107362 0.00830091
0.241123 0.111406 0.00756847
0.280293 0.117983 0.00683604
0.320165 0.125093 0.0062562
0.359136 0.13254 0.00598154
0.396338 0.139864 0.00582895
0.43064 0.146471 0.00564584
0.463767 0.153033 0.00560006
0.495674 0.159304 0.0055848
0.525246 0.164981 0.00553903
0.553155 0.170169 0.00547799
0.577935 0.17438 0.00547799
0.600732 0.177951 0.00538643
0.622629 0.181216 0.00529488
0.643595 0.184192 0.0052491
0.664027 0.186999 0.00529488
0.684276 0.1897 0.00527962
0.704005 0.192279 0.0052491
0.722896 0.194629 0.00520333
0.740932 0.19675 0.0052491
0.757382 0.198352 0.00534066
0.772702 0.199527 0.0053254
0.784146 0.199557 0.0053254
0.0106661 0.128542 0.0401923
0.0220951 0.128283 0.0400092
0.0335241 0.127764 0.0396124
0.0459297 0.126085 0.0375677
0.0599222 0.124239 0.0352941
0.0771954 0.12192 0.0321202
0.096376 0.1205 0.0279545
0.117372 0.120119 0.024033
0.146166 0.121462 0.01944
0.175525 0.123415 0.0154726
0.206119 0.125307 0.0107118
0.239048 0.128862 0.00924697
0.276646 0.134234 0.00791943
0.315587 0.140337 0.00694286
0.354269 0.147356 0.0065156
0.391745 0.153948 0.0059968
0.426459 0.159777 0.00569162
0.460044 0.165927 0.00553903
0.492439 0.171893 0.00541695
0.522438 0.177417 0.00538643
0.550622 0.182559 0.00535592
0.57583 0.186831 0.00535592
0.599069 0.190494 0.00529488
0.621134 0.19382 0.00523384
0.64242 0.196887 0.00517281
0.662837 0.199649 0.00521859
0.68336 0.202335 0.00521859
0.703365 0.204974 0.00521859
0.72253 0.207355 0.00518807
0.740917 0.209552 0.00523384
0.757641 0.211185 0.00531014
0.773587 0.212482 0.00527962
0.785046 0.212497 0.00527962
0.0109255 0.151598 0.0491035
0.0223392 0.151247 0.0488289
0.0337682 0.150698 0.0484169
0.0459907 0.148928 0.0463722
0.059617 0.147082 0.0440375
0.076585 0.144854 0.041413
0.094728 0.142504 0.0371252
0.114626 0.141268 0.0327916
0.142123 0.141955 0.0276493
0.173693 0.144137 0.0229038
0.206958 0.146883 0.0160525
0.240223 0.150088 0.0108949
0.277043 0.154162 0.00881972
0.314916 0.159625 0.0074464
0.352499 0.165545 0.00706493
0.389487 0.171054 0.00633249
0.423835 0.176165 0.00593576
0.457435 0.181201 0.00572213
0.489616 0.186267 0.00555428
0.520195 0.191211 0.00547799
0.548653 0.195926 0.00543221
0.574243 0.199969 0.00541695
0.597467 0.203326 0.00538643
0.619898 0.206668 0.00527962
0.641367 0.209781 0.00523384
0.662135 0.21265 0.00526436
0.682734 0.215198 0.0052491
0.70309 0.217884 0.00521859
0.722515 0.220325 0.00518807
0.741299 0.222599 0.00523384
0.758282 0.224292 0.0053254
0.774838 0.225711 0.00527962
0.786282 0.225727 0.00527962
0.0118715 0.176608 0.0601663
0.02327 0.176165 0.0598001
0.034638 0.17557 0.0592966
0.0466468 0.173632 0.0572061
0.0597238 0.17171 0.0548257
0.0763714 0.16968 0.0526589
0.0934768 0.167422 0.0492103
0.111727 0.165011 0.0444648
0.136858 0.164691 0.0393378
0.168063 0.166247 0.0342718
0.204913 0.16968 0.026688
0.241688 0.173404 0.0162356
0.279484 0.177417 0.0099031
0.317372 0.181872 0.00807202
0.353689 0.186358 0.00756847
0.390219 0.191272 0.00669871
0.423621 0.195132 0.00622568
0.456794 0.199207 0.00595102
0.488472 0.203067 0.00572213
0.518914 0.207004 0.00563058
0.547539 0.210727 0.00556954
0.57348 0.214206 0.00552377
0.596704 0.216999 0.00547799
0.618997 0.219837 0.00538643
0.640681 0.222889 0.00529488
0.66157 0.225742 0.0053254
0.682551 0.228428 0.00531014
0.703029 0.230991 0.00527962
0.722789 0.233494 0.00521859
0.741848 0.235843 0.0052491
0.759197 0.237613 0.0053254
0.776394 0.2392 0.00527962
0.787839 0.239231 0.00527962
0.0126497 0.203861 0.0727092
0.0240635 0.203387 0.0723583
0.0354772 0.202655 0.0717632
0.0474861 0.200473 0.0695811
0.0602731 0.19823 0.0670176
0.0764019 0.196109 0.0648814
0.0933394 0.193927 0.0621347
0.110384 0.191546 0.0581369
0.131685 0.189548 0.0529793
0.16051 0.189853 0.0475624
0.198184 0.19266 0.0394903
0.239246 0.197284 0.0281376
0.281987 0.202945 0.0141146
0.321782 0.207492 0.00875868
0.358129 0.211673 0.00807202
0.394186 0.215518 0.00712596
0.427375 0.218799 0.00633249
0.46009 0.221988 0.00595102
0.491356 0.224674 0.00560006
0.521172 0.227192 0.00555428
0.549172 0.229511 0.00550851
0.575143 0.231693 0.00547799
0.598276 0.233448 0.00544747
0.620157 0.235187 0.00538643
0.641459 0.237354 0.00535592
0.662287 0.239887 0.00535592
0.683177 0.242374 0.0053254
0.703883 0.244892 0.00529488
0.723781 0.247333 0.00521859
0.743038 0.249729 0.00526436
0.760784 0.251575 0.00529488
0.778378 0.253269 0.0052491
0.790066 0.253346 0.0052491
0.0125429 0.233814 0.0872206
0.0239872 0.23328 0.0867933
0.0354314 0.23241 0.0861219
0.0476539 0.230091 0.0839399
0.0606394 0.22739 0.0811017
0.0765545 0.22501 0.0787213
0.0935531 0.22269 0.0762646
0.110292 0.22034 0.0727398
0.130022 0.217975 0.0678111
0.154177 0.216342 0.0622416
0.1879 0.21767 0.0551766
0.231449 0.221897 0.0456092
0.280217 0.228733 0.0285801
0.325765 0.235447 0.0118105
0.36379 0.239658 0.00854505
0.400092 0.242847 0.00697337
0.433341 0.245792 0.00622568
0.465705 0.248631 0.00585946
0.49688 0.250904 0.00549325
0.526772 0.252903 0.00529488
0.554482 0.25388 0.00511177
0.580163 0.254597 0.00508125
0.602899 0.254398 0.005066
0.624338 0.254566 0.00508125
0.644831 0.255024 0.00517281
0.66511 0.256214 0.00520333
0.685634 0.257969 0.00518807
0.706096 0.259983 0.00514229
0.726085 0.262257 0.00505074
0.745388 0.264546 0.00511177
0.763439 0.266392 0.00508125
0.781262 0.268162 0.00502022
0.793317 0.268345 0.00500496
0.016083 0.26772 0.105364
0.0274052 0.266972 0.104768
0.0386816 0.265995 0.103975
0.0504768 0.263371 0.10161
0.0632181 0.260456 0.0987106
0.0784772 0.257984 0.0961624
0.0952316 0.255558 0.0937514
0.112108 0.253178 0.0907759
0.130129 0.250797 0.086244
0.151186 0.248631 0.0808728
0.179126 0.247333 0.0745251
0.218708 0.2495 0.0672007
0.270878 0.255848 0.054963
0.323552 0.263783 0.0309606
0.369772 0.27097 0.0115053
0.408255 0.274357 0.00648508
0.441199 0.275914 0.00578317
0.473548 0.278553 0.00547799
0.504189 0.280034 0.00527962
0.533883 0.281621 0.00503548
0.561044 0.281758 0.00476081
0.586511 0.28159 0.00477607
0.609339 0.280568 0.00471504
0.630808 0.279255 0.004654
0.65124 0.278264 0.00469978
0.670909 0.277455 0.00477607
0.690684 0.277409 0.00476081
0.710582 0.278264 0.00471504
0.729946 0.279286 0.00466926
0.749142 0.281086 0.00468452
0.767285 0.282704 0.00463874
0.785183 0.284428 0.00457771
0.79765 0.284703 0.00456245
0.0195468 0.302358 0.123659
0.0307927 0.301656 0.123095
0.0420081 0.30074 0.122347
0.0537118 0.298283 0.12015
0.0663462 0.295232 0.117327
0.0811017 0.2925 0.114717
0.0973831 0.289906 0.11223
0.115007 0.287266 0.109651
0.13196 0.285008 0.106035
0.151156 0.282841 0.101015
0.175448 0.281086 0.0946365
0.207782 0.280217 0.0879835
0.25481 0.284199 0.0803998
0.313527 0.292042 0.0642405
0.36791 0.300786 0.031632
0.416312 0.308629 0.00984207
0.451392 0.310216 0.00502022
0.482918 0.311452 0.00459297
0.51342 0.312306 0.00422675
0.542809 0.313436 0.00416571
0.569772 0.313207 0.00407416
0.595117 0.312612 0.00402838
0.61796 0.310903 0.00402838
0.639292 0.308797 0.00407416
0.65948 0.306447 0.00418097
0.67892 0.304219 0.0043183
0.698024 0.302174 0.0043183
0.717006 0.300847 0.00434882
0.735088 0.299779 0.00456245
0.753491 0.29987 0.00466926
0.771435 0.300771 0.00460822
0.789212 0.302083 0.00451667
0.801984 0.302388 0.00450141
0.0254215 0.334997 0.140856
0.0365606 0.33431 0.140307
0.0476387 0.333394 0.139574
0.0588693 0.331197 0.137667
0.0710307 0.328405 0.135119
0.0841077 0.325963 0.13283
0.0997177 0.3234 0.130419
0.117617 0.320928 0.128099
0.135424 0.318608 0.125216
0.152743 0.316655 0.121416
0.174731 0.315175 0.11574
0.203677 0.313848 0.107561
0.240284 0.313619 0.101228
0.293339 0.318669 0.0934005
0.356649 0.327993 0.0697795
0.415702 0.338521 0.0308232
0.461921 0.34583 0.00762951
0.492714 0.346212 0.00445563
0.523491 0.346761 0.00268559
0.553185 0.347402 0.00244144
0.57969 0.347066 0.00292973
0.604929 0.346151 0.00334173
0.627512 0.344228 0.00352483
0.648722 0.341848 0.00360113
0.66923 0.339132 0.00352483
0.688853 0.335882 0.00343328
0.707729 0.33257 0.00344854
0.725689 0.329061 0.00366217
0.74287 0.32575 0.00402838
0.760479 0.323583 0.00416571
0.777813 0.322423 0.0041352
0.795209 0.322759 0.00407416
0.808301 0.323018 0.0040589
0.0332036 0.367254 0.157671
0.0444343 0.366552 0.157107
0.0556191 0.365698 0.15642
0.0669871 0.3635 0.154513
0.078996 0.360967 0.152209
0.0915389 0.358694 0.150072
0.104891 0.356435 0.147982
0.120989 0.354253 0.145953
0.138933 0.35198 0.143618
0.155596 0.350134 0.140551
0.175341 0.348913 0.136461
0.202045 0.348058 0.12929
0.233875 0.346899 0.120409
0.274754 0.347005 0.115007
0.334768 0.353658 0.105547
0.403571 0.364782 0.0739147
0.461021 0.375525 0.0311437
0.50547 0.382757 0.00796521
0.534218 0.382422 0.00224308
0.563622 0.382513 0.00114443
0.590341 0.382452 0.00135805
0.615732 0.381628 0.00181582
0.638529 0.379889 0.00199893
0.659922 0.377676 0.00216678
0.680552 0.374853 0.00244144
0.700084 0.37145 0.00250248
0.71841 0.367346 0.00276188
0.73608 0.36289 0.00303655
0.75314 0.357824 0.00314336
0.770291 0.353277 0.00315862
0.786572 0.349706 0.00337224
0.802869 0.347601 0.00352483
0.816022 0.347173 0.00352483
0.0399786 0.399771 0.174868
0.051133 0.399084 0.174304
0.0622263 0.398169 0.173556
0.0733349 0.396078 0.171771
0.0849775 0.393637 0.169574
0.0967422 0.391669 0.167803
0.109285 0.389578 0.165881
0.124056 0.38761 0.164004
0.142473 0.385412 0.161898
0.160021 0.383581 0.15935
0.177737 0.382376 0.156298
0.202426 0.381918 0.15082
0.231525 0.381033 0.142596
0.266712 0.379812 0.133608
0.313573 0.38024 0.129641
0.379446 0.38764 0.114275
0.446983 0.399893 0.0780652
0.505455 0.411749 0.0286717
0.545419 0.418433 0.00944533
0.573785 0.417914 0.00149538
0.599634 0.41735 0.000610361
0.625177 0.416571 0.000335698
0.64828 0.415198 0.000381476
0.670024 0.413031 0.000549325
0.691203 0.410315 0.00120546
0.711162 0.40708 0.00180056
0.729717 0.403357 0.00199893
0.747524 0.399008 0.00218204
0.764797 0.394156 0.0021973
0.781323 0.388617 0.00222782
0.796918 0.383307 0.002533
0.812512 0.379248 0.00276188
0.825589 0.377829 0.0027924
0.0472877 0.431907 0.19173
0.0585184 0.431235 0.19118
0.0696727 0.43032 0.190433
0.0809033 0.428275 0.188678
0.0926528 0.425925 0.186557
0.104417 0.423957 0.184771
0.116594 0.422202 0.183185
0.130205 0.420432 0.181476
0.146273 0.418524 0.17966
0.164202 0.416754 0.177646
0.18175 0.415717 0.175036
0.203662 0.415442 0.171252
0.230411 0.414816 0.164477
0.263386 0.413825 0.154147
0.303258 0.41268 0.146944
0.356191 0.413046 0.142962
0.422705 0.421653 0.12343
0.490242 0.435111 0.0796826
0.545754 0.447211 0.0331579
0.587366 0.45481 0.00857557
0.609949 0.452613 0.00209049
0.633768 0.450904 0
0.657115 0.449561 0
0.679179 0.447715 3.0518e-05
0.700771 0.445335 0.000244144
0.721523 0.442679 0.000564584
0.740932 0.439612 0.000640879
0.759365 0.43592 0.000747692
0.776974 0.431922 0.00077821
0.793759 0.427298 0.00117494
0.809491 0.421881 0.00164797
0.824842 0.416724 0.00170901
0.837934 0.414603 0.00170901
0.0538338 0.463752 0.208499
0.0650339 0.463066 0.207935
0.0761578 0.46215 0.207187
0.0873732 0.460273 0.205554
0.09897 0.457954 0.203479
0.110582 0.456245 0.201953
0.122286 0.454643 0.200504
0.134798 0.453071 0.199023
0.149905 0.451637 0.197589
0.168765 0.450095 0.195987
0.186374 0.449241 0.193942
0.206653 0.449195 0.191119
0.231159 0.448981 0.186038
0.262486 0.448417 0.176364
0.298863 0.447364 0.16611
0.344564 0.44593 0.160769
0.398962 0.446067 0.154788
0.465217 0.455161 0.130846
0.528862 0.468147 0.0883345
0.584375 0.48072 0.0345006
0.621195 0.487526 0.0146639
0.644053 0.485298 0.00393683
0.664775 0.482643 6.10361e-05
0.687007 0.480903 4.57771e-05
0.708644 0.478843 0
0.729961 0.476707 0
0.749874 0.473991 1.5259e-05
0.76907 0.470817 9.15541e-05
0.7879 0.467597 0.00015259
0.805508 0.464027 0.000320439
0.82211 0.459815 0.000732433
0.837507 0.454658 0.0009308
0.850462 0.451743 0.0009308
0.0594797 0.494514 0.224491
0.0707866 0.493904 0.223987
0.0820325 0.493095 0.223316
0.0937514 0.491386 0.221759
0.105837 0.489219 0.21973
0.117586 0.487709 0.218341
0.129366 0.486366 0.217121
0.141588 0.485039 0.215854
0.155581 0.483909 0.214694
0.172564 0.482963 0.213611
0.190707 0.482368 0.212299
0.210254 0.482658 0.210239
0.232807 0.482795 0.206729
0.262379 0.482658 0.199344
0.297276 0.482002 0.188159
0.338155 0.480812 0.178531
0.385275 0.479042 0.174792
0.440681 0.478859 0.165728
0.503777 0.487434 0.139895
0.565835 0.500374 0.0926528
0.617838 0.512505 0.0446937
0.657206 0.520424 0.0158846
0.675776 0.516869 0.00607309
0.693812 0.513039 4.57771e-05
0.715709 0.511177 0
0.737743 0.509483 0
0.758175 0.507195 0
0.777539 0.504555 1.5259e-05
0.796765 0.501808 4.57771e-05
0.81529 0.499001 4.57771e-05
0.832898 0.49575 0.000122072
0.849317 0.491798 0.000213626
0.863005 0.489372 0.000228885
0.0632181 0.523613 0.239292
0.0745251 0.523033 0.238804
0.0858167 0.522255 0.238148
0.0981155 0.520577 0.23653
0.11136 0.51841 0.234318
0.123308 0.517052 0.233036
0.134966 0.515846 0.231922
0.146838 0.514656 0.230823
0.159838 0.513756 0.229892
0.175479 0.513085 0.229068
0.194736 0.51281 0.228351
0.213123 0.513512 0.227192
0.235126 0.51429 0.224537
0.262989 0.514855 0.219196
0.296376 0.514626 0.209644
0.335119 0.513954 0.198016
0.377478 0.512749 0.191073
0.427268 0.510765 0.188006
0.479988 0.50956 0.17499
0.540871 0.517983 0.147005
0.599054 0.529656 0.100816
0.650599 0.542046 0.0474861
0.686687 0.549538 0.0231174
0.703929 0.545663 0.0130007
0.722057 0.541588 0.00131228
0.743999 0.539895 1.5259e-05
0.765164 0.538155 1.5259e-05
0.784756 0.535698 0
0.804349 0.533364 0
0.823713 0.530938 0
0.842145 0.528298 0
0.859525 0.525521 0
0.873976 0.523476 0
0.0652171 0.551675 0.253452
0.0766155 0.551141 0.252964
0.088014 0.550408 0.252354
0.100847 0.548821 0.250751
0.115709 0.54667 0.248325
0.128756 0.545312 0.24686
0.140658 0.544213 0.245808
0.15259 0.543191 0.2448
0.165179 0.542382 0.243992
0.179477 0.54197 0.243381
0.197879 0.541833 0.243
0.21648 0.543053 0.24271
0.236896 0.54432 0.241215
0.263844 0.545693 0.237385
0.295781 0.546242 0.229709
0.333242 0.546105 0.21767
0.372702 0.545449 0.20827
0.418067 0.544152 0.204105
0.466361 0.54107 0.200351
0.516823 0.539284 0.183825
0.57435 0.546487 0.154559
0.630823 0.557717 0.103868
0.678386 0.569451 0.0590524
0.71516 0.577523 0.0306554
0.732876 0.573693 0.0155032
0.750256 0.569406 0.00331121
0.770413 0.567178 1.5259e-05
0.790692 0.565347 0
0.810864 0.563195 0
0.830839 0.561105 0
0.849943 0.558877 0
0.868132 0.556741 0
0.883452 0.555108 0
0.0657511 0.578729 0.266911
0.0771801 0.57821 0.266468
0.0886091 0.577508 0.265873
0.101823 0.576013 0.264286
0.117968 0.573754 0.261585
0.132631 0.57232 0.259831
0.145312 0.571221 0.258656
0.157641 0.57026 0.257649
0.169879 0.56939 0.256779
0.183337 0.568902 0.256184
0.200168 0.569039 0.256031
0.219455 0.570092 0.256107
0.239094 0.572015 0.255512
0.264424 0.573861 0.252964
0.295262 0.575067 0.246784
0.331304 0.57528 0.235767
0.369268 0.575113 0.224292
0.4112 0.574273 0.21796
0.456535 0.571939 0.214984
0.502983 0.5682 0.21033
0.550225 0.565759 0.189914
0.605905 0.572686 0.159426
0.659144 0.583627 0.111345
0.705089 0.595254 0.067155
0.743175 0.60415 0.0360113
0.760693 0.600458 0.0208286
0.777111 0.596063 0.00764477
0.795682 0.593179 1.5259e-05
0.816388 0.591424 1.5259e-05
0.836774 0.589212 0
0.856428 0.587213 0
0.875166 0.585473 0
0.89131 0.584131 0
0.0648661 0.60592 0.280705
0.0763561 0.605325 0.280171
0.0878767 0.604593 0.27953
0.101656 0.603098 0.277897
0.11931 0.600687 0.274861
0.134691 0.59913 0.272877
0.148714 0.597894 0.271412
0.1617 0.596902 0.270283
0.174304 0.596002 0.269306
0.187152 0.595422 0.268589
0.202716 0.595422 0.268345
0.222171 0.596338 0.268589
0.240696 0.59823 0.268467
0.265126 0.600687 0.267033
0.294591 0.602472 0.262409
0.328573 0.603021 0.253529
0.366445 0.603113 0.240757
0.406271 0.602579 0.231479
0.448188 0.600763 0.227863
0.492058 0.597635 0.225193
0.536477 0.593362 0.219089
0.581521 0.590661 0.195056
0.634562 0.597589 0.165194
0.686091 0.608454 0.117418
0.73167 0.620569 0.0748913
0.770809 0.630243 0.0449073
0.7879 0.626719 0.0301213
0.803555 0.622126 0.0119631
0.821073 0.618357 1.5259e-05
0.842039 0.616297 1.5259e-05
0.862074 0.614145 0
0.881086 0.612329 0
0.897826 0.611109 0
0.0607919 0.633661 0.295247
0.0724041 0.633097 0.294728
0.0840925 0.632349 0.294057
0.0987411 0.630777 0.292302
0.119173 0.628107 0.288792
0.135744 0.626459 0.286595
0.150546 0.625177 0.284977
0.164904 0.624109 0.283574
0.178332 0.623117 0.282383
0.191699 0.6224 0.281468
0.206058 0.622187 0.280995
0.224704 0.622782 0.281193
0.242847 0.624567 0.281498
0.265431 0.627024 0.28072
0.293782 0.629404 0.277363
0.326467 0.63032 0.270024
0.36289 0.630686 0.258473
0.402167 0.630457 0.246311
0.442451 0.629084 0.240711
0.483207 0.626719 0.238514
0.525643 0.62298 0.234607
0.568276 0.618326 0.22707
0.611688 0.615671 0.200702
0.663142 0.622599 0.170977
0.713817 0.634211 0.124712
0.759289 0.646784 0.0856641
0.798184 0.656168 0.0543984
0.81471 0.652552 0.0351415
0.829953 0.647349 0.0144198
0.846952 0.642664 0
0.867399 0.640589 0
0.886503 0.63859 0
0.903761 0.637125 0
0.0576638 0.660731 0.309163
0.0691844 0.660151 0.308659
0.080705 0.659464 0.308049
0.0951553 0.65803 0.306432
0.117067 0.65539 0.302861
0.135546 0.653696 0.30042
0.15172 0.652445 0.298619
0.166781 0.651316 0.297078
0.181415 0.650309 0.295705
0.195529 0.64947 0.294545
0.209995 0.649104 0.293873
0.226474 0.649424 0.293812
0.245396 0.650629 0.294102
0.266255 0.653162 0.293812
0.291798 0.655589 0.291768
0.3234 0.657053 0.286046
0.359335 0.657664 0.276066
0.397787 0.657862 0.262715
0.435981 0.657145 0.253422
0.476127 0.655268 0.249821
0.51635 0.652277 0.248783
0.557534 0.647929 0.243961
0.599451 0.643412 0.234974
0.642145 0.640879 0.205661
0.692653 0.648737 0.177584
0.742672 0.661097 0.134112
0.786603 0.672801 0.0966964
0.824689 0.681407 0.0643473
0.841138 0.677348 0.0424048
0.856062 0.671275 0.0181582
0.872587 0.666575 0
0.891768 0.664485 0
0.909377 0.662821 0
0.0562753 0.686305 0.321675
