src/luts/32.cube
TITLE "Generated by ZCAM"
LUT_3D_SIZE 33
0.042625 0.056118 0.062882
0.042625 0.056118 0.062882
0.042625 0.056118 0.062882
0.042625 0.056118 0.062882
0.071310 0.064996 0.068505
0.098084 0.067355 0.069749
0.126018 0.067279 0.069646
0.156602 0.067269 0.069652
0.189658 0.067253 0.069633
0.224782 0.067241 0.069617
0.261623 0.067270 0.069659
0.300055 0.067302 0.069703
0.339964 0.067334 0.069749
0.380904 0.067368 0.069795
0.422662 0.067399 0.069839
0.464961 0.067422 0.069872
0.507490 0.067425 0.069879
0.549940 0.067430 0.069886
0.591841 0.067434 0.069893
0.632980 0.067899 0.079347
0.673162 0.068929 0.100554
0.712201 0.070397 0.130039
0.748645 0.072047 0.162518
0.782253 0.073863 0.197754
0.816002 0.075782 0.235342
0.847286 0.077777 0.274817
0.875340 0.079827 0.315958
0.900231 0.081902 0.358706
0.922112 0.083935 0.402491
0.940911 0.085880 0.447020
0.956593 0.087672 0.491943
0.969522 0.089248 0.536834
0.979556 0.088160 0.577551
0.042625 0.056118 0.062882
0.042625 0.056118 0.062882
0.042625 0.056118 0.062882
0.042625 0.056118 0.062882
0.071310 0.064996 0.068505
0.098084 0.067355 0.069749
0.126018 0.067279 0.069646
0.156602 0.067269 0.069652
0.189658 0.067253 0.069633
0.224782 0.067241 0.069617
0.261623 0.067270 0.069659
0.300055 0.067302 0.069703
0.339964 0.067334 0.069749
0.380904 0.067368 0.069795
0.422662 0.067399 0.069839
0.464961 0.067422 0.069872
0.507490 0.067425 0.069879
0.549940 0.067430 0.069886
0.591841 0.067434 0.069893
0.632980 0.067899 0.079347
0.673162 0.068929 0.100554
0.712201 0.070397 0.130039
0.748645 0.072047 0.162518
0.782253 0.073863 0.197754
0.816002 0.075782 0.235342
0.847286 0.077777 0.274817
0.875340 0.079827 0.315958
0.900231 0.081902 0.358706
0.922112 0.083935 0.402491
0.940911 0.085880 0.447020
0.956593 0.087672 0.491943
0.969522 0.089248 0.536834
0.979556 0.088160 0.577551
0.042625 0.056118 0.062882
0.042625 0.056118 0.062882
0.042625 0.056118 0.062882
0.042625 0.056118 0.062882
0.071310 0.064996 0.068505
0.098084 0.067355 0.069749
0.126018 0.067279 0.069646
0.156602 0.067269 0.069652
0.189658 0.067253 0.069633
0.224782 0.067241 0.069617
0.261623 0.067270 0.069659
0.300055 0.067302 0.069703
0.339964 0.067334 0.069749
0.380904 0.067368 0.069795
0.422662 0.067399 0.069839
0.464961 0.067422 0.069872
0.507490 0.067425 0.069879
0.549940 0.067430 0.069886
0.591841 0.067434 0.069893
0.632980 0.067899 0.079347
0.673162 0.068929 0.100554
0.712201 0.070397 0.130039
0.748645 0.072047 0.162518
0.782253 0.073863 0.197754
0.816002 0.075782 0.235342
0.847286 0.077777 0.274817
0.875340 0.079827 0.315958
0.900231 0.081902 0.358706
0.922112 0.083935 0.402491
0.940911 0.085880 0.447020
0.956593 0.087672 0.491943
0.969522 0.089248 0.536834
0.979556 0.088160 0.577551
0.042625 0.056118 0.062882
0.042625 0.056118 0.062882
0.042625 0.056118 0.062882
0.042625 0.056118 0.062882
0.042625 0.056118 0.062882
0.071567 0.065078 0.068556
0.103672 0.067322 0.069698
0.136984 0.067276 0.069652
0.172624 0.067262 0.069644
0.210257 0.067244 0.069621
0.249364 0.067260 0.069645
0.289723 0.067293 0.069691
0.331350 0.067328 0.069739
0.373766 0.067362 0.069787
0.416783 0.067395 0.069834
0.460161 0.067421 0.069871
0.503594 0.067425 0.069878
0.546793 0.067430 0.069885
0.589332 0.067434 0.069892
0.630992 0.067438 0.069900
0.671594 0.067821 0.077946
0.710971 0.069076 0.104422
0.747750 0.070827 0.139872
0.781544 0.072767 0.177963
0.815433 0.074838 0.218384
0.846873 0.076976 0.260487
0.875040 0.079160 0.303917
0.900016 0.081357 0.348627
0.921960 0.083505 0.394178
0.940807 0.085547 0.440198
0.956522 0.087429 0.486405
0.969476 0.089082 0.532370
0.979528 0.088497 0.574647
0.044118 0.063219 0.064729
0.044118 0.063219 0.064729
0.044118 0.063219 0.064729
0.042578 0.056245 0.062883
0.042625 0.056118 0.062882
0.061212 0.061765 0.066480
0.097986 0.067355 0.069750
0.131975 0.067278 0.069649
0.168290 0.067263 0.069646
0.206583 0.067245 0.069623
0.246302 0.067257 0.069641
0.287156 0.067291 0.069688
0.329204 0.067326 0.069736
0.372001 0.067360 0.069785
0.415335 0.067394 0.069832
0.458981 0.067421 0.069870
0.502639 0.067425 0.069878
0.546023 0.067430 0.069885
0.588720 0.067434 0.069892
0.630506 0.067438 0.069899
0.671211 0.067616 0.073638
0.710672 0.068774 0.098205
0.747532 0.070526 0.134059
0.781372 0.072492 0.172962
0.815295 0.074601 0.214111
0.846773 0.076777 0.256895
0.874967 0.078993 0.300903
0.899963 0.081221 0.346122
0.921923 0.083398 0.392115
0.940782 0.085465 0.438511
0.956505 0.087369 0.485039
0.969464 0.089039 0.531272
0.979522 0.088579 0.573937
0.048725 0.086064 0.069488
0.048725 0.086064 0.069488
0.048725 0.086064 0.069488
0.048350 0.077964 0.069068
0.047616 0.075408 0.068316
0.051517 0.072981 0.067859
0.088678 0.076049 0.069839
0.125676 0.072096 0.067478
0.162869 0.070038 0.069058
0.201992 0.067247 0.069625
0.242453 0.067254 0.069636
0.283945 0.067289 0.069685
0.326536 0.067324 0.069733
0.369805 0.067359 0.069783
0.413537 0.067392 0.069831
0.457518 0.067420 0.069869
0.501455 0.067425 0.069878
0.545070 0.067429 0.069885
0.587961 0.067434 0.069892
0.629907 0.067438 0.069899
0.670740 0.067442 0.069906
0.710301 0.068425 0.091025
0.747262 0.070148 0.126714
0.781159 0.072155 0.166652
0.815125 0.074305 0.208751
0.846649 0.076529 0.252398
0.874877 0.078786 0.297151
0.899899 0.081052 0.342996
0.921877 0.083264 0.389551
0.940750 0.085363 0.436420
0.956484 0.087295 0.483348
0.969451 0.088986 0.529910
0.979513 0.088681 0.573057
0.048673 0.112070 0.069511
0.048673 0.112070 0.069511
0.048673 0.112070 0.069511
0.048681 0.103785 0.069505
0.048683 0.101783 0.069503
0.048685 0.099187 0.069501
0.067940 0.095901 0.069983
0.117657 0.097919 0.071667
0.156026 0.089408 0.065692
0.196206 0.084633 0.066715
0.237625 0.079493 0.068488
0.279935 0.072946 0.069358
0.323207 0.067321 0.069729
0.367072 0.067356 0.069780
0.411302 0.067391 0.069828
0.455703 0.067419 0.069868
0.499988 0.067425 0.069877
0.543888 0.067429 0.069885
0.587024 0.067434 0.069892
0.629166 0.067438 0.069899
0.670156 0.067442 0.069906
0.709844 0.068040 0.082838
0.746930 0.069682 0.117475
0.780898 0.071728 0.158686
0.814914 0.073935 0.201976
0.846497 0.076216 0.246732
0.874767 0.078526 0.292450
0.899820 0.080841 0.339095
0.921821 0.083097 0.386357
0.940712 0.085237 0.433819
0.956458 0.087203 0.481247
0.969434 0.088919 0.528219
0.979503 0.088807 0.571967
0.048594 0.141723 0.069547
0.048594 0.141723 0.069547
0.048594 0.141723 0.069547
0.048613 0.134277 0.069538
0.048618 0.132413 0.069536
0.048624 0.130118 0.069534
0.058291 0.127292 0.070241
0.092069 0.123709 0.070220
0.147315 0.128460 0.076357
0.188863 0.117180 0.067964
0.231540 0.107462 0.063928
0.274903 0.100283 0.066444
0.319038 0.090690 0.068481
0.363663 0.079350 0.069507
0.408519 0.067843 0.069831
0.453446 0.067418 0.069867
0.498166 0.067425 0.069877
0.542424 0.067429 0.069884
0.585863 0.067434 0.069892
0.628248 0.067438 0.069899
0.669435 0.067442 0.069906
0.709279 0.067637 0.074099
0.746519 0.069104 0.105786
0.780575 0.071200 0.148574
0.814655 0.073463 0.193352
0.846309 0.075823 0.239566
0.874630 0.078202 0.286535
0.899722 0.080576 0.334206
0.921752 0.082889 0.382364
0.940665 0.085078 0.430575
0.956426 0.087084 0.478627
0.969413 0.088836 0.526119
0.979490 0.088964 0.570616
0.048586 0.173747 0.069556
0.048586 0.173747 0.069556
0.048586 0.173747 0.069556
0.048583 0.167212 0.069556
0.048583 0.165612 0.069556
0.048582 0.163618 0.069556
0.050153 0.161125 0.069678
0.077130 0.158056 0.071141
0.120303 0.154182 0.070507
0.179496 0.160518 0.079309
0.223790 0.149646 0.072113
0.268543 0.138170 0.066473
0.313804 0.126200 0.063335
0.359390 0.115635 0.066738
0.405042 0.100651 0.068919
0.450632 0.081947 0.069847
0.495898 0.067425 0.069877
0.540604 0.067429 0.069884
0.584423 0.067433 0.069892
0.627113 0.067438 0.069899
0.668543 0.067441 0.069906
0.708579 0.067446 0.069912
0.746010 0.068441 0.091807
0.780176 0.070529 0.135514
0.814335 0.072872 0.182341
0.846076 0.075327 0.230445
0.874462 0.077792 0.279063
0.899601 0.080242 0.328038
0.921666 0.082627 0.377350
0.940606 0.084877 0.426516
0.956387 0.086936 0.475358
0.969387 0.088733 0.523503
0.979475 0.089158 0.568936
0.048596 0.208074 0.069559
0.048596 0.208074 0.069559
0.048596 0.208074 0.069559
0.048595 0.202458 0.069558
0.048594 0.201068 0.069558
0.048594 0.199355 0.069558
0.048593 0.197244 0.069558
0.062948 0.194576 0.070688
0.103640 0.191291 0.071550
0.150938 0.187137 0.070791
0.213879 0.194553 0.081473
0.260466 0.183877 0.075317
0.307175 0.172045 0.070113
0.354013 0.158139 0.065285
0.400682 0.143491 0.064048
0.447116 0.127582 0.067529
0.493070 0.104642 0.069570
0.538340 0.076175 0.070022
0.582635 0.067433 0.069891
0.625703 0.067437 0.069898
0.667437 0.067441 0.069906
0.707712 0.067446 0.069912
0.745381 0.067768 0.077050
0.779685 0.069684 0.118509
0.813939 0.072123 0.168171
0.845790 0.074692 0.218743
0.874254 0.077271 0.269520
0.899452 0.079819 0.320235
0.921561 0.082295 0.371030
0.940534 0.084624 0.421416
0.956338 0.086750 0.471263
0.969355 0.088604 0.520239
0.979456 0.089400 0.566848
0.048561 0.244244 0.069565
0.048561 0.244244 0.069565
0.048561 0.244244 0.069565
0.048570 0.239474 0.069564
0.048572 0.238302 0.069564
0.048574 0.236860 0.069564
0.048577 0.235051 0.069563
0.050066 0.232812 0.069679
0.083406 0.230026 0.072137
0.132965 0.226549 0.071883
0.183964 0.222179 0.071050
0.250008 0.230450 0.083192
0.298738 0.220042 0.077978
0.347199 0.208001 0.073259
0.395188 0.193527 0.068694
0.442700 0.175411 0.063909
0.489529 0.156648 0.065349
0.535515 0.132238 0.068739
0.580410 0.095926 0.070250
0.623953 0.067437 0.069898
0.666064 0.067441 0.069905
0.706636 0.067446 0.069912
0.744600 0.067449 0.069918
0.779077 0.068655 0.096837
0.813451 0.071171 0.149674
0.845436 0.073874 0.203558
0.873997 0.076606 0.257251
0.899268 0.079281 0.310288
0.921431 0.081873 0.363000
0.940445 0.084304 0.414978
0.956278 0.086517 0.466111
0.969316 0.088443 0.516154
0.979432 0.089654 0.564170
0.048494 0.282017 0.069573
0.048494 0.282017 0.069573
0.048494 0.282017 0.069573
0.048502 0.277989 0.069572
0.048503 0.276997 0.069572
0.048506 0.275775 0.069572
0.048508 0.274270 0.069572
0.048512 0.272383 0.069571
0.062790 0.270057 0.070682
0.109629 0.267140 0.073085
0.164772 0.263506 0.072210
0.218926 0.258948 0.071321
0.287902 0.268144 0.084866
0.338514 0.257804 0.080295
0.388230 0.245681 0.076094
0.437129 0.230811 0.071861
0.485083 0.212021 0.067323
0.531982 0.188011 0.062896
0.577633 0.162042 0.067191
0.621772 0.123030 0.070079
0.664358 0.070250 0.069989
0.705300 0.067446 0.069912
0.743629 0.067449 0.069918
0.778327 0.067651 0.074481
0.812847 0.069944 0.124891
0.844997 0.072816 0.183506
0.873679 0.075747 0.241238
0.899041 0.078592 0.297497
0.921270 0.081330 0.352727
0.940335 0.083892 0.406790
0.956204 0.086215 0.459597
0.969267 0.088232 0.511007
0.979403 0.089606 0.560262
0.048424 0.321377 0.069582
0.048424 0.321377 0.069582
0.048424 0.321377 0.069582
0.048430 0.317981 0.069581
0.048432 0.317150 0.069581
0.048433 0.316120 0.069581
0.048436 0.314851 0.069581
0.048438 0.313276 0.069580
0.048442 0.311320 0.069580
0.082913 0.308887 0.072264
0.139587 0.305858 0.073483
0.198690 0.302066 0.072540
0.255506 0.297305 0.071617
0.327025 0.306922 0.086033
0.379340 0.296999 0.082426
0.430053 0.284779 0.078657
0.479469 0.269633 0.074775
0.527546 0.250309 0.070524
0.574156 0.224883 0.065574
0.619049 0.193745 0.064798
0.662232 0.152504 0.069339
0.703636 0.086390 0.070436
0.742421 0.067449 0.069917
0.777398 0.067452 0.069923
0.812099 0.068437 0.092475
0.844455 0.071441 0.156645
0.873286 0.074613 0.219963
0.898761 0.077696 0.280777
0.921072 0.080628 0.339436
0.940199 0.083363 0.396300
0.956113 0.085828 0.451312
0.969207 0.087963 0.504503
0.979367 0.089547 0.555347
0.048353 0.361925 0.069591
0.048353 0.361925 0.069591
0.048353 0.361925 0.069591
0.048358 0.359104 0.069591
0.048359 0.358414 0.069590
0.048360 0.357564 0.069590
0.048362 0.356511 0.069590
0.048364 0.355204 0.069590
0.048367 0.353589 0.069589
0.053506 0.351580 0.069991
0.107308 0.349080 0.074104
0.171999 0.345963 0.073872
0.234390 0.342066 0.072894
0.293718 0.337167 0.071980
0.367870 0.347795 0.087743
0.421006 0.337680 0.084397
0.472348 0.325359 0.081052
0.521951 0.309915 0.077513
0.569782 0.290092 0.073554
0.615638 0.263892 0.068873
0.659573 0.227992 0.063193
0.701562 0.184021 0.067902
0.740910 0.111077 0.070838
0.776248 0.067452 0.069923
0.811172 0.067456 0.069929
0.843783 0.069635 0.119298
0.872800 0.073100 0.191037
0.898414 0.076513 0.258507
0.920827 0.079706 0.322014
0.940032 0.082670 0.382712
0.956000 0.085325 0.440685
0.969133 0.087616 0.496219
0.979323 0.089475 0.549132
0.048281 0.403388 0.069601
0.048281 0.403388 0.069601
0.048281 0.403388 0.069601
0.048285 0.401054 0.069600
0.048286 0.400486 0.069600
0.048287 0.399780 0.069600
0.048288 0.398911 0.069600
0.048290 0.397838 0.069599
0.048292 0.396504 0.069599
0.048295 0.394853 0.069599
0.069056 0.392805 0.071226
0.135523 0.390254 0.075357
0.206428 0.387068 0.074269
0.271697 0.383082 0.073285
0.333257 0.378067 0.072350
0.409012 0.389096 0.088773
0.463240 0.379459 0.086253
0.514841 0.367145 0.083298
0.564252 0.351563 0.080095
0.611344 0.331362 0.076453
0.656239 0.304404 0.072060
0.698968 0.267133 0.066377
0.739016 0.217182 0.065634
0.774821 0.139991 0.070871
0.810023 0.067456 0.069929
0.842949 0.067636 0.074155
0.872196 0.071074 0.150481
0.897984 0.074908 0.227964
0.920523 0.078481 0.298793
0.939824 0.081751 0.364831
0.955861 0.084661 0.426885
0.969042 0.087157 0.485554
0.979268 0.089190 0.540918
0.048212 0.445538 0.069610
0.048212 0.445538 0.069610
0.048212 0.445538 0.069610
0.048214 0.443622 0.069609
0.048215 0.443156 0.069609
0.048216 0.442578 0.069609
0.048217 0.441865 0.069609
0.048219 0.440987 0.069609
0.048220 0.439894 0.069609
0.048223 0.438545 0.069608
0.048225 0.436871 0.069608
0.091257 0.434788 0.072978
0.167819 0.432193 0.075798
0.242552 0.428955 0.074687
0.310588 0.424898 0.073674
0.373763 0.419799 0.072725
0.451352 0.431781 0.090314
0.505726 0.422065 0.087994
0.557209 0.409794 0.085415
0.605908 0.394152 0.082554
0.652037 0.373739 0.079223
0.695717 0.346339 0.075142
0.736633 0.308004 0.069777
0.773045 0.251712 0.062757
0.808594 0.170961 0.070309
0.841912 0.067459 0.069934
0.871448 0.068381 0.091813
0.897451 0.072675 0.184337
0.920148 0.076813 0.266873
0.939568 0.080507 0.340782
0.955688 0.083770 0.408669
0.968930 0.086544 0.471656
0.979201 0.088796 0.530298
0.048175 0.488021 0.069616
0.048175 0.488021 0.069616
0.048175 0.488021 0.069616
0.048176 0.486456 0.069616
0.048176 0.486074 0.069616
0.048176 0.485604 0.069616
0.048177 0.485024 0.069616
0.048177 0.484306 0.069616
0.048178 0.483420 0.069616
0.048179 0.482321 0.069615
0.048180 0.480961 0.069615
0.048181 0.479274 0.069615
0.116565 0.477178 0.074965
0.202150 0.474569 0.076241
0.280329 0.471312 0.075095
0.350578 0.467230 0.074063
0.415036 0.462094 0.073104
0.493896 0.474933 0.091688
0.548147 0.465299 0.089664
0.598974 0.453119 0.087420
0.646715 0.437456 0.084872
0.691628 0.416929 0.081857
0.733623 0.389222 0.078108
0.770829 0.350278 0.073148
0.806814 0.291707 0.065703
0.840619 0.203862 0.069031
0.870516 0.067461 0.069939
0.896789 0.069535 0.118417
0.919682 0.074432 0.220807
0.939250 0.078783 0.307505
0.955475 0.082547 0.384096
0.968790 0.085708 0.453231
0.979117 0.088256 0.516406
0.048145 0.530541 0.069623
0.048145 0.530541 0.069623
0.048145 0.530541 0.069623
0.048146 0.529275 0.069623
0.048146 0.528967 0.069623
0.048146 0.528587 0.069623
0.048146 0.528119 0.069622
0.048147 0.527539 0.069622
0.048147 0.526825 0.069622
0.048148 0.525940 0.069622
0.048149 0.524846 0.069622
0.048150 0.523491 0.069622
0.050129 0.521810 0.069779
0.143955 0.519719 0.077103
0.238223 0.517115 0.076669
0.319560 0.513859 0.075491
0.391462 0.509778 0.074445
0.456724 0.504633 0.073481
0.535880 0.517789 0.092474
0.590051 0.508807 0.091255
0.639931 0.496767 0.089328
0.686468 0.481223 0.087080
0.729803 0.460728 0.084377
0.768050 0.432883 0.081002
0.804579 0.393456 0.076366
0.839003 0.333716 0.069308
0.869353 0.238160 0.066919
0.895965 0.067464 0.069943
0.919102 0.070930 0.149456
0.938855 0.076310 0.259356
0.955210 0.080812 0.349825
0.968617 0.084541 0.428301
0.979013 0.087506 0.497982
0.048115 0.572788 0.069629
0.048115 0.572788 0.069629
0.048115 0.572788 0.069629
0.048115 0.571775 0.069629
0.048116 0.571529 0.069629
0.048116 0.571226 0.069629
0.048116 0.570851 0.069629
0.048116 0.570389 0.069629
0.048117 0.569817 0.069628
0.048117 0.569112 0.069628
0.048118 0.568239 0.069628
0.048119 0.567158 0.069628
0.048120 0.565818 0.069628
0.063196 0.564155 0.070827
0.175082 0.562086 0.078524
0.275972 0.559506 0.077074
0.359847 0.556279 0.075873
0.432986 0.552227 0.074819
0.498568 0.547106 0.073857
0.578235 0.561301 0.093942
0.631209 0.552284 0.092767
0.679893 0.540476 0.091131
0.724923 0.525137 0.089173
0.764543 0.504801 0.086810
0.801763 0.476991 0.083738
0.836973 0.437337 0.079444
0.867899 0.376790 0.072860
0.894937 0.273458 0.063856
0.918382 0.067466 0.069946
0.938364 0.072491 0.183174
0.954882 0.078257 0.299662
0.968402 0.082847 0.393359
0.978884 0.086428 0.472893
0.048085 0.614336 0.069635
0.048085 0.614336 0.069635
0.048085 0.614336 0.069635
0.048086 0.613530 0.069635
0.048086 0.613334 0.069635
0.048086 0.613092 0.069635
0.048086 0.612794 0.069635
0.048086 0.612426 0.069635
0.048087 0.611972 0.069635
0.048087 0.611411 0.069635
0.048088 0.610718 0.069635
0.048088 0.609860 0.069634
0.048089 0.608798 0.069634
0.048090 0.607481 0.069634
0.083611 0.605846 0.072455
0.210114 0.603811 0.078943
0.315222 0.601271 0.077449
0.400992 0.598094 0.076233
0.474834 0.594102 0.075177
0.540261 0.589064 0.074224
0.619845 0.604321 0.095318
0.671422 0.595420 0.094209
0.718650 0.583923 0.092828
0.760088 0.568903 0.091173
0.798204 0.548793 0.089083
0.834413 0.521222 0.086305
0.866071 0.481641 0.082419
0.893651 0.420687 0.076334
0.917482 0.312933 0.064650
0.937752 0.068694 0.070005
0.954474 0.074216 0.219534
0.968135 0.080272 0.341685
0.978723 0.084823 0.437470
0.048057 0.654998 0.069641
0.048057 0.654998 0.069641
0.048057 0.654998 0.069641
0.048057 0.654358 0.069641
0.048057 0.654202 0.069641
0.048057 0.654011 0.069641
0.048058 0.653774 0.069641
0.048058 0.653482 0.069641
0.048058 0.653122 0.069641
0.048058 0.652678 0.069641
0.048059 0.652129 0.069641
0.048059 0.651450 0.069641
0.048060 0.650611 0.069641
0.048060 0.649571 0.069640
0.048061 0.648282 0.069640
0.108066 0.646681 0.074392
0.246858 0.644689 0.079323
0.355558 0.642206 0.077794
0.442680 0.639098 0.076570
0.516686 0.635197 0.075520
0.581331 0.630274 0.074582
0.659382 0.645414 0.095475
0.710506 0.637798 0.095566
0.754431 0.626666 0.094446
0.793695 0.612025 0.093036
0.831160 0.592399 0.091191
0.863765 0.565297 0.088751
0.892035 0.526070 0.085271
0.916354 0.465129 0.079690
0.936987 0.355883 0.068679
0.953964 0.083919 0.074835
0.967803 0.076072 0.258015
0.978523 0.082300 0.384706
0.048028 0.694534 0.069647
0.048028 0.694534 0.069647
0.048028 0.694534 0.069647
0.048029 0.694028 0.069647
0.048029 0.693905 0.069647
0.048029 0.693754 0.069647
0.048029 0.693567 0.069647
0.048029 0.693337 0.069647
0.048029 0.693053 0.069647
0.048030 0.692703 0.069647
0.048030 0.692271 0.069647
0.048030 0.691737 0.069647
0.048031 0.691078 0.069647
0.048031 0.690264 0.069647
0.048032 0.689256 0.069646
0.048033 0.688007 0.069646
0.134774 0.686456 0.076497
0.285321 0.684527 0.079661
0.396773 0.682120 0.078108
0.484632 0.679108 0.076883
0.558136 0.675321 0.075847
0.621574 0.670536 0.074930
0.699726 0.687498 0.097528
0.747113 0.679242 0.096856
0.787982 0.668477 0.095953
0.826988 0.654278 0.094742
0.860837 0.635215 0.093170
0.889994 0.608748 0.091052
0.914937 0.570289 0.087971
0.936027 0.509771 0.082906
0.953328 0.399742 0.072628
0.967388 0.108558 0.093224
0.978273 0.077993 0.297798
0.048001 0.732542 0.069653
0.048001 0.732542 0.069653
0.048001 0.732542 0.069653
0.048001 0.732159 0.069653
0.048001 0.732066 0.069653
0.048001 0.731951 0.069653
0.048002 0.731810 0.069653
0.048002 0.731635 0.069653
0.048002 0.731420 0.069653
0.048002 0.731155 0.069653
0.048002 0.730827 0.069653
0.048003 0.730422 0.069653
0.048003 0.729921 0.069653
0.048003 0.729302 0.069653
0.048004 0.728534 0.069652
0.048005 0.727582 0.069652
0.048006 0.726400 0.069652
0.163602 0.724928 0.078760
0.325125 0.723093 0.079957
0.438558 0.720797 0.078390
0.526526 0.717916 0.077173
0.598902 0.714285 0.076159
0.660794 0.709665 0.075267
0.735671 0.725786 0.096898
0.780753 0.719509 0.098076
0.821577 0.709147 0.097333
0.857092 0.695495 0.096336
0.887399 0.677054 0.095014
0.913144 0.651335 0.093189
0.934817 0.613793 0.090484
0.952530 0.554273 0.085957
0.966868 0.444268 0.076456
0.977960 0.140574 0.119497
0.047977 0.767071 0.069658
0.047977 0.767071 0.069658
0.047977 0.767071 0.069658
0.047977 0.766785 0.069658
0.047977 0.766716 0.069658
0.047977 0.766631 0.069658
0.047977 0.766525 0.069658
0.047977 0.766395 0.069658
0.047978 0.766235 0.069658
0.047978 0.766038 0.069658
0.047978 0.765794 0.069658
0.047978 0.765494 0.069658
0.047978 0.765123 0.069658
0.047979 0.764664 0.069658
0.047979 0.764096 0.069658
0.047980 0.763393 0.069658
0.047980 0.762522 0.069658
0.047981 0.761443 0.069658
0.194167 0.760105 0.081147
0.366037 0.758444 0.080172
0.480705 0.756374 0.078602
0.567949 0.753783 0.077407
0.638845 0.750521 0.076423
0.698807 0.746371 0.075567
0.768890 0.762750 0.096940
0.814511 0.758111 0.099186
0.852258 0.748455 0.098617
0.884076 0.735493 0.097820
0.910863 0.717669 0.096715
0.933284 0.692859 0.095163
0.951525 0.656386 0.092818
0.966214 0.598242 0.088798
0.977565 0.489581 0.080171
0.047953 0.800781 0.069663
0.047953 0.800781 0.069663
0.047953 0.800781 0.069663
0.047953 0.800545 0.069663
0.047953 0.800488 0.069663
0.047953 0.800418 0.069663
0.047954 0.800331 0.069663
0.047954 0.800224 0.069663
0.047954 0.800092 0.069663
0.047954 0.799930 0.069663
0.047954 0.799730 0.069663
0.047954 0.799482 0.069663
0.047954 0.799177 0.069663
0.047955 0.798801 0.069663
0.047955 0.798335 0.069663
0.047955 0.797760 0.069662
0.047956 0.797049 0.069662
0.047957 0.796168 0.069662
0.047957 0.795077 0.069662
0.227885 0.793722 0.082788
0.407783 0.792040 0.080339
0.522835 0.789948 0.078773
0.608658 0.787343 0.077602
0.677751 0.784099 0.076644
0.733611 0.780044 0.075843
0.803011 0.797577 0.098169
0.845948 0.793141 0.100162
0.879777 0.784373 0.099743
0.907938 0.772778 0.099131
0.931327 0.756627 0.098257
0.950252 0.733134 0.096968
0.965388 0.697863 0.094947
0.977066 0.641572 0.091438
0.047930 0.833526 0.069668
0.047930 0.833526 0.069668
0.047930 0.833526 0.069668
0.047930 0.833352 0.069668
0.047930 0.833309 0.069668
0.047930 0.833257 0.069668
0.047930 0.833193 0.069668
0.047930 0.833114 0.069668
0.047930 0.833016 0.069668
0.047930 0.832896 0.069668
0.047930 0.832747 0.069668
0.047931 0.832564 0.069668
0.047931 0.832338 0.069668
0.047931 0.832059 0.069668
0.047931 0.831714 0.069668
0.047931 0.831288 0.069668
0.047932 0.830760 0.069668
0.047932 0.830106 0.069668
0.047933 0.829293 0.069667
0.047934 0.828282 0.069667
0.266067 0.827021 0.083014
0.449913 0.825443 0.080501
0.564366 0.823463 0.078952
0.648356 0.820970 0.077812
0.714483 0.817818 0.076895
0.766693 0.813817 0.076143
0.835241 0.831795 0.098919
0.874138 0.827463 0.101100
0.904146 0.818648 0.100780
0.928805 0.807121 0.100275
0.948625 0.791950 0.099570
0.964338 0.770780 0.098548
0.976432 0.738162 0.096885
0.047909 0.862973 0.069672
0.047909 0.862973 0.069672
0.047909 0.862973 0.069672
0.047909 0.862846 0.069672
0.047909 0.862815 0.069672
0.047909 0.862777 0.069672
0.047909 0.862730 0.069672
0.047909 0.862672 0.069672
0.047909 0.862601 0.069672
0.047909 0.862513 0.069672
0.047910 0.862404 0.069672
0.047910 0.862271 0.069672
0.047910 0.862106 0.069672
0.047910 0.861902 0.069672
0.047910 0.861651 0.069672
0.047910 0.861341 0.069672
0.047911 0.860957 0.069672
0.047911 0.860482 0.069672
0.047911 0.859894 0.069672
0.047912 0.859164 0.069672
0.047913 0.858257 0.069672
0.305890 0.857127 0.083122
0.492266 0.855716 0.080593
0.605222 0.853947 0.079076
0.686962 0.851723 0.077974
0.747932 0.848910 0.077132
0.799628 0.845332 0.076397
0.862312 0.862347 0.097742
0.899167 0.860640 0.101976
