src/luts/32.cube
TITLE "Generated by ZCAM"
LUT_3D_SIZE 5
0.042625 0.056118 0.062882
0.189658 0.067253 0.069633
0.507490 0.067425 0.069879
0.816002 0.075782 0.235342
0.979556 0.088160 0.577551
0.048586 0.173747 0.069556
0.120303 0.154182 0.070507
0.495898 0.067425 0.069877
0.814335 0.072872 0.182341
0.979475 0.089158 0.568936
0.048175 0.488021 0.069616
0.048178 0.483420 0.069616
0.415036 0.462094 0.073104
0.806814 0.291707 0.065703
0.979117 0.088256 0.516406
0.047953 0.800781 0.069663
0.047954 0.800092 0.069663
0.047956 0.797049 0.069662
0.733611 0.780044 0.075843
0.977066 0.641572 0.091438
0.047829 0.975349 0.069689
0.047830 0.975311 0.069689
0.047830 0.975145 0.069689
0.047830 0.974239 0.069689
0.932796 0.968720 0.077243
0.042096 0.055787 0.173019
0.158361 0.057186 0.181219
0.504484 0.079276 0.234055
0.815562 0.082535 0.349649
0.979535 0.085531 0.601262
0.047028 0.142946 0.121416
0.087695 0.111684 0.125450
0.492709 0.074591 0.176847
0.813889 0.080593 0.317204
0.979453 0.086339 0.593775
0.048180 0.480886 0.069615
0.048183 0.476123 0.069615
0.411011 0.454013 0.072981
0.806342 0.271893 0.083119
0.979095 0.089544 0.555156
0.047954 0.799719 0.069663
0.047955 0.799025 0.069663
0.047957 0.795958 0.069662
0.733007 0.778862 0.075825
0.977041 0.637932 0.091211
0.047830 0.975291 0.069689
0.047830 0.975252 0.069689
0.047830 0.975085 0.069689
0.047830 0.974177 0.069689
0.932750 0.968642 0.077241
0.045900 0.057018 0.489337
0.091623 0.056629 0.491064
0.478642 0.058473 0.498423
0.813627 0.081601 0.562069
0.979441 0.078132 0.677539
0.045642 0.056936 0.476309
0.045679 0.056948 0.478148
0.465951 0.058720 0.486382
0.811930 0.082400 0.552869
0.979359 0.078538 0.672829
0.051429 0.446623 0.413181
0.051913 0.441013 0.415467
0.327693 0.386806 0.421486
0.804260 0.204017 0.521974
0.978998 0.080547 0.650572
0.047958 0.794990 0.069662
0.047958 0.794274 0.069662
0.047960 0.791116 0.069661
0.730349 0.773611 0.075747
0.976931 0.615878 0.377314
0.047830 0.975033 0.069689
0.047830 0.974994 0.069689
0.047830 0.974825 0.069689
0.047830 0.973905 0.069689
0.932549 0.968297 0.077237
0.054580 0.059878 0.802168
0.054589 0.059881 0.802428
0.387180 0.058868 0.803555
0.798252 0.061013 0.809359
0.978935 0.067221 0.842877
0.054512 0.059855 0.800257
0.054521 0.059858 0.800521
0.367462 0.058897 0.801667
0.796463 0.061147 0.807736
0.978850 0.067281 0.841571
0.054207 0.059753 0.791614
0.054217 0.059756 0.791893
0.252215 0.059125 0.793106
0.787740 0.060912 0.799381
0.978476 0.067553 0.835638
0.057698 0.767842 0.738962
0.057736 0.767012 0.739356
0.057901 0.763323 0.741053
0.673479 0.719885 0.747694
0.974386 0.508450 0.826869
0.047831 0.973613 0.069689
0.047831 0.973572 0.069689
0.047831 0.973391 0.069689
0.047832 0.972406 0.069689
0.932211 0.967169 0.078001
0.061479 0.062197 0.975771
0.061479 0.062197 0.975786
0.061482 0.062198 0.975848
0.726097 0.061961 0.976172
0.975505 0.062474 0.977898
0.061474 0.062195 0.975667
0.061475 0.062196 0.975682
0.061478 0.062197 0.975744
0.722879 0.061958 0.976071
0.975402 0.062474 0.977805
0.061454 0.062189 0.975207
0.061455 0.062189 0.975222
0.061457 0.062190 0.975286
0.707869 0.061949 0.975620
0.974947 0.062471 0.977393
0.061251 0.125227 0.972584
0.061283 0.101313 0.972600
0.061342 0.062151 0.972672
0.590497 0.061934 0.973051
0.972348 0.062440 0.975033
0.061654 0.964145 0.951830
0.061654 0.964084 0.951861
0.061652 0.963816 0.951996
0.061637 0.962356 0.952697
0.937969 0.948852 0.956248
