src/luts/32.cube
TITLE "Generated by ZCAM"
LUT_3D_SIZE 9
0.042625 0.056118 0.062882
0.071310 0.064996 0.068505
0.189658 0.067253 0.069633
0.339964 0.067334 0.069749
0.507490 0.067425 0.069879
0.673162 0.068929 0.100554
0.816002 0.075782 0.235342
0.922112 0.083935 0.402491
0.979556 0.088160 0.577551
0.044118 0.063219 0.064729
0.042625 0.056118 0.062882
0.168290 0.067263 0.069646
0.329204 0.067326 0.069736
0.502639 0.067425 0.069878
0.671211 0.067616 0.073638
0.815295 0.074601 0.214111
0.921923 0.083398 0.392115
0.979522 0.088579 0.573937
0.048586 0.173747 0.069556
0.048583 0.165612 0.069556
0.120303 0.154182 0.070507
0.313804 0.126200 0.063335
0.495898 0.067425 0.069877
0.668543 0.067441 0.069906
0.814335 0.072872 0.182341
0.921666 0.082627 0.377350
0.979475 0.089158 0.568936
0.048424 0.321377 0.069582
0.048432 0.317150 0.069581
0.048442 0.311320 0.069580
0.255506 0.297305 0.071617
0.479469 0.269633 0.074775
0.662232 0.152504 0.069339
0.812099 0.068437 0.092475
0.921072 0.080628 0.339436
0.979367 0.089547 0.555347
0.048175 0.488021 0.069616
0.048176 0.486074 0.069616
0.048178 0.483420 0.069616
0.116565 0.477178 0.074965
0.415036 0.462094 0.073104
0.646715 0.437456 0.084872
0.806814 0.291707 0.065703
0.919682 0.074432 0.220807
0.979117 0.088256 0.516406
0.048057 0.654998 0.069641
0.048057 0.654202 0.069641
0.048058 0.653122 0.069641
0.048060 0.650611 0.069641
0.246858 0.644689 0.079323
0.581331 0.630274 0.074582
0.793695 0.612025 0.093036
0.916354 0.465129 0.079690
0.978523 0.082300 0.384706
0.047953 0.800781 0.069663
0.047953 0.800488 0.069663
0.047954 0.800092 0.069663
0.047954 0.799177 0.069663
0.047956 0.797049 0.069662
0.407783 0.792040 0.080339
0.733611 0.780044 0.075843
0.907938 0.772778 0.099131
0.977066 0.641572 0.091438
0.047874 0.912535 0.069680
0.047874 0.912454 0.069680
0.047874 0.912344 0.069680
0.047874 0.912091 0.069680
0.047874 0.911504 0.069679
0.047875 0.910134 0.069679
0.576226 0.906866 0.080593
0.856192 0.898686 0.076779
0.973203 0.902032 0.103115
0.047829 0.975349 0.069689
0.047830 0.975333 0.069689
0.047830 0.975311 0.069689
0.047830 0.975261 0.069689
0.047830 0.975145 0.069689
0.047830 0.974874 0.069689
0.047830 0.974239 0.069689
0.731162 0.972702 0.079998
0.932796 0.968720 0.077243
0.041999 0.055694 0.066677
0.053916 0.058523 0.071360
0.184199 0.069107 0.083751
0.337165 0.069242 0.095018
0.506216 0.070788 0.126045
0.672647 0.073894 0.188020
0.815815 0.078967 0.290368
0.922062 0.085419 0.431353
0.979547 0.086977 0.588059
0.042625 0.056118 0.062882
0.042625 0.056118 0.062882
0.162301 0.067266 0.069650
0.326260 0.067323 0.069733
0.501333 0.068786 0.093789
0.670691 0.072330 0.161942
0.815107 0.077979 0.273471
0.921872 0.084955 0.422201
0.979512 0.087358 0.584656
0.048581 0.161086 0.069556
0.048584 0.152522 0.069553
0.114190 0.140723 0.070518
0.310651 0.112172 0.065731
0.494548 0.067425 0.069877
0.668013 0.070076 0.122284
0.814146 0.076554 0.248700
0.921616 0.084293 0.409249
0.979466 0.087885 0.579943
0.048436 0.314830 0.069581
0.048443 0.310486 0.069580
0.048454 0.304471 0.069579
0.251969 0.290023 0.071504
0.478005 0.260422 0.073761
0.661681 0.138833 0.069940
0.811906 0.072774 0.180327
0.921021 0.082587 0.376439
0.979358 0.089189 0.568623
0.048177 0.485015 0.069616
0.048178 0.483039 0.069615
0.048180 0.480345 0.069615
0.110785 0.474011 0.074515
0.413332 0.458694 0.073052
0.646111 0.433134 0.084547
0.806614 0.283573 0.064781
0.919629 0.077399 0.278073
0.979107 0.088935 0.533933
0.048058 0.653770 0.069641
0.048058 0.652968 0.069641
0.048059 0.651880 0.069641
0.048061 0.649350 0.069640
0.243173 0.643385 0.079345
0.580607 0.628860 0.074561
0.793473 0.610207 0.092940
0.916299 0.461374 0.079365
0.978514 0.083784 0.415371
0.047954 0.800330 0.069663
0.047954 0.800036 0.069663
0.047954 0.799639 0.069663
0.047955 0.798721 0.069663
0.047956 0.796586 0.069662
0.406015 0.791563 0.080353
0.733354 0.779542 0.075836
0.907875 0.772136 0.099107
0.977056 0.640031 0.091342
0.047874 0.912410 0.069680
0.047874 0.912329 0.069680
0.047874 0.912219 0.069680
0.047874 0.911965 0.069680
0.047875 0.911377 0.069679
0.047876 0.910004 0.069679
0.575476 0.906729 0.080600
0.856107 0.898532 0.076777
0.973190 0.901819 0.103110
0.047830 0.975324 0.069689
0.047830 0.975308 0.069689
0.047830 0.975286 0.069689
0.047830 0.975236 0.069689
0.047830 0.975119 0.069689
0.047830 0.974849 0.069689
0.047830 0.974213 0.069689
0.730896 0.972673 0.080001
0.932776 0.968687 0.077242
0.042096 0.055787 0.173019
0.042431 0.055763 0.176078
0.158361 0.057186 0.181219
0.333328 0.082946 0.219931
0.504484 0.079276 0.234055
0.671950 0.079658 0.274198
0.815562 0.082535 0.349649
0.921994 0.087112 0.465355
0.979535 0.085531 0.601262
0.041998 0.055723 0.149530
0.042012 0.055734 0.152875
0.135099 0.056803 0.158185
0.322227 0.079908 0.193439
0.499558 0.077347 0.211105
0.669986 0.078375 0.255595
0.814853 0.081738 0.336353
0.921805 0.086727 0.457469
0.979500 0.085871 0.598118
0.047028 0.142946 0.121416
0.046625 0.132157 0.123293
0.087695 0.111684 0.125450
0.306327 0.100826 0.153424
0.492709 0.074591 0.176847
0.667296 0.076520 0.228103
0.813889 0.080593 0.317204
0.921548 0.086185 0.446397
0.979453 0.086339 0.593775
0.048452 0.305689 0.069579
0.048460 0.301153 0.069578
0.048471 0.294897 0.069576
0.247115 0.279831 0.071352
0.476012 0.247104 0.083940
0.660936 0.123232 0.152545
0.811646 0.077624 0.266875
0.920952 0.084790 0.418700
0.979346 0.087496 0.583350
0.048180 0.480886 0.069615
0.048181 0.478872 0.069615
0.048183 0.476123 0.069615
0.102679 0.469665 0.073884
0.411011 0.454013 0.072981
0.645293 0.427174 0.084098
0.806342 0.271893 0.083119
0.919559 0.080617 0.338942
0.979095 0.089544 0.555156
0.048059 0.652099 0.069641
0.048059 0.651289 0.069641
0.048060 0.650189 0.069641
0.048062 0.647634 0.069640
0.238104 0.641610 0.079377
0.579625 0.626933 0.074532
0.793174 0.607727 0.092810
0.916225 0.456206 0.078918
0.978500 0.085461 0.451205
0.047954 0.799719 0.069663
0.047954 0.799424 0.069663
0.047955 0.799025 0.069663
0.047955 0.798102 0.069662
0.047957 0.795958 0.069662
0.403605 0.790917 0.080371
0.733007 0.778862 0.075825
0.907789 0.771263 0.099074
0.977041 0.637932 0.091211
0.047874 0.912241 0.069680
0.047874 0.912159 0.069680
0.047874 0.912049 0.069680
0.047874 0.911794 0.069680
0.047875 0.911205 0.069679
0.047876 0.909828 0.069679
0.574459 0.906545 0.080609
0.855992 0.898323 0.076774
0.973172 0.901530 0.103102
0.047830 0.975291 0.069689
0.047830 0.975274 0.069689
0.047830 0.975252 0.069689
0.047830 0.975202 0.069689
0.047830 0.975085 0.069689
0.047830 0.974814 0.069689
0.047830 0.974177 0.069689
0.730535 0.972635 0.080005
0.932750 0.968642 0.077241
0.043237 0.056187 0.321971
0.043256 0.056193 0.323566
0.135742 0.055138 0.325703
0.308813 0.057937 0.331354
0.500440 0.082049 0.370599
0.670336 0.089466 0.404650
0.814979 0.088496 0.448234
0.921838 0.089950 0.528069
0.979506 0.082729 0.628259
0.043100 0.056147 0.310007
0.043119 0.056152 0.311684
0.111885 0.055343 0.313941
0.296434 0.057127 0.319027
0.495412 0.082731 0.360675
0.668352 0.088701 0.393659
0.814267 0.087994 0.439495
0.921648 0.089722 0.522212
0.979472 0.082998 0.625573
0.041692 0.088306 0.292772
0.042054 0.078050 0.294592
0.073506 0.064897 0.297011
0.279411 0.056995 0.302505
0.488417 0.083745 0.346515
0.665635 0.087574 0.377939
0.813299 0.087279 0.427159
0.921390 0.089391 0.514037
0.979425 0.083368 0.621877
0.048870 0.283170 0.254405
0.049399 0.278180 0.256334
0.050121 0.271262 0.258905
0.186254 0.232540 0.259566
0.471358 0.235770 0.311880
0.659207 0.089037 0.337634
0.811045 0.085440 0.396051
0.920793 0.088489 0.493904
0.979317 0.084272 0.613071
0.046473 0.471076 0.096172
0.046227 0.468966 0.100208
0.045872 0.466089 0.106143
0.080101 0.459311 0.121586
0.392924 0.442839 0.153803
0.643395 0.413085 0.210589
0.805716 0.262993 0.304977
0.919396 0.085854 0.439081
0.979065 0.086633 0.590919
0.048061 0.648189 0.069640
0.048062 0.647360 0.069640
0.048063 0.646236 0.069640
0.048065 0.643622 0.069640
0.226003 0.637458 0.079454
0.577346 0.622423 0.074464
0.792482 0.601889 0.092487
0.916053 0.438305 0.211042
0.978470 0.088283 0.516775
0.047955 0.798302 0.069663
0.047955 0.798004 0.069662
0.047956 0.797601 0.069662
0.047956 0.796670 0.069662
0.047958 0.794505 0.069662
0.397950 0.789423 0.080414
0.732207 0.777287 0.075802
0.907593 0.769227 0.098996
0.977008 0.633002 0.090892
0.047874 0.911849 0.069680
0.047874 0.911767 0.069680
0.047874 0.911656 0.069680
0.047874 0.911400 0.069679
0.047875 0.910807 0.069679
0.047876 0.909421 0.069679
0.572098 0.906117 0.080631
0.855729 0.897841 0.076767
0.973132 0.900862 0.103085
0.047830 0.975213 0.069689
0.047830 0.975197 0.069689
0.047830 0.975175 0.069689
0.047830 0.975124 0.069689
0.047830 0.975007 0.069689
0.047830 0.974735 0.069689
0.047830 0.974095 0.069689
0.729699 0.972547 0.080014
0.932689 0.968538 0.077240
0.045900 0.057018 0.489337
0.045914 0.057023 0.490076
0.091623 0.056629 0.491064
0.279462 0.055122 0.493325
0.478642 0.058473 0.498423
0.666561 0.077005 0.531412
0.813627 0.081601 0.562069
0.921478 0.082158 0.608526
0.979441 0.078132 0.677539
0.045792 0.056984 0.483891
0.045807 0.056989 0.484648
0.063869 0.056815 0.485665
0.266792 0.055171 0.487985
0.473218 0.058426 0.493224
0.664530 0.077280 0.526916
0.812907 0.081936 0.558206
0.921286 0.082441 0.605532
0.979406 0.078301 0.675549
0.045642 0.056936 0.476309
0.045658 0.056941 0.477094
0.045679 0.056948 0.478148
0.248562 0.055247 0.480553
0.465951 0.058720 0.486382
0.661748 0.077669 0.520680
0.811930 0.082400 0.552869
0.921027 0.082833 0.601406
0.979359 0.078538 0.672829
0.041138 0.213963 0.457774
0.041327 0.207420 0.458631
0.041590 0.198263 0.459779
0.181794 0.169299 0.462401
0.436508 0.112012 0.468305
0.655160 0.078645 0.505500
0.809654 0.083561 0.540007
0.920426 0.083802 0.591545
0.979251 0.079108 0.666396
0.051429 0.446623 0.413181
0.051635 0.444252 0.414155
0.051913 0.441013 0.415467
0.052401 0.433195 0.418280
0.327693 0.386806 0.421486
0.638953 0.398551 0.488528
0.804260 0.204017 0.521974
0.919020 0.086384 0.566437
0.978998 0.080547 0.650572
0.039677 0.638850 0.224346
0.039572 0.637977 0.226987
0.039434 0.636791 0.230483
0.039137 0.634036 0.238341
0.187437 0.627528 0.264605
0.542995 0.611588 0.303730
0.790881 0.590268 0.374126
0.915655 0.427484 0.477016
0.978400 0.084850 0.607145
0.047958 0.794990 0.069662
0.047958 0.794685 0.069662
0.047958 0.794274 0.069662
0.047959 0.793323 0.069662
0.047960 0.791116 0.069661
0.384348 0.785951 0.080521
0.730349 0.773611 0.075747
0.907138 0.764375 0.098803
0.976931 0.615878 0.377314
0.047875 0.910940 0.069679
0.047875 0.910856 0.069679
0.047875 0.910744 0.069679
0.047875 0.910484 0.069679
0.047876 0.909882 0.069679
0.047877 0.908476 0.069679
0.566543 0.905123 0.080682
0.855118 0.896720 0.076751
0.973039 0.899302 0.103045
0.047830 0.975033 0.069689
0.047830 0.975017 0.069689
0.047830 0.974994 0.069689
0.047830 0.974943 0.069689
0.047830 0.974825 0.069689
0.047830 0.974551 0.069689
0.047830 0.973905 0.069689
0.727757 0.972343 0.080035
0.932549 0.968297 0.077237
0.049939 0.058335 0.656517
0.049947 0.058338 0.656819
0.049959 0.058342 0.657225
0.224557 0.057397 0.658156
0.447769 0.056217 0.660276
0.649499 0.060016 0.665289
0.810465 0.071498 0.688978
0.920640 0.073349 0.713646
0.979289 0.072342 0.752792
0.049876 0.058314 0.654305
0.049885 0.058317 0.654611
0.049896 0.058321 0.655022
0.207808 0.057461 0.655966
0.441834 0.056215 0.658114
0.647388 0.060119 0.663327
0.809728 0.071588 0.687148
0.920446 0.073455 0.712072
0.979254 0.072419 0.751639
0.049790 0.058286 0.651273
0.049799 0.058289 0.651584
0.049811 0.058293 0.652003
0.183018 0.057559 0.652963
0.433554 0.056213 0.655151
0.644285 0.059974 0.660315
0.808728 0.071712 0.684642
0.920183 0.073600 0.709925
0.979207 0.072524 0.750061
0.049591 0.058220 0.644087
0.049600 0.058223 0.644412
0.049612 0.058227 0.644848
0.113348 0.057862 0.645849
0.413184 0.056218 0.648129
0.636976 0.059704 0.653263
0.806398 0.072011 0.678725
0.919573 0.073941 0.704879
0.979097 0.072773 0.746333
0.043500 0.370365 0.626368
0.043572 0.367103 0.626726
0.043670 0.362630 0.627208
0.043902 0.351972 0.628311
0.329293 0.315472 0.630825
0.594783 0.242480 0.636476
0.800839 0.072775 0.664210
0.918147 0.074794 0.692654
0.978842 0.073405 0.737284
0.054549 0.615315 0.581250
0.054615 0.614318 0.581688
0.054704 0.612963 0.582275
0.054910 0.609808 0.583618
0.124533 0.601585 0.589785
0.496785 0.555668 0.590523
0.787126 0.568614 0.660184
0.914731 0.352111 0.692775
0.978237 0.075142 0.713595
0.035270 0.787127 0.382049
0.035255 0.786810 0.383352
0.035234 0.786383 0.385104
0.035187 0.785397 0.389073
0.035090 0.783114 0.397943
0.330520 0.777773 0.430938
0.689560 0.764781 0.472247
0.906081 0.755624 0.550015
0.976754 0.597676 0.646939
0.047876 0.908796 0.069679
0.047877 0.908710 0.069679
0.047877 0.908594 0.069679
0.047877 0.908325 0.069679
0.047877 0.907703 0.069679
0.047878 0.906249 0.069679
0.553085 0.902779 0.080808
0.853696 0.894073 0.076713
0.972823 0.895596 0.102941
0.047830 0.974613 0.069689
0.047830 0.974596 0.069689
0.047830 0.974574 0.069689
0.047830 0.974521 0.069689
0.047830 0.974401 0.069689
0.047830 0.974121 0.069689
0.047831 0.973462 0.069689
0.723207 0.971867 0.080083
0.932456 0.967975 0.077475
0.054580 0.059878 0.802168
0.054584 0.059879 0.802278
0.054589 0.059881 0.802428
0.054601 0.059885 0.802771
0.387180 0.058868 0.803555
0.623033 0.058661 0.805340
0.798252 0.061013 0.809359
0.918667 0.067013 0.824804
0.978935 0.067221 0.842877
0.054551 0.059868 0.801358
0.054555 0.059869 0.801470
0.054560 0.059871 0.801620
0.054572 0.059875 0.801965
0.379005 0.058880 0.802755
0.620467 0.058622 0.804553
0.797501 0.061079 0.808681
0.918466 0.067039 0.824132
0.978899 0.067246 0.842323
0.054512 0.059855 0.800257
0.054516 0.059856 0.800370
0.054521 0.059858 0.800521
0.054534 0.059862 0.800870
0.367462 0.058897 0.801667
0.616946 0.058569 0.803481
0.796463 0.061147 0.807736
0.918194 0.067074 0.823219
0.978850 0.067281 0.841571
0.054421 0.059824 0.797690
0.054425 0.059826 0.797804
0.054430 0.059828 0.797959
0.054443 0.059832 0.798314
0.338369 0.058946 0.799127
0.608577 0.058441 0.800979
0.793969 0.061206 0.805413
0.917564 0.067156 0.821091
0.978738 0.067361 0.839816
0.054207 0.059753 0.791614
0.054211 0.059754 0.791733
0.054217 0.059756 0.791893
0.054230 0.059760 0.792262
0.252215 0.059125 0.793106
0.587837 0.058146 0.795034
0.787740 0.060912 0.799381
0.916088 0.067350 0.816057
0.978476 0.067553 0.835638
0.048716 0.541008 0.776938
0.048738 0.539557 0.777065
0.048767 0.537581 0.777237
0.048834 0.532956 0.777630
0.048993 0.521893 0.778531
0.504147 0.484551 0.780589
0.746430 0.403032 0.785317
0.912551 0.067863 0.803619
0.977857 0.068054 0.825243
0.057698 0.767842 0.738962
0.057714 0.767489 0.739130
0.057736 0.767012 0.739356
0.057786 0.765906 0.739873
0.057901 0.763323 0.741053
0.256315 0.752556 0.745667
0.673479 0.719885 0.747694
0.893950 0.716054 0.794820
0.974386 0.508450 0.826869
0.039984 0.903583 0.548833
0.040041 0.903490 0.549384
0.040118 0.903364 0.550126
0.040290 0.903073 0.551821
0.040674 0.902400 0.555667
0.041529 0.900827 0.564208
0.498179 0.897067 0.601238
0.819346 0.887721 0.639921
0.972234 0.887713 0.716932
0.047831 0.973613 0.069689
0.047831 0.973596 0.069689
0.047831 0.973572 0.069689
0.047831 0.973517 0.069689
0.047831 0.973391 0.069689
0.047831 0.973097 0.069689
0.047832 0.972406 0.069689
0.712162 0.970733 0.080201
0.932211 0.967169 0.078001
0.058829 0.061306 0.913449
0.058831 0.061306 0.913480
0.058832 0.061307 0.913521
0.058836 0.061308 0.913616
0.058845 0.061311 0.913835
0.561723 0.060644 0.914334
0.779300 0.061100 0.915466
0.912000 0.062026 0.918139
0.978085 0.064117 0.925775
0.058820 0.061303 0.913225
0.058821 0.061303 0.913256
0.058823 0.061304 0.913298
0.058827 0.061305 0.913393
0.058836 0.061308 0.913612
0.558166 0.060645 0.914113
0.778401 0.061093 0.915250
0.911783 0.062031 0.917939
0.978047 0.064122 0.925593
0.058808 0.061299 0.912922
0.058809 0.061299 0.912953
0.058811 0.061300 0.912995
0.058815 0.061301 0.913090
0.058824 0.061304 0.913310
0.553256 0.060645 0.913814
0.777182 0.061082 0.914956
0.911488 0.062037 0.917667
0.977996 0.064128 0.925346
0.058779 0.061289 0.912218
0.058780 0.061289 0.912250
0.058782 0.061290 0.912292
0.058786 0.061291 0.912389
0.058795 0.061294 0.912611
0.541442 0.060646 0.913120
0.774351 0.061058 0.914276
0.910802 0.062048 0.917033
0.977877 0.064143 0.924774
0.058712 0.061266 0.910570
0.058713 0.061267 0.910602
0.058715 0.061267 0.910645
0.058719 0.061269 0.910745
0.058728 0.061272 0.910973
0.511165 0.060653 0.911496
0.767666 0.060999 0.912681
0.909181 0.062055 0.915526
0.977601 0.064178 0.923435
0.058549 0.061212 0.906609
0.058551 0.061212 0.906643
0.058553 0.061213 0.906689
0.058557 0.061214 0.906795
0.058567 0.061218 0.907037
0.417655 0.060707 0.907592
0.750997 0.060848 0.908852
0.905209 0.061965 0.911791
0.976947 0.064269 0.920243
0.056153 0.706134 0.896506
0.056151 0.705554 0.896545
0.056149 0.704769 0.896599
0.056143 0.702946 0.896721
0.056132 0.698662 0.897002
0.056156 0.688361 0.897643
0.683042 0.656299 0.899098
0.877189 0.576205 0.902479
0.975349 0.064502 0.912161
0.060166 0.889857 0.867277
0.060170 0.889744 0.867334
0.060174 0.889592 0.867411
0.060184 0.889239 0.867587
0.060189 0.888404 0.867974
0.060162 0.886408 0.868816
0.421944 0.876600 0.871532
0.829743 0.857291 0.874651
0.952275 0.835499 0.894586
0.050511 0.971125 0.707384
0.050527 0.971105 0.707607
0.050548 0.971079 0.707907
0.050597 0.971018 0.708595
0.050709 0.970876 0.710166
0.050960 0.970548 0.713714
0.051508 0.969776 0.721513
0.671270 0.967903 0.755853
0.914877 0.963448 0.786172
0.061479 0.062197 0.975771
0.061479 0.062197 0.975777
0.061479 0.062197 0.975786
0.061480 0.062197 0.975804
0.061482 0.062198 0.975848
0.094723 0.062185 0.975947
0.726097 0.061961 0.976172
0.900309 0.062255 0.976682
0.975505 0.062474 0.977898
0.061477 0.062196 0.975727
0.061477 0.062196 0.975733
0.061477 0.062196 0.975741
0.061478 0.062197 0.975760
0.061480 0.062197 0.975804
0.068614 0.062194 0.975903
0.724737 0.061960 0.976129
0.900043 0.062254 0.976640
0.975462 0.062474 0.977858
0.061474 0.062195 0.975667
0.061474 0.062195 0.975673
0.061475 0.062196 0.975682
0.061476 0.062196 0.975701
0.061478 0.062197 0.975744
0.061482 0.062198 0.975843
0.722879 0.061958 0.976071
0.899682 0.062253 0.976583
0.975402 0.062474 0.977805
0.061468 0.062193 0.975529
0.061468 0.062193 0.975535
0.061469 0.062194 0.975543
0.061470 0.062194 0.975562
0.061471 0.062194 0.975606
0.061476 0.062196 0.975706
0.718501 0.061955 0.975935
0.898845 0.062250 0.976451
0.975266 0.062473 0.977681
0.061454 0.062189 0.975207
0.061454 0.062189 0.975213
0.061455 0.062189 0.975222
0.061455 0.062189 0.975241
0.061457 0.062190 0.975286
0.061462 0.062191 0.975387
0.707869 0.061949 0.975620
0.896881 0.062243 0.976144
0.974947 0.062471 0.977393
0.061420 0.062177 0.974446
0.061421 0.062177 0.974453
0.061421 0.062178 0.974461
0.061422 0.062178 0.974481
0.061424 0.062179 0.974528
0.061429 0.062180 0.974633
0.680012 0.061941 0.974875
0.892147 0.062226 0.975419
0.974195 0.062464 0.976711
0.061251 0.125227 0.972584
0.061264 0.115218 0.972591
0.061283 0.101313 0.972600
0.061323 0.070672 0.972622
0.061342 0.062151 0.972672
0.061347 0.062153 0.972788
0.590497 0.061934 0.973051
0.879949 0.062182 0.973644
0.972348 0.062440 0.975033
0.060936 0.843820 0.967628
0.060935 0.843626 0.967637
0.060933 0.843364 0.967648
0.060930 0.842758 0.967675
0.060923 0.841352 0.967737
0.060906 0.838034 0.967878
0.060866 0.829931 0.968200
0.834666 0.805835 0.968927
0.960309 0.738820 0.970521
0.061654 0.964145 0.951830
0.061654 0.964119 0.951843
0.061654 0.964084 0.951861
0.061653 0.964003 0.951902
0.061652 0.963816 0.951996
0.061648 0.963381 0.952210
0.061637 0.962356 0.952697
0.600661 0.957011 0.953956
0.937969 0.948852 0.956248
