src/luts/38.cube
LUT_3D_SIZE 6
0.000000 0.000000 0.024170
0.039322 0.000000 0.024170
0.183060 0.000000 0.024170
0.333457 0.000000 0.024170
0.584126 0.000000 0.024170
0.825602 0.000000 0.024170
0.000000 0.098866 0.024170
0.044984 0.098866 0.024170
0.183060 0.150998 0.024170
0.333457 0.164376 0.024170
0.584126 0.194633 0.024170
0.825602 0.206967 0.024170
0.000000 0.298692 0.024170
0.080232 0.298692 0.024170
0.187741 0.298692 0.024170
0.333457 0.318792 0.024170
0.584126 0.377505 0.024170
0.825602 0.401410 0.024170
0.000000 0.507551 0.024170
0.096407 0.507551 0.024170
0.224982 0.507551 0.024170
0.367529 0.507551 0.024170
0.584126 0.556802 0.024170
0.825602 0.591985 0.024170
0.000000 0.777036 0.024170
0.116954 0.777036 0.024170
0.272286 0.777036 0.024170
0.444495 0.777036 0.024170
0.628116 0.777036 0.024170
0.825602 0.780207 0.024170
0.000000 0.985720 0.024170
0.121007 0.985720 0.024170
0.281583 0.985720 0.024170
0.459634 0.985720 0.024170
0.649461 0.985720 0.024170
0.849101 0.985720 0.024170
0.000000 0.000000 0.156033
0.043583 0.000000 0.156033
0.183060 0.000000 0.225668
0.333457 0.000000 0.242363
0.584126 0.000000 0.279937
0.825602 0.000000 0.295195
0.000000 0.098866 0.159103
0.039322 0.098866 0.156847
0.183060 0.102470 0.156033
0.333457 0.102666 0.156033
0.584126 0.106452 0.156033
0.825602 0.108520 0.156033
0.000000 0.298692 0.229458
0.039322 0.298692 0.172615
0.182874 0.298692 0.156033
0.333457 0.309373 0.156033
0.584126 0.359461 0.156033
0.825602 0.379266 0.156033
0.000000 0.507551 0.258668
0.039322 0.507551 0.179738
0.208330 0.507551 0.156033
0.364106 0.507551 0.156033
0.584126 0.552414 0.156033
0.825602 0.583491 0.156033
0.000000 0.777036 0.294100
0.039322 0.777036 0.192872
0.246686 0.777036 0.156033
0.433468 0.777036 0.156033
0.624986 0.777036 0.156033
0.825602 0.778241 0.156033
0.000000 0.985720 0.300884
0.039322 0.985720 0.196420
0.253139 0.985720 0.156033
0.445273 0.985720 0.156033
0.642316 0.985720 0.156033
0.846664 0.985720 0.156033
0.000000 0.000000 0.399943
0.079861 0.000000 0.399943
0.186882 0.000000 0.399943
0.333457 0.000000 0.424539
0.584126 0.000000 0.492651
0.825602 0.000000 0.520261
0.000000 0.153440 0.399943
0.039322 0.113351 0.399943
0.183138 0.098866 0.399943
0.333457 0.098866 0.410961
0.584126 0.098866 0.468081
0.825602 0.098866 0.490464
0.000000 0.298692 0.401219
0.039322 0.298692 0.399648
0.183060 0.298692 0.399282
0.333457 0.299841 0.399943
0.584126 0.307947 0.399943
0.825602 0.311402 0.399943
0.000000 0.507551 0.454119
0.039322 0.507551 0.439385
0.183060 0.507551 0.408881
0.358280 0.507551 0.399943
0.584126 0.541733 0.399943
0.825602 0.561447 0.399943
0.000000 0.777036 0.518280
0.039322 0.777036 0.495840
0.183060 0.777036 0.424807
0.401335 0.777036 0.399943
0.615869 0.777036 0.399943
0.825602 0.773934 0.399943
0.000000 0.985720 0.530596
0.039322 0.985720 0.505830
0.183060 0.985720 0.428422
0.404040 0.985720 0.399943
0.622070 0.985720 0.399943
0.839574 0.985720 0.399943
0.000000 0.000000 0.610112
0.091623 0.000000 0.610112
0.213974 0.000000 0.610112
0.349652 0.000000 0.610112
0.584126 0.000000 0.686002
0.825602 0.000000 0.724963
0.000000 0.170626 0.610112
0.039322 0.116836 0.610112
0.198576 0.098866 0.610112
0.347599 0.098866 0.610112
0.584126 0.098866 0.679256
0.825602 0.098866 0.713193
0.000000 0.330922 0.610112
0.039322 0.321074 0.610112
0.183060 0.304910 0.610112
0.344994 0.298692 0.610112
0.584126 0.298692 0.660357
0.825602 0.298692 0.678206
0.000000 0.507551 0.631860
0.039322 0.507551 0.630614
0.183060 0.507551 0.628419
0.333457 0.507551 0.616269
0.584126 0.513296 0.610112
0.825602 0.514940 0.610112
0.000000 0.777036 0.722045
0.039322 0.777036 0.714150
0.183060 0.777036 0.692036
0.333457 0.777036 0.630788
0.589324 0.777036 0.610112
0.825602 0.768499 0.610112
0.000000 0.985720 0.739511
0.039322 0.985720 0.728789
0.183060 0.985720 0.699418
0.333457 0.985720 0.631548
0.578849 0.985720 0.610112
0.822956 0.985720 0.610112
0.000000 0.000000 0.889915
0.113061 0.000000 0.889915
0.263342 0.000000 0.889915
0.429939 0.000000 0.889915
0.607594 0.000000 0.889915
0.825602 0.000000 0.914910
0.000000 0.200778 0.889915
0.039322 0.129166 0.889915
0.238115 0.098866 0.889915
0.419842 0.098866 0.889915
0.605997 0.098866 0.889915
0.825602 0.098866 0.911049
0.000000 0.389334 0.889915
0.039322 0.372896 0.889915
0.183060 0.324847 0.889915
0.389203 0.298692 0.889915
0.601014 0.298692 0.889915
0.825602 0.298692 0.900634
0.000000 0.574331 0.889915
0.039322 0.569459 0.889915
0.183060 0.556951 0.889915
0.333457 0.525589 0.889915
0.585500 0.507551 0.889915
0.825602 0.507551 0.880065
0.000000 0.777036 0.911061
0.039322 0.777036 0.909802
0.183060 0.777036 0.906198
0.333457 0.777036 0.895129
0.584126 0.777036 0.889139
0.825602 0.776502 0.889915
0.000000 0.985720 0.931728
0.039322 0.985720 0.927672
0.183060 0.985720 0.916410
0.333457 0.985720 0.889008
0.584126 0.985720 0.887306
0.822897 0.985720 0.889915
0.000000 0.000000 0.997868
0.119301 0.000000 0.997868
0.277659 0.000000 0.997868
0.453235 0.000000 0.997868
0.640414 0.000000 0.997868
0.837367 0.000000 0.997868
0.000000 0.209271 0.997868
0.039322 0.133692 0.997868
0.248472 0.098866 0.997868
0.439040 0.098866 0.997868
0.633993 0.098866 0.997868
0.836173 0.098866 0.997868
0.000000 0.405868 0.997868
0.039322 0.386813 0.997868
0.183060 0.331128 0.997868
0.395091 0.298692 0.997868
0.614618 0.298692 0.997868
0.832462 0.298692 0.997868
0.000000 0.598622 0.997868
0.039322 0.590868 0.997868
0.183060 0.570921 0.997868
0.333457 0.528890 0.997868
0.574896 0.507551 0.997868
0.823915 0.507551 0.997868
0.000000 0.788959 0.997868
0.039322 0.786512 0.997868
0.183060 0.780800 0.997868
0.333457 0.771133 0.997868
0.584126 0.775033 0.997868
0.825155 0.777036 0.997868
0.000000 0.985720 0.998558
0.039322 0.985720 0.998591
0.183060 0.985720 0.998388
0.333457 0.985720 0.997868
0.584126 0.985720 0.997674
0.825602 0.985720 0.997798
