src/luts/38.cube
LUT_3D_SIZE 16
0.000000 0.000000 0.024170
0.005968 0.000000 0.024170
0.017619 0.000000 0.024170
0.039322 0.000000 0.024170
0.077648 0.000000 0.024170
0.129417 0.000000 0.024170
0.183060 0.000000 0.024170
0.230597 0.000000 0.024170
0.277833 0.000000 0.024170
0.333457 0.000000 0.024170
0.406193 0.000000 0.024170
0.493587 0.000000 0.024170
0.584126 0.000000 0.024170
0.670257 0.000000 0.024170
0.750645 0.000000 0.024170
0.825602 0.000000 0.024170
0.000000 0.021379 0.024170
0.006083 0.021379 0.024170
0.017619 0.024902 0.024170
0.039322 0.031270 0.024170
0.077648 0.040018 0.024170
0.129417 0.048046 0.024170
0.183060 0.052933 0.024170
0.230597 0.054761 0.024170
0.277833 0.055816 0.024170
0.333457 0.057608 0.024170
0.406193 0.060899 0.024170
0.493587 0.064865 0.024170
0.584126 0.068217 0.024170
0.670257 0.070485 0.024170
0.750645 0.071848 0.024170
0.825602 0.072542 0.024170
0.000000 0.050949 0.024170
0.007981 0.050949 0.024170
0.018931 0.050949 0.024170
0.039322 0.060576 0.024170
0.077648 0.077529 0.024170
0.129417 0.093070 0.024170
0.183060 0.102537 0.024170
0.230597 0.106082 0.024170
0.277833 0.108144 0.024170
0.333457 0.111609 0.024170
0.406193 0.117984 0.024170
0.493587 0.125645 0.024170
0.584126 0.132155 0.024170
0.670257 0.136543 0.024170
0.750645 0.139195 0.024170
0.825602 0.140533 0.024170
0.000000 0.098866 0.024170
0.011449 0.098866 0.024170
0.027149 0.098866 0.024170
0.044984 0.098866 0.024170
0.077648 0.114166 0.024170
0.129417 0.137057 0.024170
0.183060 0.150998 0.024170
0.230597 0.156222 0.024170
0.277833 0.159254 0.024170
0.333457 0.164376 0.024170
0.406193 0.173753 0.024170
0.493587 0.185066 0.024170
0.584126 0.194633 0.024170
0.670257 0.201080 0.024170
0.750645 0.204992 0.024170
0.825602 0.206967 0.024170
0.000000 0.167248 0.024170
0.015891 0.167248 0.024170
0.037687 0.167248 0.024170
0.062449 0.167248 0.024170
0.089212 0.167248 0.024170
0.129417 0.180437 0.024170
0.183060 0.198759 0.024170
0.230597 0.205628 0.024170
0.277833 0.209619 0.024170
0.333457 0.216364 0.024170
0.406193 0.228704 0.024170
0.493587 0.243578 0.024170
0.584126 0.256218 0.024170
0.670257 0.264700 0.024170
0.750645 0.269841 0.024170
0.825602 0.272410 0.024170
0.000000 0.239013 0.024170
0.019179 0.239013 0.024170
0.045482 0.239013 0.024170
0.075342 0.239013 0.024170
0.107450 0.239013 0.024170
0.141260 0.239013 0.024170
0.183060 0.246014 0.024170
0.230597 0.254521 0.024170
0.277833 0.259461 0.024170
0.333457 0.267787 0.024170
0.406193 0.283064 0.024170
0.493587 0.301516 0.024170
0.584126 0.317109 0.024170
0.670257 0.327628 0.024170
0.750645 0.333977 0.024170
0.825602 0.337189 0.024170
0.000000 0.298692 0.024170
0.020435 0.298692 0.024170
0.048463 0.298692 0.024170
0.080232 0.298692 0.024170
0.114380 0.298692 0.024170
0.150327 0.298692 0.024170
0.187741 0.298692 0.024170
0.230597 0.303015 0.024170
0.277833 0.308897 0.024170
0.333457 0.318792 0.024170
0.406193 0.336991 0.024170
0.493587 0.358954 0.024170
0.584126 0.377505 0.024170
0.670257 0.389985 0.024170
0.750645 0.397616 0.024170
0.825602 0.401410 0.024170
0.000000 0.354325 0.024170
0.021061 0.354325 0.024170
0.049938 0.354325 0.024170
0.082675 0.354325 0.024170
0.117840 0.354325 0.024170
0.154817 0.354325 0.024170
0.193366 0.354325 0.024170
0.233193 0.354325 0.024170
0.278524 0.358705 0.024170
0.333457 0.369490 0.024170
0.406193 0.390572 0.024170
0.493587 0.415959 0.024170
0.584126 0.437577 0.024170
0.670257 0.452041 0.024170
0.750645 0.460804 0.024170
0.825602 0.465252 0.024170
0.000000 0.420445 0.024170
0.022288 0.420445 0.024170
0.052842 0.420445 0.024170
0.087439 0.420445 0.024170
0.124585 0.420445 0.024170
0.163658 0.420445 0.024170
0.204339 0.420445 0.024170
0.246399 0.420445 0.024170
0.289702 0.420445 0.024170
0.339024 0.425438 0.024170
0.406193 0.443903 0.024170
0.493587 0.472807 0.024170
0.584126 0.497288 0.024170
0.670257 0.513797 0.024170
0.750645 0.523746 0.024170
0.825602 0.528762 0.024170
0.000000 0.507551 0.024170
0.024588 0.507551 0.024170
0.058315 0.507551 0.024170
0.096407 0.507551 0.024170
0.137229 0.507551 0.024170
0.180188 0.507551 0.024170
0.224982 0.507551 0.024170
0.271242 0.507551 0.024170
0.318792 0.507551 0.024170
0.367529 0.507551 0.024170
0.422038 0.512188 0.024170
0.493587 0.529336 0.024170
0.584126 0.556802 0.024170
0.670257 0.575226 0.024170
0.750645 0.586390 0.024170
0.825602 0.591985 0.024170
0.000000 0.604089 0.024170
0.027046 0.604089 0.024170
0.064147 0.604089 0.024170
0.105930 0.604089 0.024170
0.150700 0.604089 0.024170
0.197851 0.604089 0.024170
0.246912 0.604089 0.024170
0.297653 0.604089 0.024170
0.349783 0.604089 0.024170
0.403228 0.604089 0.024170
0.457779 0.604089 0.024170
0.516567 0.606999 0.024170
0.584126 0.615980 0.024170
0.670257 0.636375 0.024170
0.750645 0.648726 0.024170
0.825602 0.654929 0.024170
0.000000 0.694550 0.024170
0.028797 0.694550 0.024170
0.068293 0.694550 0.024170
0.112693 0.694550 0.024170
0.160282 0.694550 0.024170
0.210343 0.694550 0.024170
0.262462 0.694550 0.024170
0.316352 0.694550 0.024170
0.371772 0.694550 0.024170
0.428518 0.694550 0.024170
0.486431 0.694550 0.024170
0.545558 0.694550 0.024170
0.607011 0.695793 0.024170
0.670257 0.697444 0.024170
0.750645 0.710958 0.024170
0.825602 0.717802 0.024170
0.000000 0.777036 0.024170
0.029907 0.777036 0.024170
0.070921 0.777036 0.024170
0.116954 0.777036 0.024170
0.166309 0.777036 0.024170
0.218254 0.777036 0.024170
0.272286 0.777036 0.024170
0.328166 0.777036 0.024170
0.385629 0.777036 0.024170
0.444495 0.777036 0.024170
0.504542 0.777036 0.024170
0.565858 0.777036 0.024170
0.628116 0.777036 0.024170
0.690866 0.776513 0.024170
0.752015 0.773987 0.024170
0.825602 0.780207 0.024170
0.000000 0.853264 0.024170
0.030565 0.853264 0.024170
0.072474 0.853264 0.024170
0.119492 0.853264 0.024170
0.169898 0.853264 0.024170
0.222929 0.853264 0.024170
0.278146 0.853264 0.024170
0.335249 0.853264 0.024170
0.393914 0.853264 0.024170
0.454034 0.853264 0.024170
0.515360 0.853264 0.024170
0.577986 0.853264 0.024170
0.641584 0.853264 0.024170
0.706209 0.853264 0.024170
0.769134 0.850780 0.024170
0.829069 0.845418 0.024170
0.000000 0.924145 0.024170
0.030926 0.924145 0.024170
0.073319 0.924145 0.024170
0.120879 0.924145 0.024170
0.171880 0.924145 0.024170
0.225510 0.924145 0.024170
0.281331 0.924145 0.024170
0.339041 0.924145 0.024170
0.398441 0.924145 0.024170
0.459197 0.924145 0.024170
0.521241 0.924145 0.024170
0.584539 0.924145 0.024170
0.648902 0.924145 0.024170
0.714506 0.924145 0.024170
0.780809 0.924145 0.024170
0.842072 0.918759 0.024170
0.000000 0.985720 0.024170
0.030954 0.985720 0.024170
0.073399 0.985720 0.024170
0.121007 0.985720 0.024170
0.172033 0.985720 0.024170
0.225710 0.985720 0.024170
0.281583 0.985720 0.024170
0.339358 0.985720 0.024170
0.398795 0.985720 0.024170
0.459634 0.985720 0.024170
0.521708 0.985720 0.024170
0.585105 0.985720 0.024170
0.649461 0.985720 0.024170
0.715052 0.985720 0.024170
0.781540 0.985720 0.024170
0.849101 0.985720 0.024170
0.000000 0.000000 0.054722
0.006062 0.000000 0.054722
0.017619 0.000000 0.059819
0.039322 0.000000 0.068812
0.077648 0.000000 0.081036
0.129417 0.000000 0.092109
0.183060 0.000000 0.098796
0.230597 0.000000 0.101295
0.277833 0.000000 0.102729
0.333457 0.000000 0.105171
0.406193 0.000000 0.109630
0.493587 0.000000 0.114983
0.584126 0.000000 0.119518
0.670257 0.000000 0.122542
0.750645 0.000000 0.124390
0.825602 0.000000 0.125319
0.000000 0.021379 0.054801
0.005968 0.021379 0.054739
0.017619 0.021534 0.054722
0.039322 0.021937 0.054722
0.077648 0.022683 0.054722
0.129417 0.023508 0.054722
0.183060 0.024024 0.054722
0.230597 0.024167 0.054722
0.277833 0.024220 0.054722
0.333457 0.024398 0.054722
0.406193 0.024811 0.054722
0.493587 0.025368 0.054722
0.584126 0.025876 0.054722
0.670257 0.026243 0.054722
0.750645 0.026500 0.054722
0.825602 0.026680 0.054722
0.000000 0.050949 0.061815
0.005968 0.050949 0.056393
0.018633 0.050949 0.054722
0.039322 0.059065 0.054722
0.077648 0.073912 0.054722
0.129417 0.087706 0.054722
0.183060 0.096101 0.054722
0.230597 0.099156 0.054722
0.277833 0.100910 0.054722
0.333457 0.104007 0.054722
0.406193 0.109787 0.054722
0.493587 0.116766 0.054722
0.584126 0.122714 0.054722
0.670257 0.126711 0.054722
0.750645 0.129131 0.054722
0.825602 0.130334 0.054722
0.000000 0.098866 0.073569
0.005968 0.098866 0.060020
0.025233 0.098866 0.054722
0.044580 0.098866 0.054722
0.077648 0.113292 0.054722
0.129417 0.134987 0.054722
0.183060 0.148130 0.054722
0.230597 0.152924 0.054722
0.277833 0.155686 0.054722
0.333457 0.160525 0.054722
0.406193 0.169562 0.054722
0.493587 0.180432 0.054722
0.584126 0.189710 0.054722
0.670257 0.195928 0.054722
0.750645 0.199690 0.054722
0.825602 0.201579 0.054722
0.000000 0.167248 0.087284
0.005968 0.167249 0.065013
0.033990 0.167249 0.054722
0.060814 0.167249 0.054722
0.088747 0.167249 0.054722
0.129417 0.179904 0.054722
0.183060 0.197510 0.054722
0.230597 0.203910 0.054722
0.277833 0.207632 0.054722
0.333457 0.214129 0.054722
0.406193 0.226155 0.054722
0.493587 0.240777 0.054722
0.584126 0.253144 0.054722
0.670257 0.261462 0.054722
0.750645 0.266481 0.054722
0.825602 0.269008 0.054722
0.000000 0.239013 0.096745
0.005968 0.239013 0.068559
0.040537 0.239013 0.054722
0.072809 0.239013 0.054722
0.106175 0.239013 0.054722
0.140827 0.239013 0.054722
0.183060 0.245743 0.054722
0.230597 0.253748 0.054722
0.277833 0.258366 0.054722
0.333457 0.266437 0.054722
0.406193 0.281438 0.054722
0.493587 0.299619 0.054722
0.584126 0.315078 0.054722
0.670257 0.325445 0.054722
0.750645 0.331660 0.054722
0.825602 0.334809 0.054722
0.000000 0.298692 0.100234
0.005968 0.298692 0.069570
0.043011 0.298692 0.054722
0.077287 0.298692 0.054722
0.112657 0.298692 0.054722
0.149401 0.298692 0.054722
0.187384 0.298692 0.054722
0.230597 0.302886 0.054722
0.277833 0.308394 0.054722
0.333457 0.318050 0.054722
0.406193 0.335974 0.054722
0.493587 0.357682 0.054722
0.584126 0.376073 0.054722
0.670257 0.388462 0.054722
0.750645 0.395964 0.054722
0.825602 0.399746 0.054722
0.000000 0.354325 0.101953
0.005968 0.354325 0.069857
0.044257 0.354325 0.054722
0.079485 0.354325 0.054722
0.115843 0.354325 0.054722
0.153571 0.354325 0.054722
0.192644 0.354325 0.054722
0.232860 0.354325 0.054722
0.278460 0.358578 0.054722
0.333457 0.369117 0.054722
0.406193 0.389962 0.054722
0.493587 0.415190 0.054722
0.584126 0.436607 0.054722
0.670257 0.450967 0.054722
0.750645 0.459623 0.054722
0.825602 0.463957 0.054722
0.000000 0.420445 0.105272
0.005968 0.420445 0.070935
0.046747 0.420445 0.054722
0.083963 0.420445 0.054722
0.122315 0.420445 0.054722
0.162143 0.420445 0.054722
0.203350 0.420445 0.054722
0.245830 0.420445 0.054722
0.289451 0.420445 0.054722
0.338869 0.425301 0.054722
0.406193 0.443612 0.054722
0.493587 0.472338 0.054722
0.584126 0.496657 0.054722
0.670257 0.513034 0.054722
0.750645 0.522880 0.054722
0.825602 0.527828 0.054722
0.000000 0.507551 0.111387
0.005968 0.507551 0.073361
0.051451 0.507551 0.054722
0.092442 0.507551 0.054722
0.134624 0.507551 0.054722
0.178394 0.507551 0.054722
0.223712 0.507551 0.054722
0.270340 0.507551 0.054722
0.318254 0.507551 0.054722
0.367237 0.507551 0.054722
0.421906 0.512051 0.054722
0.493587 0.529167 0.054722
0.584126 0.556384 0.054722
0.670257 0.574722 0.054722
0.750645 0.585772 0.054722
0.825602 0.591291 0.054722
0.000000 0.604089 0.117744
0.005968 0.604089 0.076021
0.056490 0.604089 0.054722
0.101488 0.604089 0.054722
0.147761 0.604089 0.054722
0.195738 0.604089 0.054722
0.245377 0.604089 0.054722
0.296530 0.604089 0.054722
0.349035 0.604089 0.054722
0.402720 0.604089 0.054722
0.457498 0.604089 0.054722
0.516460 0.606941 0.054722
0.584126 0.615794 0.054722
0.670257 0.636149 0.054722
0.750645 0.648332 0.054722
0.825602 0.654403 0.054722
0.000000 0.694550 0.122151
0.005968 0.694550 0.077917
0.060080 0.694550 0.054722
0.107908 0.694550 0.054722
0.157058 0.694550 0.054722
0.208030 0.694550 0.054722
0.260750 0.694550 0.054722
0.315066 0.694550 0.054722
0.370793 0.694550 0.054722
0.427877 0.694550 0.054722
0.486049 0.694550 0.054722
0.545316 0.694550 0.054722
0.606989 0.695758 0.054722
0.670257 0.697294 0.054722
0.750645 0.710726 0.054722
0.825602 0.717396 0.054722
0.000000 0.777036 0.124905
0.005968 0.777036 0.079134
0.062330 0.777036 0.054722
0.111957 0.777036 0.054722
0.162904 0.777036 0.054722
0.215768 0.777036 0.054722
0.270416 0.777036 0.054722
0.326709 0.777036 0.054722
0.384537 0.777036 0.054722
0.443672 0.777036 0.054722
0.503960 0.777036 0.054722
0.565465 0.777036 0.054722
0.627854 0.777036 0.054722
0.690704 0.776402 0.054722
0.751971 0.773858 0.054722
0.825602 0.780036 0.054722
0.000000 0.853264 0.126541
0.005968 0.853264 0.079923
0.063674 0.853264 0.054722
0.114353 0.853264 0.054722
0.166396 0.853264 0.054722
0.220331 0.853264 0.054722
0.276155 0.853264 0.054722
0.333682 0.853264 0.054722
0.392698 0.853264 0.054722
0.453065 0.853264 0.054722
0.514659 0.853264 0.054722
0.577457 0.853264 0.054722
0.641184 0.853264 0.054722
0.706070 0.853264 0.054722
0.768927 0.850724 0.054722
0.829074 0.845349 0.054722
0.000000 0.924145 0.127421
0.005968 0.924145 0.080452
0.064385 0.924145 0.054722
0.115655 0.924145 0.054722
0.168258 0.924145 0.054722
0.222863 0.924145 0.054722
0.279268 0.924145 0.054722
0.337419 0.924145 0.054722
0.397132 0.924145 0.054722
0.458179 0.924145 0.054722
0.520443 0.924145 0.054722
0.583937 0.924145 0.054722
0.648431 0.924145 0.054722
0.714082 0.924145 0.054722
0.780524 0.924145 0.054722
0.841919 0.918749 0.054722
0.000000 0.985720 0.127493
0.005968 0.985720 0.080717
0.064420 0.985720 0.054722
0.115745 0.985720 0.054722
0.168405 0.985720 0.054722
0.223018 0.985720 0.054722
0.279489 0.985720 0.054722
0.337740 0.985720 0.054722
0.397442 0.985720 0.054722
0.458564 0.985720 0.054722
0.520864 0.985720 0.054722
0.584410 0.985720 0.054722
0.648941 0.985720 0.054722
0.714482 0.985720 0.054722
0.781172 0.985720 0.054722
0.848961 0.985720 0.054722
0.000000 0.000000 0.095050
0.007868 0.000000 0.095050
0.018654 0.000000 0.095050
0.039322 0.000000 0.108860
0.077648 0.000000 0.131541
0.129417 0.000000 0.152050
0.183060 0.000000 0.164418
0.230597 0.000000 0.168978
0.277833 0.000000 0.171639
0.333457 0.000000 0.176142
0.406193 0.000000 0.184359
0.493587 0.000000 0.194202
0.584126 0.000000 0.202549
0.670257 0.000000 0.208154
0.750645 0.000000 0.211504
0.825602 0.000000 0.213253
0.000000 0.026008 0.095050
0.005968 0.022600 0.095050
0.018402 0.021379 0.095050
0.039322 0.021379 0.106503
0.077648 0.021379 0.126170
0.129417 0.021379 0.144226
0.183060 0.021379 0.155136
0.230597 0.021379 0.159095
0.277833 0.021379 0.161386
0.333457 0.021379 0.165368
0.406193 0.021379 0.172796
0.493587 0.021379 0.181774
0.584126 0.021379 0.189364
0.670257 0.021379 0.194449
0.750645 0.021379 0.197513
0.825602 0.021379 0.199050
0.000000 0.050949 0.095834
0.005968 0.050949 0.095729
0.017619 0.050949 0.095241
0.039322 0.051572 0.095050
0.077648 0.052995 0.095050
0.129417 0.054520 0.095050
0.183060 0.055424 0.095050
0.230597 0.055602 0.095050
0.277833 0.055650 0.095050
0.333457 0.055954 0.095050
0.406193 0.056756 0.095050
0.493587 0.057834 0.095050
0.584126 0.058833 0.095050
0.670257 0.059554 0.095050
0.750645 0.060046 0.095050
0.825602 0.060393 0.095050
0.000000 0.098866 0.117695
0.005968 0.098866 0.115010
0.017619 0.098866 0.101193
0.042527 0.098866 0.095050
0.077648 0.109415 0.095050
0.129417 0.125468 0.095050
0.183060 0.134979 0.095050
0.230597 0.137983 0.095050
0.277833 0.139640 0.095050
0.333457 0.143253 0.095050
0.406193 0.150535 0.095050
0.493587 0.159471 0.095050
0.584126 0.167107 0.095050
0.670257 0.172238 0.095050
0.750645 0.175320 0.095050
0.825602 0.176855 0.095050
0.000000 0.167248 0.143129
0.005968 0.167249 0.138033
0.017619 0.167248 0.109441
0.052869 0.167248 0.095050
0.086551 0.167248 0.095050
0.129417 0.177839 0.095050
0.183060 0.192119 0.095050
0.230597 0.196620 0.095050
0.277833 0.199147 0.095050
0.333457 0.204587 0.095050
0.406193 0.215406 0.095050
0.493587 0.228698 0.095050
0.584126 0.239989 0.095050
0.670257 0.247547 0.095050
0.750645 0.252084 0.095050
0.825602 0.254304 0.095050
0.000000 0.239013 0.160610
0.005968 0.239013 0.153887
0.017619 0.239013 0.115207
0.060605 0.239013 0.095050
0.100376 0.239013 0.095050
0.138862 0.239013 0.095050
0.183060 0.244674 0.095050
0.230597 0.250527 0.095050
0.277833 0.253777 0.095050
0.333457 0.260803 0.095050
0.406193 0.274768 0.095050
0.493587 0.291903 0.095050
0.584126 0.306485 0.095050
0.670257 0.316202 0.095050
0.750645 0.322072 0.095050
0.825602 0.324899 0.095050
0.000000 0.298692 0.167055
0.005968 0.298692 0.159593
0.017619 0.298692 0.116628
0.063302 0.298692 0.095050
0.104999 0.298692 0.095050
0.145272 0.298692 0.095050
0.185807 0.298692 0.095050
0.230597 0.302323 0.095050
0.277833 0.306290 0.095050
0.333457 0.314860 0.095050
0.406193 0.331813 0.095050
0.493587 0.352654 0.095050
0.584126 0.370309 0.095050
0.670257 0.382090 0.095050
0.750645 0.389142 0.095050
0.825602 0.392633 0.095050
0.000000 0.354325 0.170203
0.005968 0.354325 0.162312
0.017619 0.354325 0.116936
0.064622 0.354325 0.095050
0.107154 0.354325 0.095050
0.148230 0.354325 0.095050
0.189597 0.354325 0.095050
0.231587 0.354325 0.095050
0.278283 0.358178 0.095050
0.333457 0.367761 0.095050
0.406193 0.387614 0.095050
0.493587 0.411997 0.095050
0.584126 0.432685 0.095050
0.670257 0.446475 0.095050
0.750645 0.454735 0.095050
0.825602 0.458795 0.095050
0.000000 0.420445 0.176331
0.005968 0.420445 0.167876
0.017619 0.420445 0.118718
0.067738 0.420445 0.095050
0.112514 0.420445 0.095050
0.155703 0.420445 0.095050
0.199153 0.420445 0.095050
0.243319 0.420445 0.095050
0.288283 0.420445 0.095050
0.338468 0.424864 0.095050
0.406193 0.442615 0.095050
0.493587 0.470503 0.095050
0.584126 0.494122 0.095050
0.670257 0.509892 0.095050
0.750645 0.519378 0.095050
0.825602 0.523999 0.095050
0.000000 0.507551 0.187583
0.005968 0.507551 0.178276
0.017619 0.507551 0.122970
0.073854 0.507551 0.095050
0.123170 0.507551 0.095050
0.170633 0.507551 0.095050
0.218267 0.507551 0.095050
0.266718 0.507551 0.095050
0.315982 0.507551 0.095050
0.366154 0.507551 0.095050
0.421448 0.511682 0.095050
0.493587 0.528381 0.095050
0.584126 0.554987 0.095050
0.670257 0.572754 0.095050
0.750645 0.583336 0.095050
0.825602 0.588562 0.095050
0.000000 0.604089 0.199289
0.005968 0.604089 0.189147
0.017619 0.604089 0.127705
0.080434 0.604089 0.095050
0.134613 0.604089 0.095050
0.186595 0.604089 0.095050
0.238813 0.604089 0.095050
0.291794 0.604089 0.095050
0.345724 0.604089 0.095050
0.400661 0.604089 0.095050
0.456373 0.604089 0.095050
0.515851 0.606572 0.095050
0.584126 0.615319 0.095050
0.670257 0.634943 0.095050
0.750645 0.646759 0.095050
0.825602 0.652436 0.095050
0.000000 0.694550 0.207410
0.005968 0.694550 0.196684
0.017619 0.694550 0.131096
0.085102 0.694550 0.095050
0.142699 0.694550 0.095050
0.197898 0.694550 0.095050
0.253304 0.694550 0.095050
0.309479 0.694550 0.095050
0.366683 0.694550 0.095050
0.424921 0.694550 0.095050
0.484101 0.694550 0.095050
0.544278 0.694550 0.095050
0.606357 0.695425 0.095050
0.670257 0.696915 0.095050
0.750645 0.709959 0.095050
0.825602 0.716069 0.095050
0.000000 0.777036 0.212507
0.005968 0.777036 0.201374
0.017619 0.777036 0.133251
0.088031 0.777036 0.095050
0.147745 0.777036 0.095050
0.204934 0.777036 0.095050
0.262320 0.777036 0.095050
0.320596 0.777036 0.095050
0.379836 0.777036 0.095050
0.440072 0.777036 0.095050
0.501442 0.777036 0.095050
0.563713 0.777036 0.095050
0.626931 0.777036 0.095050
0.690074 0.776064 0.095050
0.751900 0.773531 0.095050
0.825602 0.779349 0.095050
0.000000 0.853264 0.215487
0.005968 0.853264 0.204164
0.017619 0.853264 0.134647
0.089708 0.853264 0.095050
0.150704 0.853264 0.095050
0.209105 0.853264 0.095050
0.267644 0.853264 0.095050
0.327062 0.853264 0.095050
0.387527 0.853264 0.095050
0.449044 0.853264 0.095050
0.511578 0.853264 0.095050
0.575162 0.853264 0.095050
0.639639 0.853264 0.095050
0.705055 0.853264 0.095050
0.768431 0.850510 0.095050
0.828975 0.845057 0.095050
0.000000 0.924145 0.217115
0.005968 0.924145 0.205687
0.017619 0.924145 0.135591
0.090555 0.924145 0.095050
0.152234 0.924145 0.095050
0.211260 0.924145 0.095050
0.270472 0.924145 0.095050
0.330530 0.924145 0.095050
0.391584 0.924145 0.095050
0.453752 0.924145 0.095050
0.516975 0.924145 0.095050
0.581257 0.924145 0.095050
0.646344 0.924145 0.095050
0.712740 0.924145 0.095050
0.779732 0.924145 0.095050
0.841384 0.918623 0.095050
0.000000 0.985720 0.217276
0.005968 0.985720 0.205831
0.017619 0.985720 0.136067
0.090488 0.985720 0.095050
0.152234 0.985720 0.095050
0.211284 0.985720 0.095050
0.270513 0.985720 0.095050
0.330629 0.985720 0.095050
0.391718 0.985720 0.095050
0.453930 0.985720 0.095050
0.517150 0.985720 0.095050
0.581491 0.985720 0.095050
0.646595 0.985720 0.095050
0.713030 0.985720 0.095050
0.780002 0.985720 0.095050
0.848209 0.985720 0.095050
0.000000 0.000000 0.156033
0.011089 0.000000 0.156033
0.026300 0.000000 0.156033
0.043583 0.000000 0.156033
0.077648 0.000000 0.178864
0.129417 0.000000 0.208092
0.183060 0.000000 0.225668
0.230597 0.000000 0.232223
0.277833 0.000000 0.235991
0.333457 0.000000 0.242363
0.406193 0.000000 0.254068
0.493587 0.000000 0.268096
0.584126 0.000000 0.279937
0.670257 0.000000 0.287922
0.750645 0.000000 0.292740
0.825602 0.000000 0.295195
0.000000 0.033828 0.156033
0.005968 0.025240 0.156033
0.024447 0.021379 0.156033
0.043254 0.021379 0.156033
0.077648 0.021379 0.177473
0.129417 0.021379 0.205091
0.183060 0.021379 0.221624
0.230597 0.021379 0.227598
0.277833 0.021379 0.231017
0.333457 0.021379 0.237090
0.406193 0.021379 0.248315
0.493587 0.021379 0.261834
0.584126 0.021379 0.273323
0.670257 0.021379 0.280982
0.750645 0.021379 0.285612
0.825602 0.021379 0.287934
0.000000 0.065537 0.156033
0.005968 0.063832 0.156033
0.017619 0.055455 0.156033
0.041586 0.050949 0.156033
0.077648 0.050949 0.171019
0.129417 0.050949 0.190688
0.183060 0.050949 0.202312
0.230597 0.050949 0.205983
0.277833 0.050949 0.208050
0.333457 0.050949 0.212502
0.406193 0.050949 0.221397
0.493587 0.050949 0.232274
0.584126 0.050949 0.241562
0.670257 0.050949 0.247735
0.750645 0.050949 0.251440
0.825602 0.050949 0.253208
0.000000 0.098866 0.159103
0.005968 0.098866 0.158979
0.017619 0.098866 0.158375
0.039322 0.098866 0.156847
0.077648 0.099880 0.156033
0.129417 0.101608 0.156033
0.183060 0.102470 0.156033
0.230597 0.102426 0.156033
0.277833 0.102337 0.156033
0.333457 0.102666 0.156033
0.406193 0.103695 0.156033
0.493587 0.105135 0.156033
0.584126 0.106452 0.156033
0.670258 0.107409 0.156033
0.750645 0.108069 0.156033
0.825602 0.108520 0.156033
0.000000 0.167248 0.195376
0.005968 0.167249 0.193671
0.017619 0.167248 0.185726
0.039322 0.167248 0.165866
0.081617 0.167248 0.156033
0.129417 0.173556 0.156033
0.183060 0.181286 0.156033
0.230597 0.182504 0.156033
0.277833 0.183089 0.156033
0.333457 0.186492 0.156033
0.406193 0.194402 0.156033
0.493587 0.204403 0.156033
0.584126 0.212980 0.156033
0.670258 0.218709 0.156033
0.750645 0.222100 0.156033
0.825602 0.223760 0.156033
0.000000 0.239013 0.220331
0.005968 0.239013 0.217461
0.017619 0.239013 0.204411
0.039322 0.239013 0.171799
0.088002 0.239013 0.156033
0.134885 0.239013 0.156033
0.183060 0.242697 0.156033
0.230597 0.244646 0.156033
0.277833 0.245609 0.156033
0.333457 0.250727 0.156033
0.406193 0.262539 0.156033
0.493587 0.277350 0.156033
0.584126 0.290000 0.156033
0.670258 0.298380 0.156033
0.750645 0.303330 0.156033
0.825602 0.305653 0.156033
0.000000 0.298692 0.229458
0.005968 0.298692 0.226011
0.017619 0.298692 0.210401
0.039322 0.298692 0.172615
0.089591 0.298692 0.156033
0.137521 0.298692 0.156033
0.182874 0.298692 0.156033
0.230597 0.301515 0.156033
0.277833 0.302769 0.156033
0.333457 0.309373 0.156033
0.406193 0.324455 0.156033
0.493587 0.343344 0.156033
0.584126 0.359461 0.156033
0.670258 0.370079 0.156033
0.750645 0.376378 0.156033
0.825602 0.379266 0.156033
0.000000 0.354325 0.233936
0.005968 0.354325 0.230132
0.017619 0.354325 0.213073
0.039322 0.354325 0.172409
0.090325 0.354325 0.156033
0.138566 0.354325 0.156033
0.184193 0.354325 0.156033
0.229308 0.354325 0.156033
