src/luts/41.cube
#Created by: Adobe Photoshop Export Color Lookup Plugin
TITLE "14b043d31d4ccd057989a42cde078933.jpg"
#LUT size
LUT_3D_SIZE 5
#data domain
#LUT data points
DOMAIN_MIN 0.000000 0.000000 0.000000
DOMAIN_MAX 0.903226 0.903226 0.903226
0.022675 0.023529 0.025848
0.133331 0.024261 0.042358
0.533112 0.025391 0.067871
0.852234 0.024628 0.069946
0.970215 0.024872 0.066223
0.024231 0.148621 0.032074
0.197906 0.164185 0.034729
0.554657 0.085205 0.042145
0.856354 0.072754 0.050934
0.972229 0.061737 0.055725
0.023285 0.566528 0.066498
0.186920 0.586731 0.068390
0.666260 0.580475 0.074280
0.893097 0.572327 0.076141
0.976166 0.566376 0.076721
0.023834 0.855743 0.090912
0.234070 0.863281 0.092255
0.785248 0.885773 0.100372
0.913788 0.821960 0.096954
0.979797 0.815857 0.096771
0.024292 0.968811 0.100677
0.256042 0.970367 0.101654
0.792480 0.975067 0.107513
0.976105 0.977173 0.110748
0.981140 0.904785 0.104431
0.017059 0.025726 0.177094
0.135284 0.025299 0.182678
0.540924 0.026093 0.212585
0.856171 0.025879 0.238770
0.971497 0.026062 0.245483
0.019287 0.152161 0.184296
0.112885 0.141083 0.188141
0.622955 0.063110 0.130920
0.983368 0.044525 0.095337
0.987122 0.145966 0.206940
0.024384 0.572601 0.213013
0.086945 0.570282 0.217834
0.633972 0.586212 0.151917
0.921997 0.573425 0.099823
0.988525 0.556519 0.102753
0.027100 0.860779 0.233856
0.137054 0.863098 0.240479
0.729126 0.891418 0.169220
0.913849 0.839905 0.135925
0.989990 0.828674 0.122345
0.028046 0.972839 0.242828
0.158661 0.975464 0.250305
0.734192 0.985748 0.180481
0.972321 0.989899 0.139130
0.990387 0.925079 0.129913
0.014130 0.028595 0.586670
0.077057 0.038513 0.612366
0.552032 0.031311 0.637329
0.855438 0.030060 0.641144
0.965271 0.029694 0.660187
0.017151 0.140442 0.605347
0.063599 0.136078 0.616180
0.538635 0.145233 0.643280
0.880310 0.154053 0.665131
0.981720 0.176544 0.678772
0.024445 0.582642 0.634857
0.075409 0.587036 0.646942
0.528625 0.591125 0.661591
0.902191 0.564484 0.650543
0.987122 0.604095 0.686981
0.028198 0.866425 0.653534
0.114685 0.880554 0.673096
0.571106 0.873047 0.678101
0.879791 0.862579 0.638275
0.990021 0.852875 0.623871
0.029572 0.975189 0.660706
0.137543 0.990570 0.682678
0.588348 0.980560 0.684967
0.917084 0.988831 0.637115
0.985840 0.956757 0.626984
0.014130 0.034698 0.831299
0.103546 0.046844 0.890900
0.574188 0.037872 0.896851
0.848694 0.035675 0.903107
0.956146 0.034821 0.903778
0.015594 0.165985 0.881927
0.093262 0.167664 0.896881
0.564636 0.179413 0.905396
0.850433 0.196167 0.910797
0.961365 0.209015 0.910767
0.024048 0.599915 0.900787
0.108307 0.611786 0.917145
0.553925 0.611298 0.917908
0.852386 0.624268 0.922333
0.969269 0.629944 0.924591
0.027893 0.868683 0.911804
0.118591 0.882935 0.928436
0.567169 0.878326 0.927307
0.866150 0.884033 0.929779
0.986206 0.872101 0.930206
0.029358 0.975525 0.915588
0.147980 0.988922 0.930664
0.584351 0.984406 0.931244
0.872101 0.984131 0.933594
0.975891 0.977112 0.927124
0.014130 0.037537 0.933105
0.117188 0.052155 0.989929
0.581451 0.042877 0.990906
0.846497 0.041016 0.991272
0.948517 0.041229 0.991394
0.016052 0.177551 0.989777
0.110992 0.182770 0.990021
0.572052 0.199066 0.990967
0.845398 0.217346 0.991333
0.949615 0.226074 0.991455
0.033478 0.605408 0.990540
0.145203 0.616608 0.990753
0.570465 0.621704 0.991150
0.849426 0.639221 0.991516
0.954315 0.648376 0.991699
0.050842 0.863586 0.990906
0.183289 0.870636 0.990997
0.603271 0.875305 0.991394
0.876312 0.889160 0.991638
0.967163 0.896637 0.991791
0.061676 0.964203 0.990967
0.206238 0.967987 0.991119
0.626068 0.971008 0.991486
0.896118 0.979004 0.991730
0.983643 0.986206 0.991821
