src/luts/41.cube
#Created by: Adobe Photoshop Export Color Lookup Plugin
TITLE "14b043d31d4ccd057989a42cde078933.jpg"
#LUT size
LUT_3D_SIZE 8
#data domain
#LUT data points
DOMAIN_MIN 0.000000 0.000000 0.000000
DOMAIN_MAX 0.903226 0.903226 0.903226
0.022675 0.023529 0.025848
0.042358 0.023590 0.028839
0.177094 0.024445 0.048309
0.410095 0.025299 0.064789
0.642334 0.025391 0.069702
0.818573 0.024841 0.070160
0.924255 0.024719 0.068085
0.970215 0.024872 0.066223
0.023315 0.043427 0.026764
0.052582 0.046265 0.027313
0.176239 0.024384 0.030823
0.409088 0.025238 0.051483
0.641815 0.025177 0.059662
0.818054 0.024811 0.062622
0.924103 0.024658 0.062256
0.970123 0.024780 0.061310
0.024750 0.210358 0.036346
0.051849 0.215759 0.036865
0.265686 0.230957 0.039978
0.464081 0.178314 0.043732
0.672180 0.168793 0.047424
0.830994 0.160461 0.051025
0.927948 0.154694 0.053589
0.970673 0.152344 0.054779
0.024384 0.458252 0.057526
0.047089 0.462524 0.058258
0.266205 0.496521 0.062134
0.546173 0.479492 0.064880
0.726410 0.475922 0.066620
0.859589 0.469025 0.067993
0.939636 0.464478 0.069000
0.974670 0.462433 0.069366
0.022919 0.664032 0.074768
0.050751 0.667297 0.075562
0.298309 0.688782 0.077820
0.664001 0.720703 0.085327
0.761993 0.666779 0.082489
0.878510 0.662079 0.083130
0.947479 0.658203 0.083496
0.977417 0.655151 0.083557
0.023651 0.824463 0.088287
0.052368 0.828156 0.090668
0.325287 0.837982 0.090576
0.680298 0.855316 0.096222
0.855042 0.865265 0.099976
0.892456 0.798126 0.094818
0.953003 0.792938 0.094727
0.979401 0.790710 0.094635
0.024109 0.924347 0.096863
0.053101 0.928284 0.100281
0.343201 0.930115 0.098602
0.690277 0.937592 0.103058
0.867401 0.941956 0.106201
0.958160 0.944702 0.107971
0.956543 0.872803 0.101685
0.980621 0.870087 0.101410
0.024292 0.968811 0.100677
0.053406 0.972961 0.104675
0.351654 0.970978 0.102203
0.694611 0.974060 0.106049
0.868927 0.975891 0.108795
0.961395 0.976959 0.110443
0.981659 0.938324 0.107391
0.981140 0.904785 0.104431
0.022308 0.023590 0.049255
0.041840 0.024017 0.049774
0.178162 0.024506 0.068573
0.411377 0.025299 0.080780
0.643097 0.025574 0.082123
0.818970 0.024994 0.079620
0.924530 0.024872 0.075684
0.970337 0.024963 0.072998
0.022583 0.043732 0.050140
0.041992 0.043518 0.050720
0.197662 0.024597 0.051788
0.444336 0.025360 0.066803
0.674835 0.025360 0.070679
0.848480 0.024780 0.070465
0.952179 0.024841 0.067444
0.987030 0.025909 0.068176
0.024231 0.211182 0.059357
0.039825 0.209961 0.059937
0.258911 0.232483 0.055359
0.495911 0.173370 0.043976
0.701538 0.155151 0.047577
0.859131 0.141937 0.051331
0.955566 0.134552 0.054199
0.986145 0.138397 0.055389
0.023987 0.459656 0.079163
0.034851 0.458923 0.079590
0.248566 0.497345 0.076050
0.554810 0.490326 0.072662
0.747040 0.485168 0.069244
0.884308 0.473450 0.068695
0.962463 0.464600 0.069397
0.987244 0.460327 0.069733
0.023560 0.665222 0.095612
0.037476 0.665924 0.096741
0.278290 0.689056 0.092743
0.666412 0.733154 0.091156
0.774658 0.681061 0.087006
0.892578 0.672638 0.085358
0.966980 0.669006 0.084534
0.988312 0.659668 0.084198
0.024445 0.825623 0.108856
0.039154 0.828125 0.111633
0.304169 0.837097 0.107086
0.676941 0.865814 0.102539
0.864014 0.880646 0.103058
0.905273 0.813507 0.097412
0.965973 0.806122 0.096283
0.988953 0.799561 0.095673
0.024933 0.925323 0.117432
0.041748 0.928223 0.120544
0.324554 0.930298 0.115295
0.684723 0.947815 0.109619
0.874084 0.958344 0.108917
0.967590 0.960327 0.109741
0.968506 0.888550 0.103394
0.989258 0.881287 0.102661
0.025177 0.969727 0.121216
0.042908 0.972717 0.124603
0.335541 0.971558 0.118958
0.687744 0.983337 0.113190
0.871307 0.988281 0.112213
0.967163 0.988708 0.112213
0.989563 0.950958 0.108734
0.989410 0.916687 0.105774
0.016571 0.025909 0.245575
0.028290 0.027771 0.248688
0.180084 0.026215 0.256531
0.420746 0.026276 0.268402
0.652069 0.026611 0.292450
0.824768 0.026367 0.314178
0.927185 0.026276 0.328217
0.971375 0.026245 0.335205
0.017151 0.041565 0.246918
0.028442 0.042847 0.249786
0.175354 0.042328 0.257355
0.454834 0.026398 0.270416
0.683929 0.026459 0.288483
0.853821 0.026184 0.306793
0.954132 0.026123 0.319458
0.987671 0.029694 0.330627
0.020050 0.215851 0.257935
0.031738 0.216370 0.260773
0.137054 0.202576 0.264893
0.457001 0.147614 0.237366
0.732727 0.136963 0.214172
0.931549 0.127655 0.194794
0.986908 0.176422 0.245453
0.986847 0.222900 0.296051
0.023315 0.466522 0.276184
0.031464 0.467010 0.278198
0.093109 0.460388 0.283661
0.471619 0.474518 0.226135
0.718872 0.466187 0.179138
0.907318 0.439758 0.125183
0.988220 0.427277 0.124756
0.988708 0.438660 0.172852
0.025665 0.671600 0.289612
0.037537 0.673370 0.292480
0.138153 0.670837 0.298187
0.546722 0.705200 0.233429
0.725250 0.676788 0.199402
0.869171 0.666656 0.181915
0.972351 0.661438 0.151306
0.990265 0.652039 0.168152
0.027344 0.831177 0.301300
0.042358 0.833740 0.304749
0.175079 0.833466 0.311035
0.560638 0.850220 0.249725
0.805023 0.868073 0.197876
0.881348 0.816681 0.180786
0.958038 0.808441 0.170044
0.991089 0.804291 0.165588
0.028320 0.929840 0.308868
0.045471 0.932800 0.312714
0.199738 0.932770 0.319489
0.570526 0.939880 0.260345
0.804962 0.950287 0.209045
0.942413 0.955353 0.173187
0.960785 0.896790 0.168640
0.991394 0.892212 0.164062
0.028717 0.973663 0.312378
0.046875 0.976715 0.316498
0.211884 0.976440 0.323944
0.575165 0.979095 0.265900
0.806122 0.988373 0.213013
0.945618 0.991028 0.175934
0.991577 0.967682 0.162537
0.991486 0.930603 0.163300
0.014313 0.026886 0.498474
0.022491 0.028229 0.500793
0.103485 0.040802 0.521851
0.427094 0.029877 0.532745
0.657928 0.029022 0.530029
0.825378 0.028900 0.553650
0.924377 0.028595 0.570007
0.967377 0.028534 0.577515
0.014679 0.037964 0.499481
0.022308 0.038757 0.501373
0.098419 0.051880 0.522308
0.423828 0.041931 0.533325
0.656464 0.041565 0.531036
0.853180 0.028961 0.562408
0.950439 0.028564 0.575867
0.982849 0.035217 0.581573
0.019012 0.202301 0.512787
0.027039 0.201965 0.514740
0.073883 0.195465 0.526062
0.399841 0.201416 0.540649
0.670044 0.203308 0.558716
0.882996 0.189209 0.576935
0.983643 0.199005 0.586365
0.983887 0.243134 0.598907
0.023102 0.472961 0.531433
0.031677 0.473450 0.533508
0.081177 0.473389 0.545654
0.374329 0.466614 0.553802
0.671692 0.454071 0.547180
0.880402 0.444275 0.537109
0.987091 0.451630 0.543701
0.987122 0.497467 0.589050
0.025848 0.676941 0.544922
0.038025 0.678772 0.547913
0.113007 0.688171 0.566071
0.411133 0.678986 0.568420
0.667847 0.680084 0.535889
0.860199 0.665222 0.499329
0.981750 0.643799 0.463806
0.989807 0.649109 0.510956
0.027863 0.834900 0.556030
0.043243 0.837555 0.559570
0.151672 0.848816 0.578369
0.441010 0.838348 0.579285
0.708191 0.851501 0.542450
0.852264 0.827576 0.517242
0.945801 0.818878 0.510773
0.991760 0.815216 0.500305
0.029022 0.932037 0.563171
0.046600 0.935059 0.567200
0.186279 0.942841 0.582458
0.459747 0.935944 0.586304
0.711884 0.942017 0.551605
0.900818 0.950897 0.511810
0.949615 0.912689 0.504547
0.988251 0.908447 0.501404
0.029541 0.974976 0.566376
0.048218 0.978119 0.570557
0.201019 0.985046 0.584656
0.468384 0.979218 0.589539
0.714172 0.982300 0.555725
0.901337 0.989655 0.514923
0.989349 0.988739 0.495636
0.988800 0.949249 0.498566
0.014130 0.030487 0.667084
0.023621 0.031158 0.681763
0.127045 0.047943 0.714600
0.448456 0.034210 0.718384
0.658569 0.032745 0.729431
0.822845 0.031769 0.728180
0.920563 0.031128 0.727051
0.963043 0.030945 0.732239
0.014130 0.044800 0.675629
0.023254 0.045166 0.688080
0.124207 0.062653 0.714996
0.445862 0.050995 0.719635
0.657410 0.051117 0.730652
0.822479 0.052063 0.729095
0.920746 0.052368 0.728180
0.973694 0.044128 0.739807
0.018372 0.219452 0.700867
0.029755 0.219788 0.703461
0.100677 0.218170 0.719238
0.423584 0.222839 0.728424
0.646118 0.233582 0.738251
0.819092 0.251251 0.736694
0.940216 0.247345 0.754822
0.981171 0.255066 0.760223
0.022858 0.486847 0.717010
0.034943 0.488251 0.719727
0.109467 0.493988 0.736481
0.397278 0.484924 0.739838
0.632141 0.495514 0.747070
0.835632 0.493011 0.762115
0.966003 0.481171 0.773407
0.984314 0.508789 0.780243
0.025604 0.680817 0.728760
0.038147 0.682678 0.731598
0.115204 0.692474 0.748962
0.408264 0.684875 0.750092
0.654114 0.695679 0.754669
0.852509 0.679016 0.750885
0.969391 0.668640 0.746582
0.986969 0.697205 0.772064
0.027740 0.837189 0.738220
0.043396 0.839844 0.741669
0.143616 0.855286 0.762970
0.437775 0.842682 0.758057
0.672333 0.847626 0.762482
0.842896 0.842834 0.745544
0.949158 0.832703 0.728302
0.989288 0.825989 0.728241
0.028992 0.932953 0.743713
0.047180 0.935913 0.747620
0.163788 0.954834 0.771484
0.457062 0.939331 0.763153
0.684082 0.940582 0.767548
0.864899 0.946503 0.748260
0.942596 0.927277 0.738434
0.982086 0.922882 0.736359
0.029510 0.975311 0.745911
0.049042 0.978546 0.749939
0.191193 0.990601 0.771576
0.465759 0.982239 0.765594
0.689392 0.981781 0.769867
0.864471 0.985321 0.751190
0.969360 0.988647 0.735901
0.982819 0.963440 0.735046
0.014130 0.033844 0.804657
0.025818 0.034851 0.821259
0.147461 0.053619 0.870056
0.464233 0.038544 0.866119
0.665985 0.036346 0.870605
0.819366 0.035126 0.875366
0.915405 0.034454 0.875702
0.957245 0.034180 0.875580
0.014130 0.050873 0.818268
0.025452 0.051544 0.832794
0.145416 0.071869 0.871277
0.462372 0.059082 0.868073
0.665955 0.059235 0.872650
0.819916 0.060852 0.877136
0.916443 0.061523 0.877258
0.958618 0.061707 0.877228
0.017700 0.233490 0.854797
0.031891 0.234650 0.857666
0.122955 0.236969 0.875702
0.441315 0.240967 0.877747
0.656525 0.251953 0.881042
0.818207 0.262787 0.884888
0.919067 0.273804 0.884735
0.963043 0.278687 0.884460
0.022552 0.498291 0.866974
0.037537 0.500305 0.869995
0.132935 0.510651 0.889069
0.414032 0.499939 0.886566
0.642670 0.508606 0.888275
0.813721 0.518433 0.892029
0.919800 0.526947 0.891846
0.969543 0.527191 0.895538
0.025421 0.688446 0.875580
0.040924 0.691071 0.878693
0.139374 0.705353 0.898315
0.425171 0.695129 0.893494
0.664429 0.704285 0.894104
0.825470 0.710205 0.897491
0.934387 0.707336 0.905396
0.984375 0.703491 0.911957
0.027527 0.839020 0.882599
0.043640 0.841461 0.885590
0.146484 0.856903 0.904816
0.433685 0.847046 0.899292
0.670593 0.850403 0.899750
0.834595 0.854828 0.901978
0.945679 0.842316 0.900665
0.986359 0.844269 0.905212
0.028809 0.933380 0.886230
0.047668 0.936493 0.889709
0.166016 0.955658 0.911774
0.452728 0.942841 0.902893
0.682098 0.942627 0.903412
0.840851 0.944122 0.905518
0.936035 0.938965 0.899170
0.979156 0.934631 0.894470
0.029388 0.975494 0.887695
0.049591 0.978821 0.891418
0.196014 0.990631 0.906586
0.461670 0.985352 0.904541
0.687439 0.983551 0.905090
0.843689 0.983765 0.907166
0.947540 0.986450 0.899689
0.977081 0.974884 0.897583
0.014130 0.036346 0.892609
0.027283 0.037445 0.910889
0.162140 0.058014 0.963409
0.473389 0.041656 0.959290
0.670715 0.038635 0.959991
0.819397 0.037445 0.962097
0.911743 0.036743 0.964020
0.953308 0.036377 0.964417
0.014130 0.054962 0.910278
0.026917 0.055908 0.925629
0.160645 0.078613 0.963440
0.472260 0.064575 0.961731
0.670898 0.064819 0.962341
0.820679 0.066406 0.964539
0.913666 0.067596 0.966309
0.955322 0.067902 0.966675
0.017273 0.242767 0.954071
0.033234 0.243988 0.956940
0.141418 0.249481 0.963806
0.451721 0.254456 0.966156
0.661316 0.265259 0.967102
0.817780 0.276428 0.967865
0.913574 0.284271 0.968353
0.956238 0.289612 0.968292
0.022369 0.505463 0.962738
0.040100 0.507812 0.964508
0.161407 0.518311 0.965424
0.427948 0.509949 0.966583
0.648560 0.519043 0.967529
0.812347 0.529999 0.968292
0.911987 0.537903 0.968842
0.956146 0.542480 0.968781
0.028595 0.692474 0.965454
0.049103 0.694397 0.965607
0.181885 0.704437 0.966339
0.446472 0.699341 0.967194
0.674500 0.710602 0.967834
0.826355 0.718811 0.968567
0.918396 0.725281 0.969086
0.959076 0.728882 0.968964
0.037537 0.837280 0.966187
0.060394 0.838440 0.966278
0.205811 0.846100 0.966797
0.466644 0.843658 0.967682
0.689453 0.850677 0.968323
0.842102 0.858612 0.968811
0.927460 0.864075 0.969269
0.966003 0.865906 0.970276
0.045624 0.926788 0.966461
0.070709 0.927734 0.966553
0.226105 0.932861 0.967133
0.484619 0.931915 0.967987
0.704468 0.935699 0.968628
0.854828 0.941254 0.969116
0.938873 0.946594 0.969421
0.978271 0.944000 0.969177
0.050201 0.966919 0.966553
0.077667 0.967499 0.966675
0.246368 0.971252 0.967316
0.500793 0.970551 0.968170
0.717468 0.972748 0.968750
0.865601 0.976837 0.969269
0.947937 0.981476 0.969543
0.981293 0.982025 0.968536
0.014130 0.037537 0.933105
0.027985 0.038910 0.951050
0.171173 0.061707 0.990143
0.477386 0.045197 0.990784
0.672028 0.041809 0.990997
0.818298 0.041046 0.991241
0.908264 0.041077 0.991333
0.948517 0.041229 0.991394
0.014130 0.057343 0.950256
0.027588 0.058167 0.967316
0.170441 0.083282 0.990143
0.476227 0.069946 0.990784
0.671692 0.070374 0.991028
0.818329 0.072784 0.991241
0.908569 0.074982 0.991364
0.948914 0.076050 0.991394
0.018982 0.247772 0.989899
0.036774 0.249451 0.989960
0.153137 0.256287 0.990234
0.457153 0.263428 0.990875
0.662354 0.274872 0.991119
0.815063 0.286530 0.991333
0.908508 0.294739 0.991455
0.950012 0.298615 0.991516
0.029022 0.508301 0.990356
0.048676 0.510651 0.990417
0.176361 0.522736 0.990692
0.436462 0.515625 0.990967
0.652344 0.525604 0.991241
0.812134 0.537231 0.991425
0.909241 0.545624 0.991577
0.951996 0.549652 0.991638
0.038239 0.692841 0.990692
0.059662 0.695038 0.990723
0.199432 0.706360 0.990906
0.457397 0.702484 0.991150
0.680420 0.714661 0.991333
0.828308 0.723755 0.991516
0.917755 0.730743 0.991638
0.957062 0.734253 0.991730
0.048401 0.835846 0.990875
0.072388 0.837219 0.990875
0.224762 0.846069 0.991058
0.479401 0.844757 0.991272
0.697327 0.852722 0.991455
0.845917 0.861511 0.991577
0.928772 0.867554 0.991699
0.964722 0.870819 0.991791
0.056976 0.924438 0.990967
0.083252 0.925537 0.990967
0.245605 0.931610 0.991150
0.498322 0.931732 0.991364
0.713562 0.936462 0.991547
0.860016 0.942810 0.991669
0.941650 0.948730 0.991730
0.975067 0.952057 0.991821
0.061676 0.964203 0.990967
0.089142 0.964966 0.990997
0.256836 0.969391 0.991180
0.509003 0.969727 0.991394
0.723663 0.972778 0.991577
0.869873 0.977661 0.991699
0.950806 0.982880 0.991791
0.983643 0.986206 0.991821
