src/luts/41.cube
#Created by: Adobe Photoshop Export Color Lookup Plugin
TITLE "14b043d31d4ccd057989a42cde078933.jpg"
#LUT size
LUT_3D_SIZE 32
#data domain
DOMAIN_MIN 0.0 0.0 0.0
DOMAIN_MAX 1.0 1.0 1.0
#LUT data points
0.022675 0.023529 0.025848
0.022675 0.023529 0.025848
0.023010 0.023590 0.025940
0.029297 0.023560 0.026825
0.042358 0.023590 0.028839
0.063843 0.023773 0.032104
0.094910 0.024078 0.036591
0.133331 0.024261 0.042358
0.177094 0.024445 0.048309
0.237335 0.024689 0.053833
0.297516 0.024963 0.058441
0.354675 0.025116 0.062073
0.410095 0.025299 0.064789
0.473999 0.025330 0.066559
0.533112 0.025391 0.067871
0.589264 0.025330 0.069061
0.642334 0.025391 0.069702
0.692108 0.025360 0.069916
0.738281 0.025238 0.070221
0.780518 0.025085 0.070282
0.818573 0.024841 0.070160
0.852234 0.024628 0.069946
0.880920 0.024628 0.069397
0.904846 0.024689 0.068726
0.924255 0.024719 0.068085
0.939941 0.024780 0.067535
0.952454 0.024811 0.067078
0.962372 0.024811 0.066620
0.970215 0.024872 0.066223
0.976562 0.024872 0.065979
0.981903 0.024872 0.065765
0.986694 0.024872 0.065582
0.022675 0.023529 0.025848
0.022675 0.023529 0.025848
0.023010 0.023590 0.025940
0.029297 0.023560 0.026825
0.042358 0.023590 0.028839
0.063843 0.023773 0.032104
0.094910 0.024078 0.036591
0.133331 0.024261 0.042358
0.177094 0.024445 0.048309
0.237335 0.024689 0.053833
0.297516 0.024963 0.058441
0.354675 0.025116 0.062073
0.410095 0.025299 0.064789
0.473999 0.025330 0.066559
0.533112 0.025391 0.067871
0.589264 0.025330 0.069061
0.642334 0.025391 0.069702
0.692108 0.025360 0.069916
0.738281 0.025238 0.070221
0.780518 0.025085 0.070282
0.818573 0.024841 0.070160
0.852234 0.024628 0.069946
0.880920 0.024628 0.069397
0.904846 0.024689 0.068726
0.924255 0.024719 0.068085
0.939941 0.024780 0.067535
0.952454 0.024811 0.067078
0.962372 0.024811 0.066620
0.970215 0.024872 0.066223
0.976562 0.024872 0.065979
0.981903 0.024872 0.065765
0.986694 0.024872 0.065582
0.022430 0.024139 0.025818
0.022430 0.024139 0.025818
0.023315 0.024017 0.025848
0.029327 0.023560 0.026398
0.041931 0.023773 0.028381
0.063873 0.023773 0.031647
0.094849 0.024048 0.036285
0.133331 0.024261 0.041962
0.177124 0.024414 0.047913
0.237274 0.024689 0.053589
0.297516 0.024963 0.058105
0.354675 0.025116 0.061890
0.409973 0.025391 0.064392
0.473999 0.025330 0.066284
0.533081 0.025391 0.067566
0.589142 0.025421 0.068695
0.642303 0.025360 0.069458
0.692261 0.025238 0.069885
0.738281 0.025208 0.070068
0.780518 0.025116 0.069946
0.818451 0.024902 0.069916
0.852112 0.024689 0.069733
0.880920 0.024628 0.069183
0.904816 0.024689 0.068481
0.924286 0.024750 0.067902
0.939972 0.024780 0.067352
0.952454 0.024811 0.066895
0.962372 0.024811 0.066559
0.970215 0.024872 0.066162
0.976562 0.024872 0.065918
0.981903 0.024902 0.065582
0.986694 0.024872 0.065491
0.023132 0.030029 0.026245
0.023132 0.030029 0.026245
0.023712 0.030182 0.026154
0.032959 0.030884 0.026520
0.044434 0.029053 0.026703
0.064697 0.025665 0.026855
0.094574 0.024139 0.029968
0.133240 0.024139 0.036163
0.177002 0.024323 0.042419
0.236816 0.024750 0.048370
0.297333 0.024872 0.053345
0.354248 0.025146 0.057129
0.409760 0.025269 0.060242
0.473511 0.025421 0.062134
0.532776 0.025330 0.064026
0.588806 0.025421 0.065094
0.642029 0.025391 0.065979
0.691986 0.025238 0.066925
0.738342 0.025055 0.067444
0.780365 0.025024 0.067444
0.818512 0.024780 0.067627
0.851746 0.024811 0.067230
0.880829 0.024567 0.067200
0.904724 0.024658 0.066559
0.924225 0.024719 0.066010
0.939911 0.024750 0.065552
0.952423 0.024780 0.065063
0.962341 0.024811 0.064728
0.970184 0.024811 0.064514
0.976532 0.024841 0.064240
0.981873 0.024872 0.063965
0.986694 0.024872 0.063843
0.023315 0.043427 0.026764
0.023315 0.043427 0.026764
0.023499 0.043823 0.026733
0.033691 0.045410 0.027069
0.052582 0.046265 0.027313
0.072784 0.041931 0.027618
0.101471 0.035736 0.028107
0.136139 0.029114 0.029022
0.176239 0.024384 0.030823
0.236145 0.024719 0.037537
0.296478 0.024933 0.043274
0.353729 0.024994 0.047943
0.409088 0.025238 0.051483
0.472961 0.025330 0.053955
0.532196 0.025299 0.056366
0.588409 0.025238 0.058197
0.641815 0.025177 0.059662
0.691559 0.025208 0.060577
0.737579 0.025177 0.061523
0.780121 0.024933 0.062256
0.818054 0.024811 0.062622
0.851685 0.024689 0.062897
0.880615 0.024506 0.062988
0.904633 0.024597 0.062683
0.924103 0.024658 0.062256
0.939758 0.024689 0.062042
0.952301 0.024719 0.061829
0.962219 0.024750 0.061523
0.970123 0.024780 0.061310
0.976471 0.024780 0.061188
0.981842 0.024811 0.061005
0.986633 0.024811 0.060852
0.023712 0.065704 0.027771
0.023712 0.065704 0.027771
0.024323 0.065887 0.027710
0.033600 0.067474 0.028229
0.056488 0.071747 0.028290
0.086639 0.071747 0.028564
0.115112 0.064240 0.029144
0.149078 0.053986 0.029785
0.187744 0.042969 0.030792
0.243500 0.034760 0.032135
0.300049 0.029541 0.033844
0.354187 0.026398 0.035522
0.408020 0.025177 0.037872
0.471863 0.025269 0.041412
0.531281 0.025146 0.044678
0.587433 0.025238 0.047211
0.640900 0.025116 0.049683
0.691010 0.024994 0.051788
0.737183 0.024994 0.053223
0.779541 0.024841 0.054657
0.817566 0.024750 0.055725
0.851440 0.024475 0.056671
0.880371 0.024414 0.057159
0.904327 0.024506 0.057312
0.923859 0.024567 0.057373
0.939667 0.024628 0.057281
0.952179 0.024658 0.057220
0.962097 0.024689 0.057251
0.970001 0.024689 0.057220
0.976410 0.024719 0.057098
0.981750 0.024719 0.057068
0.986572 0.024750 0.057007
0.024048 0.098450 0.029236
0.024048 0.098450 0.029236
0.024628 0.098572 0.029175
0.033630 0.100250 0.029541
0.053528 0.103912 0.030060
0.094910 0.111267 0.030426
0.136139 0.109039 0.030853
0.169861 0.096954 0.031464
0.207306 0.083069 0.032288
0.261292 0.070007 0.033569
0.316437 0.058777 0.035156
0.369324 0.049713 0.036804
0.421265 0.042755 0.038239
0.482483 0.039612 0.039703
0.538971 0.036285 0.040894
0.593170 0.032471 0.042053
0.644592 0.030518 0.043304
0.693268 0.029327 0.044739
0.738678 0.028076 0.046295
0.780243 0.027039 0.047546
0.817780 0.025970 0.048981
0.851196 0.025024 0.050110
0.880005 0.024353 0.051239
0.904083 0.024414 0.052063
0.923706 0.024506 0.052643
0.939484 0.024567 0.053070
0.952087 0.024597 0.053406
0.962036 0.024628 0.053650
0.969940 0.024628 0.053802
0.976379 0.024658 0.053925
0.981689 0.024689 0.054108
0.986511 0.024689 0.054138
0.024231 0.148621 0.032074
0.024231 0.148621 0.032074
0.025085 0.148651 0.032104
0.033600 0.150391 0.032349
0.052917 0.153900 0.032776
0.089417 0.160675 0.033386
0.150208 0.171722 0.034637
0.197906 0.164185 0.034729
0.234467 0.149261 0.035339
0.286743 0.132538 0.036316
0.339661 0.117004 0.037323
0.390381 0.103058 0.038605
0.440399 0.091187 0.040100
0.499603 0.088196 0.041016
0.554657 0.085205 0.042145
0.607147 0.084259 0.043335
0.657074 0.082947 0.044647
0.704132 0.081482 0.045990
0.747650 0.079651 0.047150
0.787781 0.077515 0.048370
0.824036 0.075134 0.049744
0.856354 0.072754 0.050934
0.884125 0.070557 0.051849
0.907532 0.068604 0.052826
0.926819 0.066589 0.053833
0.942352 0.064789 0.054504
0.954651 0.063568 0.054901
0.964447 0.062469 0.055359
0.972229 0.061737 0.055725
0.978485 0.060822 0.055847
0.983734 0.060150 0.056061
0.988586 0.059601 0.056305
0.024750 0.210358 0.036346
0.024750 0.210358 0.036346
0.025116 0.210602 0.036346
0.033813 0.212158 0.036469
0.051849 0.215759 0.036865
0.083740 0.221497 0.037415
0.141022 0.232178 0.038727
0.217896 0.246979 0.040344
0.265686 0.230957 0.039978
0.316711 0.217072 0.040863
0.367554 0.202484 0.041840
0.416016 0.189331 0.042664
0.464081 0.178314 0.043732
0.521179 0.175934 0.044495
0.574188 0.173584 0.045471
0.624451 0.171173 0.046326
0.672180 0.168793 0.047424
0.717010 0.166656 0.048340
0.758514 0.164429 0.049286
0.796692 0.162537 0.050262
0.830994 0.160461 0.051025
0.861511 0.158966 0.051727
0.887848 0.157257 0.052521
0.909973 0.155792 0.053192
0.927948 0.154694 0.053589
0.942566 0.154114 0.054077
0.954163 0.153168 0.054443
0.963440 0.152435 0.054688
0.970673 0.152344 0.054779
0.976624 0.151886 0.055023
0.981628 0.151703 0.055115
0.986084 0.151398 0.055267
0.024719 0.277832 0.041443
0.024719 0.277832 0.041443
0.025360 0.277893 0.041473
0.033295 0.279541 0.041718
0.050385 0.283051 0.042236
0.080841 0.288422 0.042694
0.131622 0.297699 0.043518
0.203949 0.311584 0.045258
0.303650 0.328064 0.047821
0.346741 0.301758 0.046539
0.395935 0.289764 0.047363
0.442505 0.278259 0.048157
0.488251 0.268066 0.048920
0.543365 0.266022 0.049530
0.594177 0.263947 0.050232
0.642487 0.262085 0.051117
0.688049 0.259766 0.051819
0.730835 0.258087 0.052704
0.770447 0.256378 0.053345
0.806702 0.254333 0.053955
0.839294 0.252625 0.054779
0.868256 0.251465 0.055298
0.893188 0.249908 0.055878
0.914154 0.249146 0.056335
0.931183 0.247894 0.056702
0.944916 0.247284 0.056976
0.955902 0.246368 0.057251
0.964600 0.245758 0.057526
0.971558 0.245575 0.057617
0.977142 0.245178 0.057770
0.981842 0.244965 0.057892
0.986115 0.244781 0.057983
0.025024 0.342834 0.046814
0.025024 0.342834 0.046814
0.025330 0.343048 0.046967
0.032898 0.344635 0.047211
0.049286 0.347839 0.047729
0.078522 0.352783 0.048065
0.123199 0.360870 0.048889
0.191132 0.373718 0.050476
0.289673 0.389313 0.052795
0.397308 0.404694 0.055450
0.421509 0.367950 0.053101
0.466248 0.357941 0.053925
0.510437 0.349823 0.054657
0.563660 0.348022 0.055115
0.612549 0.346130 0.055695
0.658813 0.344208 0.056305
0.702637 0.342438 0.056946
0.743500 0.340668 0.057556
0.781281 0.338837 0.058075
0.815887 0.337097 0.058716
0.847046 0.335724 0.059174
0.874573 0.334320 0.059692
0.898254 0.333221 0.060089
0.918182 0.331970 0.060486
0.934357 0.331421 0.060822
0.947510 0.330322 0.061005
0.957886 0.329895 0.061279
0.966125 0.329437 0.061401
0.972748 0.328766 0.061462
0.977997 0.328644 0.061676
0.982452 0.328369 0.061615
0.986511 0.328400 0.061707
0.024750 0.402679 0.052246
0.024750 0.402679 0.052246
0.024658 0.403015 0.052521
0.032318 0.404327 0.052673
0.048279 0.407227 0.052948
0.075897 0.411896 0.053284
0.117096 0.418976 0.054047
0.180054 0.430603 0.055481
0.276154 0.444946 0.057495
0.392303 0.460205 0.060364
0.481842 0.472565 0.062714
0.486969 0.426544 0.059204
0.529419 0.418976 0.059906
0.581177 0.418304 0.060455
0.628601 0.417572 0.060974
0.673157 0.415710 0.061432
0.715271 0.413940 0.061920
0.754517 0.411896 0.062469
0.790833 0.410248 0.062866
0.823944 0.408691 0.063293
0.853699 0.406952 0.063751
0.880066 0.405823 0.064117
0.902740 0.404633 0.064392
0.921692 0.403534 0.064697
0.937195 0.402588 0.065002
0.949646 0.401917 0.065155
0.959564 0.401367 0.065277
0.967499 0.400757 0.065338
0.973755 0.400513 0.065491
0.978821 0.400269 0.065613
0.983063 0.400085 0.065582
0.986877 0.399628 0.065735
0.024384 0.458252 0.057526
0.024384 0.458252 0.057526
0.024750 0.458435 0.057587
0.031921 0.459778 0.057678
0.047089 0.462524 0.058258
0.074066 0.466705 0.058472
0.113922 0.473114 0.058990
0.172424 0.483246 0.060120
0.266205 0.496521 0.062134
0.383881 0.510712 0.064758
0.483948 0.523163 0.067322
0.556274 0.532990 0.069275
0.546173 0.479492 0.064880
0.596436 0.478729 0.065277
0.642365 0.477936 0.065735
0.685638 0.477112 0.066162
0.726410 0.475922 0.066620
0.764252 0.474182 0.066986
0.799103 0.472137 0.067352
0.831024 0.470612 0.067657
0.859589 0.469025 0.067993
0.884827 0.467773 0.068359
0.906586 0.466278 0.068542
0.924805 0.465179 0.068848
0.939636 0.464478 0.069000
0.951630 0.463745 0.069214
0.961090 0.463257 0.069244
0.968658 0.463013 0.069366
0.974670 0.462433 0.069366
0.979492 0.462097 0.069519
0.983582 0.461975 0.069580
0.987244 0.461823 0.069519
0.023468 0.514435 0.062195
0.023468 0.514435 0.062195
0.024323 0.514343 0.062042
0.031738 0.515717 0.062256
0.048035 0.518311 0.062775
0.077148 0.521912 0.062775
0.119537 0.527832 0.063293
0.179932 0.536926 0.064423
0.274933 0.549072 0.066284
0.391937 0.562042 0.068695
0.494049 0.573792 0.071167
0.570618 0.583008 0.073181
0.623871 0.584961 0.074249
0.610168 0.532440 0.069733
0.654755 0.531555 0.070099
0.696747 0.530609 0.070557
0.736206 0.529694 0.070892
0.772949 0.528809 0.071350
0.806671 0.527222 0.071533
0.837341 0.525543 0.071838
0.864868 0.523712 0.072113
0.889160 0.522339 0.072266
0.910095 0.521271 0.072571
0.927582 0.520111 0.072723
0.941833 0.519073 0.072845
0.953308 0.518463 0.072937
0.962433 0.517792 0.072968
0.969727 0.517395 0.073059
0.975464 0.516998 0.073151
0.980133 0.516754 0.073273
0.984039 0.516357 0.073273
0.987518 0.516235 0.073273
0.023285 0.566528 0.066498
0.023285 0.566528 0.066498
0.024170 0.566437 0.066345
0.031616 0.567841 0.066803
0.048706 0.570251 0.067169
0.079773 0.573456 0.067108
0.124908 0.578766 0.067444
0.186920 0.586731 0.068390
0.283020 0.597839 0.070282
0.399750 0.609711 0.072540
0.500824 0.620422 0.074799
0.584442 0.629608 0.076904
0.643066 0.636536 0.078522
0.677704 0.628265 0.078430
0.666260 0.580475 0.074280
0.707001 0.579529 0.074615
0.745209 0.578369 0.074921
0.780731 0.577484 0.075226
0.813385 0.576355 0.075531
0.843170 0.575439 0.075775
0.869720 0.573761 0.075928
0.893097 0.572327 0.076141
0.913300 0.570923 0.076294
0.930115 0.569611 0.076416
0.943878 0.568787 0.076508
0.954895 0.568176 0.076660
0.963684 0.567474 0.076630
0.970642 0.566681 0.076721
0.976166 0.566376 0.076721
0.980682 0.566132 0.076752
0.984436 0.565765 0.076752
0.987793 0.565277 0.076843
0.022827 0.616486 0.070862
0.022827 0.616486 0.070862
0.023438 0.616608 0.070831
0.032013 0.617554 0.070923
0.049438 0.619965 0.071594
0.082153 0.622803 0.071381
0.130066 0.627441 0.071594
0.193390 0.634460 0.072449
0.290894 0.644409 0.074005
0.406952 0.655060 0.076172
0.507111 0.664703 0.078400
0.590210 0.673035 0.080383
0.654663 0.679810 0.081970
0.704559 0.685608 0.083374
0.726410 0.669769 0.082428
0.716766 0.625183 0.078583
0.753784 0.624115 0.078796
0.788177 0.622894 0.079041
0.819824 0.621796 0.079315
0.848541 0.620758 0.079407
0.874237 0.619720 0.079620
0.896942 0.618835 0.079803
0.916351 0.617218 0.079865
0.932556 0.616089 0.079956
0.945709 0.615143 0.080078
0.956299 0.614288 0.080139
0.964783 0.613495 0.080139
0.971497 0.612671 0.080139
0.976807 0.612274 0.080200
0.981140 0.611847 0.080200
0.984772 0.611908 0.080292
0.988037 0.611420 0.080261
0.022919 0.664032 0.074768
0.022919 0.664032 0.074768
0.023376 0.664215 0.074829
0.031372 0.665527 0.075409
0.050751 0.667297 0.075562
0.084595 0.669861 0.075531
0.135010 0.673889 0.075500
0.199951 0.679962 0.076233
0.298309 0.688782 0.077820
0.413971 0.698273 0.079865
0.513672 0.706879 0.081879
0.595642 0.714264 0.083679
0.664001 0.720703 0.085327
0.714417 0.725647 0.086639
0.757660 0.730499 0.087799
0.770081 0.708374 0.086151
0.761993 0.666779 0.082489
0.795288 0.665527 0.082703
0.825897 0.664368 0.082886
0.853668 0.663055 0.082977
0.878510 0.662079 0.083130
0.900391 0.661102 0.083252
0.919189 0.660248 0.083344
0.934753 0.659088 0.083405
0.947479 0.658203 0.083496
0.957672 0.657043 0.083527
0.965820 0.656372 0.083466
0.972321 0.655762 0.083496
0.977417 0.655151 0.083557
0.981567 0.654724 0.083588
0.985168 0.654510 0.083588
0.988251 0.654236 0.083527
0.023132 0.708893 0.078522
0.023132 0.708893 0.078522
0.023621 0.709015 0.078583
0.031128 0.710663 0.079498
0.050842 0.712463 0.079895
0.087311 0.714233 0.079315
0.139709 0.717773 0.079254
0.207703 0.723083 0.080017
0.305878 0.730652 0.081329
0.420959 0.739044 0.083191
0.519745 0.746521 0.085144
0.600922 0.752991 0.086792
0.668488 0.758667 0.088348
0.723907 0.763519 0.089661
0.765930 0.767273 0.090790
0.804382 0.771484 0.091827
0.808655 0.743469 0.089447
0.802002 0.705078 0.086060
0.831604 0.703644 0.086243
0.858521 0.702332 0.086334
0.882507 0.701111 0.086456
0.903564 0.700104 0.086517
0.921631 0.698914 0.086548
0.936737 0.697784 0.086609
0.949005 0.696991 0.086670
0.958923 0.696442 0.086670
0.966827 0.695740 0.086700
0.973053 0.695282 0.086700
0.978058 0.694763 0.086700
0.982025 0.694580 0.086761
0.985413 0.694122 0.086731
0.988464 0.693817 0.086731
0.023346 0.750824 0.082001
0.023346 0.750824 0.082001
0.023834 0.750946 0.082123
0.030853 0.752777 0.083313
0.051331 0.754333 0.083649
0.089172 0.755768 0.083038
0.144165 0.758636 0.082947
0.214996 0.763184 0.083466
0.312744 0.769653 0.084717
0.427399 0.776886 0.086426
0.525391 0.783356 0.088196
0.605927 0.788940 0.089783
0.672607 0.793823 0.091187
0.729156 0.798126 0.092529
0.773743 0.801697 0.093567
0.811035 0.804901 0.094482
0.845093 0.808258 0.095398
0.842224 0.774994 0.092468
0.836945 0.739777 0.089355
0.863007 0.738403 0.089447
0.886169 0.736938 0.089447
0.906464 0.735535 0.089508
0.923950 0.734344 0.089508
0.938599 0.733215 0.089600
0.950470 0.732269 0.089539
0.960083 0.731567 0.089569
0.967651 0.731140 0.089630
0.973785 0.730560 0.089569
0.978516 0.730286 0.089600
0.982391 0.729889 0.089569
0.985718 0.729584 0.089569
0.988617 0.729401 0.089569
0.023529 0.789459 0.085297
0.023529 0.789459 0.085297
0.024048 0.789581 0.085358
0.031311 0.791382 0.086700
0.052002 0.793060 0.087250
0.091522 0.793976 0.086456
0.148438 0.796295 0.086304
0.222015 0.800140 0.086670
0.319458 0.805542 0.087769
0.433502 0.811707 0.089417
0.530579 0.817230 0.091064
0.610443 0.822021 0.092499
0.676697 0.826202 0.093842
0.732452 0.829803 0.095001
0.781128 0.833191 0.096100
0.817413 0.835785 0.096954
0.850220 0.838165 0.097778
0.875244 0.835632 0.098022
0.871033 0.802582 0.095093
0.867126 0.771027 0.092255
0.889435 0.769287 0.092285
0.909180 0.767853 0.092255
0.926117 0.766388 0.092285
0.940277 0.765350 0.092255
0.951843 0.764404 0.092285
0.961090 0.763580 0.092285
0.968475 0.763062 0.092255
0.974365 0.762573 0.092224
0.979004 0.762115 0.092194
0.982758 0.761871 0.092255
0.985901 0.761566 0.092224
0.988770 0.761292 0.092224
0.023651 0.824463 0.088287
0.023651 0.824463 0.088287
0.024231 0.824646 0.088348
0.031708 0.826324 0.089661
0.052368 0.828156 0.090668
0.093201 0.828674 0.089661
0.152405 0.830353 0.089264
0.228271 0.833527 0.089630
0.325287 0.837982 0.090576
0.438904 0.843140 0.092102
0.535797 0.847839 0.093597
0.614746 0.851837 0.095001
0.680298 0.855316 0.096222
0.735474 0.858368 0.097321
0.783508 0.861115 0.098358
0.822845 0.863373 0.099213
0.855042 0.865265 0.099976
0.883759 0.867126 0.100616
0.898712 0.856445 0.100006
0.895416 0.826355 0.097290
0.892456 0.798126 0.094818
0.911621 0.796570 0.094788
0.928101 0.795135 0.094757
0.941864 0.794037 0.094757
0.953003 0.792938 0.094727
0.962036 0.792145 0.094666
0.969238 0.791595 0.094666
0.974884 0.791168 0.094666
0.979401 0.790710 0.094635
0.983093 0.790405 0.094604
0.986115 0.790039 0.094574
0.988861 0.789917 0.094574
0.023834 0.855743 0.090912
0.023834 0.855743 0.090912
0.024414 0.855896 0.091034
0.032135 0.857513 0.092407
0.052673 0.859436 0.093567
0.095032 0.859558 0.092499
0.155762 0.860687 0.091919
0.234070 0.863281 0.092255
0.331268 0.866821 0.093079
0.443909 0.871155 0.094452
0.540192 0.875000 0.095947
0.618683 0.878326 0.097229
0.683441 0.881165 0.098358
0.738037 0.883667 0.099396
0.785248 0.885773 0.100372
0.827484 0.887756 0.101196
0.859283 0.889374 0.101868
0.887573 0.890778 0.102570
0.912537 0.892273 0.103149
0.918365 0.873657 0.101593
0.915985 0.846832 0.099213
0.913788 0.821960 0.096954
0.929871 0.820496 0.096924
0.943207 0.819214 0.096954
0.954132 0.818237 0.096863
0.962921 0.817383 0.096863
0.969879 0.816742 0.096832
0.975372 0.816345 0.096771
0.979797 0.815857 0.096771
0.983337 0.815521 0.096741
0.986298 0.815277 0.096710
0.988983 0.815033 0.096710
0.023956 0.882812 0.093262
0.023956 0.882812 0.093262
0.024567 0.882965 0.093353
0.032288 0.884521 0.094696
0.052643 0.886658 0.096283
0.096588 0.886292 0.094940
0.159088 0.886963 0.094238
0.239227 0.889008 0.094452
0.335480 0.891876 0.095245
0.448242 0.895355 0.096619
0.543915 0.898529 0.097900
0.621948 0.901215 0.099091
0.686218 0.903564 0.100189
0.740326 0.905457 0.101196
0.787079 0.907196 0.102081
0.828766 0.908783 0.102905
0.862976 0.910187 0.103577
0.890747 0.911377 0.104156
0.915253 0.912476 0.104706
0.936523 0.913361 0.105194
0.934631 0.887482 0.102875
0.932892 0.863617 0.100739
0.931396 0.842255 0.098816
0.944458 0.840881 0.098785
0.955078 0.839966 0.098785
0.963654 0.839020 0.098663
0.970398 0.838440 0.098663
0.975861 0.837891 0.098663
0.980133 0.837341 0.098602
0.983582 0.837189 0.098602
0.986420 0.836761 0.098602
0.989075 0.836487 0.098572
0.024048 0.905670 0.095215
0.024048 0.905670 0.095215
0.024689 0.905792 0.095306
0.032806 0.907379 0.096710
0.052612 0.909607 0.098572
0.097687 0.908813 0.097046
0.161530 0.909119 0.096252
0.243744 0.910645 0.096405
0.339996 0.912903 0.097107
0.452057 0.915741 0.098328
0.547211 0.918304 0.099609
0.625031 0.920502 0.100769
0.688477 0.922241 0.101746
0.742065 0.923798 0.102692
0.788361 0.925171 0.103546
0.829895 0.926453 0.104309
0.866028 0.927643 0.105042
0.893311 0.928619 0.105591
0.917572 0.929474 0.106049
0.938721 0.930328 0.106506
0.949036 0.920593 0.105865
0.947693 0.897705 0.103821
0.946533 0.877045 0.101959
0.945465 0.859100 0.100433
0.955902 0.857941 0.100342
0.964233 0.857147 0.100281
0.970947 0.856598 0.100250
0.976196 0.855957 0.100220
0.980377 0.855560 0.100159
0.983765 0.855072 0.100128
0.986572 0.854828 0.100067
0.989166 0.854584 0.100098
0.024109 0.924347 0.096863
0.024109 0.924347 0.096863
0.024811 0.924469 0.096985
0.032990 0.926025 0.098389
0.053101 0.928284 0.100281
0.098877 0.927216 0.098663
0.163666 0.927277 0.097900
0.247253 0.928345 0.097900
0.343201 0.930115 0.098602
0.455292 0.932404 0.099823
0.550140 0.934479 0.101013
0.627136 0.936188 0.102112
0.690277 0.937592 0.103058
0.743408 0.938812 0.103912
0.789581 0.939941 0.104706
0.830658 0.940948 0.105499
0.867401 0.941956 0.106201
0.895569 0.942719 0.106720
0.919403 0.943420 0.107178
0.940247 0.944061 0.107574
0.958160 0.944702 0.107971
0.958893 0.924713 0.106293
0.957947 0.904633 0.104431
0.957184 0.887390 0.102936
0.956543 0.872803 0.101685
0.964752 0.871796 0.101562
0.971313 0.871185 0.101471
0.976501 0.870544 0.101471
0.980621 0.870087 0.101410
0.983917 0.869873 0.101410
0.986694 0.869476 0.101410
0.989197 0.869263 0.101349
0.024170 0.939453 0.098145
0.024170 0.939453 0.098145
0.024628 0.939545 0.098236
0.033081 0.941101 0.099670
0.053131 0.943481 0.101776
0.099609 0.942169 0.100098
0.165710 0.941833 0.099182
0.250122 0.942627 0.099182
0.345978 0.944000 0.099884
0.457672 0.945801 0.100983
0.552124 0.947540 0.102081
0.628967 0.948853 0.103149
0.691711 0.949982 0.104095
0.744629 0.950958 0.104919
0.790680 0.951874 0.105713
0.831665 0.952728 0.106384
0.867889 0.953491 0.107025
0.897339 0.954132 0.107605
0.920898 0.954681 0.108063
0.941528 0.955200 0.108459
0.959229 0.955658 0.108826
0.967407 0.946198 0.108124
0.966675 0.926575 0.106415
0.966064 0.909668 0.104889
0.965546 0.895538 0.103668
0.965179 0.883759 0.102631
0.971619 0.883087 0.102509
0.976715 0.882507 0.102509
0.980774 0.881958 0.102448
0.984039 0.881592 0.102386
0.986786 0.881317 0.102448
0.989258 0.880951 0.102386
0.024231 0.951599 0.099213
0.024231 0.951599 0.099213
0.024689 0.951660 0.099274
0.033356 0.953186 0.100739
0.053284 0.955658 0.102966
0.100403 0.954132 0.101166
0.167236 0.953613 0.100189
0.252380 0.954163 0.100250
0.348389 0.955139 0.100861
0.459625 0.956573 0.101898
0.553894 0.957947 0.102997
0.630402 0.959045 0.104004
0.692780 0.959930 0.104889
0.745575 0.960724 0.105713
0.791290 0.961426 0.106476
0.832031 0.962097 0.107117
0.868317 0.962708 0.107788
0.898682 0.963257 0.108307
0.922180 0.963684 0.108765
0.942627 0.964081 0.109131
0.960175 0.964447 0.109497
0.973846 0.963043 0.109619
0.973297 0.943756 0.107849
0.972809 0.927185 0.106384
0.972443 0.913239 0.105194
0.972107 0.901703 0.104218
0.971832 0.892456 0.103363
0.976898 0.891815 0.103302
0.980927 0.891418 0.103302
0.984131 0.891022 0.103241
0.986847 0.890747 0.103210
0.989258 0.890472 0.103180
0.024261 0.961182 0.100067
0.024261 0.961182 0.100067
0.024750 0.961273 0.100128
0.033295 0.962799 0.101532
0.053253 0.965363 0.103973
0.101044 0.963654 0.102112
0.168335 0.962830 0.101044
0.254456 0.963135 0.101013
0.350067 0.963989 0.101624
0.461243 0.965149 0.102631
0.555573 0.966217 0.103699
0.631470 0.967072 0.104645
0.693848 0.967804 0.105560
0.746582 0.968414 0.106323
0.791992 0.969055 0.107056
0.832428 0.969574 0.107727
0.868652 0.970093 0.108368
