src/luts/60.cube
# VEGAS Pro LUT
TITLE "NAVA LUT"
LUT_3D_SIZE 33
-0.11249930 -0.10822916 -0.11249930
-0.11249930 -0.11036421 -0.11249930
-0.11249930 -0.11249930 -0.11249930
-0.10395899 -0.11249930 -0.11249930
-0.08899017 -0.11249930 -0.11249930
-0.07365211 -0.11249930 -0.11249930
-0.05216059 -0.11249930 -0.11249930
-0.03203778 -0.11249930 -0.11249930
-0.00869082 -0.11249930 -0.11249930
0.01514710 -0.11249930 -0.11249930
0.03557599 -0.11249930 -0.11249930
0.06431278 -0.11249930 -0.11249930
0.08861481 -0.11249930 -0.11249930
0.11082266 -0.11249930 -0.11249930
0.13835768 -0.11249930 -0.11249930
0.16336735 -0.11249930 -0.11249930
0.18521151 -0.11249930 -0.11249930
0.20797448 -0.11249930 -0.11249930
0.22685103 -0.11249930 -0.11249930
0.24632330 -0.11249930 -0.11249930
0.26639485 -0.11249930 -0.11249930
0.28184369 -0.11249930 -0.11249930
0.29763272 -0.11249930 -0.11249930
0.31376329 -0.11249930 -0.11249930
0.33580443 -0.11249930 -0.11249930
0.34141043 -0.11249930 -0.11249930
0.35273731 -0.11249930 -0.11249930
0.35845819 -0.11249930 -0.11249930
0.37001583 -0.11249930 -0.11249930
0.37001583 -0.11249930 -0.11249930
0.37001583 -0.11249930 -0.11249930
0.37001583 -0.11249930 -0.11249930
0.37001583 -0.11249930 -0.11249930
-0.11249930 -0.09648624 -0.11249930
-0.11249930 -0.09862133 -0.11249930
-0.11249930 -0.09968886 -0.11249930
-0.10716160 -0.10075638 -0.11249930
-0.09221611 -0.10289147 -0.11249930
-0.07923452 -0.10502655 -0.11249930
-0.06104118 -0.10716160 -0.11249930
-0.04046889 -0.11036421 -0.11249930
-0.02077271 -0.11249930 -0.11249930
0.00156963 -0.11249930 -0.11249930
0.02369825 -0.11249930 -0.11249930
0.04800215 -0.11249930 -0.11249930
0.07108081 -0.11249930 -0.11249930
0.09222748 -0.11249930 -0.11249930
0.11851033 -0.11249930 -0.11249930
0.14243528 -0.11249930 -0.11249930
0.16336735 -0.11249930 -0.11249930
0.18521151 -0.11249930 -0.11249930
0.20334797 -0.11249930 -0.11249930
0.22207606 -0.11249930 -0.11249930
0.24139909 -0.11249930 -0.11249930
0.25628397 -0.11249930 -0.11249930
0.27150664 -0.11249930 -0.11249930
0.29233181 -0.11249930 -0.11249930
0.30297154 -0.11249930 -0.11249930
0.31376329 -0.11249930 -0.11249930
0.31921640 -0.11249930 -0.11249930
0.33023694 -0.11249930 -0.11249930
0.33580443 -0.11249930 -0.11249930
0.34141043 -0.11249930 -0.11249930
0.34141043 -0.11249930 -0.11249930
0.34141043 -0.11249930 -0.11249930
0.33580443 -0.11249930 -0.11249930
-0.11249930 -0.08787186 -0.11249930
-0.11249930 -0.08899017 -0.11249930
-0.11249930 -0.08899017 -0.11249930
-0.11036421 -0.09007993 -0.11249930
-0.09648624 -0.09221611 -0.11249930
-0.08434459 -0.09328363 -0.11249930
-0.06759003 -0.09541872 -0.11249930
-0.05029084 -0.09755377 -0.11249930
-0.02984961 -0.10182394 -0.11249930
-0.00869082 -0.10395899 -0.11249930
0.01236436 -0.10822916 -0.11249930
0.03255533 -0.11143177 -0.11249930
0.05442226 -0.11249930 -0.11249930
0.07798893 -0.11249930 -0.11249930
0.09955890 -0.11249930 -0.11249930
0.12240794 -0.11249930 -0.11249930
0.14243528 -0.11249930 -0.11249930
0.15910824 -0.11249930 -0.11249930
0.18076934 -0.11249930 -0.11249930
0.19875853 -0.11249930 -0.11249930
0.21263784 -0.11249930 -0.11249930
0.23166302 -0.11249930 -0.11249930
0.24632330 -0.11249930 -0.11249930
0.26132056 -0.11249930 -0.11249930
0.27150664 -0.11249930 -0.11249930
0.28706887 -0.11249930 -0.11249930
0.29233181 -0.11249930 -0.11249930
0.29763272 -0.11249930 -0.11249930
0.30834845 -0.11249930 -0.11249930
0.31376329 -0.11249930 -0.11249930
0.30834845 -0.11249930 -0.11249930
0.30834845 -0.11249930 -0.11249930
0.30834845 -0.11249930 -0.11249930
-0.11249930 -0.07923452 -0.11249930
-0.11249930 -0.07923452 -0.11249930
-0.11249930 -0.08184811 -0.11249930
-0.11249930 -0.08184811 -0.11249930
-0.09968886 -0.08434459 -0.11249930
-0.08787186 -0.08554920 -0.11249930
-0.07509241 -0.08787186 -0.11249930
-0.05758214 -0.08899017 -0.11249930
-0.04046889 -0.09114855 -0.11249930
-0.02077271 -0.09328363 -0.11249930
-0.00104539 -0.09648624 -0.11249930
0.01796360 -0.09968886 -0.11249930
0.03863093 -0.10289147 -0.11249930
0.06098115 -0.10609408 -0.11249930
0.08149569 -0.11036421 -0.11249930
0.09955890 -0.11249930 -0.11249930
0.12240794 -0.11249930 -0.11249930
0.14243528 -0.11249930 -0.11249930
0.16336735 -0.11249930 -0.11249930
0.18076934 -0.11249930 -0.11249930
0.19420600 -0.11249930 -0.11249930
0.21263784 -0.11249930 -0.11249930
0.23166302 -0.11249930 -0.11249930
0.24632330 -0.11249930 -0.11249930
0.26132056 -0.11249930 -0.11249930
0.27150664 -0.11249930 -0.11249930
0.28184369 -0.11249930 -0.11249930
0.29233181 -0.11249930 -0.11249930
0.30297154 -0.11249930 -0.11249930
0.30834845 -0.11249930 -0.11249930
0.30834845 -0.11249930 -0.11249930
0.31376329 -0.11249930 -0.11249930
0.31376329 -0.11249930 -0.11249930
-0.11249930 -0.06599873 -0.11249930
-0.11249930 -0.06915092 -0.11249930
-0.11249930 -0.06915092 -0.11249930
-0.11249930 -0.07068147 -0.11249930
-0.10182394 -0.07218183 -0.11249930
-0.09007993 -0.07509241 -0.11249930
-0.07650282 -0.07788351 -0.11249930
-0.05932714 -0.07923452 -0.11249930
-0.04046889 -0.08184811 -0.11249930
-0.02077271 -0.08434459 -0.11249930
-0.00104539 -0.08554920 -0.11249930
0.02081398 -0.08899017 -0.11249930
0.04484393 -0.09114855 -0.11249930
0.06767931 -0.09328363 -0.11249930
0.09222748 -0.09648624 -0.11249930
0.11082266 -0.10075638 -0.11249930
0.13835768 -0.10395899 -0.11249930
0.15488553 -0.10822916 -0.11249930
0.18076934 -0.11143177 -0.11249930
0.19875853 -0.11249930 -0.11249930
0.21733841 -0.11249930 -0.11249930
0.23651253 -0.11249930 -0.11249930
0.25128478 -0.11249930 -0.11249930
0.27150664 -0.11249930 -0.11249930
0.28706887 -0.11249930 -0.11249930
0.30297154 -0.11249930 -0.11249930
0.31376329 -0.11249930 -0.11249930
0.31921640 -0.11249930 -0.11249930
0.33023694 -0.11249930 -0.11249930
0.34141043 -0.11249930 -0.11249930
0.34141043 -0.11249930 -0.11249930
0.34141043 -0.11249930 -0.11249930
0.34141043 -0.11249930 -0.11249930
-0.11249930 -0.05399901 -0.11249930
-0.11249930 -0.05399901 -0.11249930
-0.11249930 -0.05580615 -0.11249930
-0.11249930 -0.05580615 -0.11249930
-0.10395899 -0.05758214 -0.11249930
-0.09114855 -0.05932714 -0.11249930
-0.07788351 -0.06104118 -0.11249930
-0.05932714 -0.06437687 -0.11249930
-0.03840919 -0.06759003 -0.11249930
-0.01842197 -0.07068147 -0.11249930
0.00421805 -0.07218183 -0.11249930
0.02661653 -0.07650282 -0.11249930
0.05119490 -0.08055603 -0.11249930
0.07451729 -0.08311091 -0.11249930
0.09955890 -0.08672494 -0.11249930
0.12634133 -0.08899017 -0.11249930
0.14654909 -0.09114855 -0.11249930
0.17199521 -0.09435116 -0.11249930
0.19420600 -0.09755377 -0.11249930
0.21733841 -0.10075638 -0.11249930
0.23651253 -0.10502655 -0.11249930
0.25628397 -0.10822916 -0.11249930
0.27665633 -0.11143177 -0.11249930
0.29233181 -0.11249930 -0.11249930
0.31376329 -0.11249930 -0.11249930
0.32470745 -0.11249930 -0.11249930
0.34141043 -0.11249930 -0.11249930
0.35273731 -0.11249930 -0.11249930
0.36421788 -0.11249930 -0.11249930
0.37001583 -0.11249930 -0.11249930
0.37001583 -0.11249930 -0.11249930
0.37001583 -0.11249930 -0.11249930
0.37585256 -0.11249930 -0.11249930
-0.11249930 -0.03631748 -0.10716160
-0.11249930 -0.03840919 -0.11036421
-0.11249930 -0.04046889 -0.11249930
-0.11249930 -0.04249668 -0.11249930
-0.10716160 -0.04449271 -0.11249930
-0.09221611 -0.04449271 -0.11249930
-0.07923452 -0.04449271 -0.11249930
-0.06104118 -0.04838970 -0.11249930
-0.04046889 -0.05029084 -0.11249930
-0.01603856 -0.05399901 -0.11249930
0.00689991 -0.05758214 -0.11249930
0.03255533 -0.06104118 -0.11249930
0.05768431 -0.06437687 -0.11249930
0.08149569 -0.06759003 -0.11249930
0.11082266 -0.07068147 -0.11249930
0.13431616 -0.07509241 -0.11249930
0.16336735 -0.07923452 -0.11249930
0.18521151 -0.08184811 -0.11249930
0.20797448 -0.08434459 -0.11249930
0.23651253 -0.08899017 -0.11249930
0.25128478 -0.09114855 -0.11249930
0.27665633 -0.09435116 -0.11249930
0.29763272 -0.09755377 -0.11249930
0.31376329 -0.09968886 -0.11249930
0.33580443 -0.10289147 -0.11249930
0.35273731 -0.10609408 -0.11249930
0.36421788 -0.10822916 -0.11249930
0.37585256 -0.10822916 -0.11249930
0.38764170 -0.10929669 -0.11249930
0.39958569 -0.11036421 -0.11249930
0.39958569 -0.11143177 -0.11249930
0.39958569 -0.11249930 -0.11249930
0.39958569 -0.11249930 -0.11249930
-0.11249930 -0.01842197 -0.09648624
-0.11249930 -0.02077271 -0.09968886
-0.11249930 -0.02309074 -0.10395899
-0.11249930 -0.02537616 -0.10822916
-0.11143177 -0.02537616 -0.11143177
-0.09435116 -0.02537616 -0.11249930
-0.08184811 -0.02762910 -0.11249930
-0.06437687 -0.02984961 -0.11249930
-0.04046889 -0.03203778 -0.11249930
-0.01603856 -0.03419371 -0.11249930
0.00961533 -0.03840919 -0.11249930
0.03557599 -0.04249668 -0.11249930
0.06098115 -0.04645701 -0.11249930
0.09222748 -0.05029084 -0.11249930
0.11851033 -0.05399901 -0.11249930
0.14654909 -0.05758214 -0.11249930
0.17636399 -0.06104118 -0.11249930
0.20334797 -0.06437687 -0.11249930
0.22685103 -0.06759003 -0.11249930
0.25128478 -0.07068147 -0.11249930
0.27150664 -0.07509241 -0.11249930
0.29763272 -0.07788351 -0.11249930
0.31376329 -0.08055603 -0.11249930
0.33580443 -0.08434459 -0.11249930
0.35845819 -0.08672494 -0.11249930
0.38172764 -0.08899017 -0.11249930
0.38764170 -0.09221611 -0.11249930
0.39958569 -0.09328363 -0.11249930
0.41168499 -0.09541872 -0.11249930
0.42393982 -0.09648624 -0.11249930
0.42393982 -0.09755377 -0.11249930
0.42393982 -0.09755377 -0.11249930
0.42393982 -0.09862133 -0.11249930
-0.11249930 0.00156963 -0.08554920
-0.11249930 -0.00104539 -0.08899017
-0.11249930 -0.00362708 -0.09328363
-0.11249930 -0.00617554 -0.09541872
-0.11249930 -0.00617554 -0.09862133
-0.09862133 -0.00869082 -0.10395899
-0.08311091 -0.00869082 -0.11249930
-0.06759003 -0.00869082 -0.11249930
-0.04249668 -0.01117306 -0.11249930
-0.01842197 -0.01362226 -0.11249930
0.00961533 -0.01842197 -0.11249930
0.03557599 -0.02309074 -0.11249930
0.06431278 -0.02537616 -0.11249930
0.09587541 -0.02984961 -0.11249930
0.12634133 -0.03419371 -0.11249930
0.15488553 -0.03631748 -0.11249930
0.18076934 -0.04046889 -0.11249930
0.21263784 -0.04449271 -0.11249930
0.23651253 -0.04838970 -0.11249930
0.26132056 -0.05216059 -0.11249930
0.28706887 -0.05580615 -0.11249930
0.31376329 -0.05758214 -0.11249930
0.33580443 -0.06104118 -0.11249930
0.35273731 -0.06437687 -0.11249930
0.37001583 -0.06759003 -0.11249930
0.39359424 -0.07068147 -0.11249930
0.41168499 -0.07218183 -0.11249930
0.42393982 -0.07365211 -0.11249930
0.43635055 -0.07650282 -0.11249930
0.44891760 -0.07788351 -0.11249930
0.44891760 -0.07788351 -0.11249930
0.44891760 -0.08055603 -0.11249930
0.44891760 -0.08184811 -0.11249930
-0.11249930 0.02081398 -0.07650282
-0.11249930 0.01796360 -0.07788351
-0.11249930 0.01796360 -0.08055603
-0.11249930 0.01514710 -0.08434459
-0.11249930 0.01236436 -0.08672494
-0.10182394 0.01236436 -0.09007993
-0.08554920 0.01236436 -0.09648624
-0.07068147 0.00961533 -0.10609408
-0.04838970 0.00689991 -0.11249930
-0.01842197 0.00689991 -0.11249930
0.00689991 0.00156963 -0.11249930
0.03863093 -0.00104539 -0.11249930
0.06767931 -0.00362708 -0.11249930
0.09587541 -0.00869082 -0.11249930
0.13031074 -0.01362226 -0.11249930
0.15910824 -0.01603856 -0.11249930
0.18969032 -0.02077271 -0.11249930
0.21733841 -0.02309074 -0.11249930
0.24632330 -0.02762910 -0.11249930
0.27665633 -0.03203778 -0.11249930
0.30297154 -0.03419371 -0.11249930
0.31921640 -0.03840919 -0.11249930
0.34705460 -0.04046889 -0.11249930
0.37001583 -0.04449271 -0.11249930
0.39359424 -0.04645701 -0.11249930
0.41168499 -0.05029084 -0.11249930
0.43012562 -0.05216059 -0.11249930
0.44261447 -0.05399901 -0.11249930
0.44891760 -0.05580615 -0.11249930
0.46164137 -0.05580615 -0.11249930
0.46164137 -0.05932714 -0.11249930
0.46806201 -0.05932714 -0.11249930
0.46806201 -0.06104118 -0.11249930
-0.11249930 0.04172025 -0.06272441
-0.11249930 0.03863093 -0.06759003
-0.11249930 0.03863093 -0.07068147
-0.11249930 0.03863093 -0.07365211
-0.11249930 0.03557599 -0.07509241
-0.10716160 0.03557599 -0.07788351
-0.08899017 0.03255533 -0.08184811
-0.07365211 0.03255533 -0.09007993
-0.05029084 0.02956885 -0.09862133
-0.02309074 0.02956885 -0.10929669
0.00421805 0.02661653 -0.11249930
0.03863093 0.02369825 -0.11249930
0.06767931 0.01796360 -0.11249930
0.09955890 0.01514710 -0.11249930
0.13431616 0.01236436 -0.11249930
0.16766304 0.00689991 -0.11249930
0.19420600 0.00156963 -0.11249930
0.22685103 -0.00104539 -0.11249930
0.25628397 -0.00617554 -0.11249930
0.28184369 -0.00869082 -0.11249930
0.30834845 -0.01362226 -0.11249930
0.33580443 -0.01603856 -0.11249930
0.35845819 -0.02077271 -0.11249930
0.37585256 -0.02309074 -0.11249930
0.40561590 -0.02537616 -0.11249930
0.42393982 -0.02762910 -0.11249930
0.44261447 -0.02984961 -0.11249930
0.45525971 -0.03203778 -0.11249930
0.46164137 -0.03419371 -0.11249930
0.47452220 -0.03631748 -0.11249930
0.47452220 -0.03631748 -0.11249930
0.48102137 -0.04046889 -0.11249930
0.48102137 -0.04046889 -0.11249930
-0.11249930 0.06431278 -0.05216059
-0.11249930 0.06098115 -0.05399901
-0.11249930 0.05768431 -0.05758214
-0.11249930 0.05768431 -0.06104118
-0.11249930 0.05768431 -0.06437687
-0.11249930 0.05442226 -0.06437687
-0.09328363 0.05119490 -0.06915092
-0.07650282 0.05119490 -0.07650282
-0.05580615 0.05119490 -0.08434459
-0.02984961 0.04800215 -0.09221611
-0.00104539 0.04800215 -0.10289147
0.03255533 0.04484393 -0.11249930
0.06767931 0.04172025 -0.11249930
0.09955890 0.03863093 -0.11249930
0.13031074 0.03255533 -0.11249930
0.16766304 0.02956885 -0.11249930
0.19875853 0.02661653 -0.11249930
0.23166302 0.02081398 -0.11249930
0.26132056 0.01796360 -0.11249930
0.28184369 0.01236436 -0.11249930
0.31376329 0.00961533 -0.11249930
0.33580443 0.00689991 -0.11249930
0.36421788 0.00156963 -0.11249930
0.38172764 -0.00104539 -0.11249930
0.40561590 -0.00362708 -0.11249930
0.43012562 -0.00362708 -0.11249930
0.44891760 -0.00869082 -0.11249930
0.46806201 -0.00869082 -0.11249930
0.47452220 -0.01117306 -0.11249930
0.48756027 -0.01362226 -0.11249930
0.48756027 -0.01362226 -0.11249930
0.48756027 -0.01603856 -0.11249930
0.48756027 -0.01842197 -0.11249930
-0.11249930 0.08503760 -0.03840919
-0.11249930 0.08149569 -0.04249668
-0.11249930 0.08149569 -0.04449271
-0.11249930 0.08149569 -0.04645701
-0.11249930 0.07798893 -0.05029084
-0.11249930 0.07451729 -0.05216059
-0.09755377 0.07451729 -0.05399901
-0.07923452 0.07451729 -0.06272441
-0.05932714 0.07108081 -0.07068147
-0.03419371 0.07108081 -0.07788351
-0.00362708 0.06767931 -0.08672494
0.02661653 0.06767931 -0.09755377
0.05768431 0.06431278 -0.10929669
0.09955890 0.05768431 -0.11249930
0.13031074 0.05768431 -0.11249930
0.16766304 0.05442226 -0.11249930
0.19420600 0.05119490 -0.11249930
0.23166302 0.04484393 -0.11249930
0.25628397 0.03863093 -0.11249930
0.28706887 0.03863093 -0.11249930
0.31376329 0.03255533 -0.11249930
0.33580443 0.02956885 -0.11249930
0.36421788 0.02661653 -0.11249930
0.38172764 0.02369825 -0.11249930
0.41168499 0.02081398 -0.11249930
0.43012562 0.01514710 -0.11249930
0.44891760 0.01514710 -0.11249930
0.46164137 0.01236436 -0.11249930
0.48102137 0.00961533 -0.11249930
0.48756027 0.00961533 -0.11249930
0.49413824 0.00689991 -0.11249930
0.49413824 0.00421805 -0.11249930
0.49413824 0.00421805 -0.11249930
-0.11249930 0.10703242 -0.02537616
-0.11249930 0.10327785 -0.02762910
-0.11249930 0.10327785 -0.03203778
-0.11249930 0.10327785 -0.03419371
-0.11249930 0.09955890 -0.03631748
-0.11249930 0.09587541 -0.04046889
-0.10289147 0.09587541 -0.04249668
-0.08311091 0.09587541 -0.04838970
-0.06437687 0.09222748 -0.05580615
-0.04046889 0.09222748 -0.06272441
-0.01117306 0.08861481 -0.07218183
0.02081398 0.08861481 -0.08311091
0.05442226 0.08503760 -0.09221611
0.08861481 0.08503760 -0.10502655
0.12634133 0.07798893 -0.11249930
0.16336735 0.07451729 -0.11249930
0.19420600 0.07108081 -0.11249930
0.22685103 0.06767931 -0.11249930
0.25628397 0.06431278 -0.11249930
0.28184369 0.05768431 -0.11249930
0.30834845 0.05442226 -0.11249930
0.33580443 0.05442226 -0.11249930
0.36421788 0.04800215 -0.11249930
0.38172764 0.04800215 -0.11249930
0.40561590 0.04484393 -0.11249930
0.43012562 0.03863093 -0.11249930
0.44891760 0.03863093 -0.11249930
0.46164137 0.03557599 -0.11249930
0.47452220 0.03557599 -0.11249930
0.48756027 0.03255533 -0.11249930
0.49413824 0.02956885 -0.11249930
0.49413824 0.02956885 -0.11249930
0.49413824 0.02661653 -0.11249930
-0.11249930 0.12634133 -0.01117306
-0.11249930 0.12634133 -0.01362226
-0.11249930 0.12240794 -0.01842197
-0.11249930 0.11851033 -0.02077271
-0.11249930 0.11851033 -0.02537616
-0.11249930 0.11464860 -0.02537616
-0.10716160 0.11464860 -0.02762910
-0.08787186 0.11464860 -0.03203778
-0.06915092 0.11082266 -0.04249668
-0.04449271 0.11082266 -0.05029084
-0.01603856 0.11082266 -0.05758214
0.01514710 0.10703242 -0.06759003
0.04800215 0.10703242 -0.07788351
0.08149569 0.10327785 -0.08787186
0.11851033 0.09955890 -0.10075638
0.15910824 0.09955890 -0.11249930
0.18969032 0.09222748 -0.11249930
0.22207606 0.08861481 -0.11249930
0.25128478 0.08861481 -0.11249930
0.27665633 0.08149569 -0.11249930
0.30297154 0.07798893 -0.11249930
0.33023694 0.07451729 -0.11249930
0.35273731 0.07108081 -0.11249930
0.37585256 0.06767931 -0.11249930
0.39958569 0.06431278 -0.11249930
0.42393982 0.06098115 -0.11249930
0.44261447 0.06098115 -0.11249930
0.45525971 0.05768431 -0.11249930
0.46806201 0.05442226 -0.11249930
0.47452220 0.05442226 -0.11249930
0.48102137 0.05119490 -0.11249930
0.48102137 0.05119490 -0.11249930
0.48102137 0.04800215 -0.11249930
-0.11249930 0.14654909 -0.00104539
-0.11249930 0.14654909 -0.00362708
-0.11249930 0.14243528 -0.00362708
-0.11249930 0.13835768 -0.00869082
-0.11249930 0.13431616 -0.01117306
-0.11249930 0.13431616 -0.01362226
-0.11036421 0.13431616 -0.01603856
-0.09221611 0.13431616 -0.01842197
-0.07218183 0.13031074 -0.02762910
-0.05029084 0.12634133 -0.03419371
-0.02309074 0.12634133 -0.04449271
0.00961533 0.12240794 -0.05216059
0.04172025 0.12240794 -0.06437687
0.07451729 0.12240794 -0.07365211
0.10327785 0.12240794 -0.08311091
0.14654909 0.11464860 -0.09755377
0.18521151 0.11082266 -0.11249930
0.21733841 0.11082266 -0.11249930
0.24632330 0.10703242 -0.11249930
0.26639485 0.09955890 -0.11249930
0.29763272 0.09955890 -0.11249930
0.31921640 0.09587541 -0.11249930
0.34141043 0.09222748 -0.11249930
0.36421788 0.08861481 -0.11249930
0.38764170 0.08503760 -0.11249930
0.41168499 0.08503760 -0.11249930
0.43012562 0.08149569 -0.11249930
0.44261447 0.08149569 -0.11249930
0.45525971 0.07798893 -0.11249930
0.46806201 0.07451729 -0.11249930
0.47452220 0.07451729 -0.11249930
0.46806201 0.07451729 -0.11249930
0.46806201 0.07108081 -0.11249930
-0.11249930 0.16336735 0.01236436
-0.11249930 0.16336735 0.00689991
-0.11249930 0.16336735 0.00421805
-0.11249930 0.15910824 0.00156963
-0.11249930 0.15488553 -0.00104539
-0.11249930 0.15069914 -0.00362708
-0.11249930 0.15069914 -0.00617554
-0.09541872 0.15069914 -0.00617554
-0.07509241 0.14654909 -0.01362226
-0.05399901 0.14654909 -0.02309074
-0.02984961 0.14654909 -0.02984961
0.00156963 0.14243528 -0.04046889
0.03557599 0.13835768 -0.05029084
0.06431278 0.13835768 -0.05932714
0.09587541 0.13431616 -0.06915092
0.13431616 0.13431616 -0.07923452
0.17199521 0.13431616 -0.09328363
0.20797448 0.13031074 -0.11249930
0.23166302 0.12240794 -0.11249930
0.25628397 0.12240794 -0.11249930
0.28184369 0.11851033 -0.11249930
0.30834845 0.11464860 -0.11249930
0.33023694 0.11082266 -0.11249930
0.35273731 0.11082266 -0.11249930
0.37001583 0.10703242 -0.11249930
0.39958569 0.10327785 -0.11249930
0.41168499 0.09955890 -0.11249930
0.43012562 0.09955890 -0.11249930
0.44261447 0.09955890 -0.11249930
0.44891760 0.09587541 -0.11249930
0.45525971 0.09587541 -0.11249930
0.45525971 0.09222748 -0.11249930
0.45525971 0.08861481 -0.11249930
-0.11249930 0.17636399 0.01796360
-0.11249930 0.17636399 0.01514710
-0.11249930 0.17199521 0.01514710
-0.11249930 0.17199521 0.00961533
-0.11249930 0.16766304 0.00689991
-0.11249930 0.16766304 0.00689991
-0.11249930 0.16766304 0.00421805
-0.09648624 0.16766304 0.00421805
-0.07788351 0.16336735 -0.00362708
-0.05758214 0.15910824 -0.01117306
-0.03419371 0.15488553 -0.01842197
-0.00617554 0.15488553 -0.02537616
0.02661653 0.15488553 -0.03631748
0.05768431 0.15069914 -0.04645701
0.08503760 0.15069914 -0.05580615
0.11851033 0.15069914 -0.06437687
0.15488553 0.14654909 -0.07365211
0.18969032 0.14654909 -0.08899017
0.22207606 0.13835768 -0.10502655
0.25128478 0.13835768 -0.11249930
0.26639485 0.13431616 -0.11249930
0.29233181 0.13031074 -0.11249930
0.31376329 0.12634133 -0.11249930
0.33580443 0.12634133 -0.11249930
0.35273731 0.12240794 -0.11249930
0.37585256 0.12240794 -0.11249930
0.39359424 0.12240794 -0.11249930
0.41168499 0.11851033 -0.11249930
0.42393982 0.11851033 -0.11249930
0.42393982 0.11464860 -0.11249930
0.43635055 0.11082266 -0.11249930
0.43635055 0.11082266 -0.11249930
0.43635055 0.10703242 -0.11249930
-0.11249930 0.18521151 0.02369825
-0.11249930 0.18521151 0.02081398
-0.11249930 0.18076934 0.01796360
-0.11249930 0.18076934 0.01514710
-0.11249930 0.18076934 0.01236436
-0.11249930 0.17636399 0.01236436
-0.11249930 0.17636399 0.00961533
-0.09755377 0.17636399 0.00961533
-0.08055603 0.17199521 0.00689991
-0.06272441 0.16766304 -0.00104539
-0.03840919 0.16766304 -0.00869082
-0.01117306 0.16336735 -0.01842197
0.01796360 0.16336735 -0.02537616
0.05119490 0.16336735 -0.03419371
0.07798893 0.15910824 -0.04249668
0.10703242 0.15910824 -0.05216059
0.13835768 0.15910824 -0.05932714
0.16766304 0.15910824 -0.06759003
0.20334797 0.15488553 -0.08184811
0.23166302 0.15488553 -0.09648624
0.25628397 0.15069914 -0.11143177
0.27665633 0.14243528 -0.11249930
0.29763272 0.14243528 -0.11249930
0.31376329 0.13835768 -0.11249930
0.33580443 0.13835768 -0.11249930
0.35273731 0.13835768 -0.11249930
0.37001583 0.13431616 -0.11249930
0.38764170 0.13431616 -0.11249930
0.39359424 0.13031074 -0.11249930
0.39958569 0.13031074 -0.11249930
0.40561590 0.12634133 -0.11249930
0.40561590 0.12240794 -0.11249930
0.40561590 0.12240794 -0.11249930
-0.11249930 0.19420600 0.02661653
-0.11249930 0.18969032 0.02369825
-0.11249930 0.18521151 0.02081398
-0.11249930 0.18521151 0.01796360
-0.11249930 0.18076934 0.01514710
-0.11249930 0.18076934 0.01514710
-0.11249930 0.18076934 0.01236436
-0.09648624 0.18076934 0.01236436
-0.08311091 0.17636399 0.00689991
-0.06599873 0.17636399 0.00421805
-0.04449271 0.17636399 -0.00362708
-0.01842197 0.17199521 -0.00869082
0.00961533 0.17199521 -0.01603856
0.03557599 0.17199521 -0.02537616
0.06767931 0.16766304 -0.03419371
0.09587541 0.16766304 -0.04046889
0.12240794 0.16336735 -0.04838970
0.15069914 0.16336735 -0.05399901
0.17636399 0.16336735 -0.06272441
0.20797448 0.15910824 -0.07509241
0.23651253 0.15488553 -0.08672494
0.25628397 0.15488553 -0.09862133
0.27665633 0.15069914 -0.10929669
0.29233181 0.14654909 -0.11249930
0.30297154 0.14654909 -0.11249930
0.32470745 0.14243528 -0.11249930
0.34141043 0.14243528 -0.11249930
0.35273731 0.14243528 -0.11249930
0.36421788 0.14243528 -0.11249930
0.37001583 0.13835768 -0.11249930
0.38172764 0.13835768 -0.11249930
0.38172764 0.13431616 -0.11249930
0.37585256 0.13431616 -0.11249930
-0.11249930 0.19420600 0.02369825
-0.11249930 0.18969032 0.02369825
-0.11249930 0.18521151 0.02081398
-0.11249930 0.18521151 0.01796360
-0.11249930 0.18521151 0.01514710
-0.11249930 0.18521151 0.01514710
-0.11143177 0.18076934 0.01236436
-0.09648624 0.18076934 0.01236436
-0.08434459 0.18076934 0.01236436
-0.06915092 0.17636399 0.00689991
-0.04838970 0.17636399 0.00156963
-0.02309074 0.17636399 -0.00362708
0.00156963 0.17199521 -0.01117306
0.02661653 0.17199521 -0.01842197
0.05442226 0.17199521 -0.02537616
0.08149569 0.16766304 -0.03203778
0.10703242 0.16766304 -0.04046889
0.13431616 0.16766304 -0.04449271
0.15910824 0.16336735 -0.04838970
0.18076934 0.16336735 -0.05580615
0.20334797 0.16336735 -0.06599873
0.22685103 0.15910824 -0.07650282
0.24632330 0.15488553 -0.08311091
0.26639485 0.15069914 -0.08899017
0.28184369 0.15069914 -0.09435116
0.29763272 0.14654909 -0.09862133
0.30834845 0.14654909 -0.10182394
0.32470745 0.14654909 -0.10609408
0.33580443 0.14654909 -0.10929669
