src/luts/60.cube
# VEGAS Pro LUT
TITLE "NAVA LUT"
LUT_3D_SIZE 5
-0.11249930 -0.10822916 -0.11249930
-0.00869082 -0.11249930 -0.11249930
0.18521151 -0.11249930 -0.11249930
0.33580443 -0.11249930 -0.11249930
0.37001583 -0.11249930 -0.11249930
-0.11249930 0.00156963 -0.08554920
-0.04249668 -0.01117306 -0.11249930
0.18076934 -0.04046889 -0.11249930
0.37001583 -0.06759003 -0.11249930
0.44891760 -0.08184811 -0.11249930
-0.11249930 0.16336735 0.01236436
-0.07509241 0.14654909 -0.01362226
0.17199521 0.13431616 -0.09328363
0.37001583 0.10703242 -0.11249930
0.45525971 0.08861481 -0.11249930
-0.11249930 0.23166302 0.03255533
-0.08184811 0.22685103 0.02661653
0.09222748 0.23166302 -0.00104539
0.26639485 0.23166302 -0.02537616
0.37001583 0.22685103 -0.04046889
-0.11249930 0.45525971 0.08503760
-0.08554920 0.44891760 0.08861481
0.09587541 0.46164137 0.08149569
0.33023694 0.46164137 0.06098115
0.48102137 0.45525971 0.05119490
-0.11249930 -0.07218183 0.03863093
0.00689991 -0.09114855 0.00156963
0.27150664 -0.11249930 -0.04838970
0.47452220 -0.11249930 -0.08434459
0.53443754 -0.11249930 -0.09648624
-0.11249930 -0.01842197 -0.01842197
-0.05580615 -0.02984961 -0.04249668
0.13031074 -0.05580615 -0.07509241
0.28706887 -0.07788351 -0.10502655
0.35273731 -0.08899017 -0.11249930
-0.11249930 0.18521151 0.11851033
-0.07218183 0.17199521 0.09222748
0.20797448 0.15910824 0.00689991
0.44261447 0.12634133 -0.06759003
0.54818797 0.11464860 -0.09114855
-0.11249930 0.30834845 0.15069914
-0.07788351 0.29233181 0.13431616
0.12240794 0.28706887 0.10327785
0.31921640 0.27665633 0.07108081
0.42393982 0.26132056 0.05119490
-0.11249930 0.44261447 0.17636399
-0.08672494 0.44261447 0.18076934
0.08503760 0.45525971 0.18076934
0.33023694 0.46164137 0.15910824
0.48756027 0.46164137 0.14654909
-0.11249930 0.02369825 0.28184369
-0.01117306 0.00421805 0.24139909
0.28184369 -0.00617554 0.17199521
0.51410985 -0.04249668 0.08503760
0.59039593 -0.07068147 0.05768431
-0.11249930 0.09587541 0.23166302
-0.05399901 0.07108081 0.19420600
0.22685103 0.05119490 0.11082266
0.44891760 0.00961533 0.02956885
0.52762204 -0.01842197 0.00156963
-0.11249930 0.15069914 0.18076934
-0.07509241 0.13835768 0.15910824
0.17199521 0.13031074 0.09222748
0.39958569 0.10703242 0.02661653
0.50741297 0.09587541 0.00961533
-0.11249930 0.41779289 0.33023694
-0.07218183 0.40561590 0.31921640
0.17636399 0.39958569 0.27665633
0.44891760 0.39359424 0.23651253
0.60478508 0.38172764 0.21263784
-0.11249930 0.35845819 0.21733841
-0.08899017 0.35273731 0.21263784
0.04800215 0.34705460 0.20334797
0.24632330 0.35273731 0.18969032
0.38172764 0.35845819 0.18076934
-0.11249930 0.08149569 0.37585256
-0.03419371 0.07798893 0.36421788
0.21733841 0.07798893 0.33580443
0.41168499 0.06431278 0.30297154
0.50075603 0.04800215 0.28706887
-0.11249930 0.24139909 0.53443754
-0.05029084 0.22685103 0.52084595
0.28184369 0.21733841 0.44261447
0.56209767 0.19420600 0.37001583
0.67914605 0.17199521 0.32470745
-0.11249930 0.23651253 0.36421788
-0.07218183 0.21733841 0.33580443
0.16766304 0.19875853 0.27150664
0.38172764 0.18521151 0.22207606
0.47452220 0.18076934 0.21263784
-0.11249930 0.42393982 0.44891760
-0.07218183 0.41779289 0.44261447
0.17636399 0.41779289 0.41779289
0.47452220 0.41779289 0.37585256
0.65641415 0.41779289 0.35273731
-0.11249930 0.56911224 0.46806201
-0.08554920 0.55512297 0.46806201
0.10327785 0.56209767 0.46806201
0.39958569 0.56209767 0.43012562
0.58326143 0.54818797 0.40561590
-0.11249930 0.13431616 0.62667030
-0.02984961 0.13031074 0.61204004
0.27665633 0.13835768 0.56911224
0.49413824 0.12634133 0.53443754
0.58326143 0.11851033 0.50741297
-0.11249930 0.24632330 0.62667030
-0.05399901 0.25128478 0.62667030
0.26639485 0.26132056 0.59757060
0.53443754 0.25628397 0.56911224
0.67152834 0.25628397 0.56209767
-0.11249930 0.41168499 0.69450337
-0.05758214 0.39958569 0.68680453
0.26132056 0.41168499 0.64891750
0.54818797 0.40561590 0.61204004
0.70224291 0.39359424 0.60478508
-0.11249930 0.35273731 0.46164137
-0.07788351 0.35845819 0.47452220
0.12240794 0.37585256 0.47452220
0.37585256 0.38172764 0.46164137
0.53443754 0.39359424 0.46164137
-0.11249930 0.68680453 0.70224291
-0.08434459 0.68680453 0.71002316
0.13835768 0.69450337 0.71002316
0.50075603 0.70224291 0.67914605
0.73360819 0.69450337 0.65641415
