src/luts/60.cube
# VEGAS Pro LUT
TITLE "NAVA LUT"
LUT_3D_SIZE 9
-0.11249930 -0.10822916 -0.11249930
-0.08899017 -0.11249930 -0.11249930
-0.00869082 -0.11249930 -0.11249930
0.08861481 -0.11249930 -0.11249930
0.18521151 -0.11249930 -0.11249930
0.26639485 -0.11249930 -0.11249930
0.33580443 -0.11249930 -0.11249930
0.37001583 -0.11249930 -0.11249930
0.37001583 -0.11249930 -0.11249930
-0.11249930 -0.06599873 -0.11249930
-0.10182394 -0.07218183 -0.11249930
-0.04046889 -0.08184811 -0.11249930
0.04484393 -0.09114855 -0.11249930
0.13835768 -0.10395899 -0.11249930
0.21733841 -0.11249930 -0.11249930
0.28706887 -0.11249930 -0.11249930
0.33023694 -0.11249930 -0.11249930
0.34141043 -0.11249930 -0.11249930
-0.11249930 0.00156963 -0.08554920
-0.11249930 -0.00617554 -0.09862133
-0.04249668 -0.01117306 -0.11249930
0.06431278 -0.02537616 -0.11249930
0.18076934 -0.04046889 -0.11249930
0.28706887 -0.05580615 -0.11249930
0.37001583 -0.06759003 -0.11249930
0.43635055 -0.07650282 -0.11249930
0.44891760 -0.08184811 -0.11249930
-0.11249930 0.08503760 -0.03840919
-0.11249930 0.07798893 -0.05029084
-0.05932714 0.07108081 -0.07068147
0.05768431 0.06431278 -0.10929669
0.19420600 0.05119490 -0.11249930
0.31376329 0.03255533 -0.11249930
0.41168499 0.02081398 -0.11249930
0.48102137 0.00961533 -0.11249930
0.49413824 0.00421805 -0.11249930
-0.11249930 0.16336735 0.01236436
-0.11249930 0.15488553 -0.00104539
-0.07509241 0.14654909 -0.01362226
0.03557599 0.13835768 -0.05029084
0.17199521 0.13431616 -0.09328363
0.28184369 0.11851033 -0.11249930
0.37001583 0.10703242 -0.11249930
0.44261447 0.09955890 -0.11249930
0.45525971 0.08861481 -0.11249930
-0.11249930 0.19420600 0.02369825
-0.11249930 0.18521151 0.01514710
-0.08434459 0.18076934 0.01236436
0.00156963 0.17199521 -0.01117306
0.10703242 0.16766304 -0.04046889
0.20334797 0.16336735 -0.06599873
0.28184369 0.15069914 -0.09435116
0.33580443 0.14654909 -0.10929669
0.34705460 0.13835768 -0.11249930
-0.11249930 0.23166302 0.03255533
-0.11249930 0.22685103 0.02956885
-0.08184811 0.22685103 0.02661653
-0.01117306 0.22685103 0.01796360
0.09222748 0.23166302 -0.00104539
0.18969032 0.23166302 -0.01603856
0.26639485 0.23166302 -0.02537616
0.33580443 0.22685103 -0.03840919
0.37001583 0.22685103 -0.04046889
-0.11249930 0.37001583 0.07451729
-0.11249930 0.37585256 0.07108081
-0.08055603 0.37001583 0.07451729
-0.01603856 0.37585256 0.07451729
0.11082266 0.38172764 0.05768431
0.22685103 0.38172764 0.04800215
0.32470745 0.37585256 0.03557599
0.40561590 0.37585256 0.02956885
0.45525971 0.37585256 0.02661653
-0.11249930 0.45525971 0.08503760
-0.11249930 0.45525971 0.08503760
-0.08554920 0.44891760 0.08861481
-0.03203778 0.46164137 0.09587541
0.09587541 0.46164137 0.08149569
0.22685103 0.46164137 0.07108081
0.33023694 0.46164137 0.06098115
0.42393982 0.46164137 0.05442226
0.48102137 0.45525971 0.05119490
-0.11249930 -0.10182394 -0.06104118
-0.08899017 -0.11249930 -0.07365211
0.00156963 -0.11249930 -0.08672494
0.11464860 -0.11249930 -0.10182394
0.23166302 -0.11249930 -0.11249930
0.33023694 -0.11249930 -0.11249930
0.41779289 -0.11249930 -0.11249930
0.45525971 -0.11249930 -0.11249930
0.46164137 -0.11249930 -0.11249930
-0.11249930 -0.06599873 -0.07509241
-0.10075638 -0.07218183 -0.08554920
-0.03631748 -0.08055603 -0.09541872
0.05442226 -0.09114855 -0.10929669
0.15069914 -0.10502655 -0.11249930
0.23166302 -0.11249930 -0.11249930
0.30297154 -0.11249930 -0.11249930
0.34141043 -0.11249930 -0.11249930
0.34141043 -0.11249930 -0.11249930
-0.11249930 -0.01117306 -0.04838970
-0.11249930 -0.01603856 -0.05758214
-0.04838970 -0.02077271 -0.07650282
0.05119490 -0.03419371 -0.09541872
0.16336735 -0.04645701 -0.11249930
0.26132056 -0.06104118 -0.11249930
0.34141043 -0.07218183 -0.11249930
0.39958569 -0.08055603 -0.11249930
0.41168499 -0.08554920 -0.11249930
-0.11249930 0.08149569 0.00421805
-0.11249930 0.07451729 -0.00617554
-0.06104118 0.06767931 -0.02537616
0.06098115 0.06098115 -0.05758214
0.19875853 0.04800215 -0.09435116
0.31921640 0.02956885 -0.11249930
0.41779289 0.01796360 -0.11249930
0.48756027 0.00961533 -0.11249930
0.50075603 0.00421805 -0.11249930
-0.11249930 0.18076934 0.06431278
-0.11249930 0.17199521 0.05442226
-0.07365211 0.16766304 0.03863093
0.04484393 0.15488553 0.00156963
0.19420600 0.15069914 -0.04249668
0.31921640 0.13835768 -0.08672494
0.42393982 0.12240794 -0.11249930
0.50075603 0.11464860 -0.11249930
0.51410985 0.10703242 -0.11249930
-0.11249930 0.24139909 0.08861481
-0.11249930 0.23166302 0.08149569
-0.08055603 0.22685103 0.07451729
0.01796360 0.22207606 0.04800215
0.14654909 0.21263784 0.01514710
0.26639485 0.20797448 -0.01603856
0.36421788 0.19875853 -0.04645701
0.42393982 0.19420600 -0.05758214
0.44261447 0.18969032 -0.06437687
-0.11249930 0.23651253 0.07108081
-0.11249930 0.23166302 0.06431278
-0.08184811 0.22207606 0.06098115
-0.01603856 0.21733841 0.04800215
0.08149569 0.21733841 0.02956885
0.16766304 0.20797448 0.01514710
0.24139909 0.20334797 0.00421805
0.29763272 0.19875853 -0.00869082
0.31921640 0.19420600 -0.01117306
-0.11249930 0.34141043 0.10327785
-0.11249930 0.33580443 0.10327785
-0.08184811 0.34141043 0.09955890
-0.02537616 0.34141043 0.10327785
0.09587541 0.34705460 0.09222748
0.20797448 0.34705460 0.08149569
0.30297154 0.34705460 0.07108081
0.37585256 0.34705460 0.06431278
0.43012562 0.34705460 0.06431278
-0.11249930 0.46164137 0.13431616
-0.11249930 0.46164137 0.13431616
-0.08434459 0.46164137 0.13835768
-0.03203778 0.46806201 0.14654909
0.09587541 0.47452220 0.13835768
0.23166302 0.48102137 0.13031074
0.34141043 0.47452220 0.11851033
0.43635055 0.47452220 0.10703242
0.50075603 0.47452220 0.10327785
-0.11249930 -0.07218183 0.03863093
-0.09114855 -0.08311091 0.02081398
0.00689991 -0.09114855 0.00156963
0.13431616 -0.11249930 -0.02537616
0.27150664 -0.11249930 -0.04838970
0.38172764 -0.11249930 -0.06759003
0.47452220 -0.11249930 -0.08434459
0.52762204 -0.11249930 -0.09114855
0.53443754 -0.11249930 -0.09648624
-0.11249930 -0.04249668 0.00689991
-0.10395899 -0.05029084 -0.00869082
-0.02984961 -0.05932714 -0.02537616
0.08149569 -0.07218183 -0.04449271
0.20334797 -0.08899017 -0.06272441
0.30297154 -0.10929669 -0.07923452
0.38764170 -0.11249930 -0.09435116
0.44261447 -0.11249930 -0.10182394
0.44891760 -0.11249930 -0.10822916
-0.11249930 -0.01842197 -0.01842197
-0.11249930 -0.02762910 -0.02762910
-0.05580615 -0.02984961 -0.04249668
0.02956885 -0.04249668 -0.05932714
0.13031074 -0.05580615 -0.07509241
0.21263784 -0.06759003 -0.09007993
0.28706887 -0.07788351 -0.10502655
0.34141043 -0.08554920 -0.11249930
0.35273731 -0.08899017 -0.11249930
-0.11249930 0.06767931 0.04172025
-0.11249930 0.06098115 0.02956885
-0.06437687 0.05768431 0.01514710
0.05119490 0.05119490 -0.01362226
0.18076934 0.03863093 -0.04838970
0.29763272 0.02369825 -0.07650282
0.39958569 0.01236436 -0.10289147
0.46164137 0.00156963 -0.11249930
0.48102137 -0.00362708 -0.11249930
-0.11249930 0.18521151 0.11851033
-0.11249930 0.18076934 0.10327785
-0.07218183 0.17199521 0.09222748
0.04800215 0.16336735 0.05442226
0.20797448 0.15910824 0.00689991
0.33580443 0.14243528 -0.03419371
0.44261447 0.12634133 -0.06759003
0.52762204 0.12240794 -0.08787186
0.54818797 0.11464860 -0.09114855
-0.11249930 0.28706887 0.15910824
-0.11249930 0.27665633 0.15069914
-0.07788351 0.26639485 0.14243528
0.03255533 0.26132056 0.11464860
0.17636399 0.25628397 0.07798893
0.31376329 0.25128478 0.04484393
0.42393982 0.23651253 0.01236436
0.50075603 0.23166302 -0.00104539
0.52762204 0.23166302 -0.00869082
-0.11249930 0.30834845 0.15069914
-0.11249930 0.30297154 0.14243528
-0.07788351 0.29233181 0.13431616
-0.00104539 0.29233181 0.12634133
0.12240794 0.28706887 0.10327785
0.23166302 0.28184369 0.08503760
0.31921640 0.27665633 0.07108081
0.39958569 0.26639485 0.05442226
0.42393982 0.26132056 0.05119490
-0.11249930 0.28706887 0.11464860
-0.11249930 0.28706887 0.11464860
-0.08434459 0.28706887 0.11464860
-0.03419371 0.29763272 0.12240794
0.07108081 0.29763272 0.11082266
0.17199521 0.30297154 0.10327785
0.25628397 0.30297154 0.09222748
0.33023694 0.30297154 0.08861481
0.37585256 0.30297154 0.08861481
-0.11249930 0.44261447 0.17636399
-0.11249930 0.43635055 0.17636399
-0.08672494 0.44261447 0.18076934
-0.03631748 0.44891760 0.18969032
0.08503760 0.45525971 0.18076934
0.21733841 0.46164137 0.16766304
0.33023694 0.46164137 0.15910824
0.42393982 0.46164137 0.15069914
0.48756027 0.46164137 0.14654909
-0.11249930 -0.02762910 0.16336735
-0.10289147 -0.04249668 0.14654909
-0.00104539 -0.04838970 0.11851033
0.13835768 -0.05580615 0.08503760
0.28706887 -0.07365211 0.04484393
0.40561590 -0.09541872 0.00961533
0.51410985 -0.11249930 -0.01362226
0.56911224 -0.11249930 -0.02537616
0.57616681 -0.11249930 -0.03203778
-0.11249930 0.00421805 0.12634133
-0.11249930 -0.01117306 0.11464860
-0.02984961 -0.01842197 0.08503760
0.10327785 -0.02309074 0.06098115
0.24632330 -0.04046889 0.02661653
0.37001583 -0.06104118 -0.00617554
0.46164137 -0.07650282 -0.02984961
0.53443754 -0.09221611 -0.04249668
0.53443754 -0.10609408 -0.05029084
-0.11249930 0.02081398 0.07798893
-0.11249930 0.01236436 0.07108081
-0.05399901 0.00421805 0.04800215
0.05768431 -0.00362708 0.02081398
0.18076934 -0.02077271 -0.00869082
0.28184369 -0.03840919 -0.03419371
0.36421788 -0.05399901 -0.05399901
0.41779289 -0.06272441 -0.06272441
0.42393982 -0.07218183 -0.06759003
-0.11249930 0.04800215 0.06431278
-0.11249930 0.04172025 0.05442226
-0.06759003 0.03863093 0.04172025
0.03557599 0.03557599 0.01796360
0.15488553 0.02081398 -0.01117306
0.26132056 0.00689991 -0.03631748
0.35273731 -0.00104539 -0.05580615
0.41168499 -0.00617554 -0.06759003
0.43012562 -0.01362226 -0.06915092
-0.11249930 0.17636399 0.15488553
-0.11249930 0.16766304 0.14654909
-0.07365211 0.16336735 0.13431616
0.04484393 0.15488553 0.09955890
0.20334797 0.15069914 0.05442226
0.33023694 0.13835768 0.01514710
0.43635055 0.12240794 -0.01842197
0.52084595 0.11851033 -0.03203778
0.54818797 0.11082266 -0.03840919
-0.11249930 0.30297154 0.22685103
-0.11249930 0.29763272 0.21733841
-0.07650282 0.29233181 0.21263784
0.04172025 0.28706887 0.18076934
0.19420600 0.28184369 0.14654909
0.34705460 0.27665633 0.10703242
0.46164137 0.26639485 0.07451729
0.54818797 0.26132056 0.06098115
0.58326143 0.25628397 0.05442226
-0.11249930 0.37585256 0.23651253
-0.11249930 0.36421788 0.23166302
-0.07365211 0.35845819 0.22685103
0.01236436 0.35273731 0.21263784
0.15069914 0.35273731 0.18969032
0.28184369 0.34705460 0.17199521
0.38764170 0.34141043 0.15069914
0.48756027 0.33580443 0.13431616
0.52084595 0.33023694 0.12634133
-0.11249930 0.35273731 0.19420600
-0.11249930 0.34705460 0.18969032
-0.08311091 0.34141043 0.18969032
-0.02984961 0.34141043 0.18969032
0.08149569 0.33580443 0.17199521
0.18969032 0.33580443 0.15910824
0.27150664 0.33023694 0.14654909
0.34141043 0.31921640 0.13431616
0.39359424 0.31376329 0.13031074
-0.11249930 0.39359424 0.19420600
-0.11249930 0.39359424 0.19420600
-0.08787186 0.39359424 0.19875853
-0.04249668 0.40561590 0.20334797
0.06767931 0.41168499 0.19875853
0.19420600 0.41168499 0.19420600
0.29763272 0.41779289 0.18521151
0.38764170 0.41779289 0.17636399
0.44891760 0.41779289 0.17636399
-0.11249930 0.02369825 0.28184369
-0.11249930 0.01236436 0.26639485
-0.01117306 0.00421805 0.24139909
0.12634133 0.00156963 0.21263784
0.28184369 -0.00617554 0.17199521
0.39958569 -0.02537616 0.12240794
0.51410985 -0.04249668 0.08503760
0.57616681 -0.05580615 0.07108081
0.59039593 -0.07068147 0.05768431
-0.11249930 0.06767931 0.27665633
-0.11249930 0.04800215 0.26132056
-0.03419371 0.03863093 0.23166302
0.10703242 0.03863093 0.20334797
0.27150664 0.03255533 0.15488553
0.40561590 0.00961533 0.10703242
0.51410985 -0.01117306 0.06767931
0.59039593 -0.02762910 0.04800215
0.60478508 -0.04249668 0.03255533
-0.11249930 0.09587541 0.23166302
-0.11249930 0.08149569 0.21733841
-0.05399901 0.07108081 0.19420600
0.07451729 0.06098115 0.15488553
0.22685103 0.05119490 0.11082266
0.34705460 0.02956885 0.06431278
0.44891760 0.00961533 0.02956885
0.51410985 -0.00617554 0.01236436
0.52762204 -0.01842197 0.00156963
-0.11249930 0.08149569 0.15069914
-0.11249930 0.07108081 0.13431616
-0.07068147 0.06098115 0.11851033
0.02956885 0.05442226 0.08503760
0.14654909 0.04172025 0.04800215
0.25128478 0.02369825 0.01236436
0.32470745 0.00961533 -0.00869082
0.38172764 -0.00104539 -0.02309074
0.38764170 -0.00617554 -0.02762910
-0.11249930 0.15069914 0.18076934
-0.11249930 0.14243528 0.17199521
-0.07509241 0.13835768 0.15910824
0.03557599 0.13431616 0.12634133
0.17199521 0.13031074 0.09222748
0.29763272 0.11851033 0.05442226
0.39958569 0.10703242 0.02661653
0.48756027 0.10327785 0.00961533
0.50741297 0.09587541 0.00961533
-0.11249930 0.30297154 0.28184369
-0.11249930 0.29763272 0.27665633
-0.07509241 0.29233181 0.26639485
0.04172025 0.29233181 0.24139909
0.19420600 0.28706887 0.20334797
0.35273731 0.28184369 0.16766304
0.46806201 0.27665633 0.14243528
0.56911224 0.26639485 0.11851033
0.60478508 0.26639485 0.11464860
-0.11249930 0.41779289 0.33023694
-0.11249930 0.41168499 0.31921640
-0.07218183 0.40561590 0.31921640
0.02081398 0.40561590 0.30297154
0.17636399 0.39958569 0.27665633
0.32470745 0.39958569 0.25628397
0.44891760 0.39359424 0.23651253
0.55512297 0.38764170 0.21733841
0.60478508 0.38172764 0.21263784
-0.11249930 0.44261447 0.30297154
-0.11249930 0.43635055 0.29763272
-0.08055603 0.42393982 0.29233181
-0.02309074 0.43012562 0.29763272
0.11082266 0.42393982 0.27665633
0.24632330 0.42393982 0.26132056
0.35273731 0.41779289 0.24632330
0.44261447 0.41168499 0.23651253
0.50075603 0.40561590 0.22685103
-0.11249930 0.35845819 0.21733841
-0.11249930 0.35845819 0.21263784
-0.08899017 0.35273731 0.21263784
-0.04645701 0.35273731 0.21733841
0.04800215 0.34705460 0.20334797
0.15488553 0.35273731 0.19420600
0.24632330 0.35273731 0.18969032
0.32470745 0.35273731 0.18076934
0.38172764 0.35845819 0.18076934
-0.11249930 0.06767931 0.35845819
-0.10716160 0.05768431 0.34705460
-0.01842197 0.05442226 0.33023694
0.11464860 0.05119490 0.30834845
0.25628397 0.04800215 0.28706887
0.37585256 0.04172025 0.25628397
0.47452220 0.02956885 0.22685103
0.54818797 0.01796360 0.20797448
0.56209767 0.00421805 0.18521151
-0.11249930 0.12634133 0.40561590
-0.11249930 0.11464860 0.38764170
-0.03631748 0.10703242 0.38172764
0.11082266 0.10703242 0.34705460
0.27665633 0.10703242 0.31376329
0.42393982 0.09587541 0.27150664
0.54129291 0.07798893 0.23166302
0.61933494 0.06098115 0.19420600
0.64146161 0.04484393 0.16766304
-0.11249930 0.17636399 0.39359424
-0.11249930 0.16336735 0.38172764
-0.05216059 0.15488553 0.37001583
0.09222748 0.14654909 0.33023694
0.25628397 0.13431616 0.28184369
0.40561590 0.11851033 0.22685103
0.52762204 0.09955890 0.17199521
0.61204004 0.08149569 0.14243528
0.61933494 0.06767931 0.12240794
-0.11249930 0.17636399 0.30834845
-0.11249930 0.16336735 0.29763272
-0.06915092 0.15488553 0.28184369
0.05119490 0.13835768 0.24632330
0.19875853 0.13031074 0.19875853
0.32470745 0.11464860 0.15069914
0.43012562 0.09587541 0.10703242
0.49413824 0.08503760 0.08503760
0.50741297 0.07798893 0.07798893
-0.11249930 0.13835768 0.20334797
-0.11249930 0.13431616 0.19875853
-0.07923452 0.12634133 0.18969032
0.01796360 0.12240794 0.15910824
0.13835768 0.11851033 0.12634133
0.25128478 0.10703242 0.09587541
0.34141043 0.10327785 0.07108081
0.41779289 0.09955890 0.05768431
0.43635055 0.10327785 0.06431278
-0.11249930 0.28184369 0.31376329
-0.11249930 0.27665633 0.30297154
-0.07650282 0.27665633 0.30297154
0.03255533 0.27150664 0.27665633
0.18521151 0.26639485 0.24139909
0.33023694 0.26639485 0.21263784
0.44891760 0.25628397 0.18969032
0.54129291 0.26132056 0.16336735
0.58326143 0.25128478 0.16336735
-0.11249930 0.43635055 0.39958569
-0.11249930 0.43012562 0.39359424
-0.07068147 0.42393982 0.39359424
0.02081398 0.43012562 0.38172764
0.18521151 0.43012562 0.35845819
0.34141043 0.42393982 0.33580443
0.46806201 0.42393982 0.31376329
0.58326143 0.41779289 0.29763272
0.64891750 0.41168499 0.29233181
-0.11249930 0.51410985 0.41168499
-0.11249930 0.51410985 0.41168499
-0.07788351 0.50741297 0.41168499
-0.01362226 0.50741297 0.41168499
0.13835768 0.50741297 0.39359424
0.29763272 0.50075603 0.37001583
0.42393982 0.49413824 0.35845819
0.52762204 0.48756027 0.34141043
0.59757060 0.48102137 0.33023694
-0.11249930 0.46806201 0.33580443
-0.11249930 0.46164137 0.33580443
-0.08787186 0.45525971 0.33023694
-0.03840919 0.45525971 0.33580443
0.07451729 0.45525971 0.32470745
0.20797448 0.45525971 0.31376329
0.31921640 0.45525971 0.29763272
0.40561590 0.44891760 0.28184369
0.46806201 0.44261447 0.27665633
-0.11249930 0.08149569 0.37585256
-0.10289147 0.07451729 0.37001583
-0.03419371 0.07798893 0.36421788
0.09222748 0.07798893 0.35273731
0.21733841 0.07798893 0.33580443
0.32470745 0.07108081 0.31921640
0.41168499 0.06431278 0.30297154
0.47452220 0.05768431 0.29233181
0.50075603 0.04800215 0.28706887
-0.11249930 0.16766304 0.48102137
-0.11143177 0.15488553 0.48102137
-0.04046889 0.15488553 0.46806201
0.10703242 0.15488553 0.44891760
0.26639485 0.15488553 0.41779289
0.40561590 0.14654909 0.39359424
0.52762204 0.13431616 0.37001583
0.60478508 0.12634133 0.35273731
0.63404578 0.11851033 0.33580443
-0.11249930 0.24139909 0.53443754
-0.11249930 0.23166302 0.52084595
-0.05029084 0.22685103 0.52084595
0.10327785 0.22207606 0.48102137
0.28184369 0.21733841 0.44261447
0.43012562 0.20334797 0.40561590
0.56209767 0.19420600 0.37001583
0.65641415 0.18076934 0.34141043
0.67914605 0.17199521 0.32470745
-0.11249930 0.27150664 0.48102137
-0.11249930 0.26132056 0.46806201
-0.06104118 0.25128478 0.46164137
0.07798893 0.24632330 0.42393982
0.24632330 0.23166302 0.38172764
0.39359424 0.22207606 0.34141043
0.51410985 0.20797448 0.30834845
0.59757060 0.20334797 0.28706887
0.61933494 0.19875853 0.28184369
-0.11249930 0.23651253 0.36421788
-0.11249930 0.22685103 0.34705460
-0.07218183 0.21733841 0.33580443
0.03557599 0.20797448 0.30297154
0.16766304 0.19875853 0.27150664
0.28706887 0.19420600 0.24139909
0.38172764 0.18521151 0.22207606
0.45525971 0.18521151 0.21263784
0.47452220 0.18076934 0.21263784
-0.11249930 0.25128478 0.32470745
-0.11249930 0.24632330 0.31921640
-0.07788351 0.24632330 0.31921640
0.02081398 0.24632330 0.30297154
0.15910824 0.24632330 0.27665633
0.28706887 0.25128478 0.26132056
0.39958569 0.25628397 0.25128478
0.49413824 0.26132056 0.24632330
0.52762204 0.26639485 0.25628397
-0.11249930 0.42393982 0.44891760
-0.11249930 0.42393982 0.44891760
-0.07218183 0.41779289 0.44261447
0.01514710 0.41779289 0.44261447
0.17636399 0.41779289 0.41779289
0.33580443 0.42393982 0.39359424
0.47452220 0.41779289 0.37585256
0.59039593 0.41779289 0.36421788
0.65641415 0.41779289 0.35273731
-0.11249930 0.56209767 0.51410985
-0.11249930 0.55512297 0.50741297
-0.07788351 0.55512297 0.50741297
-0.01117306 0.56209767 0.52084595
0.15488553 0.55512297 0.50075603
0.32470745 0.56209767 0.48102137
0.46806201 0.55512297 0.46164137
0.59039593 0.54818797 0.44261447
0.67152834 0.54129291 0.43635055
-0.11249930 0.56911224 0.46806201
-0.11249930 0.56209767 0.47452220
-0.08554920 0.55512297 0.46806201
-0.02762910 0.56209767 0.47452220
0.10327785 0.56209767 0.46806201
0.26132056 0.56209767 0.44891760
0.39958569 0.56209767 0.43012562
0.50741297 0.55512297 0.41168499
0.58326143 0.54818797 0.40561590
-0.11249930 0.09955890 0.45525971
-0.10395899 0.09222748 0.44261447
-0.03840919 0.09587541 0.44261447
0.09222748 0.09587541 0.42393982
0.21263784 0.09955890 0.39958569
0.30834845 0.09222748 0.38172764
0.38172764 0.08861481 0.37001583
0.43012562 0.08149569 0.35273731
0.45525971 0.07108081 0.34141043
-0.11249930 0.15910824 0.48756027
-0.11249930 0.15488553 0.48756027
-0.05029084 0.15910824 0.49413824
0.08861481 0.16766304 0.48102137
0.23651253 0.17636399 0.47452220
0.36421788 0.17199521 0.46164137
0.47452220 0.16336735 0.43635055
0.54818797 0.15488553 0.43012562
0.58326143 0.14654909 0.41779289
-0.11249930 0.27150664 0.61204004
-0.11249930 0.27150664 0.60478508
-0.05216059 0.27150664 0.61204004
0.10327785 0.27150664 0.59039593
0.28706887 0.26639485 0.56209767
0.44261447 0.26132056 0.53443754
0.56911224 0.25128478 0.50741297
0.65641415 0.23651253 0.48756027
0.69450337 0.23166302 0.48102137
-0.11249930 0.34141043 0.63404578
-0.11249930 0.33580443 0.62667030
-0.05580615 0.33023694 0.61933494
0.09587541 0.32470745 0.59039593
0.28184369 0.31921640 0.55512297
0.44261447 0.31376329 0.52084595
0.56911224 0.30297154 0.50075603
0.66395080 0.29763272 0.48102137
0.70224291 0.29233181 0.48102137
-0.11249930 0.34705460 0.54129291
-0.11249930 0.33023694 0.52762204
-0.06437687 0.32470745 0.52084595
0.05768431 0.31921640 0.49413824
0.21733841 0.31376329 0.46164137
0.36421788 0.30834845 0.43635055
0.47452220 0.30297154 0.42393982
0.56209767 0.29763272 0.40561590
0.59757060 0.29763272 0.41168499
-0.11249930 0.27150664 0.38172764
-0.11249930 0.26132056 0.37001583
-0.07365211 0.25628397 0.36421788
0.00689991 0.25628397 0.34705460
0.13031074 0.25628397 0.33023694
0.23166302 0.25128478 0.30834845
0.32470745 0.25128478 0.30297154
0.40561590 0.26132056 0.30297154
0.45525971 0.26132056 0.31376329
-0.11249930 0.38764170 0.46164137
-0.11249930 0.38764170 0.46164137
-0.07365211 0.38764170 0.46806201
0.00421805 0.39958569 0.46806201
0.15910824 0.40561590 0.45525971
0.30834845 0.41168499 0.44891760
0.43012562 0.41779289 0.43635055
0.54129291 0.41779289 0.43635055
0.61933494 0.41779289 0.43012562
-0.11249930 0.56911224 0.59039593
-0.11249930 0.56911224 0.58326143
-0.07788351 0.56209767 0.59039593
-0.00869082 0.56911224 0.59757060
0.15910824 0.56911224 0.57616681
0.33580443 0.57616681 0.56209767
0.48756027 0.57616681 0.54818797
0.61204004 0.56911224 0.52762204
0.70224291 0.56209767 0.52762204
-0.11249930 0.64891750 0.60478508
-0.11249930 0.64146161 0.60478508
-0.08434459 0.64146161 0.60478508
-0.01842197 0.64146161 0.60478508
0.12634133 0.64891750 0.59757060
0.30834845 0.64891750 0.57616681
0.46806201 0.64891750 0.56209767
0.59039593 0.64146161 0.54818797
0.67152834 0.63404578 0.54129291
-0.11249930 0.13431616 0.62667030
-0.10395899 0.13031074 0.61933494
-0.02984961 0.13031074 0.61204004
0.12634133 0.13835768 0.59039593
0.27665633 0.13835768 0.56911224
0.39958569 0.13431616 0.55512297
0.49413824 0.12634133 0.53443754
0.56209767 0.12240794 0.51410985
0.58326143 0.11851033 0.50741297
-0.11249930 0.12240794 0.45525971
-0.11249930 0.12240794 0.45525971
-0.05758214 0.12634133 0.46164137
0.06098115 0.13031074 0.45525971
0.19420600 0.13835768 0.44891760
0.30834845 0.13835768 0.43635055
0.39958569 0.13835768 0.43012562
0.46806201 0.13835768 0.42393982
0.50741297 0.13431616 0.43012562
-0.11249930 0.24632330 0.62667030
-0.11249930 0.24632330 0.62667030
-0.05399901 0.25128478 0.62667030
0.09222748 0.25628397 0.61933494
0.26639485 0.26132056 0.59757060
0.41168499 0.26132056 0.58326143
0.53443754 0.25628397 0.56911224
0.61933494 0.25128478 0.56209767
0.67152834 0.25628397 0.56209767
-0.11249930 0.35273731 0.71784419
-0.11249930 0.35273731 0.71784419
-0.05399901 0.35845819 0.71784419
0.09955890 0.36421788 0.70224291
0.29233181 0.37001583 0.67914605
0.46164137 0.36421788 0.65641415
0.59757060 0.36421788 0.64146161
0.69450337 0.35845819 0.63404578
0.74953544 0.35845819 0.63404578
-0.11249930 0.41168499 0.69450337
-0.11249930 0.39958569 0.68680453
-0.05758214 0.39958569 0.68680453
0.07451729 0.41168499 0.67152834
0.26132056 0.41168499 0.64891750
0.43012562 0.41168499 0.62667030
0.54818797 0.40561590 0.61204004
0.65641415 0.39958569 0.60478508
0.70224291 0.39359424 0.60478508
-0.11249930 0.37585256 0.56209767
-0.11249930 0.37585256 0.54818797
-0.06915092 0.37001583 0.54818797
0.02369825 0.37001583 0.53443754
0.17636399 0.37585256 0.51410985
0.30834845 0.37001583 0.50075603
0.41168499 0.35845819 0.48756027
0.50075603 0.35845819 0.47452220
0.54818797 0.34705460 0.46806201
-0.11249930 0.35273731 0.46164137
-0.11249930 0.35845819 0.46806201
-0.07788351 0.35845819 0.47452220
-0.01603856 0.37001583 0.48102137
0.12240794 0.37585256 0.47452220
0.26132056 0.38172764 0.46806201
0.37585256 0.38172764 0.46164137
0.46806201 0.38764170 0.46164137
0.53443754 0.39359424 0.46164137
-0.11249930 0.53443754 0.61933494
-0.11249930 0.54129291 0.61933494
-0.07923452 0.54129291 0.62667030
-0.01603856 0.54818797 0.64146161
0.14243528 0.56209767 0.62667030
0.31921640 0.56911224 0.61204004
0.46806201 0.56209767 0.60478508
0.59757060 0.56911224 0.59757060
0.67914605 0.56209767 0.59757060
-0.11249930 0.68680453 0.70224291
-0.11249930 0.67914605 0.71002316
-0.08434459 0.68680453 0.71002316
-0.01603856 0.68680453 0.71784419
0.13835768 0.69450337 0.71002316
0.33023694 0.70224291 0.69450337
0.50075603 0.70224291 0.67914605
0.64146161 0.69450337 0.66395080
0.73360819 0.69450337 0.65641415
