src/luts/9.cube
TITLE "Generated by Resolve"
LUT_3D_SIZE 5
0 0 0
0.338735 0 0
0.748104 0 0
0.742748 0.0462348 0.00848402
0.995453 0.061738 0.00236515
0.0456245 0.278447 0.0921492
0.302281 0.30341 0
0.694804 0.273671 0
0.791714 0.306554 0.0922713
1 0.312154 0.0800183
0.0606546 0.549142 0.119417
0.205707 0.605798 0
0.59118 0.568643 0
0.804044 0.548257 0.120638
1 0.547021 0.112505
0.277012 0.710445 0.318425
0.332967 0.778881 0.161715
0.539284 0.797986 0.0374456
0.801877 0.776959 0.132677
1 0.772686 0.122911
0.33109 0.915785 0.380346
0.359655 0.989731 0.209369
0.553048 1 0.142504
0.790112 0.996826 0.13431
1 0.990204 0.123873
0 0 0.257542
0.350103 0 0.369268
0.770413 0 0.32282
0.76289 0.0456703 0.23595
1 0.0601968 0.224826
0.054139 0.28278 0.296666
0.296971 0.295155 0.310079
0.684169 0.266865 0.257954
1 0.239231 0.193286
1 0.316793 0.268971
0.112627 0.533318 0.350637
0.309682 0.55108 0.334432
0.583627 0.556222 0.196338
0.966491 0.518105 0.148333
1 0.545922 0.323522
0.336614 0.697246 0.479179
0.29192 0.794415 0.329366
0.461158 0.835187 0.0953689
0.840894 0.793164 0.049836
1 0.770275 0.335119
0.411658 0.892927 0.560815
0.494881 0.93669 0.524346
0.559258 0.997513 0.365057
0.789731 0.993912 0.346181
1 0.987076 0.335729
0 0 0.570977
0.333089 0 0.700435
0.76083 0 0.718563
0.775204 0.0443732 0.485679
1 0.0565042 0.465339
0.0211795 0.294377 0.544518
0.292363 0.291585 0.608515
0.685069 0.250736 0.652491
1 0.218402 0.578622
1 0.312047 0.490898
0.105409 0.538705 0.543359
0.333501 0.544152 0.550378
0.567178 0.546242 0.554726
0.952178 0.509224 0.484215
1 0.475151 0.414084
0.343145 0.704265 0.594186
0.361425 0.768627 0.57937
0.530739 0.790097 0.532143
0.831754 0.779217 0.406271
1 0.736965 0.354437
0.418967 0.898329 0.675807
0.564309 0.917571 0.696025
0.498833 1 0.514473
0.695384 1 0.293889
1 1 0.245518
0 0 0.521813
0.232654 0.0303807 0.622126
0.509911 0.03888 0.696941
0.775158 0.0479591 0.71635
1 0.055375 0.713893
0.116411 0.287724 0.589471
0.28748 0.288716 0.896269
0.660502 0.24799 0.985901
1 0.205188 0.975326
1 0.306447 0.73611
0.231098 0.513802 0.642023
0.296513 0.552209 0.794644
0.562875 0.538735 0.850965
0.952651 0.489937 0.877714
1 0.452461 0.793454
0.342061 0.713191 0.711116
0.353674 0.771679 0.769711
0.576715 0.771832 0.771511
0.813581 0.767575 0.765286
1 0.727031 0.687953
0.424308 0.904311 0.789792
0.569528 0.923293 0.80975
0.588342 0.983185 0.78793
0.73257 1 0.705623
1 0.985595 0.600534
0 0.0154269 0.707301
0.23769 0.0428779 0.79855
0.503868 0.0496529 0.888808
0.775067 0.0526436 0.93022
1 0.0578317 0.940475
0.116686 0.295933 0.761532
0.310704 0.312596 0.832197
0.537835 0.315679 0.90724
0.798886 0.308217 0.960479
1 0.306096 0.966049
0.219379 0.523903 0.796048
0.382757 0.543374 0.841215
0.554757 0.533272 1
0.927428 0.483604 1
1 0.436332 1
0.319966 0.726452 0.84538
0.472435 0.746075 0.870008
0.538048 0.778271 1
0.8047 0.758755 1
1 0.705882 1
0.420508 0.912657 0.906065
0.568002 0.930739 0.925139
0.580713 0.984741 0.976776
0.800656 0.981674 0.975418
1 0.971374 0.956283
