src/luts/9.cube
TITLE "Generated by Resolve"
LUT_3D_SIZE 33
0 0 0
0 0 0
0 0 0
0.0502174 0 0
0.105699 0 0
0.164752 0 0
0.228458 0 0
0.28452 0 0
0.338735 0 0
0.391867 0 0
0.444251 0 0
0.49604 0 0
0.547341 0 0
0.598169 0 0
0.648585 0 0
0.698589 0 0
0.748104 0 0
0.796994 0 0
0.844083 0 0
0.704387 0.00117494 0
0.614206 0.0363928 0.00956741
0.64651 0.0390173 0.00946059
0.678691 0.0415351 0.00923171
0.710765 0.0439307 0.00889601
0.742748 0.0462348 0.00848402
0.774624 0.0484474 0.00798047
0.806409 0.0505684 0.00738537
0.838102 0.0526131 0.00671397
0.869718 0.0545663 0.0059968
0.901259 0.0564736 0.00517281
0.932723 0.0582895 0.00430304
0.964126 0.0600443 0.00337224
0.995453 0.061738 0.00236515
0 0 0
0 0 0
0.00848402 0 0
0.071046 0.000350958 0
0.129595 0.00270085 0
0.183581 0.00457771 0
0.236652 0.00564584 0
0.289067 0.00616464 0
0.340978 0.00624094 0
0.392401 0.0059968 0
0.443397 0.00550851 0
0.494057 0.00479133 0
0.544381 0.00387579 0
0.594385 0.0027924 0
0.644083 0.00157168 0
0.693446 0.000228885 0
0.742458 0 0
0.790997 0 0
0.838743 0 0
0.832715 0.00830091 0
0.622995 0.0728618 0.0229953
0.654948 0.0751354 0.0225681
0.686793 0.0773022 0.0220493
0.718563 0.0793927 0.0214542
0.75024 0.0814069 0.0207675
0.781826 0.0833448 0.0200198
0.813352 0.0852064 0.0191958
0.844785 0.0869917 0.0182956
0.876173 0.0887312 0.0173495
0.907469 0.0903944 0.0163272
0.93872 0.0920119 0.015259
0.969909 0.0935683 0.0141299
1 0.0950637 0.0129397
0 0.0363928 0.0106661
0.00682078 0.0426947 0.0196841
0.0340276 0.0522621 0.0146029
0.0811627 0.0550546 0.00807202
0.136889 0.0546273 0.000885023
0.189364 0.0541695 0
0.240742 0.053727 0
0.291493 0.053193 0
0.341955 0.05243 0
0.392157 0.0514839 0
0.442191 0.0503395 0
0.492027 0.049012 0
0.54168 0.0475319 0
0.591134 0.0459297 0
0.640375 0.0442206 0
0.689357 0.0424201 0
0.738064 0.0405585 0
0.786419 0.0386511 0
0.834272 0.0367437 0
0.879088 0.0354925 0
0.72546 0.0844434 0
0.661555 0.110643 0.0327916
0.693111 0.112566 0.0319829
0.724575 0.114412 0.0310979
0.755978 0.116197 0.0301518
0.78732 0.117906 0.02916
0.818586 0.119554 0.0280919
0.849805 0.121157 0.0269932
0.880964 0.122698 0.0258335
0.912047 0.124178 0.0246128
0.943099 0.125612 0.0233463
0.97409 0.127001 0.0220493
1 0.128344 0.0207065
0 0.0846113 0.033814
0.0223087 0.0904707 0.0371252
0.0346532 0.104234 0.00956741
0.084535 0.104158 0.00430304
0.136385 0.102876 0.00148013
0.188083 0.10135 0
0.239612 0.0996262 0
0.290929 0.097734 0
0.34165 0.0958724 0
0.391791 0.0940566 0
0.441459 0.0922713 0
0.490761 0.0904707 0
0.539773 0.0886244 0
0.588586 0.086717 0
0.637217 0.0847334 0
0.685634 0.0827039 0
0.733837 0.0805982 0
0.781781 0.0784466 0
0.829343 0.0762951 0
0.876127 0.0742504 0
0.845411 0.0912947 0
0.668849 0.144564 0.0449683
0.700084 0.146304 0.0438392
0.731258 0.147967 0.042649
0.762371 0.149569 0.0414282
0.793454 0.151125 0.0401465
0.824475 0.152605 0.0388495
0.855436 0.154055 0.0374914
0.886366 0.155444 0.0361028
0.91725 0.156786 0.0346532
0.948089 0.158068 0.0331884
0.978882 0.159319 0.0316777
1 0.160525 0.0301518
0.00943008 0.126833 0.0511482
0.0336461 0.133516 0.0494545
0.0394598 0.148562 0.0162509
0.0818189 0.150561 0.00192264
0.133059 0.148516 0
0.184039 0.146395 0
0.234897 0.144137 0
0.285649 0.141756 0
0.336278 0.139269 0
0.386801 0.13666 0
0.437079 0.13402 0
0.486854 0.131441 0
0.536187 0.128923 0
0.585138 0.126467 0
0.633768 0.12401 0
0.682048 0.121599 0
0.730053 0.119188 0
0.777737 0.116777 0
0.825071 0.114397 0
0.87187 0.112078 0
0.903639 0.113313 0
0.708797 0.169497 0.040177
0.707317 0.178943 0.0562448
0.738186 0.180468 0.0547951
0.769024 0.181949 0.0532845
0.799817 0.183352 0.0517433
0.830594 0.184726 0.0501717
0.861311 0.186038 0.0485695
0.891997 0.18732 0.0469368
0.922652 0.18854 0.0452735
0.953277 0.189715 0.0435798
0.983871 0.19086 0.0418555
1 0.191959 0.040116
0.0227512 0.166461 0.065095
0.0416571 0.174334 0.0584421
0.0445106 0.189654 0.0231479
0.0769513 0.19498 0
0.127703 0.192447 0
0.178256 0.189853 0
0.228656 0.187198 0
0.27895 0.184451 0
0.329168 0.181613 0
0.379294 0.178714 0
0.429328 0.175723 0
0.47924 0.172656 0
0.529046 0.169528 0
0.578531 0.16643 0
0.627573 0.163424 0
0.676234 0.160479 0
0.724529 0.15758 0
0.772457 0.154742 0
0.820005 0.151965 0
0.866987 0.149279 0
0.912749 0.146853 0
0.82179 0.17673 0
0.714488 0.210803 0.0683604
0.745159 0.212177 0.066804
0.775769 0.213519 0.065156
0.806332 0.214801 0.0634623
0.836881 0.216052 0.061738
0.867384 0.217258 0.059968
0.897841 0.218433 0.0580911
0.928267 0.219562 0.0562448
0.958679 0.220645 0.0543374
0.989059 0.221683 0.05243
1 0.22269 0.0504921
0.032517 0.204761 0.0760967
0.0476692 0.213519 0.0654459
0.0489662 0.228809 0.0292515
0.0724193 0.237079 0
0.120851 0.235111 0
0.171115 0.232136 0
0.221195 0.229129 0
0.271153 0.226093 0
0.321035 0.22298 0
0.37084 0.219806 0
0.420569 0.216571 0
0.470207 0.213275 0
0.519753 0.209934 0
0.569207 0.206546 0
0.618524 0.203098 0
0.667659 0.199649 0
0.716426 0.196277 0
0.764767 0.192981 0
0.81268 0.189761 0
0.860105 0.186648 0
0.906706 0.183688 0
0.894133 0.194324 0
0.720958 0.242313 0.0789807
0.751568 0.243473 0.0775921
0.782086 0.244633 0.076051
0.812558 0.245762 0.074403
0.842954 0.24686 0.0726787
0.87332 0.247944 0.0708629
0.903624 0.248981 0.068986
0.933898 0.250004 0.0670329
0.964141 0.25098 0.0650645
0.994354 0.251942 0.0630198
1 0.252842 0.0609903
0.0399329 0.242023 0.084947
0.0522927 0.251438 0.0710613
0.0526436 0.266606 0.0344396
0.0692302 0.277012 0
0.112825 0.276753 0
0.16286 0.273472 0
0.212711 0.270191 0
0.262425 0.26688 0
0.312032 0.263539 0
0.361578 0.260136 0
0.411048 0.256687 0
0.460456 0.253193 0
0.509773 0.249668 0
0.559014 0.246082 0
0.608148 0.242466 0
0.65716 0.238819 0
0.706035 0.235157 0
0.754742 0.231464 0
0.803128 0.227832 0
0.851026 0.224292 0
0.898222 0.220905 0
0.927306 0.221515 0
0.750881 0.268208 0.0694743
0.756878 0.274678 0.0863355
0.787442 0.275608 0.0850996
0.81796 0.276524 0.0837415
0.848371 0.27744 0.0822461
0.878706 0.27834 0.0806134
0.90898 0.27924 0.0788586
0.939178 0.28011 0.076997
0.969345 0.280964 0.0750591
0.999451 0.281804 0.0730602
1 0.282612 0.070985
0.0456245 0.278447 0.0921492
0.0558785 0.28835 0.0757
0.0556039 0.303349 0.0388495
0.0670939 0.315236 0
0.104356 0.317311 0
0.153689 0.314031 0
0.203357 0.310506 0
0.252888 0.306966 0
0.302281 0.30341 0
0.351614 0.299809 0
0.40087 0.296178 0
0.450065 0.292515 0
0.499199 0.288808 0
0.548241 0.285069 0
0.597208 0.2813 0
0.646067 0.277485 0
0.694804 0.273671 0
0.743389 0.269841 0
0.791791 0.265995 0
0.839948 0.26215 0
0.887678 0.258381 0
0.932525 0.255222 0
0.822354 0.285344 0.018677
0.761044 0.305837 0.0932174
0.791714 0.306554 0.0922713
0.822278 0.307271 0.0911879
0.85275 0.307988 0.0899519
0.883146 0.308705 0.0885786
0.913451 0.309407 0.0870832
0.943725 0.310109 0.0855116
0.973907 0.310796 0.0838026
1 0.311482 0.0819409
1 0.312154 0.0800183
0.0500038 0.314137 0.0980697
0.0587778 0.324346 0.0796826
0.0580301 0.339193 0.04271
0.0656748 0.352117 0
0.096849 0.356359 0
0.143755 0.353933 0
0.193256 0.350195 0
0.242634 0.346441 0
0.29189 0.342687 0
0.341039 0.338918 0
0.390112 0.335119 0
0.439139 0.331289 0
0.48809 0.327443 0
0.536965 0.323552 0
0.585779 0.319631 0
0.634485 0.315694 0
0.683101 0.311742 0
0.731579 0.307759 0
0.779889 0.303792 0
0.827985 0.299809 0
0.875731 0.295888 0
0.922591 0.292088 0
0.870069 0.308553 0
0.764126 0.336965 0.0985122
0.794919 0.337469 0.0978561
0.825605 0.337987 0.0970626
0.856168 0.338506 0.0960861
0.886641 0.33904 0.0949874
0.917037 0.339559 0.0937514
0.947341 0.340093 0.0923934
0.977569 0.340627 0.090898
1 0.341146 0.0892958
1 0.341665 0.0875715
0.0533761 0.349187 0.102983
0.0608377 0.359686 0.082887
0.059678 0.374395 0.0457771
0.0645304 0.388022 0.000961318
0.0903639 0.394064 0
0.133242 0.393194 0
0.182528 0.389319 0
0.231754 0.385397 0
0.280873 0.381476 0
0.3299 0.377539 0
0.378836 0.373587 0
0.42771 0.369619 0
0.476493 0.365621 0
0.525231 0.361593 0
0.573892 0.357549 0
0.622492 0.353491 0
0.67097 0.349401 0
0.719341 0.345312 0
0.767559 0.341207 0
0.815579 0.337118 0
0.863325 0.333043 0
0.910414 0.329061 0
0.894972 0.337057 0
0.766369 0.367971 0.102739
0.797177 0.368338 0.102174
0.827939 0.368673 0.101564
0.858625 0.369009 0.100847
0.88922 0.369345 0.100008
0.919707 0.369711 0.0990158
0.950088 0.370062 0.0978866
0.980407 0.370428 0.0966354
1 0.370794 0.0952773
1 0.37116 0.0937972
0.0559243 0.383673 0.107073
0.0623331 0.394385 0.0855573
0.0609293 0.408927 0.0484627
0.0637675 0.422965 0.00315862
0.0847944 0.430625 0
0.123201 0.431434 0
0.171237 0.427955 0
0.220356 0.42388 0
0.269352 0.419806 0
0.318257 0.415717 0
0.367071 0.411627 0
0.415808 0.407507 0
0.464485 0.403388 0
0.513085 0.399237 0
0.561624 0.395087 0
0.610086 0.390906 0
0.658457 0.386709 0
0.706737 0.382498 0
0.754864 0.378286 0
0.802823 0.374075 0
0.850523 0.369879 0
0.897704 0.365759 0
0.903853 0.368902 0
0.768246 0.398688 0.106584
0.798947 0.398962 0.105943
0.829633 0.399222 0.105272
0.860288 0.399435 0.104585
0.890929 0.399649 0.103853
0.921523 0.399832 0.103075
0.952026 0.400031 0.102174
0.982437 0.400229 0.101152
1 0.400443 0.100023
1 0.400656 0.0987564
0.0578012 0.417639 0.110475
0.0633555 0.428519 0.0878004
0.0617533 0.442908 0.050721
0.0630961 0.457206 0.00526436
0.0800183 0.466209 0
0.114 0.46862 0
0.159472 0.466133 0
0.208469 0.461921 0
0.257359 0.45771 0
0.306157 0.453498 0
0.354864 0.449271 0
0.403494 0.445029 0
0.452049 0.440787 0
0.500557 0.43653 0
0.548974 0.432258 0
0.59733 0.42797 0
0.645594 0.423667 0
0.693767 0.419364 0
0.741817 0.415045 0
0.789715 0.410727 0
0.837369 0.406424 0
0.884581 0.402182 0
0.902068 0.402701 0
0.772946 0.428595 0.106203
0.800443 0.429328 0.109407
0.831037 0.429496 0.10869
0.861616 0.429633 0.107927
0.892164 0.42977 0.107134
0.922698 0.429877 0.106325
0.953216 0.429953 0.105501
0.983688 0.430014 0.104631
1 0.430076 0.103685
1 0.430152 0.102617
0.0591287 0.451148 0.113344
0.0639506 0.462135 0.0896468
0.0621958 0.476387 0.0526284
0.0624094 0.490852 0.007187
0.0758526 0.500923 0
0.105638 0.504845 0
0.147753 0.50367 0
0.196155 0.49958 0
0.244953 0.495247 0
0.29366 0.490898 0
0.342275 0.486564 0
0.390814 0.482216 0
0.439261 0.477852 0
0.487663 0.473487 0
0.535988 0.469108 0
0.584237 0.464729 0
0.632425 0.460319 0
0.680507 0.455924 0
0.728466 0.451499 0
0.776287 0.447089 0
0.823896 0.442695 0
0.871092 0.438331 0
0.893217 0.437522 0
0.782849 0.457511 0.0966354
0.801694 0.459403 0.112596
0.832197 0.45951 0.111818
0.862684 0.459586 0.110994
0.893141 0.459648 0.110155
0.923598 0.459678 0.109285
0.954025 0.459693 0.1084
0.984436 0.459693 0.107485
1 0.459663 0.106554
1 0.459617 0.105577
0.0599985 0.484215 0.11574
0.0641947 0.495308 0.0911879
0.0623026 0.509422 0.0542
0.0616465 0.523964 0.00892653
0.0721904 0.534905 0
0.098085 0.540185 0
0.136736 0.540322 0
0.18349 0.536858 0
0.232181 0.532418 0
0.280797 0.527977 0
0.32932 0.523522 0
0.377768 0.519066 0
0.426139 0.514611 0
0.474449 0.51014 0
0.522683 0.505669 0
0.57084 0.501183 0
0.618936 0.496696 0
0.666941 0.492195 0
0.714839 0.487694 0
0.762585 0.483192 0
0.810132 0.478691 0
0.857298 0.474235 0
0.879271 0.47277 0
0.783734 0.487678 0.0977035
0.802701 0.48925 0.115526
0.833127 0.489281 0.114687
0.863523 0.489296 0.113817
0.893904 0.489281 0.112932
0.924269 0.48925 0.112001
0.954635 0.489204 0.11107
0.98497 0.489143 0.110094
1 0.489052 0.109117
1 0.488945 0.10811
0.0604715 0.516869 0.117723
0.0641489 0.528038 0.0924392
0.0621195 0.542046 0.0555123
0.0607919 0.556619 0.0104829
0.0689097 0.568261 0
0.091249 0.574731 0
0.126452 0.57615 0
0.170642 0.573724 0
0.219074 0.569268 0
0.267597 0.564721 0
0.316045 0.560174 0
0.364401 0.555627 0
0.412711 0.55108 0
0.460929 0.546517 0
0.509087 0.541955 0
0.557168 0.537377 0
0.605173 0.532799 0
0.653117 0.528206 0
0.700923 0.523629 0
0.748608 0.519036 0
0.796109 0.514443 0
0.843198 0.509896 0
0.860929 0.508049 0
0.777111 0.518441 0.11165
0.803479 0.518868 0.118196
0.833814 0.518837 0.117311
0.864149 0.518776 0.116411
0.894453 0.518715 0.115465
0.924758 0.518624 0.114504
0.955032 0.518517 0.113512
0.985306 0.51838 0.112505
1 0.518242 0.111452
1 0.518074 0.110399
0.0606546 0.549142 0.119417
0.063859 0.560372 0.093492
0.0617075 0.574273 0.056611
0.0598306 0.588846 0.0118257
0.0657206 0.601129 0
0.0850538 0.608591 0
0.116884 0.611231 0
0.158297 0.609888 0
0.205707 0.605798 0
0.254124 0.601175 0
0.30248 0.596536 0
0.350774 0.591897 0
0.398993 0.587259 0
0.447135 0.58262 0
0.495232 0.577966 0
0.543236 0.573312 0
0.59118 0.568643 0
0.639033 0.563973 0
0.686763 0.559304 0
0.734386 0.554635 0
0.781811 0.549966 0
0.828779 0.545327 0
0.838209 0.542885 0
0.773754 0.548333 0.121523
0.804044 0.548257 0.120638
0.834302 0.548165 0.119707
0.864546 0.548058 0.118761
0.894789 0.547921 0.117769
0.925017 0.547784 0.116762
0.95523 0.547616 0.11574
0.985443 0.547433 0.114687
1 0.547234 0.113603
1 0.547021 0.112505
0.0606241 0.581033 0.120882
0.0633555 0.592325 0.0943618
0.0610971 0.606134 0.0575113
0.0587778 0.620676 0.0130312
0.0630198 0.633387 0
0.0794232 0.64181 0
0.108049 0.645594 0
0.146639 0.645335 0
0.192111 0.642023 0
0.240406 0.637339 0
0.28867 0.632624 0
0.336873 0.627909 0
0.385031 0.623194 0
0.433097 0.618463 0
0.481117 0.613733 0
0.529046 0.608988 0
0.576913 0.604257 0
0.624704 0.599512 0
0.672389 0.594751 0
0.719951 0.590005 0
0.7673 0.58526 0
0.812741 0.580484 0
0.811231 0.576623 0
0.774182 0.5776 0.123766
0.804395 0.577462 0.122835
0.834592 0.57731 0.121889
0.864775 0.577142 0.120897
0.894942 0.576944 0.119875
0.925109 0.576745 0.118837
0.955245 0.576532 0.117754
0.985397 0.576288 0.11667
1 0.576043 0.115557
1 0.575769 0.114412
0.0605478 0.612512 0.122286
0.0627756 0.623896 0.0951553
0.0603647 0.637629 0.05832
0.0576638 0.65214 0.0141299
0.060502 0.665187 0
0.0743267 0.674434 0
0.0999008 0.679286 0
0.135637 0.680095 0
0.178805 0.677714 0
0.226474 0.673228 0
0.274647 0.668437 0
0.322759 0.663661 0
0.370825 0.658854 0
0.41883 0.654063 0
0.466773 0.649256 0
0.514641 0.64445 0
0.562448 0.639628 0
0.610162 0.634806 0
0.657801 0.629984 0
0.705287 0.625147 0
0.75256 0.620325 0
0.791516 0.614694 0
0.78088 0.608225 0.005066
0.774411 0.606653 0.12578
0.804562 0.606455 0.124834
0.834684 0.606256 0.123842
0.864805 0.606027 0.12282
0.894911 0.605783 0.121767
0.925002 0.605539 0.120699
0.955093 0.605264 0.119585
0.985168 0.604974 0.118456
1 0.604669 0.117311
1 0.604364 0.116136
0.0663005 0.641367 0.128588
0.0623636 0.655009 0.0961166
0.0596323 0.668727 0.0591745
0.0565347 0.683238 0.0151675
0.0581826 0.696559 0
0.069688 0.706538 0
0.0924086 0.712367 0
0.125322 0.714199 0
0.166125 0.712764 0
0.21236 0.708843 0
0.260441 0.70399 0
0.308476 0.699138 0
0.356466 0.694286 0
0.404395 0.689418 0
0.452247 0.684535 0
0.500069 0.679652 0
0.547799 0.674769 0
0.595453 0.669886 0
0.64303 0.664988 0
0.69044 0.660075 0
0.737301 0.655039 0
0.765179 0.646311 0
0.751385 0.63653 0.100114
0.774456 0.635523 0.127596
0.804532 0.635279 0.126604
0.834607 0.635019 0.125597
0.864652 0.634745 0.124544
0.894713 0.634455 0.123476
0.924743 0.63415 0.122362
0.954772 0.633829 0.121218
0.984787 0.633494 0.120073
1 0.633143 0.118883
1 0.632776 0.117678
0.194812 0.622766 0.239826
0.0991073 0.67126 0.131319
0.0598917 0.699092 0.0610056
0.0556649 0.713878 0.0164492
0.0561379 0.727489 0
0.0655375 0.738109 0
0.0855726 0.744854 0
0.11574 0.747677 0
0.154086 0.747173 0
0.198383 0.744045 0
0.246098 0.739284 0
0.294041 0.734371 0
0.341924 0.729458 0
0.389776 0.724529 0
0.437583 0.7196 0
0.485313 0.714656 0
0.532998 0.709697 0
0.580591 0.704738 0
0.628092 0.699748 0
0.675425 0.694728 0
0.717723 0.686641 0
0.737087 0.67306 0
0.744274 0.664515 0.130144
0.774319 0.664225 0.129198
0.804334 0.663935 0.128191
0.834348 0.663615 0.127153
0.864347 0.663294 0.126085
0.894331 0.662959 0.124971
0.924315 0.662593 0.123842
0.954284 0.662226 0.122683
0.984237 0.66186 0.121492
1 0.661463 0.120272
1 0.661051 0.119051
0.253758 0.630426 0.292332
0.257633 0.639628 0.278935
0.166552 0.686809 0.168627
0.0843977 0.732189 0.049546
0.0553292 0.75758 0
0.0617685 0.769223 0
0.0794842 0.776715 0
0.106935 0.780529 0
0.142779 0.780957 0
0.185016 0.778653 0
0.231678 0.774304 0
0.2795 0.769345 0
0.327291 0.764385 0
0.375067 0.759396 0
0.422782 0.754406 0
0.470451 0.749401 0
0.518059 0.744381 0
0.565606 0.73933 0
0.613046 0.734234 0
0.659739 0.725963 0
0.697215 0.710887 0
0.71458 0.693782 0.127337
0.744015 0.693095 0.131579
0.773999 0.69276 0.130602
0.803967 0.692409 0.12958
0.833921 0.692058 0.128511
0.863859 0.691676 0.127428
0.893797 0.691295 0.126299
0.92372 0.690898 0.125139
0.953628 0.690486 0.123949
0.983536 0.690059 0.122744
1 0.689616 0.121508
1 0.689158 0.120256
0.261723 0.657313 0.301244
0.265446 0.666484 0.287633
0.26685 0.676799 0.269337
0.267628 0.687648 0.247227
0.167315 0.740719 0.104463
0.0995193 0.782452 0
0.0804303 0.805264 0
0.0993515 0.812558 0
0.132448 0.814023 0
0.172457 0.812589 0
0.217426 0.808942 0
0.265019 0.804013 0
0.312673 0.799008 0
0.360327 0.793988 0
0.40798 0.788937 0
0.455558 0.783856 0
0.503136 0.778744 0
0.551232 0.772885 0
0.601617 0.76202 0
0.648951 0.745235 0
0.684367 0.725292 0.102724
0.713634 0.721904 0.133776
0.743572 0.721523 0.132815
0.77351 0.721141 0.131823
0.803433 0.720745 0.130785
0.833326 0.720333 0.129702
0.863233 0.719921 0.128588
0.893095 0.719478 0.127443
0.922988 0.719036 0.126268
0.95285 0.718578 0.125063
0.982712 0.71812 0.123842
1 0.717632 0.122576
1 0.717144 0.121279
0.269474 0.683986 0.309926
0.273075 0.693126 0.296147
0.274418 0.703365 0.277867
0.275166 0.714122 0.255909
0.277241 0.724681 0.231876
0.282765 0.734173 0.207965
0.223072 0.77229 0.0923934
0.172183 0.808576 0
0.158556 0.830121 0
0.173831 0.839658 0
0.207889 0.840986 0
0.251835 0.83772 0
0.298772 0.832975 0
0.346456 0.827802 0
0.395178 0.821912 0
0.445838 0.81442 0
0.499184 0.803998 0
0.554253 0.789624 0
0.607843 0.770932 0
0.653101 0.751278 0.134722
0.683146 0.750637 0.13576
0.713069 0.750225 0.134844
0.742962 0.749798 0.133867
0.772854 0.749371 0.13286
0.802731 0.748928 0.131807
0.832593 0.74847 0.130724
0.862425 0.748012 0.129595
0.892271 0.747524 0.12842
0.922087 0.747051 0.12723
0.951904 0.746548 0.126009
0.98172 0.746029 0.124758
1 0.74551 0.123476
1 0.744976 0.122179
0.277012 0.710445 0.318425
0.280491 0.719554 0.304479
0.281804 0.729717 0.286183
0.28246 0.740414 0.264363
0.284245 0.750973 0.240391
0.289082 0.760616 0.21622
0.298772 0.768566 0.194446
0.313466 0.774655 0.175998
0.332967 0.778881 0.161715
0.310124 0.80325 0.0722667
0.303731 0.821454 0
0.318547 0.830549 0
0.348638 0.832593 0
0.388312 0.829786 0
0.434714 0.822904 0
0.485801 0.812222 0
0.539284 0.797986 0.0374456
0.590448 0.782132 0.126894
0.62266 0.779782 0.138415
0.652567 0.779324 0.13756
0.682475 0.778866 0.136675
0.712352 0.778408 0.135744
0.742214 0.777935 0.134768
0.772045 0.777447 0.13373
0.801877 0.776959 0.132677
0.831693 0.776471 0.131563
0.861494 0.775952 0.130419
0.891295 0.775433 0.129244
0.921065 0.774914 0.128038
0.950835 0.774365 0.126802
0.980591 0.773816 0.125521
1 0.773266 0.124224
1 0.772686 0.122911
0.284352 0.736706 0.326711
0.287724 0.745785 0.312612
0.288991 0.755886 0.294331
0.289601 0.766522 0.272633
0.291127 0.777066 0.248707
0.295369 0.786831 0.224414
0.304067 0.795056 0.202029
0.317571 0.801526 0.182696
0.335821 0.806165 0.167208
0.35819 0.809155 0.155795
0.383886 0.810742 0.148272
0.4121 0.8112 0.14432
0.441978 0.810849 0.143328
0.472038 0.810391 0.142748
0.502083 0.809903 0.142138
0.532067 0.80943 0.141466
0.562036 0.808942 0.140764
0.591974 0.808454 0.140002
0.621897 0.807965 0.139193
0.651774 0.807462 0.138338
0.681636 0.806958 0.137423
0.711467 0.806455 0.136477
0.741299 0.80592 0.135485
0.771099 0.805402 0.134447
0.800885 0.804868 0.133379
0.830655 0.804318 0.13225
0.86041 0.803769 0.131106
0.89015 0.80322 0.1299
0.919905 0.80264 0.128695
0.94963 0.80206 0.127428
0.979339 0.80148 0.126146
1 0.800885 0.124834
1 0.800275 0.123491
0.291508 0.762783 0.334844
0.294789 0.771832 0.320607
0.29601 0.781872 0.302327
0.296559 0.792447 0.28072
0.297856 0.802976 0.256901
0.301595 0.812833 0.232471
0.309178 0.821393 0.209308
0.321813 0.828107 0.189441
0.338842 0.833158 0.172915
0.360037 0.836545 0.160266
0.384665 0.838529 0.1514
0.411963 0.839338 0.146105
0.441276 0.839185 0.144091
0.471305 0.838666 0.143481
0.501289 0.838148 0.14284
0.531258 0.837613 0.142153
0.561196 0.837079 0.141421
0.591104 0.836545 0.140642
0.620966 0.835996 0.139818
0.650813 0.835462 0.138949
0.680644 0.834913 0.138018
0.710445 0.834348 0.137057
0.74023 0.833783 0.136065
0.769985 0.833219 0.135012
0.799741 0.832639 0.133913
0.829465 0.832059 0.132784
0.85919 0.831464 0.131624
0.888899 0.830869 0.130419
0.918593 0.830259 0.129183
0.948272 0.829633 0.127916
0.977951 0.829007 0.126619
1 0.828382 0.125292
1 0.827726 0.123934
0.298482 0.788693 0.342779
0.301656 0.797711 0.328405
0.302861 0.807691 0.31014
0.303349 0.818189 0.288655
0.304479 0.828702 0.264927
0.307744 0.838636 0.240421
0.314565 0.847395 0.216876
0.326131 0.854444 0.196262
0.342016 0.859861 0.178759
