src/luts/9.cube
TITLE "Generated by Resolve"
LUT_3D_SIZE 9
0 0 0
0.105699 0 0
0.338735 0 0
0.547341 0 0
0.748104 0 0
0.614206 0.0363928 0.00956741
0.742748 0.0462348 0.00848402
0.869718 0.0545663 0.0059968
0.995453 0.061738 0.00236515
0.00943008 0.126833 0.0511482
0.133059 0.148516 0
0.336278 0.139269 0
0.536187 0.128923 0
0.730053 0.119188 0
0.903639 0.113313 0
0.769024 0.181949 0.0532845
0.891997 0.18732 0.0469368
1 0.191959 0.040116
0.0456245 0.278447 0.0921492
0.104356 0.317311 0
0.302281 0.30341 0
0.499199 0.288808 0
0.694804 0.273671 0
0.887678 0.258381 0
0.791714 0.306554 0.0922713
0.913451 0.309407 0.0870832
1 0.312154 0.0800183
0.0578012 0.417639 0.110475
0.0800183 0.466209 0
0.257359 0.45771 0
0.452049 0.440787 0
0.645594 0.423667 0
0.837369 0.406424 0
0.800443 0.429328 0.109407
0.922698 0.429877 0.106325
1 0.430152 0.102617
0.0606546 0.549142 0.119417
0.0657206 0.601129 0
0.205707 0.605798 0
0.398993 0.587259 0
0.59118 0.568643 0
0.781811 0.549966 0
0.804044 0.548257 0.120638
0.925017 0.547784 0.116762
1 0.547021 0.112505
0.194812 0.622766 0.239826
0.0561379 0.727489 0
0.154086 0.747173 0
0.341924 0.729458 0
0.532998 0.709697 0
0.717723 0.686641 0
0.804334 0.663935 0.128191
0.924315 0.662593 0.123842
1 0.661051 0.119051
0.277012 0.710445 0.318425
0.284245 0.750973 0.240391
0.332967 0.778881 0.161715
0.348638 0.832593 0
0.539284 0.797986 0.0374456
0.682475 0.778866 0.136675
0.801877 0.776959 0.132677
0.921065 0.774914 0.128038
1 0.772686 0.122911
0.305287 0.814435 0.350576
0.310964 0.854261 0.272801
0.345327 0.886305 0.184726
0.439902 0.895155 0.146181
0.55903 0.892943 0.142306
0.678218 0.890425 0.138781
0.79704 0.887816 0.134585
0.915602 0.88513 0.129763
1 0.882307 0.124422
0.33109 0.915785 0.380346
0.335943 0.954849 0.303197
0.359655 0.989731 0.209369
0.438834 1 0.15436
0.553048 1 0.142504
0.671763 1 0.138689
0.790112 0.996826 0.13431
0.908202 0.993545 0.129351
1 0.990204 0.123873
0 0 0.105669
0.120729 0 0.173541
0.351751 0 0.173449
0.560754 0 0.14432
0.760723 0 0.116442
0.859068 0 0.098497
0.752453 0.0464179 0.119677
0.878752 0.0544594 0.116152
1 0.061387 0.111727
0.00730907 0.134188 0.153841
0.138445 0.14583 0.16556
0.334096 0.137163 0.157427
0.530739 0.128038 0.128527
0.725277 0.1178 0.0991531
0.91664 0.107073 0.069749
0.770916 0.1841 0.15172
0.89424 0.188983 0.145922
1 0.193225 0.139498
0.0593729 0.277623 0.196963
0.175631 0.286397 0.204379
0.300038 0.298604 0.140352
0.497032 0.283726 0.119677
0.691814 0.268833 0.0958724
0.881361 0.255268 0.0659342
0.993729 0.259983 0.0744335
0.908537 0.312947 0.180041
1 0.315785 0.171191
0.0892195 0.408667 0.229816
0.18558 0.421195 0.221042
0.253971 0.452338 0.102068
0.448859 0.435126 0.0823224
0.64271 0.417807 0.0601511
0.835508 0.400259 0.0373541
1 0.382895 0.015671
0.923095 0.429969 0.211505
1 0.430991 0.204578
0.111376 0.531838 0.255573
0.185107 0.550652 0.226932
0.212879 0.594934 0.0756237
0.394965 0.581323 0.0380865
0.587488 0.562509 0.016495
0.779004 0.543648 0
0.968734 0.524819 0
0.925872 0.547143 0.223224
1 0.546273 0.218784
0.125582 0.65069 0.274876
0.180011 0.675288 0.228092
0.187091 0.725093 0.0668193
0.336828 0.723537 0
0.52842 0.703563 0
0.71902 0.683604 0
0.908064 0.663661 0
0.924758 0.661692 0.230213
1 0.660075 0.225238
0.324697 0.696818 0.415991
0.290684 0.75021 0.330739
0.169451 0.847471 0.0642252
0.278447 0.861158 0
0.466651 0.841489 0
0.656428 0.82063 0
0.832349 0.792752 0
0.921233 0.77377 0.234318
1 0.771496 0.229038
0.357137 0.798642 0.453239
0.388495 0.825849 0.423911
0.394263 0.865827 0.340551
0.448127 0.890394 0.265156
0.481483 0.93402 0.0589151
0.670207 0.895384 0.207599
0.79707 0.886534 0.240757
0.915572 0.883787 0.235904
1 0.880919 0.230472
0.385901 0.898405 0.486885
0.413352 0.926314 0.45272
0.417273 0.965866 0.370047
0.455817 0.995239 0.283894
0.553017 1 0.248661
0.67158 0.998657 0.244556
0.789944 0.995377 0.240269
0.907973 0.99205 0.235325
1 0.988647 0.229801
0 0 0.257542
0.120867 0 0.339467
0.350103 0 0.369268
0.564111 0 0.356344
0.770413 0 0.32282
0.964721 0 0.286473
0.76289 0.0456703 0.23595
0.888747 0.0534676 0.230564
1 0.0601968 0.224826
0 0.141772 0.282307
0.135073 0.146609 0.319844
0.334157 0.131746 0.354681
0.539239 0.119203 0.328313
0.735241 0.108904 0.290211
0.926726 0.0981765 0.256153
0.904494 0.14725 0.247791
0.902266 0.187778 0.25539
1 0.191943 0.248203
0.054139 0.28278 0.296666
0.173907 0.289952 0.304799
0.296971 0.295155 0.310079
0.492226 0.280324 0.290593
0.684169 0.266865 0.257954
0.874662 0.25301 0.225406
1 0.239231 0.193286
0.909148 0.314366 0.277134
1 0.316793 0.268971
0.0910048 0.410773 0.325719
0.205829 0.416037 0.331533
0.312688 0.423545 0.330877
0.445548 0.429358 0.263432
0.639628 0.411872 0.240192
0.831769 0.394644 0.214282
1 0.378958 0.182635
1 0.403159 0.239582
1 0.433936 0.297124
0.112627 0.533318 0.350637
0.225086 0.537118 0.354696
0.309682 0.55108 0.334432
0.390875 0.57525 0.218021
0.583627 0.556222 0.196338
0.77554 0.537224 0.172519
0.966491 0.518105 0.148333
1 0.499413 0.12578
1 0.545922 0.323522
0.130343 0.650355 0.37145
0.239368 0.653651 0.373434
0.301991 0.674586 0.333043
0.338674 0.714244 0.179644
0.523903 0.697139 0.147295
0.714885 0.677028 0.124361
0.904952 0.656931 0.100542
1 0.636988 0.0777447
1 0.659068 0.331334
0.336614 0.697246 0.479179
0.245869 0.768154 0.386221
0.29192 0.794415 0.329366
0.303243 0.841764 0.162661
0.461158 0.835187 0.0953689
0.651484 0.814145 0.0729534
0.840894 0.793164 0.049836
1 0.77229 0.0281834
1 0.770275 0.335119
0.376226 0.796033 0.521675
0.439109 0.810422 0.525383
0.383124 0.871168 0.417105
0.27866 0.961578 0.15494
0.397833 0.969909 0.0447089
0.586145 0.948791 0.0201114
0.774884 0.927077 0
0.938537 0.893736 0.16228
1 0.879515 0.336492
0.411658 0.892927 0.560815
0.467506 0.909072 0.55874
0.494881 0.93669 0.524346
0.500298 0.975967 0.43682
0.559258 0.997513 0.365057
0.610407 1 0.196246
0.789731 0.993912 0.346181
0.907744 0.990524 0.341283
1 0.987076 0.335729
0 0 0.41062
0.120455 0 0.489326
0.343557 0 0.543801
0.559319 0 0.547311
0.767483 0 0.530709
0.968902 0 0.497093
0.771603 0.0445106 0.35935
0.898146 0.0519265 0.350561
1 0.0584421 0.342275
0 0.145846 0.423026
0.134524 0.146975 0.466835
0.322515 0.133104 0.516899
0.533242 0.114885 0.524254
0.737072 0.100374 0.49987
0.934813 0.0880751 0.459083
1 0.0818952 0.416983
0.911223 0.185672 0.369955
1 0.189807 0.361196
0.0348516 0.290059 0.414923
0.157702 0.295064 0.430961
0.294774 0.292988 0.463264
0.49189 0.272801 0.488182
0.691844 0.256779 0.454475
0.883314 0.243153 0.414206
1 0.22945 0.377905
0.927565 0.309331 0.385
1 0.31487 0.377386
0.0839094 0.415152 0.424216
0.200458 0.419669 0.429526
0.316854 0.423545 0.434333
0.436744 0.425772 0.438407
0.633234 0.407935 0.40943
0.822721 0.392187 0.374899
1 0.376272 0.340581
1 0.360708 0.30695
1 0.434913 0.393225
0.113832 0.534752 0.445701
0.226032 0.538415 0.449821
0.338598 0.541482 0.453498
0.433692 0.550851 0.441032
0.57966 0.549874 0.376837
0.771893 0.530724 0.35198
0.962264 0.511971 0.324697
1 0.49485 0.291997
1 0.542321 0.406241
0.131319 0.651331 0.465644
0.240589 0.654337 0.468269
0.351385 0.656489 0.470741
0.423804 0.673274 0.437369
0.519341 0.690608 0.326818
0.710567 0.670314 0.303746
0.901091 0.65008 0.278752
1 0.629862 0.253559
1 0.61088 0.233494
0.33994 0.700755 0.53669
0.252796 0.7664 0.484154
0.359533 0.76875 0.484245
0.41146 0.792432 0.431479
0.459464 0.826917 0.279927
0.646616 0.80737 0.251225
0.836423 0.786252 0.227283
1 0.765225 0.202594
1 0.744442 0.179416
0.379324 0.799252 0.578943
0.452796 0.809674 0.589822
0.360067 0.880201 0.49192
0.39762 0.90866 0.424292
0.415778 0.95285 0.255421
0.580331 0.942199 0.196384
0.769665 0.920317 0.173114
0.958083 0.898558 0.149279
1 0.876921 0.128664
0.41619 0.895338 0.618799
0.488777 0.90518 0.628946
0.548562 0.919509 0.63006
0.472648 0.987213 0.49958
0.385183 1 0.243275
0.513298 1 0.14197
0.701427 1 0.117968
0.889311 1 0.095201
1 0.990845 0.352438
0 0 0.570977
0.12134 0 0.636698
0.333089 0 0.700435
0.552956 0 0.724941
0.76083 0 0.718563
0.910384 0 0.664088
0.775204 0.0443732 0.485679
0.904402 0.0505684 0.476326
1 0.0565042 0.465339
0 0.148257 0.566354
0.133883 0.147189 0.61294
0.312963 0.135439 0.661234
0.524025 0.113542 0.698375
0.729335 0.096437 0.691005
0.930831 0.0809491 0.666789
1 0.0692912 0.625635
0.918791 0.183185 0.491524
1 0.187152 0.479652
0.0211795 0.294377 0.544518
0.148363 0.296712 0.569924
0.292363 0.291585 0.608515
0.479713 0.271885 0.654108
0.685069 0.250736 0.652491
0.885267 0.233219 0.622553
1 0.218402 0.578622
1 0.223163 0.530678
1 0.312047 0.490898
0.0614939 0.422446 0.537896
0.179812 0.425864 0.546365
0.299489 0.427665 0.559594
0.436088 0.422049 0.589914
0.633173 0.399161 0.607401
0.829938 0.38146 0.568872
1 0.365911 0.527687
1 0.350423 0.49012
1 0.432502 0.501595
0.105409 0.538705 0.543359
0.219089 0.541772 0.547204
0.333501 0.544152 0.550378
0.447959 0.546075 0.55317
0.567178 0.546242 0.554726
0.764309 0.526497 0.519951
0.952178 0.509224 0.484215
1 0.49192 0.448737
1 0.475151 0.414084
0.173907 0.640162 0.557183
0.241184 0.655192 0.562799
0.351766 0.657267 0.565362
0.462821 0.658839 0.567605
0.544396 0.672007 0.538277
0.706142 0.663523 0.483787
0.897032 0.643183 0.457755
1 0.623316 0.429496
1 0.605142 0.396048
0.343145 0.704265 0.594186
0.253193 0.766964 0.577951
0.361425 0.768627 0.57937
0.471046 0.769574 0.580682
0.530739 0.790097 0.532143
0.641688 0.800473 0.430442
0.831754 0.779217 0.406271
1 0.758068 0.380377
1 0.736965 0.354437
0.3823 0.802487 0.636164
0.455756 0.812818 0.646967
0.369574 0.877012 0.591592
0.473701 0.878965 0.58967
0.515297 0.905699 0.523812
0.576364 0.934539 0.377401
0.764492 0.913268 0.351049
0.953368 0.891371 0.326314
1 0.869581 0.300954
0.418967 0.898329 0.675807
0.491753 0.908034 0.685985
0.564309 0.917571 0.696025
0.469368 0.988083 0.593072
0.498833 1 0.514473
0.52549 1 0.345876
0.695384 1 0.293889
0.883879 1 0.269932
1 1 0.245518
0 0 0.443931
0.122316 0 0.780957
0.323644 0 0.845655
0.54107 0 0.88896
0.752926 0 0.894789
0.643656 0.0406195 0.601938
0.775204 0.0458839 0.604517
0.905959 0.0505989 0.600732
1 0.0552377 0.591592
0 0.149859 0.709026
0.13315 0.147295 0.757519
0.30724 0.136645 0.803388
0.510109 0.115206 0.85507
0.721218 0.0938888 0.868025
0.921981 0.0771496 0.854688
1 0.0953231 0.770657
0.921553 0.181659 0.616892
1 0.184649 0.60412
0.0110781 0.296895 0.679789
0.142306 0.296941 0.71194
0.289906 0.290135 0.753048
0.467369 0.27306 0.798764
0.675486 0.247745 0.827695
0.876402 0.228016 0.815091
1 0.209979 0.786618
1 0.203449 0.734569
1 0.308827 0.611276
0.0465858 0.426657 0.658976
0.164965 0.429023 0.675151
0.289494 0.428183 0.698024
0.432609 0.419837 0.734188
0.621195 0.396735 0.776806
0.823178 0.374228 0.768856
1 0.355077 0.734813
1 0.338781 0.689097
1 0.362539 0.635264
0.104051 0.540398 0.64184
0.19585 0.548363 0.659831
0.312062 0.549706 0.666255
0.429877 0.549584 0.677897
0.567285 0.541375 0.70753
0.764828 0.516793 0.718013
0.958999 0.498146 0.67599
1 0.481239 0.634394
1 0.464515 0.596033
0.297917 0.608728 0.609003
0.232959 0.658396 0.659632
0.345159 0.659876 0.661921
0.458137 0.660807 0.663661
0.571283 0.661357 0.665064
0.692119 0.659632 0.663035
0.888533 0.638788 0.624796
1 0.620371 0.588159
1 0.60206 0.551766
0.345678 0.707927 0.651743
0.267247 0.7635 0.671
0.361578 0.76907 0.673518
0.471031 0.76997 0.674937
0.580957 0.770443 0.676112
0.651621 0.787228 0.628473
0.826978 0.772107 0.585946
1 0.750851 0.55903
1 0.730114 0.530007
0.385199 0.805707 0.693385
0.458595 0.815961 0.704128
0.369543 0.877241 0.685084
0.476982 0.877882 0.685588
0.585626 0.877928 0.685969
0.633036 0.902525 0.620951
0.759289 0.906081 0.530022
0.94844 0.884062 0.504967
1 0.862165 0.47837
0.421668 0.90132 0.732799
0.494408 0.910964 0.742916
0.566964 0.920439 0.75288
0.48191 0.983398 0.694942
0.583124 0.985321 0.690776
0.615076 1 0.611399
0.690044 1 0.472648
0.878477 1 0.447593
1 0.993118 0.422171
0 0 0.521813
0.103944 0.0190738 0.570718
0.232654 0.0303807 0.622126
0.370504 0.0353246 0.668788
0.509911 0.03888 0.696941
0.644739 0.0432288 0.710262
0.775158 0.0479591 0.71635
0.905303 0.0518959 0.717784
1 0.055375 0.713893
0.0561379 0.156786 0.565957
0.147005 0.158679 0.745312
0.303059 0.137392 0.943679
0.496864 0.117784 0.999176
0.70753 0.0941482 1
0.912535 0.0746471 1
0.792676 0.180209 0.737011
0.920455 0.181857 0.735485
1 0.18352 0.728084
0.116411 0.287724 0.589471
0.138048 0.296529 0.853819
0.28748 0.288716 0.896269
0.459251 0.273274 0.939574
0.660502 0.24799 0.985901
0.867689 0.224247 0.992416
1 0.205188 0.975326
1 0.238117 0.861128
1 0.306447 0.73611
0.174334 0.405219 0.613367
0.153765 0.430426 0.809888
0.282628 0.427359 0.83975
0.429206 0.417578 0.877943
0.607065 0.397253 0.922835
0.813489 0.370184 0.945251
1 0.349004 0.929046
1 0.329427 0.897322
1 0.33463 0.830396
0.231098 0.513802 0.642023
0.17995 0.551904 0.780453
0.296513 0.552209 0.794644
0.419608 0.549355 0.816159
0.562875 0.538735 0.850965
0.75314 0.513252 0.890578
0.952651 0.489937 0.877714
1 0.469764 0.840314
1 0.452461 0.793454
0.286793 0.615991 0.675029
0.212146 0.664179 0.767437
0.321386 0.66601 0.77377
0.436179 0.665934 0.778759
0.552743 0.664439 0.789334
0.691783 0.653986 0.819104
0.889723 0.628367 0.822492
1 0.609094 0.778042
1 0.59118 0.736187
0.342061 0.713191 0.711116
0.417411 0.723766 0.722164
0.353674 0.771679 0.769711
0.464805 0.771984 0.77084
0.576715 0.771832 0.771511
0.688853 0.771359 0.771878
0.813581 0.767575 0.765286
1 0.746303 0.725338
1 0.727031 0.687953
0.386923 0.809232 0.750744
0.460868 0.819242 0.761318
0.371267 0.876951 0.7785
0.476783 0.878019 0.779431
0.585351 0.877989 0.779965
0.694392 0.877592 0.780285
0.75993 0.896239 0.71783
0.943389 0.876707 0.684337
1 0.854704 0.656718
0.424308 0.904311 0.789792
0.497002 0.913878 0.799847
0.569528 0.923293 0.80975
0.481544 0.983368 0.788205
0.588342 0.983185 0.78793
0.695689 0.982666 0.787289
0.73257 1 0.705623
0.873045 1 0.626337
1 0.985595 0.600534
0 0.00749218 0.615076
0.109804 0.0259098 0.66128
0.234928 0.0368963 0.710384
0.368566 0.041825 0.759106
0.507134 0.0440833 0.795148
0.643732 0.0466316 0.815045
0.775921 0.0499886 0.824674
0.904845 0.0535897 0.829084
1 0.0564584 0.829587
0.0592966 0.161563 0.655253
0.163714 0.17293 0.694179
0.274998 0.180667 0.731273
0.396231 0.183368 0.775006
0.528328 0.182071 0.814328
0.662379 0.180957 0.836027
0.792462 0.181445 0.84448
0.919112 0.182788 0.846799
1 0.183749 0.844846
0.116381 0.291997 0.674983
0.208621 0.302571 0.710231
0.291234 0.293233 0.961364
0.453193 0.272969 1
0.645594 0.249485 1
0.853468 0.223255 1
1 0.201755 1
0.927214 0.306233 0.8589
1 0.305852 0.854841
0.170443 0.409949 0.695109
0.255146 0.420905 0.720592
0.277516 0.425971 0.981369
0.425849 0.415381 1
0.597238 0.397024 1
0.798108 0.369451 1
1 0.344427 1
1 0.323949 1
1 0.374701 0.941405
0.224964 0.519127 0.717403
0.304356 0.530327 0.736278
0.284703 0.552911 0.929183
0.412329 0.547829 0.957885
0.55877 0.535988 0.994141
0.737819 0.513222 1
0.942885 0.485145 1
1 0.462959 1
1 0.442374 1
0.277409 0.622248 0.74548
0.354971 0.633021 0.75903
0.304799 0.669093 0.894087
0.420157 0.667948 0.90695
0.542367 0.66363 0.927672
0.68632 0.651179 0.961654
0.878325 0.623911 0.997986
1 0.600061 0.981094
1 0.579217 0.940826
0.330861 0.720104 0.776028
0.405951 0.730602 0.787579
0.330205 0.777646 0.87808
0.440681 0.777768 0.882002
0.554406 0.776638 0.885908
0.670054 0.774075 0.895781
0.811444 0.761517 0.926162
1 0.735363 0.922194
1 0.715633 0.876112
0.382712 0.814298 0.809949
0.457237 0.824079 0.820203
0.531563 0.833677 0.830289
0.469245 0.880125 0.875105
0.579538 0.87953 0.875334
0.690593 0.878508 0.875166
0.801877 0.877226 0.874739
0.932357 0.871199 0.862654
1 0.850034 0.822461
0.425208 0.907759 0.847013
0.498573 0.917067 0.856886
0.571618 0.926268 0.866667
0.481834 0.983139 0.881437
0.587854 0.983063 0.881544
0.69572 0.982284 0.881361
0.804028 0.98117 0.880995
0.869108 1 0.808057
1 0.978012 0.77966
0 0.0154269 0.707301
0.115297 0.0322423 0.751492
0.23769 0.0428779 0.79855
0.367498 0.0480049 0.847303
0.503868 0.0496529 0.888808
0.641016 0.050782 0.915679
0.775067 0.0526436 0.93022
0.905257 0.0551919 0.937346
1 0.0578317 0.940475
0.062501 0.16611 0.74435
0.167117 0.176852 0.782452
0.27747 0.184451 0.818662
0.395758 0.187716 0.861006
0.524315 0.186786 0.903639
0.658198 0.184558 0.933639
0.790402 0.18349 0.948577
0.91873 0.183734 0.954391
1 0.184466 0.955703
0.116686 0.295933 0.761532
0.210147 0.305684 0.797894
0.310704 0.312596 0.832197
0.418845 0.316457 0.866285
0.537835 0.315679 0.90724
0.672419 0.309102 0.953033
0.798886 0.308217 0.960479
0.926253 0.306706 0.966003
1 0.306096 0.966049
0.167803 0.414099 0.778256
0.25417 0.42417 0.805325
0.344015 0.431952 0.838315
0.424521 0.415579 1
0.589837 0.396201 1
0.782147 0.37026 1
0.988235 0.34255 1
1 0.319936 1
1 0.423941 0.972717
0.219379 0.523903 0.796048
0.29984 0.534356 0.817456
0.382757 0.543374 0.841215
0.406744 0.545785 1
0.554757 0.533272 1
0.726543 0.512749 1
0.927428 0.483604 1
1 0.457816 1
1 0.436332 1
0.270558 0.627451 0.818372
0.348287 0.637827 0.833936
0.426215 0.647578 0.851469
0.407965 0.668147 1
0.534859 0.66157 1
0.681605 0.648112 1
0.862226 0.623346 1
1 0.594675 1
1 0.571756 1
0.319966 0.726452 0.84538
0.396078 0.736461 0.857588
0.472435 0.746075 0.870008
0.423575 0.780529 1
0.538048 0.778271 1
0.659693 0.772793 1
0.8047 0.758755 1
0.998306 0.730114 1
1 0.705882 1
0.371572 0.820905 0.873991
0.445808 0.83064 0.884611
0.51989 0.840177 0.895201
0.445304 0.885847 0.983017
0.555184 0.885023 0.985855
0.66807 0.883055 0.988907
0.783017 0.879622 0.99826
0.927428 0.865003 1
1 0.838712 1
0.420508 0.912657 0.906065
0.494347 0.921782 0.915694
0.568002 0.930739 0.925139
0.61944 0.945556 0.939971
0.580713 0.984741 0.976776
0.690333 0.983398 0.976272
0.800656 0.981674 0.975418
0.911131 0.979751 0.974411
1 0.971374 0.956283
