src/luts/blackmagic.cube
TITLE "Generated by Resolve"
LUT_3D_SIZE 9
0.00953689 0.057435 0.0935531
0.00552377 0.024918 0.0603189
0.106401 0.0269169 0.0792554
0.248188 0.0278019 0.0987106
0.40351 0.020264 0.105715
0.549981 0.0128023 0.10634
0.688106 0.00584421 0.104494
0.811353 0.00170901 0.10251
0.922438 0 0.101259
0.00746166 0.178363 0.144945
0.0124056 0.141207 0.118929
0.160433 0.127245 0.112535
0.316716 0.119112 0.106584
0.474769 0.110155 0.0989853
0.613626 0.106447 0.0942855
0.739101 0.10631 0.0915847
0.849256 0.110216 0.0914168
0.949905 0.116793 0.0955367
0 0.315221 0.150134
0 0.275196 0.127565
0.183627 0.245502 0.11783
0.34432 0.235554 0.109957
0.486473 0.232654 0.0883192
0.620127 0.230564 0.0853132
0.743572 0.230884 0.0853437
0.856123 0.233967 0.0889906
0.959335 0.239841 0.0954452
0 0.445121 0.144137
0 0.407172 0.118929
0.18172 0.373129 0.106874
0.34229 0.3635 0.0975509
0.526757 0.342977 0.123812
0.621286 0.355978 0.0847181
0.742107 0.357671 0.0813611
0.857069 0.360067 0.0849775
0.962066 0.365164 0.092256
0 0.573205 0.138399
0 0.535286 0.113024
0.170962 0.503578 0.0915999
0.33669 0.492271 0.0836347
0.480812 0.487236 0.0784772
0.674083 0.461906 0.12636
0.78352 0.466972 0.122087
0.860288 0.484825 0.0869764
0.954253 0.49192 0.08748
0 0.700633 0.133577
0 0.66302 0.107561
0.163363 0.632563 0.0834363
0.329274 0.621271 0.0749981
0.474113 0.615854 0.0704509
0.606607 0.613825 0.0686809
0.785321 0.593637 0.109102
0.934005 0.582101 0.153689
1 0.593988 0.146929
0 0.825605 0.134035
0 0.78883 0.106691
0.157122 0.760983 0.0777295
0.320928 0.750607 0.0674144
0.465461 0.745144 0.062974
0.597772 0.742977 0.0620127
0.721706 0.742931 0.0643778
0.8663 0.734737 0.0875105
1 0.714656 0.147875
0 0.949584 0.137438
0 0.913085 0.109804
0.156542 0.887129 0.0794537
0.315831 0.878019 0.0661936
0.457893 0.873503 0.0606851
0.589532 0.871534 0.0598764
0.712718 0.871626 0.0630503
0.829206 0.873365 0.0694285
0.92752 0.876051 0.0792706
0 1 0.137377
0 1 0.110704
0.158618 1 0.0840925
0.315129 1 0.0715038
0.454063 1 0.065095
0.583337 0.998901 0.0636301
0.705028 0.999405 0.0659648
0.82092 0.997864 0.0710765
0.915434 0.997375 0.0777752
0.00550851 0.0634165 0.152773
0.00457771 0.0308843 0.113115
0.115236 0.0288701 0.125856
0.256229 0.0289006 0.149722
0.412131 0.0203403 0.16318
0.558755 0.0124056 0.168429
0.696941 0.00529488 0.171298
0.820279 0.00109865 0.173617
0.930709 0.000656138 0.176638
0 0.185061 0.221622
0.004654 0.147387 0.18941
0.16466 0.131594 0.174731
0.319097 0.122072 0.181292
0.477821 0.112108 0.179477
0.617227 0.108354 0.177157
0.742779 0.107988 0.176684
0.854597 0.111864 0.1785
0.956024 0.118257 0.182406
0 0.318654 0.239063
0 0.279057 0.213397
0.191455 0.246921 0.2009
0.334508 0.242267 0.191791
0.484092 0.236042 0.18114
0.621683 0.232807 0.176318
0.746456 0.232715 0.175784
0.861234 0.235767 0.177798
0.966079 0.241215 0.182589
0 0.447303 0.23563
0 0.409445 0.210254
0.188312 0.374014 0.198047
0.344045 0.365103 0.194491
0.493126 0.358007 0.191669
0.619776 0.359426 0.173068
0.744549 0.359472 0.172091
0.861295 0.361837 0.173816
0.967712 0.366369 0.17879
0 0.57554 0.229908
0 0.537697 0.20441
0.174655 0.505272 0.18439
0.341451 0.492973 0.181964
0.482689 0.489174 0.17322
0.664698 0.467903 0.213611
0.750668 0.483146 0.177798
0.857588 0.489448 0.168292
0.959121 0.493584 0.173053
0 0.703319 0.223987
0 0.665629 0.198077
0.165301 0.634791 0.174868
0.331533 0.623346 0.166888
0.476051 0.61799 0.162371
0.608545 0.615946 0.159915
0.793164 0.593301 0.207233
0.916136 0.592111 0.225101
0.976532 0.610773 0.195132
0 0.82887 0.222049
0 0.791943 0.194888
0.15758 0.763836 0.167117
0.322179 0.75317 0.157458
0.46688 0.747417 0.152972
0.599298 0.745525 0.151003
0.723873 0.745403 0.151385
0.881773 0.732708 0.181384
1 0.71722 0.233951
0 0.953079 0.223438
0 0.91632 0.196017
0.154818 0.89073 0.165194
0.31487 0.881788 0.151949
0.457755 0.876707 0.146212
0.589868 0.875013 0.14432
0.713939 0.874937 0.145663
0.831449 0.876707 0.150118
0.932692 0.877928 0.160464
0 1 0.22266
0 1 0.195697
0.156817 1 0.168002
0.312871 1 0.154162
0.45214 1 0.146593
0.5823 1 0.14403
0.705043 1 0.145281
0.82211 1 0.149676
0.916594 0.999527 0.15613
0.000198367 0.0685893 0.223468
0.00190738 0.035996 0.176226
0.126543 0.029984 0.194232
0.26772 0.0294041 0.223514
0.423148 0.0200656 0.245945
0.569131 0.0118563 0.256016
0.706401 0.00471504 0.261814
0.829084 0.00062562 0.265049
0.938247 0.0011902 0.267811
0 0.190951 0.312367
0 0.153079 0.274128
0.172198 0.132967 0.257664
0.323857 0.124208 0.26598
0.480369 0.114122 0.271962
0.619989 0.109834 0.271763
0.745373 0.109636 0.271489
0.858656 0.11313 0.272312
0.961425 0.119203 0.274708
0 0.321752 0.333822
0 0.283177 0.306584
0.191897 0.250919 0.277546
0.331029 0.247059 0.275685
0.480354 0.239719 0.274449
0.622736 0.234745 0.271397
0.74815 0.234684 0.270756
0.864775 0.237079 0.271733
0.971649 0.242069 0.274861
0 0.449332 0.330816
0 0.411597 0.305196
0.192508 0.375753 0.286976
0.350271 0.365194 0.29398
0.48069 0.364996 0.278965
0.618982 0.362066 0.269322
0.745953 0.361563 0.267109
0.864027 0.363394 0.267933
0.972213 0.367529 0.271046
0 0.577508 0.325124
0 0.539513 0.299565
0.179248 0.506172 0.280278
0.34789 0.492958 0.281773
0.485786 0.489448 0.278782
0.633524 0.481956 0.284749
0.741421 0.489357 0.262181
0.859739 0.49131 0.262226
0.962707 0.495018 0.265141
0 0.705425 0.318685
0 0.667704 0.292805
0.167163 0.636591 0.2701
0.334554 0.624537 0.263722
0.478706 0.619242 0.261006
0.610437 0.617502 0.25626
0.789319 0.596872 0.303181
0.880598 0.608728 0.283436
0.955276 0.622156 0.261814
0 0.831449 0.314717
0 0.794476 0.2878
0.158358 0.766049 0.261341
0.323751 0.754849 0.252461
0.468605 0.749386 0.24828
0.600931 0.747311 0.246098
0.725536 0.747524 0.24535
0.895399 0.730083 0.284657
1 0.722347 0.321096
0 0.955962 0.314076
0 0.919112 0.286717
0.153628 0.89398 0.256306
0.314641 0.884428 0.244053
0.458228 0.879194 0.238712
0.590631 0.877348 0.236439
0.715099 0.877409 0.236454
0.833173 0.87924 0.238605
0.939818 0.878599 0.249668
0 1 0.312474
0 1 0.285298
0.154803 1 0.256672
0.31043 1 0.242054
0.450233 1 0.234104
0.581155 1 0.230884
0.704707 1 0.230915
0.822797 1 0.233814
0.917662 1 0.239094
0 0.073167 0.307088
0 0.0405432 0.248859
0.135668 0.0311437 0.270405
0.28127 0.0284276 0.307485
0.433646 0.0195468 0.334295
0.578592 0.0113069 0.348104
0.714336 0.00437934 0.355947
0.835889 0.000564584 0.359701
0.943893 0.00201419 0.361822
0 0.194995 0.408804
0 0.157626 0.369284
0.176745 0.133974 0.353277
0.332158 0.124224 0.357916
0.484962 0.114916 0.367422
0.622141 0.111315 0.368688
0.747036 0.111482 0.368505
0.861677 0.114321 0.368612
0.965667 0.120607 0.369787
0 0.32401 0.431327
0 0.286198 0.404273
0.188052 0.254536 0.37113
0.336996 0.248554 0.35996
0.480339 0.24239 0.36585
0.623163 0.236927 0.367941
0.749554 0.23653 0.367697
0.867109 0.238514 0.368475
0.976013 0.243061 0.370367
0 0.45124 0.428183
0 0.41355 0.402274
0.191989 0.378637 0.376638
0.351888 0.369009 0.369223
0.480629 0.367819 0.369177
0.614603 0.365423 0.366735
0.746777 0.363531 0.364218
0.865797 0.365255 0.364691
0.975235 0.368856 0.366888
0 0.579202 0.422339
0 0.541344 0.396612
0.181552 0.50782 0.375357
0.354498 0.493523 0.375769
0.498146 0.486976 0.384482
0.612665 0.491615 0.36875
0.741207 0.491447 0.359823
0.861158 0.493004 0.359243
0.964858 0.496452 0.361105
0 0.707073 0.415641
0 0.669505 0.3897
0.168994 0.63827 0.367086
0.340612 0.624613 0.363943
0.484535 0.618738 0.366857
0.613886 0.617548 0.363516
0.768154 0.606561 0.386099
0.85655 0.620722 0.354711
0.953338 0.625223 0.353872
0 0.833417 0.410056
0 0.796521 0.383444
0.159548 0.768109 0.358022
0.32546 0.756527 0.349783
0.470832 0.750729 0.346136
0.603265 0.748745 0.34432
0.727443 0.749081 0.343282
0.900313 0.730175 0.38851
0.998474 0.732311 0.400366
0 0.958419 0.407401
0 0.921691 0.38024
0.153414 0.896284 0.350973
0.315251 0.886473 0.339879
0.459358 0.88127 0.335073
0.592401 0.879149 0.332906
0.716518 0.879316 0.332403
0.834562 0.881025 0.333364
0.949737 0.877577 0.348379
0 1 0.405112
0 1 0.377722
0.153216 1 0.348775
0.309514 1 0.333684
0.449424 1 0.326757
0.580804 1 0.323598
0.70486 1 0.323156
0.823484 1 0.324666
0.918624 1 0.328252
0 0.0771496 0.394446
0 0.0443275 0.330846
0.144579 0.0312047 0.358846
0.294606 0.0267338 0.400351
0.443748 0.0188602 0.4271
0.586816 0.0108339 0.443763
0.720729 0.00433356 0.452781
0.840848 0.0010071 0.456413
0.947616 0.0031281 0.457572
0 0.197803 0.505913
0 0.160815 0.46508
0.179858 0.134295 0.458778
0.340261 0.123461 0.461006
0.489006 0.115846 0.466514
0.623987 0.11284 0.467109
0.748562 0.112795 0.466758
0.86363 0.115999 0.466438
0.96878 0.121706 0.466636
0 0.325795 0.530358
0 0.287999 0.503349
0.185931 0.25684 0.473472
0.344152 0.248371 0.458518
0.486259 0.243153 0.46009
0.624475 0.238697 0.465614
0.750744 0.238148 0.465995
0.868925 0.240101 0.466728
0.978943 0.244465 0.468009
0 0.452857 0.526864
0 0.414969 0.500816
0.188006 0.382132 0.472694
0.351583 0.372473 0.453956
0.483619 0.370382 0.454032
0.613275 0.368231 0.460472
0.747158 0.365454 0.462287
0.866957 0.36701 0.462974
0.977218 0.370199 0.464744
0 0.580667 0.520836
0 0.54287 0.495109
0.180117 0.510521 0.471794
0.357061 0.495766 0.463752
0.488212 0.493339 0.468894
0.608316 0.495308 0.463935
0.736934 0.494514 0.459754
0.861906 0.494621 0.457649
0.966094 0.498116 0.459251
0 0.7084 0.513695
0 0.671016 0.487861
0.16997 0.639979 0.465248
0.345525 0.625284 0.46096
0.490822 0.618845 0.465034
0.630488 0.613825 0.471595
0.735821 0.620722 0.461509
0.85452 0.623346 0.451255
0.954208 0.626841 0.452323
0 0.835004 0.507073
0 0.797864 0.48069
0.160723 0.769726 0.456336
0.327504 0.757885 0.448203
0.475853 0.750957 0.448371
0.60798 0.74847 0.450904
0.73109 0.749325 0.447929
0.891432 0.735149 0.484413
0.962341 0.74844 0.463981
0 0.960281 0.502678
0 0.923522 0.475761
0.153735 0.898253 0.448142
0.316701 0.888045 0.437705
0.461097 0.882719 0.433585
0.593515 0.880552 0.432151
0.717861 0.880674 0.431586
0.836118 0.882902 0.431968
0.962188 0.874891 0.455375
0 1 0.499794
0 1 0.471992
0.152316 1 0.443732
0.307759 1 0.429862
0.449363 1 0.423377
0.581781 1 0.420523
0.706477 1 0.419806
0.824704 1 0.420966
0.919631 1 0.423682
0 0.0805676 0.482856
0 0.0479896 0.413901
0.151598 0.0315557 0.451347
0.303227 0.0263371 0.495399
0.45182 0.0183871 0.52433
0.593851 0.0105898 0.542062
0.725582 0.00471504 0.551263
0.843854 0.00201419 0.553857
0.949569 0.0047303 0.553918
0 0.200244 0.605402
0 0.163455 0.563104
0.181888 0.135271 0.562005
0.345235 0.12343 0.565087
0.492241 0.11664 0.566613
0.626093 0.113954 0.56643
0.749554 0.114473 0.565835
0.865141 0.117372 0.565072
0.970596 0.12314 0.564401
0 0.327321 0.629923
0 0.289601 0.603281
0.184741 0.25832 0.580102
0.348867 0.248325 0.565087
0.492439 0.242847 0.562463
0.627573 0.239597 0.564935
0.752178 0.23946 0.565408
0.870161 0.241566 0.566049
0.980941 0.245518 0.567056
0 0.454459 0.626276
0 0.416663 0.600076
0.183703 0.385 0.57583
0.350744 0.374456 0.555413
0.485405 0.372152 0.549813
0.616205 0.369985 0.554711
0.74789 0.367254 0.560723
0.868254 0.368353 0.562463
0.978866 0.371633 0.564034
0 0.581933 0.619974
0 0.544396 0.594156
0.178698 0.512657 0.571328
0.35378 0.499306 0.556054
0.491707 0.496773 0.544335
0.617441 0.495918 0.550011
0.739422 0.4963 0.554849
0.862181 0.496742 0.556893
0.966949 0.499641 0.558709
0 0.70956 0.612482
0 0.672068 0.586648
0.171038 0.64152 0.564462
0.3458 0.627573 0.556191
0.496651 0.619852 0.556786
0.619287 0.619348 0.566384
0.737591 0.622431 0.555383
0.851194 0.626154 0.553368
0.954604 0.628595 0.551965
0 0.83624 0.605112
0 0.799008 0.57879
0.161975 0.771069 0.555871
0.328817 0.759472 0.547463
0.482216 0.750759 0.549142
0.614038 0.748272 0.553979
0.746426 0.745541 0.557961
0.859968 0.748562 0.562707
0.943404 0.757717 0.544915
0 0.963455 0.599237
0 0.925093 0.572549
0.154788 0.899992 0.54696
0.317647 0.889723 0.537087
0.46302 0.884077 0.53315
0.598047 0.88101 0.533196
0.730831 0.878859 0.530236
0.850584 0.880888 0.525368
0.971023 0.873137 0.563821
0 1 0.595529
0 1 0.567758
0.152392 1 0.540764
0.308492 1 0.527657
0.451957 1 0.521294
0.583276 1 0.51989
0.708309 1 0.519295
0.827787 1 0.518959
0.920974 1 0.522286
0 0.0843366 0.576471
0 0.0515297 0.499947
0.156786 0.0324102 0.544488
0.310506 0.0261082 0.593393
0.459083 0.0179904 0.624018
0.599252 0.0107118 0.641794
0.72845 0.00570687 0.650156
0.845228 0.00361639 0.651164
0.94995 0.00712596 0.648722
0 0.20264 0.705379
0 0.165682 0.662562
0.183429 0.136355 0.66389
0.347662 0.124346 0.667399
0.49395 0.117968 0.667933
0.627619 0.115465 0.666453
0.750332 0.116136 0.6654
0.865431 0.119234 0.664057
0.971389 0.124941 0.662547
0 0.328618 0.728038
0 0.291035 0.702251
0.185489 0.259922 0.681315
0.351446 0.248615 0.671855
0.4963 0.243076 0.667216
0.630198 0.240742 0.665431
0.754299 0.240787 0.665568
0.871504 0.242878 0.666148
0.982422 0.247196 0.666835
0 0.455436 0.724865
0 0.417899 0.699077
0.183902 0.386664 0.677302
0.350164 0.375479 0.664164
0.491295 0.371786 0.653407
0.625254 0.368841 0.655268
0.753613 0.367315 0.660517
0.869978 0.36965 0.662547
0.980163 0.3729 0.664363
0 0.582803 0.718669
0 0.545281 0.693187
0.1794 0.514504 0.671748
0.349401 0.50222 0.657282
0.491447 0.498741 0.64419
0.618112 0.498192 0.642191
0.749096 0.49575 0.649027
0.865995 0.497444 0.655894
0.968048 0.501137 0.658778
0 0.710445 0.711345
0 0.672816 0.685405
0.173465 0.642786 0.664317
0.342016 0.630701 0.654582
0.49424 0.623484 0.646052
0.621057 0.62327 0.640726
0.745953 0.623026 0.645731
0.853346 0.62768 0.650385
0.953628 0.630671 0.652354
0 0.837842 0.70367
0 0.799756 0.677104
0.163531 0.772442 0.65594
0.3299 0.760998 0.64741
0.484993 0.752163 0.645274
0.621317 0.748302 0.650202
0.754528 0.744778 0.659937
0.860121 0.751965 0.645624
0.940658 0.760021 0.648203
0 0.966751 0.697139
0 0.926497 0.669856
0.156649 0.901411 0.646616
0.318914 0.891066 0.637308
0.465049 0.885206 0.633204
0.603433 0.880842 0.637034
0.735027 0.878462 0.640116
0.857801 0.879591 0.635233
0.966522 0.875914 0.667674
0 1 0.692195
0 1 0.663905
0.153735 1 0.639338
0.308736 1 0.627695
0.452964 1 0.621622
0.585657 1 0.620127
0.711589 1 0.620005
0.833967 1 0.617136
0.923659 1 0.618921
0 0.0870069 0.672068
0 0.0547799 0.591211
0.161486 0.0331273 0.641443
0.316472 0.0260929 0.693584
0.464286 0.0181582 0.724788
0.602457 0.0116121 0.741451
0.729076 0.00750744 0.748226
0.844312 0.0059968 0.74815
0.948775 0.00949111 0.745251
0 0.20473 0.802075
0 0.168048 0.761044
0.184726 0.137743 0.765225
0.349294 0.12546 0.769223
0.495033 0.119249 0.768856
0.627863 0.117174 0.766506
0.750088 0.118196 0.764599
0.864622 0.121279 0.762493
0.970916 0.127214 0.760388
0 0.329763 0.822812
0 0.292332 0.797909
0.186755 0.261311 0.78175
0.352636 0.249882 0.773526
0.497612 0.24416 0.769055
0.631571 0.241764 0.766812
0.755474 0.242237 0.766491
0.872084 0.244434 0.766781
0.982727 0.248875 0.766903
0 0.456245 0.821012
0 0.41886 0.796017
0.184924 0.387884 0.778454
0.350607 0.376715 0.769482
0.495155 0.371405 0.763684
0.628794 0.369192 0.761563
0.754955 0.368643 0.762142
0.871412 0.371038 0.763622
0.981186 0.37438 0.765393
0 0.583154 0.815549
0 0.545678 0.79057
0.180545 0.515709 0.772808
0.346365 0.504524 0.763317
0.491722 0.499825 0.750149
0.623636 0.498222 0.743664
0.753735 0.496025 0.74905
0.868009 0.498589 0.756588
0.968978 0.502541 0.759625
0 0.710613 0.808911
0 0.673136 0.783261
0.174914 0.644038 0.765179
0.339651 0.633112 0.756481
0.490806 0.626398 0.743954
0.620233 0.625956 0.734188
0.742443 0.62681 0.736126
0.854078 0.629831 0.745602
0.951629 0.633112 0.751644
0 0.838132 0.801541
0 0.800137 0.77499
0.16614 0.773526 0.756481
0.330495 0.762524 0.748272
0.482383 0.755016 0.742351
0.621515 0.751141 0.739513
0.744472 0.7514 0.742809
0.854841 0.755505 0.744045
0.936156 0.763256 0.748165
0 0.967376 0.795316
0 0.927291 0.767544
0.159457 0.902373 0.746853
0.319356 0.892576 0.738476
0.465522 0.886748 0.734035
0.607645 0.881529 0.735759
0.740383 0.878737 0.740475
0.861021 0.879362 0.745708
0.942306 0.88658 0.752117
0 1 0.790311
0 1 0.761379
0.156252 1 0.738857
0.310048 1 0.728466
0.454093 1 0.72282
0.58706 1 0.721401
0.715877 1 0.725536
0.838956 1 0.729381
0.92697 1 0.729732
0 0.0894026 0.75996
0 0.0572671 0.684321
0.165347 0.0340429 0.739467
0.320943 0.0266575 0.793256
0.467292 0.0192111 0.823636
0.603204 0.013489 0.839017
0.727947 0.0100557 0.844511
0.841856 0.00898756 0.843778
0.946838 0.0124514 0.841062
0 0.205966 0.874907
0 0.16997 0.855314
0.186069 0.13933 0.862821
0.350088 0.127184 0.868177
0.494835 0.121263 0.867628
0.626963 0.119463 0.864866
0.748516 0.120607 0.862501
0.862226 0.124117 0.859922
0.968734 0.129885 0.857633
0 0.330343 0.885847
0 0.293492 0.88661
0.188342 0.262882 0.879606
0.353643 0.251362 0.874266
0.498253 0.245792 0.870405
0.631144 0.243793 0.868345
0.755459 0.24387 0.86746
0.872007 0.246403 0.867079
0.982132 0.250813 0.866682
0 0.456611 0.87866
0 0.419394 0.879942
0.186648 0.389502 0.87834
0.351644 0.378042 0.871611
0.496498 0.372381 0.867018
0.63035 0.370016 0.864713
0.755444 0.370001 0.864515
0.872236 0.372366 0.865446
0.981888 0.375906 0.866865
0 0.583352 0.869383
0 0.546151 0.871183
0.182315 0.516976 0.873426
0.346929 0.505852 0.865812
0.491783 0.500633 0.860197
0.62681 0.497993 0.854963
0.756786 0.496406 0.855909
0.869642 0.499657 0.859236
0.970123 0.503899 0.861234
0 0.710704 0.860151
0 0.673335 0.861433
0.176974 0.645106 0.866041
0.340124 0.634531 0.858457
0.486076 0.629023 0.851347
0.619791 0.627451 0.839155
0.742245 0.628687 0.836851
0.854597 0.6318 0.843198
0.952773 0.634668 0.848325
0 0.837736 0.850431
0 0.800381 0.851728
0.168963 0.774365 0.856077
0.331167 0.76405 0.85005
0.477791 0.758068 0.844236
0.617685 0.754589 0.835126
0.744595 0.754818 0.826062
0.850889 0.759655 0.832456
0.934234 0.766049 0.837873
0 0.967941 0.844511
0 0.927749 0.843549
0.163241 0.902937 0.844938
0.320684 0.893919 0.839979
0.465797 0.888395 0.835447
0.606485 0.883986 0.833021
0.741619 0.880796 0.833829
0.860914 0.881575 0.841138
0.931899 0.891859 0.840894
0 1 0.839139
0 1 0.837598
0.159991 1 0.83653
0.311482 1 0.829953
0.454047 1 0.825162
0.58735 1 0.823362
0.72134 1 0.82739
0.844877 0.997604 0.83389
0.930556 0.997894 0.834485
