src/luts/blackmagic.cube
TITLE "Generated by Resolve"
LUT_3D_SIZE 33
0.00953689 0.057435 0.0935531
0.00926223 0.0540169 0.0899519
0.00881972 0.0493172 0.0850385
0.00805676 0.0424048 0.0779736
0.00552377 0.024918 0.0603189
0.0169223 0.0220035 0.0607004
0.0457923 0.0227512 0.0652018
0.0746319 0.0242618 0.0717632
0.106401 0.0269169 0.0792554
0.140307 0.0282139 0.0858473
0.176043 0.0284886 0.09131
0.212146 0.0282902 0.0955062
0.248188 0.0278019 0.0987106
0.285786 0.0265812 0.101335
0.325093 0.0246281 0.103365
0.36495 0.0223545 0.104799
0.40351 0.020264 0.105715
0.440574 0.0184634 0.106264
0.477272 0.0166323 0.106508
0.513848 0.014725 0.106508
0.549981 0.0128023 0.10634
0.58558 0.0109255 0.106004
0.620493 0.00909438 0.105562
0.654826 0.00738537 0.105043
0.688106 0.00584421 0.104494
0.7205 0.00451667 0.103944
0.751873 0.00335698 0.103395
0.782071 0.00244144 0.102922
0.811353 0.00170901 0.10251
0.840085 0.00111391 0.102144
0.86807 0.00062562 0.101823
0.895491 0.000198367 0.101518
0.922438 0 0.101259
0.0116121 0.0855268 0.110597
0.0115511 0.0818036 0.107042
0.011429 0.0769513 0.102358
0.0110781 0.0695354 0.0954147
0.00958267 0.0517433 0.0786603
0.0293584 0.0476692 0.0757916
0.0605631 0.047837 0.0787671
0.0897688 0.0483711 0.0839857
0.121523 0.0479438 0.0892195
0.155871 0.0467231 0.0938125
0.192279 0.0450141 0.0975509
0.228901 0.0433204 0.100298
0.265354 0.0415961 0.102373
0.303655 0.0394446 0.10399
0.343313 0.0368658 0.105104
0.38294 0.0343328 0.105745
0.421302 0.0321508 0.106035
0.458289 0.0304265 0.106111
0.495109 0.0288396 0.105928
0.531548 0.0273442 0.105562
0.56759 0.025864 0.105058
0.603128 0.0246281 0.104402
0.637995 0.0235142 0.103685
0.671992 0.0227512 0.102937
0.704967 0.0221866 0.10219
0.737041 0.0219272 0.101472
0.768002 0.021912 0.100786
0.797925 0.0223392 0.100206
0.826764 0.0229801 0.099733
0.854856 0.0237736 0.099321
0.882292 0.0247959 0.09897
0.909102 0.0260319 0.0986801
0.935317 0.0273747 0.0984512
0.0120851 0.11516 0.12517
0.0122835 0.111254 0.121813
0.0124819 0.106081 0.117433
0.0126345 0.0984512 0.110918
0.0123751 0.0801862 0.0951095
0.0394903 0.0745098 0.0912184
0.0736553 0.0737774 0.0905928
0.103471 0.0741436 0.0947127
0.136492 0.0735485 0.0988479
0.172717 0.0719463 0.101961
0.210986 0.0698253 0.104051
0.249332 0.0677501 0.105394
0.287419 0.0657054 0.106233
0.326879 0.0633097 0.106538
0.367376 0.0606088 0.106355
0.407294 0.0581369 0.105882
0.445289 0.0561074 0.105318
0.482094 0.0545205 0.104662
0.518471 0.0531167 0.103883
0.554299 0.0517586 0.103029
0.589441 0.0506752 0.102098
0.624002 0.0497749 0.101137
0.657755 0.049012 0.100206
0.690471 0.0485084 0.0993057
0.722393 0.0484321 0.0984665
0.753079 0.0485542 0.097734
0.782681 0.0487984 0.0971847
0.811276 0.0496223 0.0967269
0.838849 0.0506294 0.0964218
0.86569 0.0518959 0.0961929
0.891814 0.0532692 0.0960861
0.917311 0.0548867 0.0960555
0.942336 0.0565805 0.0961013
0.0107118 0.146075 0.136629
0.0111543 0.142168 0.133639
0.0117037 0.136797 0.129549
0.0123903 0.128908 0.123583
0.0134127 0.109957 0.108721
0.0459449 0.1028 0.104219
0.0851911 0.10045 0.102968
0.115496 0.100725 0.104372
0.149233 0.100038 0.106477
0.186343 0.0983444 0.107576
0.226062 0.0960098 0.107805
0.265507 0.0937667 0.107683
0.304372 0.0915694 0.107332
0.344442 0.0890974 0.106477
0.385397 0.0863966 0.10518
0.425071 0.084062 0.103838
0.462791 0.0822919 0.102678
0.499199 0.0808576 0.101595
0.53492 0.0795758 0.100496
0.570047 0.0785687 0.099382
0.604456 0.0776226 0.0982834
0.638086 0.0770123 0.0972915
0.670726 0.0765393 0.0964065
0.702602 0.0764477 0.095613
0.733349 0.076524 0.0949722
0.763165 0.076936 0.0944991
0.79173 0.0776989 0.0942397
0.819211 0.0786603 0.0941787
0.845899 0.0799115 0.0942702
0.871839 0.0812695 0.0944839
0.897246 0.082826 0.0947738
0.922225 0.0845502 0.09514
0.946868 0.0862898 0.0957961
0.00746166 0.178363 0.144945
0.00810254 0.174289 0.142184
0.00895705 0.168704 0.138415
0.0101167 0.160494 0.132921
0.0124056 0.141207 0.118929
0.0482338 0.13254 0.113878
0.092958 0.128679 0.113024
0.12781 0.127337 0.114595
0.160433 0.127245 0.112535
0.197421 0.125826 0.111223
0.237522 0.123568 0.109483
0.27747 0.121202 0.107942
0.316716 0.119112 0.106584
0.356863 0.116716 0.104753
0.397742 0.114137 0.102525
0.437171 0.111925 0.100542
0.474769 0.110155 0.0989853
0.510628 0.108904 0.097734
0.545724 0.107942 0.0965286
0.579995 0.107027 0.0953689
0.613626 0.106447 0.0942855
0.646403 0.105959 0.0934157
0.678172 0.105837 0.0926528
0.709194 0.105852 0.0920424
0.739101 0.10631 0.0915847
0.768063 0.106813 0.0913252
0.795956 0.107759 0.0912184
0.822904 0.108858 0.0912642
0.849256 0.110216 0.0914168
0.874952 0.111772 0.0916304
0.900282 0.113252 0.0928969
0.925231 0.115023 0.0941634
0.949905 0.116793 0.0955367
0.00256352 0.212116 0.150057
0.00335698 0.207919 0.147463
0.0043946 0.202152 0.144121
0.00590524 0.193652 0.13904
0.00924697 0.173632 0.125566
0.0466163 0.163821 0.119722
0.096788 0.158404 0.119112
0.135836 0.155901 0.120226
0.172274 0.154208 0.119677
0.208347 0.153613 0.114565
0.247364 0.151812 0.109361
0.290028 0.148836 0.10605
0.330037 0.146624 0.103731
0.366949 0.145205 0.101808
0.406119 0.143145 0.0991531
0.445121 0.141146 0.0967422
0.482048 0.139544 0.0950179
0.51725 0.138491 0.0937972
0.551705 0.137591 0.0926528
0.585428 0.13698 0.0915999
0.618189 0.136492 0.0906844
0.650202 0.136324 0.0898909
0.681437 0.1364 0.0892195
0.711818 0.136568 0.0886854
0.741405 0.137011 0.0883345
0.769985 0.137713 0.0881514
0.797818 0.138674 0.0880903
0.825025 0.139742 0.0889448
0.851469 0.141054 0.0901045
0.877379 0.14255 0.0913252
0.902846 0.144106 0.0926986
0.927916 0.145693 0.0942092
0.952865 0.147417 0.0957198
0 0.246662 0.152041
0 0.242329 0.149599
0 0.236667 0.146502
0.000350958 0.227955 0.141756
0.00427253 0.206897 0.128786
0.042298 0.196475 0.121965
0.0970932 0.189441 0.121447
0.140215 0.186023 0.122225
0.179232 0.183642 0.122316
0.218296 0.181415 0.119341
0.257099 0.179843 0.112352
0.298924 0.177615 0.104021
0.339727 0.175158 0.100359
0.373617 0.174609 0.0986648
0.411353 0.172992 0.0957961
0.449592 0.171252 0.0931258
0.485771 0.170001 0.0913863
0.520348 0.169116 0.0903029
0.554223 0.168368 0.0893263
0.587396 0.16791 0.0884413
0.619821 0.167529 0.0876936
0.651316 0.167468 0.0870375
0.682445 0.167452 0.0864576
0.71281 0.16762 0.0860609
0.742504 0.168032 0.0864118
0.771267 0.168704 0.0869917
0.799374 0.169467 0.0877089
0.826795 0.170718 0.0887617
0.853468 0.172076 0.0899519
0.879561 0.173266 0.0912642
0.905165 0.174777 0.0927138
0.93051 0.17644 0.0942855
0.955444 0.178119 0.0958724
0 0.281163 0.15172
0 0.277043 0.149325
0 0.271366 0.146304
0 0.262913 0.141665
0 0.240864 0.129213
0.0377203 0.229252 0.12195
0.0947585 0.221729 0.120745
0.141741 0.216907 0.121447
0.181842 0.214328 0.12047
0.223682 0.211215 0.120455
0.265888 0.208133 0.118456
0.301518 0.20766 0.110933
0.335225 0.207645 0.103014
0.373022 0.206058 0.098085
0.411963 0.204288 0.0939651
0.450294 0.202411 0.0907301
0.486519 0.20116 0.0886397
0.521035 0.20029 0.0875868
0.554696 0.199603 0.0869001
0.587716 0.199191 0.0861677
0.619974 0.198947 0.0857862
0.651713 0.198749 0.0856031
0.682994 0.198825 0.0854505
0.713405 0.199115 0.0856336
0.743236 0.199374 0.0859846
0.772198 0.199847 0.0865644
0.800504 0.200671 0.0872816
0.828153 0.201617 0.0883803
0.855024 0.202914 0.089601
0.881315 0.204303 0.0909438
0.907042 0.20589 0.0924697
0.932509 0.207233 0.0941176
0.957626 0.209018 0.0957961
0 0.315221 0.150134
0 0.311208 0.147707
0 0.305669 0.144625
0 0.297414 0.13994
0 0.275196 0.127565
0.0334783 0.262074 0.120836
0.0917525 0.254261 0.118746
0.140963 0.248997 0.118639
0.183627 0.245502 0.11783
0.223148 0.243351 0.115084
0.270817 0.237873 0.11957
0.31519 0.233875 0.121279
0.34432 0.235554 0.109957
0.377234 0.236072 0.101091
0.413138 0.235309 0.0945602
0.450355 0.234089 0.090547
0.486473 0.232654 0.0883192
0.52105 0.231785 0.087129
0.554665 0.231342 0.0862898
0.587732 0.230686 0.0857404
0.620127 0.230564 0.0853132
0.651972 0.230213 0.085008
0.683177 0.230137 0.0848554
0.713634 0.230549 0.0850233
0.743572 0.230884 0.0853437
0.772686 0.231327 0.0859236
0.801175 0.232227 0.0866255
0.829038 0.232853 0.0878309
0.856123 0.233967 0.0889906
0.882582 0.235416 0.0903639
0.908537 0.236805 0.0919509
0.934264 0.238224 0.0936599
0.959335 0.239841 0.0954452
0 0.348547 0.14818
0 0.344671 0.145769
0 0.339315 0.142443
0 0.331304 0.137667
0 0.309407 0.124849
0.0289311 0.295094 0.1187
0.0894179 0.286656 0.116732
0.139666 0.28101 0.115816
0.184115 0.277104 0.114946
0.224399 0.274693 0.11281
0.263569 0.272648 0.109819
0.31667 0.265095 0.119265
0.360296 0.261036 0.123491
0.390021 0.262547 0.112902
0.418662 0.264683 0.0995193
0.451789 0.264881 0.0918441
0.486488 0.264271 0.0880293
0.520775 0.263523 0.0864118
0.554498 0.262852 0.0855421
0.587411 0.262333 0.084947
0.619867 0.262058 0.0845197
0.651774 0.261814 0.0841535
0.682933 0.261891 0.0840925
0.713603 0.262013 0.0841688
0.743511 0.262333 0.0844739
0.772885 0.262852 0.0850233
0.801526 0.263584 0.085832
0.829435 0.264408 0.0868238
0.856825 0.265461 0.0881056
0.883528 0.26659 0.0895247
0.909728 0.267903 0.091249
0.935378 0.269429 0.092958
0.960586 0.271 0.0948043
0 0.381125 0.146593
0 0.377203 0.144106
0 0.372107 0.140642
0 0.364309 0.135622
0 0.342657 0.122316
0.0246281 0.328191 0.116091
0.0870527 0.319081 0.114672
0.138689 0.313039 0.113725
0.184085 0.30901 0.112673
0.225406 0.306096 0.110933
0.26453 0.303899 0.108431
0.30454 0.301579 0.107256
0.358557 0.293568 0.117449
0.404883 0.288411 0.12401
0.436606 0.288899 0.116228
0.461631 0.292409 0.101198
0.489845 0.294499 0.0910964
0.521477 0.294804 0.086717
0.554223 0.294362 0.0849775
0.58703 0.294057 0.0841382
0.619532 0.29366 0.0835584
0.651453 0.293416 0.0832685
0.682582 0.293492 0.0831159
0.713283 0.293736 0.0832532
0.743282 0.293904 0.0835584
0.772747 0.29453 0.0840772
0.801556 0.295079 0.0849012
0.829618 0.295995 0.085893
0.857053 0.297108 0.0871595
0.884108 0.298039 0.0886091
0.910506 0.299168 0.0902876
0.936248 0.300786 0.0921645
0.961593 0.302312 0.0940871
0 0.413123 0.145357
0 0.409369 0.142809
0 0.404196 0.139284
0 0.396551 0.134096
0 0.375174 0.120363
0.0207675 0.361059 0.113329
0.0841077 0.351614 0.111818
0.137087 0.34522 0.111223
0.183444 0.340749 0.110338
0.225605 0.337575 0.108949
0.265309 0.335286 0.106798
0.30341 0.333577 0.103929
0.345617 0.330236 0.103929
0.399985 0.322194 0.114153
0.448829 0.316152 0.12343
0.482567 0.31574 0.120134
0.506416 0.319326 0.107027
0.529274 0.323095 0.0942245
0.55668 0.32491 0.087068
0.58735 0.325414 0.0840467
0.619196 0.325399 0.0828717
0.650858 0.325261 0.0822766
0.681987 0.325216 0.0821851
0.712734 0.325567 0.0822003
0.742794 0.325719 0.0825055
0.772351 0.32607 0.0830396
0.801251 0.326848 0.0838331
0.829465 0.327459 0.0848402
0.857252 0.328511 0.0861067
0.884352 0.329519 0.0876631
0.910857 0.330739 0.0893873
0.936751 0.332174 0.0912184
0.962219 0.333776 0.0932174
0 0.445121 0.144137
0 0.441245 0.141604
0 0.436194 0.138064
0 0.428443 0.132876
0 0.407172 0.118929
0.0177768 0.393576 0.110887
0.080415 0.384588 0.108202
0.134203 0.377966 0.107469
0.18172 0.373129 0.106874
0.224887 0.369497 0.105837
0.2654 0.366949 0.103914
0.304158 0.365148 0.101091
0.34229 0.3635 0.0975509
0.386038 0.359777 0.0977646
0.441047 0.351522 0.109514
0.490562 0.344717 0.121645
0.526757 0.342977 0.123812
0.551507 0.345708 0.11545
0.571511 0.35053 0.101701
0.594003 0.35404 0.0905776
0.621286 0.355978 0.0847181
0.650996 0.356741 0.0821393
0.681498 0.357076 0.0813458
0.712077 0.357137 0.0811475
0.742107 0.357671 0.0813611
0.77174 0.357992 0.0818952
0.800732 0.358633 0.0826886
0.829068 0.359335 0.083772
0.857069 0.360067 0.0849775
0.884306 0.361151 0.0865492
0.910918 0.362341 0.0883192
0.936965 0.363851 0.0901961
0.962066 0.365164 0.092256
0 0.477104 0.14284
0 0.473228 0.1402
0 0.468193 0.136782
0 0.460441 0.131579
0 0.439277 0.117586
0.0158083 0.42594 0.10901
0.0769665 0.41738 0.104738
0.130739 0.410758 0.103212
0.178958 0.405859 0.102373
0.222965 0.401968 0.101396
0.263981 0.399359 0.099733
0.302937 0.397467 0.0973678
0.340703 0.395499 0.0943008
0.377539 0.394156 0.0909743
0.420264 0.390875 0.0918288
0.476814 0.381857 0.105653
0.527932 0.374655 0.120165
0.566415 0.371847 0.126619
0.594919 0.372793 0.123522
0.615808 0.377218 0.11194
0.634989 0.381979 0.0983749
0.657557 0.38558 0.0887465
0.68368 0.387427 0.0833143
0.712184 0.388647 0.0811475
0.741634 0.389349 0.0805524
0.770886 0.389914 0.0807507
0.800031 0.390295 0.0814069
0.828504 0.391073 0.082475
0.856474 0.392035 0.0837568
0.883833 0.392828 0.0852979
0.910704 0.393851 0.0870985
0.936919 0.3953 0.0892042
0.960327 0.396704 0.0911421
0 0.509056 0.141344
0 0.505318 0.138796
0 0.500145 0.135286
0 0.492531 0.130098
0 0.471366 0.116167
0.0142824 0.458045 0.107393
0.0745708 0.449882 0.102205
0.127413 0.443626 0.099321
0.175723 0.438666 0.097734
0.220233 0.435019 0.0965133
0.262013 0.4318 0.0950332
0.301625 0.429557 0.0928969
0.339727 0.427695 0.0904555
0.376837 0.426368 0.0877852
0.413031 0.425238 0.0853742
0.454734 0.42182 0.0869001
0.511421 0.412695 0.101747
0.564004 0.404639 0.1187
0.604486 0.401038 0.127916
0.63592 0.400763 0.129122
0.659739 0.403738 0.122179
0.678386 0.408667 0.109438
0.697307 0.413657 0.0970626
0.719219 0.417258 0.0881971
0.744228 0.419577 0.0831464
0.77145 0.420996 0.0810254
0.799558 0.422004 0.0807355
0.827909 0.422644 0.0812695
0.855817 0.423636 0.082475
0.883223 0.424674 0.0840772
0.910094 0.425895 0.085893
0.936446 0.427054 0.0878767
0.958404 0.428305 0.0898909
0 0.541238 0.13991
0 0.537362 0.13727
0 0.532204 0.133837
0 0.52459 0.128542
0 0.50341 0.114595
0.0128939 0.490105 0.105776
0.0728466 0.482155 0.100328
0.125124 0.475944 0.0965438
0.172869 0.47158 0.0940719
0.217685 0.467445 0.0922713
0.259724 0.4645 0.0905623
0.299977 0.461967 0.0887617
0.338369 0.460075 0.0867018
0.375601 0.458488 0.0846876
0.411887 0.45716 0.0827955
0.447486 0.455909 0.0813306
0.48777 0.452918 0.0834058
0.543374 0.444221 0.0977646
0.597864 0.435508 0.116228
0.640284 0.43122 0.127642
0.674174 0.429862 0.132403
0.70135 0.431189 0.130327
0.722271 0.435111 0.121324
0.739895 0.440482 0.108949
0.758221 0.445472 0.0973373
0.779309 0.449409 0.089189
0.802945 0.452094 0.0841535
0.828809 0.453864 0.0821088
0.85568 0.455024 0.0820935
0.882582 0.456275 0.0830854
0.909331 0.457557 0.0847486
0.93576 0.458701 0.086717
0.956344 0.460182 0.0886702
0 0.573205 0.138399
0 0.569467 0.135836
0 0.564324 0.132296
0 0.556725 0.127077
0 0.535286 0.113024
0.011368 0.522133 0.104021
0.0710918 0.514244 0.0984817
0.123308 0.508339 0.0946212
0.170962 0.503578 0.0915999
0.215396 0.500206 0.089128
0.25774 0.496864 0.0871595
0.298039 0.494377 0.0853895
0.33669 0.492271 0.0836347
0.37409 0.490715 0.0820325
0.410498 0.489052 0.0806744
0.446082 0.488014 0.079469
0.480812 0.487236 0.0784772
0.519951 0.484703 0.0802472
0.573236 0.476677 0.0930648
0.629145 0.467338 0.112505
0.674083 0.461906 0.12636
0.710124 0.459785 0.133791
0.740078 0.460014 0.135637
0.764309 0.462486 0.131518
0.78352 0.466972 0.122087
0.800381 0.472465 0.11014
0.817975 0.477668 0.0993057
0.837736 0.481804 0.0913558
0.860288 0.484825 0.0869764
0.884688 0.487129 0.085069
0.90988 0.488807 0.0849317
0.9355 0.490532 0.0860456
0.954253 0.49192 0.08748
0 0.605203 0.136934
0 0.601495 0.134356
0 0.596353 0.1308
0 0.588785 0.125551
0 0.567468 0.111437
0.00975052 0.554269 0.102296
0.0694285 0.546441 0.0966964
0.121462 0.540566 0.0926223
0.169116 0.535943 0.0895094
0.213596 0.532052 0.0870832
0.25597 0.529107 0.0849165
0.296254 0.526757 0.0830091
0.334997 0.524483 0.0814679
0.372503 0.522759 0.0800336
0.409049 0.521324 0.0787366
0.444526 0.52015 0.0776074
0.479423 0.519371 0.0765087
0.513619 0.51841 0.0757153
0.551415 0.516274 0.0773327
0.601572 0.509575 0.0883345
0.657908 0.500099 0.107637
0.705547 0.493507 0.123766
0.743725 0.490486 0.133715
0.776059 0.489754 0.138674
0.803296 0.49099 0.138888
0.825589 0.494057 0.133867
0.843717 0.499062 0.124529
0.859358 0.50454 0.113069
0.876326 0.509941 0.103212
0.895171 0.514153 0.0960098
0.916182 0.517754 0.0915999
0.938643 0.5205 0.0893111
0.95465 0.522744 0.0890974
0 0.637079 0.135592
0 0.633371 0.132998
0 0.62826 0.129412
0 0.620706 0.124132
0 0.599298 0.110048
0.00831617 0.586328 0.100633
0.0676432 0.578454 0.0948501
0.11957 0.572625 0.0906539
0.167178 0.568154 0.0875257
0.211826 0.564508 0.0849012
0.254108 0.561425 0.0827192
0.294484 0.558816 0.0809339
0.333532 0.556725 0.0792706
0.371221 0.554955 0.0779431
0.407797 0.55346 0.0765698
0.44332 0.552285 0.0754864
0.478264 0.551095 0.074464
0.51223 0.550362 0.0736706
0.545617 0.549981 0.0731518
0.581872 0.548287 0.0745403
0.629023 0.542641 0.0838026
0.684413 0.533547 0.1019
0.734432 0.526238 0.119799
0.775464 0.521859 0.132418
0.809735 0.52015 0.140093
0.83946 0.5205 0.143542
0.864698 0.522271 0.142992
0.885496 0.525841 0.137881
0.902159 0.531106 0.128664
0.917647 0.536995 0.118547
0.933608 0.542199 0.109346
0.951415 0.547036 0.10251
0.963333 0.55024 0.0993668
0 0.668956 0.134493
0 0.665263 0.131777
0 0.660166 0.128267
0 0.652628 0.122835
0 0.631373 0.108675
0.00686656 0.618402 0.0991684
0.0658732 0.610666 0.0930495
0.117784 0.604883 0.0887922
0.165316 0.60032 0.0854505
0.209903 0.596796 0.0827344
0.252079 0.593606 0.0805524
0.292546 0.591012 0.0787518
0.331365 0.588846 0.0771038
0.368917 0.587213 0.0758221
0.405417 0.585748 0.0745098
0.441138 0.584543 0.0734264
0.47599 0.583719 0.0725261
0.510048 0.582956 0.0717632
0.543435 0.582193 0.0711528
0.576379 0.581781 0.0708171
0.611444 0.580468 0.0719615
0.655711 0.575998 0.0795605
0.709178 0.567636 0.0960861
0.760815 0.559625 0.114778
0.804791 0.554437 0.129778
0.841382 0.551797 0.139971
0.872984 0.550958 0.146349
0.90071 0.551797 0.149432
0.924315 0.554009 0.148669
0.943221 0.558175 0.142977
0.959365 0.56347 0.134691
0.974624 0.569207 0.125719
0.983871 0.573144 0.121096
0 0.700633 0.133577
0 0.696956 0.130907
0 0.69189 0.12726
0 0.684398 0.121874
0 0.66302 0.107561
0.00560006 0.65037 0.0977646
0.0643473 0.642649 0.0915694
0.115862 0.637339 0.0868849
0.163363 0.632563 0.0834363
0.207904 0.628931 0.0807202
0.250111 0.626032 0.0784772
0.29044 0.623438 0.0765545
0.329274 0.621271 0.0749981
0.366995 0.619501 0.0736248
0.403494 0.618036 0.0724346
0.439185 0.616907 0.0713664
0.474113 0.615854 0.0704509
0.508171 0.615076 0.069749
0.541543 0.614572 0.0692454
0.574243 0.614069 0.0688182
0.606607 0.613825 0.0686809
0.640375 0.612879 0.0696574
0.682048 0.609094 0.0759899
0.732982 0.601831 0.090425
0.785321 0.593637 0.109102
0.831907 0.587366 0.126207
0.870924 0.583795 0.138964
0.904448 0.582208 0.147799
0.934005 0.582101 0.153689
0.959518 0.58352 0.155917
0.981277 0.586465 0.154467
0.998352 0.590829 0.149706
1 0.593988 0.146929
0 0.732067 0.133211
0 0.728405 0.130526
0 0.723369 0.126802
0 0.715923 0.121324
0 0.694896 0.106645
0.00471504 0.682185 0.0966812
0.0628061 0.674784 0.0899214
0.114183 0.669215 0.0852522
0.161578 0.664851 0.0815747
0.205921 0.661158 0.0786755
0.248081 0.658289 0.0763561
0.288411 0.655695 0.0744945
0.327214 0.653651 0.0728161
0.364797 0.651896 0.0714427
0.401373 0.650401 0.0702678
0.437232 0.649149 0.0692454
0.471992 0.648096 0.0684672
0.50605 0.647318 0.0678111
0.539422 0.646815 0.0672923
0.572259 0.646296 0.0670024
0.604532 0.646067 0.0667887
0.636286 0.64596 0.0668803
0.668788 0.645518 0.0678416
0.70811 0.642267 0.0730907
0.756085 0.636164 0.0854353
0.807874 0.628138 0.103304
0.856336 0.621332 0.121675
0.898131 0.616464 0.136965
0.933623 0.614176 0.148196
0.964523 0.613458 0.155932
0.991928 0.614206 0.160861
1 0.616083 0.162539
1 0.617853 0.163256
0 0.763424 0.133211
0 0.759777 0.130388
0 0.754757 0.126726
0 0.747356 0.12108
0 0.726284 0.10631
0.00428779 0.713909 0.0960098
0.0616922 0.706752 0.0888075
0.112657 0.701442 0.0836957
0.159701 0.697047 0.079881
0.203937 0.693584 0.0768139
0.245869 0.690623 0.074403
0.286259 0.687922 0.0724651
0.325017 0.685893 0.0707561
0.3626 0.684276 0.0693523
0.399268 0.682628 0.0681468
0.435035 0.681392 0.0671702
0.469764 0.680613 0.0664225
0.503822 0.67982 0.0658122
0.537224 0.679042 0.0653697
0.570047 0.67866 0.0650492
0.602182 0.678294 0.0650034
0.63389 0.678187 0.065156
0.665278 0.678065 0.0654307
0.696986 0.677882 0.0664378
0.733852 0.675761 0.0708019
0.778119 0.670832 0.0810559
0.827893 0.663737 0.0970779
0.878157 0.656001 0.116365
0.922621 0.650431 0.13373
0.960113 0.64715 0.147082
0.992721 0.645731 0.156863
1 0.64564 0.163378
1 0.64654 0.166476
0 0.794568 0.133516
0 0.790951 0.130678
0 0.785946 0.126986
0 0.778576 0.121294
0 0.75758 0.10634
0.00436408 0.745388 0.0957961
0.0610208 0.738491 0.0881361
0.111559 0.733349 0.0826734
0.15819 0.729107 0.0785992
0.202182 0.725734 0.0753185
0.243961 0.722576 0.0727703
0.284215 0.720317 0.0706951
0.322911 0.718303 0.068925
0.360494 0.716442 0.0674754
0.397131 0.714931 0.0662394
0.432807 0.713726 0.0652781
0.467521 0.71281 0.0645762
0.501579 0.712016 0.0639963
0.534951 0.711376 0.0635996
0.567758 0.710994 0.0633402
0.599893 0.710613 0.063386
0.631586 0.710506 0.0636149
0.662989 0.710491 0.0638895
0.69369 0.710521 0.0645609
0.724681 0.710491 0.0656901
0.759136 0.709148 0.0693675
0.800076 0.70544 0.0776989
0.847425 0.699199 0.0918746
0.897459 0.691737 0.11043
0.94403 0.685206 0.129168
0.984085 0.681025 0.144594
1 0.678767 0.155795
1 0.678798 0.160891
0 0.825605 0.134035
0 0.821988 0.131273
0 0.816999 0.127474
0 0.809644 0.121859
0 0.78883 0.106691
0.00486763 0.776638 0.0959945
0.0608225 0.770245 0.087953
0.110826 0.765072 0.0821851
0.157122 0.760983 0.0777295
0.200687 0.757717 0.0742199
0.242374 0.754772 0.0714733
0.282338 0.752453 0.0692912
0.320928 0.750607 0.0674144
0.358541 0.74873 0.0658885
0.395087 0.747265 0.0646525
0.430732 0.746059 0.0636759
0.465461 0.745144 0.062974
0.499474 0.744366 0.0624399
0.532799 0.743709 0.062089
0.565576 0.743221 0.0620127
0.597772 0.742977 0.0620127
0.629511 0.742855 0.0623026
0.660716 0.742718 0.0626993
0.691508 0.742885 0.063447
0.721706 0.742931 0.0643778
0.751949 0.742977 0.0658427
0.784558 0.742412 0.0690166
0.822339 0.73959 0.0757153
0.8663 0.734737 0.0875105
0.915602 0.727687 0.104936
0.963149 0.721035 0.123873
0.99762 0.71574 0.14049
1 0.714656 0.147875
0 0.856657 0.134722
0 0.853056 0.131945
0 0.848066 0.12813
0 0.840726 0.122499
0 0.819837 0.107347
0.00582895 0.807706 0.0965286
0.0611582 0.801282 0.0882887
0.110521 0.796674 0.0821088
0.156283 0.792767 0.0774548
0.199619 0.789517 0.0736858
0.240879 0.786801 0.0707408
0.280644 0.784543 0.0682994
0.319234 0.782513 0.0664073
0.356756 0.780804 0.0647746
0.393103 0.779385 0.0635233
0.428519 0.778363 0.0625315
0.46331 0.77731 0.061738
0.497292 0.776547 0.0612192
0.530587 0.776028 0.0609751
0.563378 0.775525 0.0608377
0.595453 0.775143 0.0610056
0.627283 0.77499 0.0612345
0.658534 0.774884 0.0618296
0.689158 0.775051 0.0625772
0.719356 0.775097 0.0636606
0.749157 0.775525 0.0648051
0.778714 0.775906 0.066392
0.809705 0.775677 0.0691081
0.844602 0.774044 0.0745403
0.886 0.769802 0.0846571
0.933227 0.763561 0.100496
0.979889 0.757031 0.118502
0.999878 0.755199 0.12694
0 0.887648 0.135576
0 0.883925 0.132799
0 0.879072 0.128969
0 0.871733 0.123323
0 0.850874 0.10811
0.00683604 0.838911 0.0973831
0.0618906 0.832624 0.0890211
0.110719 0.828061 0.0826123
0.155993 0.824323 0.0776074
0.198795 0.821225 0.0737163
0.239857 0.818631 0.0705272
0.279362 0.81648 0.0678874
0.317723 0.814496 0.0658122
0.355108 0.812741 0.0641031
0.391318 0.811505 0.0627604
0.426642 0.810498 0.061738
0.461341 0.809491 0.0609293
0.495247 0.808743 0.0603952
0.528511 0.808118 0.0601816
0.56112 0.807752 0.0600748
0.593378 0.807355 0.0602579
0.625132 0.807202 0.0605783
0.656336 0.807111 0.0612345
0.686931 0.807263 0.0620432
0.717083 0.807431 0.0630808
0.746883 0.807752 0.0643778
0.776211 0.80795 0.065919
0.80528 0.80853 0.0676585
0.83476 0.808927 0.0700694
0.867552 0.807935 0.0745403
0.906538 0.804715 0.08336
0.950393 0.799664 0.0966354
0.969085 0.798413 0.103014
0 0.918608 0.136477
0 0.915007 0.133684
0 0.910048 0.129854
0 0.902708 0.124193
0 0.881987 0.108965
0.00817884 0.869764 0.0983444
0.0628367 0.863691 0.0899519
0.111223 0.859144 0.0834974
