src/luts/blackmagic.cube
TITLE "Generated by Resolve"
LUT_3D_SIZE 5
0.00953689 0.057435 0.0935531
0.106401 0.0269169 0.0792554
0.40351 0.020264 0.105715
0.688106 0.00584421 0.104494
0.922438 0 0.101259
0 0.315221 0.150134
0.183627 0.245502 0.11783
0.486473 0.232654 0.0883192
0.743572 0.230884 0.0853437
0.959335 0.239841 0.0954452
0 0.573205 0.138399
0.170962 0.503578 0.0915999
0.480812 0.487236 0.0784772
0.78352 0.466972 0.122087
0.954253 0.49192 0.08748
0 0.825605 0.134035
0.157122 0.760983 0.0777295
0.465461 0.745144 0.062974
0.721706 0.742931 0.0643778
1 0.714656 0.147875
0 1 0.137377
0.158618 1 0.0840925
0.454063 1 0.065095
0.705028 0.999405 0.0659648
0.915434 0.997375 0.0777752
0.000198367 0.0685893 0.223468
0.126543 0.029984 0.194232
0.423148 0.0200656 0.245945
0.706401 0.00471504 0.261814
0.938247 0.0011902 0.267811
0 0.321752 0.333822
0.191897 0.250919 0.277546
0.480354 0.239719 0.274449
0.74815 0.234684 0.270756
0.971649 0.242069 0.274861
0 0.577508 0.325124
0.179248 0.506172 0.280278
0.485786 0.489448 0.278782
0.741421 0.489357 0.262181
0.962707 0.495018 0.265141
0 0.831449 0.314717
0.158358 0.766049 0.261341
0.468605 0.749386 0.24828
0.725536 0.747524 0.24535
1 0.722347 0.321096
0 1 0.312474
0.154803 1 0.256672
0.450233 1 0.234104
0.704707 1 0.230915
0.917662 1 0.239094
0 0.0771496 0.394446
0.144579 0.0312047 0.358846
0.443748 0.0188602 0.4271
0.720729 0.00433356 0.452781
0.947616 0.0031281 0.457572
0 0.325795 0.530358
0.185931 0.25684 0.473472
0.486259 0.243153 0.46009
0.750744 0.238148 0.465995
0.978943 0.244465 0.468009
0 0.580667 0.520836
0.180117 0.510521 0.471794
0.488212 0.493339 0.468894
0.736934 0.494514 0.459754
0.966094 0.498116 0.459251
0 0.835004 0.507073
0.160723 0.769726 0.456336
0.475853 0.750957 0.448371
0.73109 0.749325 0.447929
0.962341 0.74844 0.463981
0 1 0.499794
0.152316 1 0.443732
0.449363 1 0.423377
0.706477 1 0.419806
0.919631 1 0.423682
0 0.0843366 0.576471
0.156786 0.0324102 0.544488
0.459083 0.0179904 0.624018
0.72845 0.00570687 0.650156
0.94995 0.00712596 0.648722
0 0.328618 0.728038
0.185489 0.259922 0.681315
0.4963 0.243076 0.667216
0.754299 0.240787 0.665568
0.982422 0.247196 0.666835
0 0.582803 0.718669
0.1794 0.514504 0.671748
0.491447 0.498741 0.64419
0.749096 0.49575 0.649027
0.968048 0.501137 0.658778
0 0.837842 0.70367
0.163531 0.772442 0.65594
0.484993 0.752163 0.645274
0.754528 0.744778 0.659937
0.940658 0.760021 0.648203
0 1 0.692195
0.153735 1 0.639338
0.452964 1 0.621622
0.711589 1 0.620005
0.923659 1 0.618921
0 0.0894026 0.75996
0.165347 0.0340429 0.739467
0.467292 0.0192111 0.823636
0.727947 0.0100557 0.844511
0.946838 0.0124514 0.841062
0 0.330343 0.885847
0.188342 0.262882 0.879606
0.498253 0.245792 0.870405
0.755459 0.24387 0.86746
0.982132 0.250813 0.866682
0 0.583352 0.869383
0.182315 0.516976 0.873426
0.491783 0.500633 0.860197
0.756786 0.496406 0.855909
0.970123 0.503899 0.861234
0 0.837736 0.850431
0.168963 0.774365 0.856077
0.477791 0.758068 0.844236
0.744595 0.754818 0.826062
0.934234 0.766049 0.837873
0 1 0.839139
0.159991 1 0.83653
0.454047 1 0.825162
0.72134 1 0.82739
0.930556 0.997894 0.834485
