src/luts/cine-wedding.cube
LUT_3D_SIZE 6
0.019333 0.021469 0.020539
0.082651 0.014389 0.012722
0.343006 0.000000 0.000000
0.678826 0.000000 0.000000
0.940731 0.000000 0.000000
1.000000 0.000000 0.000000
0.016584 0.058508 0.004235
0.072660 0.055556 0.004252
0.319461 0.007888 0.000757
0.680084 0.000000 0.000000
0.963954 0.000000 0.000000
1.000000 0.000000 0.000000
0.000000 0.156566 0.000000
0.050091 0.180483 0.000000
0.268048 0.164231 0.000000
0.697397 0.106281 0.000000
0.994577 0.084037 0.000000
1.000000 0.094774 0.031072
0.000000 0.381134 0.000000
0.046683 0.443751 0.000000
0.166582 0.505903 0.000000
0.652939 0.421101 0.000000
1.000000 0.370831 0.000000
1.000000 0.415544 0.000000
0.000000 0.729675 0.000000
0.097559 0.800381 0.000000
0.271828 0.862687 0.000000
0.393672 0.844424 0.000000
1.000000 0.727144 0.000000
1.000000 0.770935 0.000000
0.103189 1.000000 0.000000
0.213220 1.000000 0.000000
0.393045 1.000000 0.000000
0.519386 1.000000 0.000000
1.000000 0.990885 0.000000
1.000000 0.924773 0.000000
0.006162 0.022994 0.076115
0.067051 0.015443 0.080075
0.313401 0.000000 0.022457
0.654933 0.000000 0.000000
0.919711 0.000000 0.000000
1.000000 0.000000 0.000000
0.000000 0.063433 0.049541
0.060348 0.060296 0.056836
0.322529 0.015367 0.023954
0.691084 0.000000 0.000000
0.973746 0.000000 0.000000
1.000000 0.000000 0.000000
0.000000 0.179203 0.000000
0.048879 0.192090 0.005395
0.268865 0.181713 0.008055
0.698063 0.128942 0.032040
0.997187 0.105851 0.065947
1.000000 0.117606 0.102505
0.000000 0.418287 0.000000
0.044269 0.472756 0.000000
0.203442 0.528444 0.000000
0.655497 0.445357 0.000000
1.000000 0.405595 0.003002
1.000000 0.458304 0.021920
0.000000 0.768074 0.000000
0.098908 0.832788 0.000000
0.302717 0.878214 0.000000
0.419580 0.867486 0.000000
1.000000 0.746659 0.000000
1.000000 0.790362 0.000000
0.085794 1.000000 0.000000
0.204371 1.000000 0.000000
0.409373 1.000000 0.002455
0.576615 1.000000 0.000000
1.000000 0.997682 0.000000
1.000000 0.935793 0.000000
0.000000 0.019075 0.321290
0.005357 0.012196 0.319954
0.231057 0.000000 0.281083
0.579479 0.000000 0.219809
0.850318 0.000000 0.127559
0.999919 0.000000 0.040651
0.000000 0.061081 0.277613
0.005407 0.060240 0.288394
0.243158 0.019725 0.277344
0.613903 0.000000 0.242278
0.913211 0.000000 0.104571
1.000000 0.000000 0.035512
0.000000 0.186855 0.127865
0.000270 0.212200 0.160233
0.218681 0.206024 0.197264
0.687397 0.160642 0.163681
0.999271 0.142495 0.146252
1.000000 0.157592 0.156987
0.000000 0.457651 0.000000
0.000000 0.525116 0.008384
0.223253 0.532702 0.116816
0.621706 0.474625 0.104789
0.998042 0.472467 0.158692
1.000000 0.501499 0.210861
0.000000 0.831114 0.000000
0.004614 0.898796 0.000000
0.292489 0.897613 0.096805
0.539664 0.910807 0.056405
0.985459 0.766701 0.043746
1.000000 0.810815 0.090293
0.000000 1.000000 0.000000
0.081807 1.000000 0.000000
0.375360 1.000000 0.120426
0.637942 1.000000 0.067913
0.955150 1.000000 0.002356
1.000000 0.949016 0.007456
0.000000 0.014225 0.726539
0.000000 0.006355 0.729163
0.106765 0.000000 0.709980
0.461050 0.000000 0.652767
0.733673 0.000000 0.589554
0.888282 0.000000 0.569776
0.000000 0.055986 0.693773
0.000000 0.057720 0.709760
0.125790 0.024472 0.715343
0.501657 0.000000 0.690345
0.785450 0.000000 0.670154
0.954716 0.000000 0.682210
0.000000 0.189861 0.535240
0.000000 0.213643 0.597917
0.118719 0.216801 0.654897
0.563255 0.163373 0.680629
0.895382 0.141361 0.701095
1.000000 0.153992 0.738399
0.000000 0.470017 0.307210
0.000000 0.537942 0.381212
0.097667 0.567713 0.449606
0.552393 0.529945 0.500070
0.975287 0.531873 0.436684
1.000000 0.553937 0.438730
0.000000 0.852138 0.132209
0.000000 0.923355 0.225037
0.139218 0.955658 0.290220
0.576885 0.899910 0.403156
0.915347 0.790230 0.294633
1.000000 0.815296 0.342069
0.000000 1.000000 0.148282
0.000770 1.000000 0.212861
0.182627 1.000000 0.248820
0.617687 1.000000 0.388914
0.820819 1.000000 0.215790
1.000000 0.971648 0.211828
0.000000 0.010608 1.000000
0.000000 0.002455 1.000000
0.016378 0.000000 1.000000
0.364231 0.000000 0.999858
0.636570 0.000000 0.977468
0.787952 0.000000 0.976436
0.000000 0.054180 1.000000
0.000000 0.058733 1.000000
0.043054 0.030606 1.000000
0.419318 0.000000 1.000000
0.703319 0.000000 1.000000
0.874931 0.000000 1.000000
0.000000 0.190817 0.924401
0.000000 0.223687 0.963499
0.051219 0.232275 1.000000
0.491187 0.184882 1.000000
0.820582 0.162186 1.000000
0.999131 0.174908 1.000000
0.000000 0.492863 0.680775
0.000000 0.548700 0.728047
0.003372 0.558650 0.828551
0.467045 0.553782 0.952742
0.857023 0.521044 0.999130
1.000000 0.539421 1.000000
0.000000 0.867925 0.624650
0.000000 0.939124 0.707282
0.045677 0.968757 0.775007
0.397841 0.945242 0.818807
0.826799 0.871586 0.832763
0.998754 0.879607 0.825477
0.000000 1.000000 0.643293
0.000000 1.000000 0.697421
0.074336 1.000000 0.736039
0.378280 1.000000 0.757128
0.841149 1.000000 0.786222
0.979609 1.000000 0.729434
0.000000 0.007990 1.000000
0.000000 0.000672 1.000000
0.000000 0.000000 1.000000
0.291575 0.000000 1.000000
0.573909 0.000000 1.000000
0.726991 0.000000 1.000000
0.000000 0.054788 1.000000
0.000000 0.061650 1.000000
0.005124 0.037368 1.000000
0.358446 0.000000 1.000000
0.648946 0.000000 1.000000
0.825143 0.000000 1.000000
0.000000 0.198699 1.000000
0.000000 0.236048 1.000000
0.010913 0.250160 1.000000
0.443011 0.207255 1.000000
0.774259 0.183945 1.000000
0.964573 0.197084 1.000000
0.000000 0.503967 0.951019
0.000000 0.560914 0.998814
0.004895 0.603906 1.000000
0.421143 0.578967 1.000000
0.812912 0.545311 1.000000
0.999637 0.561564 1.000000
0.000000 0.890152 0.905141
0.000000 0.960258 0.984663
0.001388 0.980760 1.000000
0.154729 0.939763 0.999787
0.771755 0.885512 1.000000
0.940786 0.876011 1.000000
0.000000 1.000000 0.916066
0.000000 1.000000 0.966614
0.024164 1.000000 0.997045
0.310747 1.000000 1.000000
0.752330 1.000000 1.000000
0.907102 1.000000 0.997200
