src/luts/cine-wedding.cube
LUT_3D_SIZE 16
0.019333 0.021469 0.020539
0.037911 0.019691 0.017585
0.055220 0.018193 0.015931
0.082651 0.014389 0.012722
0.136334 0.002939 0.004203
0.220844 0.000000 0.000000
0.343006 0.000000 0.000000
0.467045 0.000000 0.000000
0.577870 0.000000 0.000000
0.678826 0.000000 0.000000
0.769342 0.000000 0.000000
0.856455 0.000000 0.000000
0.940731 0.000000 0.000000
0.998168 0.000000 0.000000
1.000000 0.000000 0.000000
1.000000 0.000000 0.000000
0.019044 0.034310 0.015716
0.035999 0.032680 0.016199
0.052978 0.030638 0.016665
0.076978 0.026546 0.017179
0.126513 0.014790 0.016713
0.207917 0.000084 0.009412
0.330733 0.000000 0.000000
0.458750 0.000000 0.000000
0.572888 0.000000 0.000000
0.676542 0.000000 0.000000
0.769722 0.000000 0.000000
0.859009 0.000000 0.000000
0.946056 0.000000 0.000000
1.000000 0.000000 0.000000
1.000000 0.000000 0.000000
1.000000 0.000000 0.000000
0.019405 0.045440 0.012433
0.032061 0.044979 0.010287
0.050475 0.042510 0.011399
0.078133 0.037771 0.011334
0.123700 0.027934 0.011109
0.200528 0.009627 0.009194
0.320668 0.000000 0.001986
0.452110 0.000000 0.000000
0.570920 0.000000 0.000000
0.679140 0.000000 0.000000
0.775367 0.000000 0.000000
0.868209 0.000000 0.000000
0.957599 0.000000 0.000000
1.000000 0.000000 0.000000
1.000000 0.000000 0.000000
1.000000 0.000000 0.000000
0.016584 0.058508 0.004235
0.030899 0.058120 0.004351
0.040655 0.059956 0.003434
0.072660 0.055556 0.004252
0.125987 0.045953 0.003912
0.198034 0.032318 0.003232
0.319461 0.007888 0.000757
0.451542 0.000000 0.000000
0.571114 0.000000 0.000000
0.680084 0.000000 0.000000
0.777686 0.000000 0.000000
0.872108 0.000000 0.000000
0.963954 0.000000 0.000000
1.000000 0.000000 0.000000
1.000000 0.000000 0.000000
1.000000 0.000000 0.000000
0.007463 0.079350 0.000000
0.024746 0.080575 0.000000
0.037391 0.085261 0.000000
0.053602 0.088579 0.000000
0.115344 0.080497 0.000000
0.204201 0.064266 0.000000
0.310161 0.047017 0.000000
0.444636 0.020540 0.000000
0.566877 0.003115 0.000000
0.677597 0.000000 0.000000
0.775368 0.000000 0.000000
0.868876 0.000000 0.000000
0.960975 0.000000 0.000000
1.000000 0.000000 0.000000
1.000000 0.000000 0.000000
1.000000 0.000000 0.000000
0.000361 0.111963 0.000000
0.018843 0.115715 0.000000
0.035306 0.121914 0.000000
0.053233 0.130055 0.000000
0.083562 0.128700 0.000000
0.176547 0.116389 0.000000
0.321573 0.089382 0.000000
0.444215 0.070203 0.000000
0.564019 0.051527 0.000000
0.683497 0.030594 0.000000
0.788372 0.017269 0.000000
0.884350 0.011135 0.000000
0.976641 0.006762 0.000000
1.000000 0.004455 0.000000
1.000000 0.007003 0.007393
1.000000 0.010234 0.014633
0.000000 0.156566 0.000000
0.009832 0.162602 0.000000
0.028590 0.170971 0.000000
0.050091 0.180483 0.000000
0.073877 0.190878 0.000000
0.127423 0.179965 0.000000
0.268048 0.164231 0.000000
0.455904 0.134237 0.000000
0.591522 0.109890 0.000000
0.697397 0.106281 0.000000
0.809892 0.096850 0.000000
0.912758 0.089373 0.000000
0.994577 0.084037 0.000000
1.000000 0.081885 0.007579
1.000000 0.088483 0.022648
1.000000 0.094774 0.031072
0.000000 0.214523 0.000000
0.000583 0.223843 0.000000
0.016684 0.235873 0.000000
0.043107 0.248809 0.000000
0.074510 0.265236 0.000000
0.093847 0.270665 0.000000
0.205713 0.254354 0.000000
0.388002 0.236715 0.000000
0.588345 0.215033 0.000000
0.751873 0.177282 0.000000
0.843244 0.182377 0.000000
0.935633 0.189410 0.000000
1.000000 0.188633 0.000000
1.000000 0.187430 0.005526
1.000000 0.194172 0.020341
1.000000 0.200824 0.027908
0.000000 0.288185 0.000000
0.000000 0.302894 0.000000
0.009249 0.320052 0.000000
0.041297 0.337534 0.000000
0.080708 0.356398 0.000000
0.119337 0.379070 0.000000
0.133707 0.364765 0.000000
0.339172 0.350600 0.000000
0.519512 0.327856 0.000000
0.713745 0.320610 0.000000
0.891923 0.272392 0.000000
0.983262 0.269783 0.000000
1.000000 0.284780 0.000000
1.000000 0.296573 0.000000
1.000000 0.309375 0.000413
1.000000 0.317577 0.001053
0.000000 0.381134 0.000000
0.000000 0.400679 0.000000
0.011010 0.422591 0.000000
0.046683 0.443751 0.000000
0.092028 0.463290 0.000000
0.132044 0.489806 0.000000
0.166582 0.505903 0.000000
0.211114 0.472118 0.000000
0.490443 0.453090 0.000000
0.652939 0.421101 0.000000
0.834000 0.430600 0.000000
0.993251 0.386211 0.000000
1.000000 0.370831 0.000000
1.000000 0.381576 0.000000
1.000000 0.403659 0.000000
1.000000 0.415544 0.000000
0.000000 0.492822 0.000000
0.000000 0.515642 0.000000
0.016879 0.539716 0.000000
0.054355 0.561618 0.000000
0.103296 0.580317 0.000000
0.148827 0.603571 0.000000
0.196719 0.630013 0.000000
0.211093 0.623881 0.000000
0.332341 0.587635 0.000000
0.636643 0.562640 0.000000
0.791492 0.524266 0.000000
0.937655 0.550358 0.000000
1.000000 0.528746 0.000000
1.000000 0.502764 0.000000
1.000000 0.504906 0.000000
1.000000 0.511879 0.000000
0.000000 0.612984 0.000000
0.001617 0.635287 0.000000
0.029268 0.658839 0.000000
0.069261 0.681017 0.000000
0.121914 0.699412 0.000000
0.175861 0.720945 0.000000
0.227190 0.748667 0.000000
0.278900 0.769084 0.000000
0.281692 0.738450 0.000000
0.505932 0.709540 0.000000
0.796923 0.665353 0.000000
0.923606 0.633063 0.000000
1.000000 0.654325 0.000000
1.000000 0.670278 0.000000
1.000000 0.663527 0.000000
1.000000 0.663109 0.000000
0.000000 0.729675 0.000000
0.019622 0.753101 0.000000
0.055201 0.777923 0.000000
0.097559 0.800381 0.000000
0.154983 0.819199 0.000000
0.215138 0.838067 0.000000
0.271828 0.862687 0.000000
0.333923 0.886678 0.000000
0.353516 0.888122 0.000000
0.393672 0.844424 0.000000
0.736022 0.814110 0.000000
0.938081 0.749335 0.000000
1.000000 0.727144 0.000000
1.000000 0.736228 0.000000
1.000000 0.760058 0.000000
1.000000 0.770935 0.000000
0.016491 0.847391 0.000000
0.054992 0.871340 0.000000
0.091027 0.895869 0.000000
0.135056 0.917614 0.000000
0.194114 0.933067 0.000000
0.257710 0.947876 0.000000
0.316620 0.966416 0.000000
0.372413 0.983402 0.000000
0.424470 0.989418 0.000000
0.414420 0.966515 0.000000
0.583930 0.921406 0.000000
0.926800 0.878382 0.000000
1.000000 0.820009 0.000000
1.000000 0.803148 0.000000
1.000000 0.806400 0.000000
1.000000 0.811178 0.000000
0.057056 0.959906 0.000000
0.094352 0.980600 0.000000
0.129461 0.990506 0.000000
0.172263 0.996998 0.000000
0.231517 0.999971 0.000000
0.295015 1.000000 0.000000
0.353697 1.000000 0.000000
0.404784 1.000000 0.000000
0.464890 1.000000 0.000000
0.466767 1.000000 0.000000
0.516678 0.997924 0.000000
0.850971 0.970247 0.000000
1.000000 0.919828 0.000000
1.000000 0.878357 0.000000
1.000000 0.869421 0.000000
1.000000 0.870253 0.000000
0.103189 1.000000 0.000000
0.138173 1.000000 0.000000
0.171317 1.000000 0.000000
0.213220 1.000000 0.000000
0.271709 1.000000 0.000000
0.334549 1.000000 0.000000
0.393045 1.000000 0.000000
0.443007 1.000000 0.000000
0.501354 1.000000 0.000000
0.519386 1.000000 0.000000
0.529851 1.000000 0.000000
0.805191 1.000000 0.000000
1.000000 0.990885 0.000000
1.000000 0.947036 0.000000
1.000000 0.926783 0.000000
1.000000 0.924773 0.000000
0.015607 0.021954 0.037492
0.033434 0.019916 0.038991
0.050162 0.018449 0.040593
0.076559 0.014547 0.039455
0.129650 0.004870 0.013465
0.211136 0.000000 0.000000
0.330913 0.000000 0.000000
0.456059 0.000000 0.000000
0.568061 0.000000 0.000000
0.670195 0.000000 0.000000
0.762287 0.000000 0.000000
0.849820 0.000000 0.000000
0.934575 0.000000 0.000000
0.996421 0.000000 0.000000
1.000000 0.000000 0.000000
1.000000 0.000000 0.000000
0.013333 0.035619 0.030864
0.031228 0.033398 0.032094
0.048033 0.031793 0.029656
0.074364 0.027546 0.025253
0.125904 0.016238 0.015469
0.207495 0.000165 0.001583
0.328324 0.000000 0.000000
0.455643 0.000000 0.000000
0.569413 0.000000 0.000000
0.673622 0.000000 0.000000
0.767344 0.000000 0.000000
0.856647 0.000000 0.000000
0.944352 0.000000 0.000000
0.999700 0.000000 0.000000
1.000000 0.000000 0.000000
1.000000 0.000000 0.000000
0.011531 0.047584 0.024492
0.029935 0.044836 0.026622
0.046304 0.043239 0.027720
0.071464 0.039353 0.028127
0.120241 0.028604 0.027310
0.200794 0.010182 0.021559
0.325786 0.000000 0.006439
0.457845 0.000000 0.000000
0.575673 0.000000 0.000000
0.682923 0.000000 0.000000
0.778524 0.000000 0.000000
0.870577 0.000000 0.000000
0.959598 0.000000 0.000000
1.000000 0.000000 0.000000
1.000000 0.000000 0.000000
1.000000 0.000000 0.000000
0.006108 0.062197 0.011428
0.027916 0.058875 0.019162
0.041688 0.059705 0.020104
0.069740 0.056645 0.020621
0.119814 0.048667 0.020192
0.195167 0.034021 0.020706
0.318167 0.009548 0.017743
0.453818 0.000000 0.009615
0.576016 0.000000 0.001543
0.685972 0.000000 0.000004
0.783812 0.000000 0.000000
0.878497 0.000000 0.000000
0.970405 0.000000 0.000000
1.000000 0.000000 0.000000
1.000000 0.000000 0.000000
1.000000 0.000000 0.000000
0.000000 0.084634 0.000000
0.021347 0.082783 0.003602
0.039242 0.085303 0.008633
0.055800 0.090355 0.003809
0.113666 0.082854 0.007109
0.197143 0.068934 0.007220
0.307075 0.050473 0.005634
0.443348 0.023296 0.003886
0.565957 0.004633 0.001919
0.677437 0.000000 0.000551
0.776616 0.000000 0.000301
0.871918 0.000000 0.000252
0.965639 0.000000 0.000250
1.000000 0.000000 0.000665
1.000000 0.000000 0.003548
1.000000 0.000000 0.006001
0.000000 0.117927 0.000000
0.015339 0.119350 0.000000
0.035551 0.124062 0.000112
0.056874 0.130599 0.000101
0.083786 0.132098 0.000000
0.175494 0.120204 0.000005
0.317427 0.094056 0.000000
0.438686 0.076641 0.000043
0.563885 0.055710 0.000024
0.684073 0.035382 0.000035
0.788545 0.020807 0.000334
0.885105 0.014696 0.001419
0.977847 0.010423 0.007989
1.000000 0.008195 0.016446
1.000000 0.011080 0.028956
1.000000 0.014372 0.036604
0.000000 0.163110 0.000000
0.005701 0.167390 0.000000
0.027362 0.174720 0.000000
0.053050 0.182788 0.000000
0.081099 0.193799 0.000000
0.123586 0.185708 0.000000
0.268467 0.169748 0.000000
0.455924 0.139298 0.000000
0.585181 0.119250 0.000000
0.697065 0.114041 0.000000
0.811601 0.103731 0.000325
0.914527 0.096344 0.005923
0.995580 0.091201 0.017530
1.000000 0.089529 0.030222
1.000000 0.095990 0.045063
1.000000 0.102181 0.053396
0.000000 0.221702 0.000000
0.000195 0.230149 0.000000
0.015128 0.241814 0.000000
0.044929 0.253639 0.000000
0.080363 0.268525 0.000000
0.106140 0.280174 0.000000
0.200516 0.261184 0.000000
0.390025 0.244225 0.000000
0.591046 0.220825 0.000000
0.747732 0.187169 0.000000
0.838444 0.194128 0.000004
0.935677 0.199036 0.000832
1.000000 0.197186 0.011798
1.000000 0.195413 0.026975
1.000000 0.202349 0.041714
1.000000 0.209185 0.049209
0.000000 0.297065 0.000000
0.000000 0.310867 0.000000
0.008272 0.328024 0.000000
0.042974 0.344860 0.000000
0.086886 0.361402 0.000000
0.126197 0.385059 0.000000
0.142597 0.375975 0.000000
0.335761 0.357491 0.000000
0.521394 0.335867 0.000000
0.718058 0.326910 0.000000
0.889595 0.280743 0.000000
0.978725 0.281726 0.000000
1.000000 0.296966 0.000019
1.000000 0.307624 0.000995
1.000000 0.319136 0.012054
1.000000 0.327408 0.020166
0.000000 0.391381 0.000000
0.000000 0.410744 0.000000
0.010117 0.432182 0.000000
0.048079 0.452245 0.000000
0.097246 0.470568 0.000000
0.139987 0.494665 0.000000
0.180405 0.514664 0.000000
0.212953 0.480849 0.000000
0.489353 0.461470 0.000000
0.654368 0.429172 0.000000
0.837583 0.438112 0.000000
0.993482 0.393875 0.000000
1.000000 0.381921 0.000000
1.000000 0.394676 0.000000
1.000000 0.417507 0.000000
1.000000 0.429795 0.000000
0.000000 0.504786 0.000000
0.000000 0.526565 0.000000
0.015997 0.549897 0.000000
0.055764 0.571113 0.000000
0.107302 0.587900 0.000000
0.157148 0.609161 0.000000
0.205306 0.636212 0.000000
0.227427 0.635704 0.000000
0.329655 0.595624 0.000000
0.637880 0.572457 0.000000
0.793012 0.532876 0.000000
0.940109 0.559505 0.000000
1.000000 0.536699 0.000000
1.000000 0.512039 0.000000
1.000000 0.515081 0.000000
1.000000 0.522261 0.000000
0.000000 0.624316 0.000000
0.001417 0.646194 0.000000
0.029212 0.669332 0.000000
0.070829 0.690434 0.000000
0.126197 0.708208 0.000000
0.183519 0.727735 0.000000
0.236854 0.754204 0.000000
0.294378 0.776914 0.000000
0.295544 0.749296 0.000000
0.502031 0.716497 0.000000
0.799028 0.674910 0.000000
0.924229 0.640976 0.000000
1.000000 0.662598 0.000000
1.000000 0.677412 0.000000
1.000000 0.669864 0.000000
1.000000 0.669502 0.000000
0.000000 0.741263 0.000000
0.018840 0.764210 0.000000
0.055596 0.788449 0.000000
0.099955 0.810695 0.000000
0.158985 0.827960 0.000000
0.222716 0.845291 0.000000
0.282240 0.867975 0.000000
0.343579 0.892022 0.000000
0.373687 0.897797 0.000000
0.400633 0.851963 0.000000
0.732417 0.820386 0.000000
0.938595 0.757230 0.000000
1.000000 0.733640 0.000000
1.000000 0.742476 0.000000
1.000000 0.766643 0.000000
1.000000 0.777343 0.000000
0.014602 0.859095 0.000000
0.054448 0.882492 0.000000
0.091624 0.906646 0.000000
0.136596 0.927091 0.000000
0.197489 0.941557 0.000000
0.264036 0.954659 0.000000
0.325658 0.970858 0.000000
0.381411 0.985532 0.000000
0.439323 0.991807 0.000000
0.429328 0.973732 0.000000
0.580246 0.927681 0.000000
0.924512 0.885220 0.000000
1.000000 0.826509 0.000000
1.000000 0.808429 0.000000
1.000000 0.811432 0.000000
1.000000 0.816212 0.000000
0.055285 0.970880 0.000000
0.093156 0.986130 0.000000
0.128789 0.994052 0.000000
0.172804 0.999446 0.000000
0.233701 1.000000 0.000000
0.299405 1.000000 0.000000
0.361062 1.000000 0.000000
0.413340 1.000000 0.000000
0.474016 1.000000 0.000000
0.484490 1.000000 0.000000
0.520814 0.999381 0.000000
0.844032 0.974755 0.000000
1.000000 0.926532 0.000000
1.000000 0.883761 0.000000
1.000000 0.874134 0.000000
1.000000 0.874718 0.000000
0.099866 1.000000 0.000000
0.135618 1.000000 0.000000
0.169368 1.000000 0.000000
0.212051 1.000000 0.000000
0.272757 1.000000 0.000000
0.337623 1.000000 0.000000
0.399261 1.000000 0.000000
0.451647 1.000000 0.000000
0.508695 1.000000 0.000000
0.537368 1.000000 0.000000
0.537527 1.000000 0.000000
0.796149 1.000000 0.000000
1.000000 0.994697 0.000000
1.000000 0.952865 0.000000
1.000000 0.930924 0.000000
1.000000 0.928604 0.000000
0.012005 0.022549 0.052867
0.029860 0.020425 0.054099
0.046849 0.019117 0.055993
0.072831 0.014979 0.057156
0.123532 0.003232 0.052689
0.205130 0.000000 0.011284
0.324762 0.000000 0.000000
0.449141 0.000000 0.000000
0.560376 0.000000 0.000000
0.662874 0.000000 0.000000
0.755732 0.000000 0.000000
0.843686 0.000000 0.000000
0.928813 0.000000 0.000000
0.994568 0.000000 0.000000
1.000000 0.000000 0.000000
1.000000 0.000000 0.000000
0.006288 0.037306 0.045301
0.027615 0.033873 0.047191
0.044075 0.032047 0.048494
0.069442 0.027542 0.048827
0.120354 0.017591 0.027526
0.199767 0.000981 0.002381
0.318119 0.000000 0.000000
0.446495 0.000000 0.000000
0.561463 0.000000 0.000000
0.666987 0.000000 0.000000
0.761780 0.000000 0.000000
0.851906 0.000000 0.000000
0.939867 0.000000 0.000000
0.998536 0.000000 0.000000
1.000000 0.000000 0.000000
1.000000 0.000000 0.000000
0.007881 0.048087 0.039793
0.025046 0.045899 0.040649
0.042020 0.044163 0.042317
0.068284 0.040435 0.038544
0.119406 0.030479 0.028693
0.200538 0.013122 0.015645
0.324563 0.000000 0.002136
0.455883 0.000000 0.000000
0.573701 0.000000 0.000000
0.681317 0.000000 0.000000
0.777237 0.000000 0.000000
0.869397 0.000000 0.000000
0.958492 0.000000 0.000000
1.000000 0.000000 0.000000
1.000000 0.000000 0.000000
1.000000 0.000000 0.000000
0.002671 0.062861 0.026888
0.020331 0.061617 0.029024
0.039937 0.060452 0.034340
0.066496 0.058367 0.035488
0.115516 0.050711 0.036546
0.194461 0.035774 0.035967
0.322114 0.010956 0.028326
0.459932 0.000000 0.014642
0.582445 0.000000 0.004049
0.691631 0.000000 0.000117
0.789058 0.000000 0.000000
0.883091 0.000000 0.000000
0.974772 0.000000 0.000000
1.000000 0.000000 0.000000
1.000000 0.000000 0.000000
1.000000 0.000000 0.000000
0.000000 0.087684 0.003298
0.011352 0.087914 0.007062
0.036346 0.087985 0.020264
0.058593 0.091173 0.022235
0.112698 0.085204 0.023080
0.192682 0.072608 0.023995
0.305952 0.053318 0.022998
0.443029 0.026137 0.021142
0.566589 0.006115 0.017763
0.679519 0.000007 0.014235
0.780304 0.000000 0.010524
0.877055 0.000000 0.006632
0.972232 0.000000 0.006029
1.000000 0.000000 0.005837
1.000000 0.000000 0.008291
1.000000 0.000000 0.010650
0.000000 0.124420 0.000000
0.006359 0.125307 0.000000
0.032238 0.127947 0.003679
0.059280 0.132007 0.010242
0.085339 0.135925 0.002733
0.174997 0.123908 0.005458
0.312712 0.099180 0.006144
0.435878 0.082268 0.006364
0.564836 0.059973 0.008660
0.684826 0.039925 0.010515
0.789543 0.025901 0.014728
0.886720 0.018167 0.020644
0.979592 0.014108 0.027360
1.000000 0.012132 0.036078
1.000000 0.014920 0.047986
1.000000 0.018185 0.055440
0.000000 0.171011 0.000000
0.001496 0.173973 0.000000
0.023890 0.180012 0.000000
0.053977 0.186265 0.000215
0.086459 0.196663 0.000013
0.122636 0.191197 0.000000
0.269692 0.175403 0.000082
0.455929 0.144927 0.000263
0.580540 0.128370 0.000481
0.698557 0.121543 0.004620
0.813755 0.110517 0.015241
0.916736 0.103293 0.026340
0.996997 0.098599 0.038402
1.000000 0.096914 0.050907
1.000000 0.103627 0.065985
1.000000 0.110111 0.074486
0.000000 0.230671 0.000000
0.000000 0.237950 0.000000
0.011469 0.248685 0.000000
0.045419 0.259661 0.000000
0.086177 0.272174 0.000000
0.118108 0.288245 0.000000
0.197107 0.268501 0.000000
0.392784 0.251750 0.000000
0.594194 0.227144 0.000000
0.743530 0.197293 0.000000
0.835703 0.205538 0.001556
0.936856 0.208432 0.014631
1.000000 0.205281 0.031633
1.000000 0.203638 0.046779
1.000000 0.210419 0.061301
1.000000 0.217187 0.068644
0.000000 0.307001 0.000000
0.000000 0.320096 0.000000
0.006038 0.336918 0.000000
0.043298 0.352651 0.000000
0.092093 0.367831 0.000000
0.132455 0.390706 0.000000
0.153396 0.387937 0.000000
0.333150 0.365043 0.000000
0.523478 0.343499 0.000000
0.722639 0.333594 0.000000
0.887629 0.289639 0.000000
0.973395 0.293442 0.000023
1.000000 0.308977 0.001188
1.000000 0.317804 0.013942
1.000000 0.328787 0.032235
1.000000 0.337268 0.040151
0.000000 0.403032 0.000000
0.000000 0.421570 0.000000
0.007921 0.442378 0.000000
0.048745 0.461915 0.000000
0.101284 0.478249 0.000000
0.148293 0.500228 0.000000
0.191791 0.522675 0.000000
0.216753 0.489880 0.000000
0.489425 0.470107 0.000000
0.656145 0.437067 0.000000
0.841735 0.445828 0.000000
0.993924 0.402296 0.000000
1.000000 0.392823 0.000000
1.000000 0.407814 0.000000
1.000000 0.430960 0.000000
1.000000 0.443010 0.000504
0.000000 0.517090 0.000000
0.000000 0.538224 0.000000
0.014318 0.561049 0.000000
0.056221 0.580748 0.000000
0.111020 0.596479 0.000000
0.164554 0.615565 0.000000
0.213731 0.642133 0.000000
0.244575 0.647056 0.000000
0.328609 0.603865 0.000000
0.640133 0.582520 0.000000
0.795082 0.541618 0.000000
0.942157 0.568493 0.000000
1.000000 0.545128 0.000000
1.000000 0.521218 0.000000
1.000000 0.525299 0.000000
1.000000 0.533086 0.000000
0.000000 0.636298 0.000000
0.000990 0.657699 0.000000
0.028235 0.680107 0.000000
0.072143 0.700682 0.000000
0.130086 0.717141 0.000000
0.190776 0.735094 0.000000
0.247281 0.760285 0.000000
0.307885 0.783995 0.000000
0.311040 0.760536 0.000000
0.499496 0.723829 0.000000
0.801402 0.684062 0.000000
0.925538 0.649014 0.000000
1.000000 0.670416 0.000000
1.000000 0.684650 0.000000
1.000000 0.676429 0.000000
1.000000 0.675646 0.000000
0.000000 0.753412 0.000000
0.017471 0.775788 0.000000
0.055724 0.799802 0.000000
0.101682 0.820988 0.000000
0.162927 0.837140 0.000000
0.229746 0.853150 0.000000
0.292419 0.873445 0.000000
0.353546 0.897680 0.000000
0.392351 0.906271 0.000000
0.408985 0.859481 0.000000
0.729820 0.826636 0.000000
0.939430 0.764809 0.000000
1.000000 0.740233 0.000000
1.000000 0.748643 0.000000
1.000000 0.772994 0.000000
1.000000 0.783645 0.000000
0.012751 0.871209 0.000000
0.053544 0.894123 0.000000
0.091546 0.917412 0.000000
0.137969 0.937133 0.000000
0.200762 0.949977 0.000000
0.269501 0.961636 0.000000
0.334302 0.975483 0.000000
0.390356 0.987445 0.000000
0.452461 0.994070 0.000000
0.444685 0.978414 0.000000
0.578291 0.933321 0.000000
0.922881 0.891846 0.000000
1.000000 0.832834 0.000000
1.000000 0.813787 0.000000
1.000000 0.816465 0.000000
1.000000 0.821127 0.000000
0.053145 0.981658 0.000000
0.091362 0.990038 0.000000
0.127866 0.997462 0.000000
0.172728 1.000000 0.000000
0.235758 1.000000 0.000000
0.303404 1.000000 0.000000
0.367698 1.000000 0.000000
0.422388 1.000000 0.000000
0.482067 1.000000 0.000000
0.501637 1.000000 0.000000
0.526550 0.999510 0.000000
0.837720 0.978760 0.000000
1.000000 0.933373 0.000000
1.000000 0.888929 0.000000
1.000000 0.878584 0.000000
1.000000 0.879198 0.000000
0.096225 1.000000 0.000000
0.132775 1.000000 0.000000
0.167054 1.000000 0.000000
0.210949 1.000000 0.000000
0.273664 1.000000 0.000000
0.340205 1.000000 0.000000
0.404894 1.000000 0.000000
0.460164 1.000000 0.000000
0.515979 1.000000 0.000000
0.554573 1.000000 0.000000
0.545825 1.000000 0.000000
0.789101 1.000000 0.000000
1.000000 0.996375 0.000000
1.000000 0.958453 0.000000
1.000000 0.934947 0.000000
1.000000 0.932300 0.000000
0.006162 0.022994 0.076115
0.024132 0.020920 0.077426
0.041159 0.019642 0.079184
0.067051 0.015443 0.080075
0.116760 0.003823 0.078584
0.194460 0.000000 0.069864
0.313401 0.000000 0.022457
0.440474 0.000000 0.000511
0.552738 0.000000 0.000000
0.654933 0.000000 0.000000
0.747762 0.000000 0.000000
0.835710 0.000000 0.000000
0.919711 0.000000 0.000000
0.991939 0.000000 0.000000
1.000000 0.000000 0.000000
1.000000 0.000000 0.000000
0.003939 0.036668 0.069051
0.022001 0.034197 0.070160
0.038419 0.032378 0.071214
0.063703 0.027840 0.071785
0.112153 0.016321 0.070685
0.189769 0.000681 0.047491
0.308398 0.000000 0.007276
0.436971 0.000000 0.000000
0.551528 0.000000 0.000000
0.657143 0.000000 0.000000
0.752834 0.000000 0.000000
0.844038 0.000000 0.000000
0.932192 0.000000 0.000000
0.995893 0.000000 0.000000
1.000000 0.000000 0.000000
1.000000 0.000000 0.000000
0.000166 0.050184 0.060620
0.018401 0.046589 0.063052
0.036568 0.044616 0.064933
0.062176 0.040650 0.066053
0.111500 0.030789 0.060974
0.190537 0.015870 0.032736
0.312441 0.000378 0.004127
0.444556 0.000000 0.000000
0.563520 0.000000 0.000000
0.672362 0.000000 0.000000
0.769500 0.000000 0.000000
0.862257 0.000000 0.000000
0.951453 0.000000 0.000000
1.000000 0.000000 0.000000
1.000000 0.000000 0.000000
1.000000 0.000000 0.000000
0.000000 0.063433 0.049541
0.013706 0.062828 0.051562
0.032426 0.062353 0.054372
0.060348 0.060296 0.056836
0.111665 0.053064 0.052214
0.193312 0.039440 0.040125
0.322529 0.015367 0.023954
0.460355 0.000397 0.007963
0.582148 0.000000 0.001721
0.691084 0.000000 0.000000
0.788322 0.000000 0.000000
0.882250 0.000000 0.000000
0.973746 0.000000 0.000000
1.000000 0.000000 0.000000
1.000000 0.000000 0.000000
1.000000 0.000000 0.000000
0.000000 0.089106 0.022481
0.004262 0.090764 0.027192
0.024182 0.093363 0.032896
0.057420 0.092790 0.044448
0.108011 0.088203 0.045846
0.183567 0.077330 0.047023
0.303108 0.056084 0.046711
0.443101 0.028723 0.042511
0.569711 0.007646 0.035628
0.684904 0.000157 0.027372
0.787178 0.000000 0.018993
0.885465 0.000000 0.012411
0.979865 0.000000 0.010051
1.000000 0.000000 0.008670
1.000000 0.000000 0.010326
1.000000 0.000000 0.012479
0.000000 0.128387 0.001268
0.000265 0.132206 0.002351
0.017084 0.135905 0.008936
0.055257 0.135548 0.028279
0.089758 0.138893 0.024469
0.173200 0.127600 0.029632
0.302645 0.105681 0.030153
0.431947 0.087963 0.031826
0.563253 0.064368 0.034161
0.683516 0.044687 0.036367
0.789071 0.031177 0.040827
0.887766 0.021830 0.046266
0.981738 0.017735 0.052070
1.000000 0.015732 0.058746
1.000000 0.018812 0.069221
1.000000 0.022217 0.076460
0.000000 0.179203 0.000000
0.000000 0.184015 0.000000
0.009962 0.189144 0.000000
0.048879 0.192090 0.005395
0.091508 0.197621 0.007739
0.123744 0.197681 0.003888
0.268865 0.181713 0.008055
0.451248 0.151473 0.018042
0.572372 0.139353 0.019259
0.698063 0.128942 0.032040
0.813836 0.117442 0.042636
0.917137 0.110555 0.054011
0.997187 0.105851 0.065947
1.000000 0.104435 0.078617
1.000000 0.111152 0.094062
1.000000 0.117606 0.102505
0.000000 0.242215 0.000000
0.000000 0.249503 0.000000
0.003352 0.259232 0.000000
0.040187 0.267329 0.000000
0.090878 0.275989 0.000654
0.129459 0.293843 0.000000
0.192529 0.276261 0.000052
0.393533 0.260006 0.001053
