src/luts/sony-s-log.cube
TITLE "Generated by Resolve"
LUT_3D_SIZE 5
0 0 0.00680552
0.330571 0 0
0.784268 0 0
1 0 0
1 0 0
0 0.104448 0
0.0742046 0.0930037 0
0.65803 0 0
1 0 0
1 0 0
0 0.485191 0
0 0.528771 0
0.505379 0.520119 0
1 0.406744 0
1 0.363836 0
0 0.967559 0
0 1 0
0 1 0
0.989639 1 0
1 1 0
0 1 0
0 1 0
0 1 0
0.922805 1 0
1 1 0
0 0 0.268742
0.251087 0 0.2365
0.704479 0 0.0852827
1 0 0
1 0 0
0 0.0778363 0.0655375
0.0593271 0.0689555 0.0813153
0.709239 0 0
1 0 0
1 0 0
0 0.485695 0
0 0.533516 0
0.507698 0.525795 0
1 0.409766 0
1 0.286549 0
0 0.976516 0
0 1 0
0 1 0
0.99472 1 0
1 1 0
0 1 0
0 1 0
0 1 0
0.911116 1 0
1 1 0
0 0 0.737133
0.0567483 0 0.702098
0.652171 0 0.594659
1 0 0.408743
1 0 0.248554
0 0 0.454841
0 0 0.492164
0.628153 0 0.560891
1 0 0.46891
1 0 0.272923
0 0.450492 0.420005
0 0.498863 0.470939
0.480278 0.486198 0.491096
1 0.380133 0.384451
1 0.316609 0.157305
0 0.967025 0.306661
0 1 0.420203
0 1 0.505196
0.983322 0.982879 0.517586
1 1 0.0504005
0 1 0.433234
0 1 0.525338
0 1 0.494194
0.881392 1 0.363333
1 1 0
0 0 0.988785
0 0 0.959274
0.475929 0 0.960739
1 0 0.924269
1 0 0.83595
0 0 0.898756
0 0 0.921904
0.502724 0 0.965942
1 0 0.958495
1 0 0.897093
0 0.343664 0.892531
0 0.409766 0.917678
0.350393 0.414878 0.917708
1 0.17705 0.93727
1 0.365164 0.902892
0 0.924437 0.842985
0 0.977172 0.8878
0 0.980163 0.909545
0.964019 0.943023 0.912657
1 0.941344 0.876738
0 1 0.874174
0 1 0.89807
0 1 0.883833
0.831937 1 0.841611
1 1 0.768414
0 0 1
0 0 1
0.30164 0 1
1 0 1
1 0 1
0 0 1
0 0 1
0.369451 0 1
1 0 1
1 0 1
0 0.291524 1
0 0.386343 1
0.140505 0.416907 1
1 0.018967 1
1 0 1
0 0.915404 1
0 0.97528 1
0 0.982177 1
0.942962 0.938125 1
1 0.914382 1
0 1 0.997208
0 1 1
0 1 0.993591
0.786236 1 0.978439
1 0.989273 0.961929
