src/luts/sony-s-log.cube
TITLE "Generated by Resolve"
LUT_3D_SIZE 33
0 0 0.00680552
0.0342412 0 0.000411994
0.0726635 0 0
0.109636 0 0
0.15021 0 0
0.19144 0 0
0.234195 0 0
0.280095 0 0
0.330571 0 0
0.386603 0 0
0.448432 0 0
0.503655 0 0
0.555627 0 0
0.608927 0 0
0.665431 0 0
0.724407 0 0
0.784268 0 0
0.842374 0 0
0.899245 0 0
0.955459 0 0
1 0 0
1 0 0
1 0 0
1 0 0
1 0 0
1 0 0
1 0 0
1 0 0
1 0 0
1 0 0
1 0 0
1 0 0
1 0 0
0 0.00857557 0
0.00280766 0.00210575 0
0.0428016 0 0
0.083711 0 0
0.121736 0 0
0.163256 0 0
0.204501 0 0
0.24741 0 0
0.293584 0 0
0.340612 0 0
0.38616 0 0
0.438346 0 0
0.494408 0 0
0.547723 0 0
0.604242 0 0
0.664347 0 0
0.727474 0 0
0.792432 0 0
0.855451 0 0
0.918013 0 0
0.979416 0 0
1 0 0
1 0 0
1 0 0
1 0 0
1 0 0
1 0 0
1 0 0
1 0 0
1 0 0
1 0 0
1 0 0
1 0 0
0 0.0213931 0
0 0.0144961 0
0.00790417 0.00848402 0
0.0480964 0.00395209 0
0.0900282 0 0
0.13022 0 0
0.172732 0 0
0.214511 0 0
0.248814 0 0
0.284504 0 0
0.327367 0 0
0.377325 0 0
0.433494 0 0
0.493843 0 0
0.551949 0 0
0.615076 0 0
0.682139 0 0
0.750973 0 0
0.820508 0 0
0.889174 0 0
0.956374 0 0
1 0 0
1 0 0
1 0 0
1 0 0
1 0 0
1 0 0
1 0 0
1 0 0
1 0 0
1 0 0
1 0 0
1 0 0
0 0.0339666 0
0 0.0271458 0
0 0.020264 0
0.0133974 0.014847 0
0.0531624 0.0108492 0
0.094728 0.00476081 0
0.136126 0 0
0.169848 0 0
0.20145 0 0
0.236561 0 0
0.278218 0 0
0.327596 0 0
0.385199 0 0
0.448234 0 0
0.511238 0 0
0.57702 0 0
0.649104 0 0
0.723522 0 0
0.798199 0 0
0.870832 0 0
0.94284 0 0
1 0 0
1 0 0
1 0 0
1 0 0
1 0 0
1 0 0
1 0 0
1 0 0
1 0 0
1 0 0
1 0 0
1 0 0
0 0.0463874 0
0 0.0398871 0
0 0.0330968 0
0 0.0263523 0
0.0179141 0.0213321 0
0.0577249 0.0179446 0
0.0968185 0.0125277 0
0.129381 0.00621042 0
0.163577 0.000213626 0
0.200305 0 0
0.241413 0 0
0.290211 0 0
0.348699 0 0
0.415305 0 0
0.484901 0 0
0.553933 0 0
0.627878 0 0
0.707134 0 0
0.787854 0 0
0.865034 0 0
0.939605 0 0
1 0 0
1 0 0
1 0 0
1 0 0
1 0 0
1 0 0
1 0 0
1 0 0
1 0 0
1 0 0
1 0 0
1 0 0
0 0.0583505 0
0 0.0527504 0
0 0.046479 0
0 0.0401923 0
0 0.0343786 0
0.0253605 0.0306859 0
0.0639963 0.0276493 0
0.0968795 0.0226749 0
0.134432 0.0178988 0
0.173602 0.0132448 0
0.216938 0.007187 0
0.266606 0 0
0.325521 0 0
0.394903 0 0
0.470375 0 0
0.543374 0 0
0.621286 0 0
0.703212 0 0
0.786801 0 0
0.869642 0 0
0.947768 0 0
1 0 0
1 0 0
1 0 0
1 0 0
1 0 0
1 0 0
1 0 0
1 0 0
1 0 0
1 0 0
1 0 0
1 0 0
0 0.0715038 0
0 0.0674907 0
0 0.062211 0
0 0.0567178 0
0 0.0513466 0
0 0.0465095 0
0.0367285 0.044892 0
0.0735485 0.0417639 0
0.113069 0.0381018 0
0.155077 0.033814 0
0.201328 0.0286107 0
0.253666 0.0207828 0
0.315709 0.00843824 0
0.387884 0 0
0.466468 0 0
0.543603 0 0
0.625437 0 0
0.711391 0 0
0.798489 0 0
0.881239 0 0
0.960159 0 0
1 0 0
1 0 0
1 0 0
1 0 0
1 0 0
1 0 0
1 0 0
1 0 0
1 0 0
1 0 0
1 0 0
1 0 0
0 0.0867323 0
0 0.0842145 0
0 0.0806592 0
0 0.076585 0
0 0.0721447 0
0 0.0682383 0
0.0140841 0.0647593 0
0.0523842 0.0645762 0
0.0962234 0.0625467 0
0.143847 0.0585489 0
0.193057 0.0531777 0
0.249485 0.0454414 0
0.315435 0.0325322 0
0.391379 0.0130312 0
0.473793 0 0
0.553948 0 0
0.639384 0 0
0.728267 0 0
0.815641 0 0
0.898482 0 0
0.976043 0 0
1 0 0
1 0 0
1 0 0
1 0 0
1 0 0
1 0 0
1 0 0
1 0 0
1 0 0
1 0 0
1 0 0
1 0 0
0 0.104448 0
0 0.103731 0
0 0.101976 0
0 0.0995499 0
0 0.0970474 0
0 0.0945754 0
0 0.092607 0
0.0312963 0.0909438 0
0.0742046 0.0930037 0
0.132967 0.0935073 0
0.188998 0.0895247 0
0.249485 0.0818494 0
0.319493 0.0682689 0
0.399588 0.047776 0
0.486351 0.0197299 0
0.570275 0 0
0.65803 0 0
0.746822 0 0
0.833295 0 0
0.914626 0 0
0.990433 0 0
1 0 0
1 0 0
1 0 0
1 0 0
1 0 0
1 0 0
1 0 0
1 0 0
1 0 0
1 0 0
1 0 0
1 0 0
0 0.129763 0
0 0.130739 0
0 0.131243 0
0 0.130861 0
0 0.129763 0
0 0.129213 0
0 0.129244 0
0.00492866 0.129641 0
0.0467079 0.130282 0
0.108537 0.133303 0
0.175586 0.134859 0
0.246952 0.130678 0
0.323278 0.119631 0
0.408728 0.100618 0
0.500114 0.0710613 0
0.585321 0.0360571 0
0.673823 0 0
0.762646 0 0
0.847822 0 0
0.926955 0 0
0.999786 0 0
1 0 0
1 0 0
1 0 0
1 0 0
1 0 0
1 0 0
1 0 0
1 0 0
1 0 0
1 0 0
1 0 0
1 0 0
0 0.1608 0
0 0.163668 0
0 0.166644 0
0 0.167895 0
0 0.168704 0
0 0.169741 0
0 0.171481 0
0 0.174304 0
0.0117494 0.176425 0
0.0746929 0.177218 0
0.148425 0.180346 0
0.226734 0.180819 0
0.315785 0.174731 0
0.41207 0.159869 0
0.506569 0.136797 0
0.593957 0.107149 0
0.682353 0.0629892 0
0.769512 0.0105898 0
0.853086 0 0
0.931029 0 0
1 0 0
1 0 0
1 0 0
1 0 0
1 0 0
1 0 0
1 0 0
1 0 0
1 0 0
1 0 0
1 0 0
1 0 0
1 0 0
0 0.199832 0
0 0.204044 0
0 0.208667 0
0 0.211643 0
0 0.214282 0
0 0.217075 0
0 0.220829 0
0 0.224308 0
0 0.227207 0
0.0254215 0.229007 0
0.110384 0.229267 0
0.195941 0.231296 0
0.289128 0.229206 0
0.390784 0.219348 0
0.497276 0.201495 0
0.589654 0.177142 0
0.679454 0.145418 0
0.768765 0.102632 0
0.853086 0.0451057 0
0.93051 0 0
1 0 0
1 0 0
1 0 0
1 0 0
1 0 0
1 0 0
1 0 0
1 0 0
1 0 0
1 0 0
1 0 0
1 0 0
1 0 0
0 0.245594 0
0 0.251957 0
0 0.258305 0
0 0.262638 0
0 0.266667 0
0 0.27042 0
0 0.274449 0
0 0.278813 0
0 0.282124 0
0 0.283986 0
0.0436255 0.28452 0
0.151003 0.282246 0
0.250828 0.281743 0
0.355642 0.276066 0
0.464454 0.26392 0
0.566751 0.246128 0
0.669871 0.220966 0
0.761364 0.189227 0
0.847288 0.1505 0
0.926986 0.101366 0
0.999466 0.0398871 0
1 0 0
1 0 0
1 0 0
1 0 0
1 0 0
1 0 0
1 0 0
1 0 0
1 0 0
1 0 0
1 0 0
1 0 0
0 0.299016 0
0 0.306676 0
0 0.313878 0
0 0.319448 0
0 0.323873 0
0 0.328038 0
0 0.331792 0
0 0.33521 0
0 0.338109 0
0 0.340475 0
0 0.341436 0
0.0721752 0.339864 0
0.200076 0.335164 0
0.312718 0.332006 0
0.424964 0.3252 0
0.530602 0.313924 0
0.637354 0.295933 0
0.744106 0.270588 0
0.838209 0.239963 0
0.920577 0.206958 0
0.995209 0.169833 0
1 0.126009 0
1 0.0745861 0
1 0.0209659 0
1 0 0
1 0 0
1 0 0
1 0 0
1 0 0
1 0 0
1 0 0
1 0 0
1 0 0
0 0.358206 0
0 0.366735 0
0 0.374517 0
0 0.379141 0
0 0.383185 0
0 0.386618 0
0 0.390143 0
0 0.394095 0
0 0.397772 0
0 0.400137 0
0 0.401205 0
0 0.400458 0
0.12079 0.397269 0
0.260105 0.391165 0
0.379583 0.387564 0
0.488533 0.38085 0
0.598093 0.369207 0
0.70901 0.352178 0
0.814038 0.32929 0
0.910399 0.302068 0
0.986877 0.274128 0
1 0.244648 0
1 0.215763 0
1 0.186267 0
1 0.157473 0
1 0.131106 0
1 0.10631 0
1 0.0847639 0
1 0.0672007 0
1 0.0556344 0
1 0.0487373 0
1 0.0459144 0
1 0.0497292 0
0 0.420417 0
0 0.428717 0
0 0.436316 0
0 0.441016 0
0 0.444709 0
0 0.448234 0
0 0.452506 0
0 0.457023 0
0 0.460746 0
0 0.463844 0
0 0.465919 0
0 0.466758 0
0 0.465034 0
0.181323 0.46006 0
0.324544 0.452674 0
0.440528 0.450004 0
0.554681 0.443931 0
0.668925 0.432517 0
0.777905 0.417517 0
0.878065 0.398093 0
0.968154 0.375296 0
1 0.350958 0
1 0.329564 0
1 0.309224 0
1 0.290455 0
1 0.274144 0
1 0.260334 0
1 0.249149 0
1 0.241306 0
1 0.236789 0
1 0.232807 0
1 0.231189 0
1 0.232654 0
0 0.485191 0
0 0.493339 0
0 0.500847 0
0 0.50576 0
0 0.510246 0
0 0.514992 0
0 0.519448 0
0 0.524208 0
0 0.528771 0
0 0.533303 0
0 0.536706 0
0 0.538689 0
0 0.537835 0
0.0243992 0.534142 0
0.248875 0.528862 0
0.384329 0.522087 0
0.505379 0.520119 0
0.624216 0.51397 0
0.736538 0.504005 0
0.840314 0.490852 0
0.934386 0.475364 0
1 0.45742 0
1 0.439017 0
1 0.421485 0
1 0.406744 0
1 0.394339 0
1 0.384192 0
1 0.376074 0
1 0.371298 0
1 0.367025 0
1 0.364004 0
1 0.363088 0
1 0.363836 0
0 0.551751 0
0 0.560052 0
0 0.568505 0
0 0.574884 0
0 0.58024 0
0 0.585046 0
0 0.590265 0
0 0.596216 0
0 0.60206 0
0 0.607309 0
0 0.611658 0
0 0.614252 0
0 0.614557 0
0 0.612757 0
0.117281 0.608438 0
0.309743 0.603342 0
0.448066 0.597101 0
0.573327 0.594675 0
0.690364 0.589258 0
0.798032 0.581033 0
0.89572 0.570962 0
0.982971 0.559136 0
1 0.545769 0
1 0.531594 0
1 0.517403 0
1 0.506859 0
1 0.49897 0
1 0.492317 0
1 0.487037 0
1 0.483726 0
1 0.481147 0
1 0.480934 0
1 0.482963 0
0 0.617487 0
0 0.626749 0
0 0.636332 0
0 0.643503 0
0 0.649317 0
0 0.655024 0
0 0.661433 0
0 0.667903 0
0 0.674937 0
0 0.680781 0
0 0.685679 0
0 0.689082 0
0 0.690654 0
0 0.689525 0
0 0.686778 0
0.201709 0.682597 0
0.380316 0.67686 0
0.5196 0.670558 0
0.641703 0.668421 0
0.753521 0.664607 0
0.85481 0.65861 0
0.944793 0.650248 0
1 0.641047 0
1 0.631205 0
1 0.621363 0
1 0.612192 0
1 0.603342 0
1 0.597498 0
1 0.593378 0
1 0.5906 0
1 0.588785 0
1 0.589899 0
1 0.591501 0
0 0.684047 0
0 0.694224 0
0 0.704417 0
0 0.71162 0
0 0.718151 0
0 0.724666 0
0 0.731395 0
0 0.738857 0
0 0.745602 0
0 0.751827 0
0 0.757168 0
0 0.761532 0
0 0.763439 0
0 0.763073 0
0 0.760708 0
0 0.757458 0
0.294194 0.752819 0
0.461082 0.746761 0
0.593561 0.741253 0
0.709285 0.739834 0
0.81326 0.736461 0
0.90544 0.731456 0
0.984146 0.725536 0
1 0.719127 0
1 0.713649 0
1 0.707958 0
1 0.702449 0
1 0.696895 0
1 0.6925 0
1 0.691539 0
1 0.691997 0
1 0.693675 0
1 0.695705 0
0 0.749859 0
0 0.759625 0
0 0.770169 0
0 0.777935 0
0 0.784863 0
0 0.791348 0
0 0.798779 0
0 0.805905 0
0 0.812894 0
0 0.819242 0
0 0.825086 0
0 0.829725 0
0 0.831632 0
0 0.831327 0
0 0.829496 0
0 0.82678 0
0.175051 0.82295 0
0.39501 0.818173 0
0.544991 0.812055 0
0.666651 0.806943 0
0.773693 0.805493 0
0.867994 0.803159 0
0.949645 0.800412 0
1 0.797543 0
1 0.794369 0
1 0.791836 0
1 0.789792 0
1 0.788617 0
1 0.787747 0
1 0.786496 0
1 0.786114 0
1 0.787823 0
1 0.790066 0
0 0.812634 0
0 0.82237 0
0 0.833021 0
0 0.840604 0
0 0.847791 0
0 0.854337 0
0 0.861036 0
0 0.867903 0
0 0.874647 0
0 0.880827 0
0 0.886687 0
0 0.8907 0
0 0.8925 0
0 0.892271 0
0 0.890669 0
0 0.888319 0
0 0.885008 0
0.321706 0.8804 0
0.496788 0.87512 0
0.629648 0.869444 0
0.740719 0.865049 0
0.836347 0.864225 0
0.920363 0.863249 0
0.989258 0.862318 0
1 0.861814 0
1 0.861646 0
1 0.86186 0
1 0.863157 0
1 0.863722 0
1 0.864561 0
1 0.86566 0
1 0.866346 0
1 0.866712 0
0 0.867018 0
0 0.876738 0
0 0.886793 0
0 0.894469 0
0 0.900938 0
0 0.907271 0
0 0.913787 0
0 0.920363 0
0 0.926665 0
0 0.932876 0
0 0.937896 0
0 0.941604 0
0 0.943252 0
0 0.943053 0
0 0.942199 0
0 0.940429 0
0 0.937423 0
0.251804 0.933425 0
0.457053 0.928817 0
0.601602 0.924193 0
0.720363 0.919936 0
0.815991 0.917433 0
0.899351 0.917372 0
0.9673 0.917723 0
1 0.918639 0
1 0.920272 0
1 0.922606 0
1 0.924498 0
1 0.926162 0
1 0.927901 0
1 0.930114 0
1 0.93193 0
1 0.932906 0
0 0.91957 0
0 0.929198 0
0 0.938399 0
0 0.945113 0
0 0.951003 0
0 0.956771 0
0 0.962722 0
0 0.969116 0
0 0.974884 0
0 0.979995 0
0 0.98439 0
0 0.987747 0
0 0.989441 0
0 0.989899 0
0 0.988769 0
0 0.987167 0
0 0.984756 0
0.186343 0.981582 0
0.428367 0.977661 0
0.584024 0.973754 0
0.706859 0.96936 0
0.80354 0.965606 0
0.885847 0.963729 0
0.951644 0.964584 0
1 0.965911 0
1 0.967956 0
1 0.969985 0
1 0.97203 0
1 0.974243 0
1 0.976287 0
1 0.978943 0
1 0.980606 0
1 0.981414 0
0 0.967559 0
0 0.976379 0
0 0.984176 0
0 0.990158 0
0 0.995499 0
0 1 0
0 1 0
0 1 0
0 1 0
0 1 0
0 1 0
0 1 0
0 1 0
0 1 0
0 1 0
0 1 0
0 1 0
0.149538 1 0
0.417151 1 0
0.578408 1 0
0.701732 1 0
0.800076 1 0
0.879423 1 0
0.941726 1 0
0.989639 1 0
1 1 0
1 1 0
1 1 0
1 1 0
1 1 0
1 1 0
1 1 0
1 1 0
0 1 0
0 1 0
0 1 0
0 1 0
0 1 0
0 1 0
0 1 0
0 1 0
0 1 0
0 1 0
0 1 0
0 1 0
0 1 0
0 1 0
0 1 0
0 1 0
0 1 0
0.152178 1 0
0.42118 1 0
0.582483 1 0
0.704112 1 0
0.801602 1 0
0.878126 1 0
0.936507 1 0
0.980926 1 0
1 1 0
1 1 0
1 1 0
1 1 0
1 1 0
1 1 0
1 1 0
1 1 0
0 1 0
0 1 0
0 1 0
0 1 0
0 1 0
0 1 0
0 1 0
0 1 0
0 1 0
0 1 0
0 1 0
0 1 0
0 1 0
0 1 0
0 1 0
0 1 0
0 1 0
0.181582 1 0
0.435874 1 0
0.59469 1 0
0.712535 1 0
0.805737 1 0
0.878126 1 0
0.933608 1 0
0.975128 1 0
1 1 0
1 1 0
1 1 0
1 1 0
1 1 0
1 1 0
1 1 0
1 1 0
0 1 0
0 1 0
0 1 0
0 1 0
0 1 0
0 1 0
0 1 0
0 1 0
0 1 0
