src/luts/sony-s-log.cube
TITLE "Generated by Resolve"
LUT_3D_SIZE 9
0 0 0.00680552
0.15021 0 0
0.330571 0 0
0.555627 0 0
0.784268 0 0
1 0 0
1 0 0
1 0 0
1 0 0
0 0.0463874 0
0.0179141 0.0213321 0
0.163577 0.000213626 0
0.348699 0 0
0.627878 0 0
0.939605 0 0
1 0 0
1 0 0
1 0 0
0 0.104448 0
0 0.0970474 0
0.0742046 0.0930037 0
0.319493 0.0682689 0
0.65803 0 0
0.990433 0 0
1 0 0
1 0 0
1 0 0
0 0.245594 0
0 0.266667 0
0 0.282124 0
0.250828 0.281743 0
0.669871 0.220966 0
0.999466 0.0398871 0
1 0 0
1 0 0
1 0 0
0 0.485191 0
0 0.510246 0
0 0.528771 0
0 0.537835 0
0.505379 0.520119 0
0.934386 0.475364 0
1 0.406744 0
1 0.371298 0
1 0.363836 0
0 0.749859 0
0 0.784863 0
0 0.812894 0
0 0.831632 0
0.175051 0.82295 0
0.773693 0.805493 0
1 0.794369 0
1 0.787747 0
1 0.790066 0
0 0.967559 0
0 0.995499 0
0 1 0
0 1 0
0 1 0
0.701732 1 0
0.989639 1 0
1 1 0
1 1 0
0 1 0
0 1 0
0 1 0
0 1 0
0 1 0
0.725246 1 0
0.965454 1 0
1 1 0
1 1 0
0 1 0
0 1 0
0 1 0
0 1 0
0 1 0
0.673762 1 0
0.922805 1 0
1 1 0
1 1 0
0 0 0.111543
0.116594 0 0.102724
0.253758 0 0.057496
0.526909 0 0
0.821027 0 0
1 0 0
1 0 0
1 0 0
1 0 0
0 0.0274662 0.0247959
0.0041352 0.00274662 0.0125429
0.167422 0 0
0.392889 0 0
0.706783 0 0
1 0 0
1 0 0
1 0 0
1 0 0
0 0.0938735 0
0 0.088365 0
0.0702678 0.084947 0
0.353902 0.0515602 0
0.733654 0 0
1 0 0
1 0 0
1 0 0
1 0 0
0 0.247211 0
0 0.268757 0
0 0.283848 0
0.249393 0.281605 0
0.675242 0.217716 0
1 0 0
1 0 0
1 0 0
1 0 0
0 0.488304 0
0 0.513939 0
0 0.533837 0
0 0.543938 0
0.508888 0.52578 0
0.939849 0.48191 0
1 0.408881 0
1 0.347921 0
1 0.333364 0
0 0.756771 0
0 0.792493 0
0 0.821027 0
0 0.839872 0
0.188266 0.831266 0
0.781201 0.813993 0
1 0.804913 0
1 0.800626 0
1 0.79765 0
0 0.973632 0
0 1 0
0 1 0
0 1 0
0 1 0
0.718181 1 0
0.993332 1 0
1 1 0
1 1 0
0 1 0
0 1 0
0 1 0
0 1 0
0 1 0
0.735653 1 0
0.966964 1 0
1 1 0
1 1 0
0 1 0
0 1 0
0 1 0
0 1 0
0 1 0
0.670542 1 0
0.918288 1 0
1 1 0
1 1 0
0 0 0.268742
0.0729992 0 0.265324
0.251087 0 0.2365
0.428092 0 0.161608
0.704479 0 0.0852827
1 0 0
1 0 0
1 0 0
1 0 0
0 0.00492866 0.147601
0 0 0.124193
0.134264 0 0.12546
0.316487 0 0.0903792
0.665248 0 0.0264439
1 0 0
1 0 0
1 0 0
1 0 0
0 0.0778363 0.0655375
0 0.0729839 0.0722515
0.0593271 0.0689555 0.0813153
0.332692 0.0370794 0.0592355
0.709239 0 0
1 0 0
1 0 0
1 0 0
1 0 0
0 0.243717 0.0333104
0 0.26598 0.0463417
0 0.279286 0.0554513
0.242359 0.274937 0.0463569
0.670207 0.205814 0
1 0 0
1 0 0
1 0 0
1 0 0
0 0.485695 0
0 0.512535 0
0 0.533516 0
0 0.544503 0
0.507698 0.525795 0
0.940902 0.48101 0
1 0.409766 0
1 0.343496 0
1 0.286549 0
0 0.758343 0
0 0.794827 0
0 0.824292 0
0 0.842649 0
0.190097 0.834867 0
0.784192 0.818051 0
1 0.81059 0
1 0.807523 0
1 0.805798 0
0 0.976516 0
0 1 0
0 1 0
0 1 0
0 1 0
0.728328 1 0
0.99472 1 0
1 1 0
1 1 0
0 1 0
0 1 0
0 1 0
0 1 0
0 1 0
0.739879 1 0
0.966171 1 0
1 1 0
1 1 0
0 1 0
0 1 0
0 1 0
0 1 0
0 1 0
0.65977 1 0
0.911116 1 0
1 1 0
1 1 0
0 0 0.484413
0 0 0.468925
0.189471 0 0.45185
0.439429 0 0.392355
0.636301 0 0.290761
0.904631 0 0.215473
1 0 0.111299
1 0 0
1 0 0
0 0 0.318227
0 0 0.289723
0.0864881 0 0.305409
0.320714 0 0.298604
0.572503 0 0.247105
0.924285 0 0.204105
1 0 0.108766
1 0 0
1 0 0
0 0.0457313 0.231876
0 0.0394903 0.244709
0.0204166 0.0349889 0.254612
0.297459 0 0.286458
0.617823 0 0.260121
0.99617 0 0.203342
1 0 0.0630198
1 0 0
1 0 0
0 0.228824 0.215152
0 0.249607 0.240177
0 0.26041 0.255818
0.225132 0.252155 0.262135
0.637186 0.18439 0.219837
1 0 0.134264
1 0 0
1 0 0
1 0 0
0 0.476844 0.161883
0 0.503822 0.180835
0 0.525444 0.196094
0 0.53669 0.206256
0.499733 0.516548 0.1879
0.936645 0.471366 0.0158846
1 0.401785 0
1 0.342763 0
1 0.298009 0
0 0.755779 0.000595102
0 0.792508 0.0282139
0 0.822034 0.0574655
0 0.840177 0.080827
0.175219 0.832456 0.0754101
0.782712 0.815503 0
1 0.810269 0
1 0.808927 0
1 0.808927 0
0 0.97583 0
0 1 0
0 1 0
0 1 0
0 1 0.0157015
0.73315 1 0.0383307
0.992676 1 0
1 1 0
1 1 0
0 1 0
0 1 0
0 1 0
0 1 0.0637217
0 1 0.092134
0.736248 1 0.0757916
0.961349 1 0.0323033
1 1 0
1 1 0
0 1 0
0 1 0
0 1 0.03122
0 1 0.0320745
0 1 0
0.63888 1 0
0.900221 1 0
1 1 0
1 1 0
0 0 0.737133
0 0 0.68632
0.0567483 0 0.702098
0.35848 0 0.668482
0.652171 0 0.594659
0.878935 0 0.480583
1 0 0.408743
1 0 0.340978
1 0 0.248554
0 0 0.555627
0 0 0.521828
0 0 0.538506
0.261387 0 0.559915
0.603479 0 0.543603
0.888121 0 0.483894
1 0 0.451911
1 0 0.400809
1 0 0.301335
0 0 0.454841
0 0 0.475532
0 0 0.492164
0.244953 0 0.551949
0.628153 0 0.560891
0.920882 0 0.509682
1 0 0.46891
1 0 0.395727
1 0 0.272923
0 0.183032 0.456809
0 0.200275 0.490517
0 0.207599 0.509346
0.159991 0.198825 0.513466
0.586862 0.0741436 0.529381
0.915267 0 0.491173
1 0 0.441215
1 0 0.345708
1 0 0.19295
0 0.450492 0.420005
0 0.477317 0.447898
0 0.498863 0.470939
0 0.509911 0.488807
0.480278 0.486198 0.491096
0.906889 0.43978 0.451911
1 0.380133 0.384451
1 0.339803 0.290806
1 0.316609 0.157305
0 0.742458 0.359152
0 0.77882 0.396612
0 0.807523 0.42858
0 0.825528 0.454734
0.128084 0.817517 0.465675
0.773526 0.798566 0.461173
1 0.794598 0.360067
1 0.797955 0.240558
1 0.80444 0.0277867
0 0.967025 0.306661
0 0.993225 0.363653
0 1 0.420203
0 1 0.470268
0 1 0.505196
0.726421 0.994827 0.529763
0.983322 0.982879 0.517586
1 0.991943 0.353994
1 1 0.0504005
0 1 0.339025
0 1 0.42797
0 1 0.502876
0 1 0.543252
0 1 0.558022
0.720546 1 0.555169
0.948913 1 0.538827
1 1 0.450263
1 1 0.0558175
0 1 0.433234
0 1 0.489586
0 1 0.525338
0 1 0.522576
0 1 0.494194
0.602548 1 0.439246
0.881392 1 0.363333
0.994659 1 0.269154
1 1 0
0 0 0.895064
0 0 0.866728
0 0 0.879652
0.245502 0 0.871656
0.570932 0 0.846128
0.896956 0 0.798245
1 0 0.717449
1 0 0.658976
1 0 0.621439
0 0 0.795666
0 0 0.775219
0 0 0.758511
0.149676 0 0.813397
0.542779 0 0.82707
0.921248 0 0.814221
1 0 0.764584
1 0 0.730114
1 0 0.694469
0 0 0.72639
0 0 0.748028
0 0 0.764523
0.140078 0 0.814084
0.571939 0 0.839506
0.944869 0 0.82858
1 0 0.776699
1 0 0.739925
1 0 0.702281
0 0.0128328 0.739361
0 0.0357977 0.766201
0 0.0486458 0.779293
0.00263981 0.0462959 0.779736
0.532631 0 0.811109
0.921462 0 0.809934
1 0 0.769238
1 0 0.741451
1 0 0.700435
0 0.399649 0.712413
0 0.428351 0.740154
0 0.451209 0.760281
0 0.464698 0.773358
0.42063 0.442313 0.769436
0.861524 0.362646 0.786557
1 0.351492 0.760586
1 0.309575 0.731701
1 0.255055 0.675822
0 0.710613 0.672236
0 0.747738 0.706523
0 0.776593 0.732723
0 0.795773 0.753216
0.0157778 0.788663 0.761486
0.757855 0.767926 0.768093
1 0.758938 0.750149
1 0.765072 0.720775
1 0.778622 0.669871
0 0.94435 0.650675
0 0.970367 0.695384
0 0.991714 0.73547
0 1 0.767056
0 0.992828 0.784085
0.715892 0.972229 0.791531
0.97171 0.958328 0.788449
1 0.962676 0.725643
1 0.968688 0.640986
0 1 0.686259
0 1 0.73904
0 1 0.774655
0 1 0.791043
0 1 0.795422
0.702113 1 0.790524
0.934615 1 0.780056
1 1 0.744183
1 1 0.600626
0 1 0.727871
0 1 0.7561
0 1 0.772107
0 1 0.770565
0 1 0.755993
0.553231 1 0.72694
0.855634 1 0.688197
0.978714 1 0.635523
1 1 0.523812
0 0 0.988785
0 0 0.970962
0 0 0.959274
0.125551 0 0.968063
0.475929 0 0.960739
0.837674 0 0.949706
1 0 0.924269
1 0 0.878492
1 0 0.83595
0 0 0.927581
0 0 0.91986
0 0 0.911376
0.00488289 0 0.945663
0.467109 0 0.960266
0.879667 0 0.965866
1 0 0.954421
1 0 0.921584
1 0 0.887037
0 0 0.898756
0 0 0.913146
0 0 0.921904
0.0255589 0 0.938231
0.502724 0 0.965942
0.903593 0 0.970687
1 0 0.958495
1 0 0.926543
1 0 0.897093
0 0 0.907637
0 0 0.92256
0 0 0.92813
0 0 0.927016
0.470344 0 0.948745
0.886397 0 0.958801
1 0 0.952316
1 0 0.925078
1 0 0.90341
0 0.343664 0.892531
0 0.380926 0.908385
0 0.409766 0.917678
0 0.430945 0.922393
0.350393 0.414878 0.917708
0.828595 0.300801 0.937392
1 0.17705 0.93727
1 0.284306 0.915923
1 0.365164 0.902892
0 0.688792 0.865476
0 0.729351 0.885115
0 0.760479 0.897688
0 0.782559 0.905959
0 0.777722 0.908537
0.726558 0.758572 0.905898
1 0.733806 0.918135
1 0.76109 0.909606
1 0.772747 0.900633
0 0.924437 0.842985
0 0.953201 0.868009
0 0.977172 0.8878
0 0.989273 0.902663
0 0.980163 0.909545
0.708736 0.958785 0.912032
0.964019 0.943023 0.912657
1 0.940566 0.899779
1 0.941344 0.876738
0 1 0.856123
0 1 0.883558
0 1 0.903105
0 1 0.911665
0 1 0.912016
0.685573 1 0.907027
0.923888 1 0.898238
1 0.996658 0.882719
1 0.997604 0.822904
0 1 0.874174
0 1 0.889876
0 1 0.89807
0 1 0.895262
0 1 0.883833
0.501808 1 0.865248
0.831937 1 0.841611
0.964233 1 0.815213
1 1 0.768414
0 0 1
0 0 1
0 0 1
0 0 1
0.386038 0 1
0.759182 0 1
1 0 1
1 0 1
1 0 0.985428
0 0 1
0 0 1
0 0 1
0 0 1
0.395529 0 1
0.819348 0 1
1 0 1
1 0 1
1 0 1
0 0 0.997208
0 0 1
0 0 1
0 0 1
0.435569 0 1
0.84477 0 1
1 0 1
1 0 1
1 0 1
0 0 1
0 0 1
0 0 1
0 0 1
0.411978 0 1
0.836606 0 1
1 0 1
1 0 1
1 0 1
0 0.305974 0.990616
0 0.35256 0.998535
0 0.388128 1
0 0.416495 1
0.264485 0.407019 1
0.787259 0.281544 1
1 0.0395209 1
1 0 1
1 0.224887 1
0 0.672496 0.971099
0 0.716274 0.979736
0 0.750637 0.98497
0 0.775952 0.98793
0 0.775448 0.986954
0.693797 0.760128 0.982437
1 0.72311 0.991547
1 0.719234 0.993362
1 0.769711 0.985367
0 0.917952 0.951782
0 0.948852 0.964019
0 0.974182 0.972824
0 0.987762 0.978683
0 0.979522 0.979767
0.666758 0.955947 0.977661
0.953292 0.93785 0.974487
1 0.927337 0.977279
1 0.931884 0.970871
0 1 0.952667
0 1 0.965408
0 1 0.973846
0 1 0.976501
0 1 0.974609
0.669596 1 0.969741
0.914611 0.996002 0.963729
1 0.984741 0.957076
1 0.97911 0.940551
0 1 0.958312
0 1 0.965469
0 1 0.968383
0 1 0.965805
0 1 0.958144
0.444923 1 0.946303
0.808713 1 0.932143
0.951812 1 0.916396
1 1 0.894972
0 0 1
0 0 1
0 0 1
0 0 1
0.30164 0 1
0.681086 0 1
1 0 1
1 0 1
1 0 1
0 0 1
0 0 1
0 0 1
0 0 1
0.328389 0 1
0.756268 0 1
1 0 1
1 0 1
1 0 1
0 0 1
0 0 1
0 0 1
0 0 1
0.369451 0 1
0.783429 0 1
1 0 1
1 0 1
1 0 1
0 0 1
0 0 1
0 0 1
0 0 1
0.380606 0 1
0.784833 0 1
1 0 1
1 0 1
1 0 1
0 0.291524 1
0 0.345342 1
0 0.386343 1
0 0.420005 1
0.140505 0.416907 1
0.744015 0.288167 1
1 0.018967 1
1 0 1
1 0 1
0 0.666575 1
0 0.71284 1
0 0.749859 1
0 0.778576 1
0 0.783291 1
0.657465 0.770977 1
0.996094 0.72871 1
1 0.706355 1
1 0.71397 1
0 0.915404 1
0 0.948943 1
0 0.97528 1
0 0.989517 1
0 0.982177 1
0.632532 0.957565 1
0.942962 0.938125 1
1 0.921859 1
1 0.914382 1
0 1 0.998611
0 1 1
0 1 1
0 1 1
0 1 1
0.590066 1 0.998886
0.89308 0.992966 0.994232
0.994141 0.979477 0.989425
1 0.968109 0.988296
0 1 0.997208
0 1 1
0 1 1
0 1 0.99884
0 1 0.993591
0.384192 1 0.986435
0.786236 1 0.978439
0.941222 1 0.970428
1 0.989273 0.961929
