src/luts/crop/1.cube
TITLE "Generated by Resolve"
LUT_3D_SIZE 5
0.0419318 0.0545968 0.0716564
0.159426 0.0453956 0.0447852
0.396109 0.00665293 0
0.608148 0 0
0.729549 0.00425727 0
0.0388342 0.186969 0.0686961
0.206546 0.202487 0.0957351
0.494621 0.189456 0.0690013
0.753231 0.199557 0.0662852
0.885634 0.257939 0.111971
0.0205539 0.455268 0.0522011
0.192142 0.500221 0.0884871
0.572229 0.500252 0.126574
0.784253 0.53872 0.13518
0.909361 0.594446 0.183902
0.0734722 0.757702 0.118105
0.265248 0.792416 0.15433
0.667506 0.768399 0.166308
0.898329 0.77467 0.203342
0.941619 0.816281 0.209628
0.203159 0.966644 0.270954
0.420127 0.958816 0.26714
0.774472 0.913588 0.247852
0.958938 0.905211 0.269306
1 0.912734 0.302571
0.000518807 0.065568 0.160464
0.168856 0.0374456 0.197818
0.405142 0.00569162 0.100542
0.616403 0.000350958 0.0409094
0.737972 0.0105898 0.0517891
0.0229801 0.197421 0.205158
0.188357 0.228092 0.245045
0.510735 0.214496 0.194293
0.758389 0.233371 0.178485
0.884871 0.292317 0.226276
0.0104829 0.478279 0.188357
0.178836 0.529549 0.239902
0.566644 0.533227 0.274708
0.802487 0.566369 0.297185
0.927016 0.618891 0.358526
0.0612802 0.777356 0.270893
0.245197 0.817258 0.319081
0.628519 0.795285 0.316472
0.884245 0.794736 0.35729
0.936919 0.830243 0.379492
0.170382 0.976883 0.448707
0.374472 0.975998 0.455558
0.708232 0.935561 0.417685
0.927611 0.920699 0.436805
0.999985 0.928145 0.481971
0 0.0794232 0.319707
0.00280766 0.0608072 0.400244
0.431342 0 0.392599
0.665278 0 0.307851
0.785031 0.0027924 0.314366
0 0.211551 0.347097
0.0269627 0.242344 0.4215
0.548898 0.194141 0.52842
0.798428 0.220508 0.500603
0.918563 0.282948 0.537072
0.000579843 0.499779 0.475898
0.136965 0.55378 0.541054
0.527016 0.574411 0.592325
0.808057 0.592111 0.579324
0.932113 0.642969 0.619486
0.0192264 0.803754 0.546304
0.189502 0.841001 0.596139
0.552071 0.826749 0.619745
0.840085 0.822003 0.635737
0.930648 0.844358 0.664179
0.116503 0.992737 0.693904
0.303563 0.991974 0.698344
0.6271 0.955673 0.693095
0.875975 0.939635 0.687922
0.978775 0.948425 0.724285
0 0.0944991 0.460212
0 0.0850996 0.538109
0.347417 0 0.643473
0.680507 0 0.587884
0.822812 0.000701915 0.601938
0 0.23743 0.486213
0 0.268986 0.573846
0.470436 0.199634 0.769421
0.823774 0.213001 0.769009
0.958572 0.271641 0.798779
0 0.509041 0.64535
0.075639 0.563729 0.694713
0.385473 0.582116 0.725826
0.830167 0.582071 0.840528
0.952956 0.633051 0.862562
0.0108186 0.818296 0.768215
0.175158 0.854276 0.817578
0.514534 0.847242 0.842496
0.805951 0.846479 0.863828
0.930205 0.855283 0.871519
0.102007 0.996246 0.865629
0.276341 0.997559 0.879744
0.583871 0.973678 0.87599
0.839246 0.960967 0.893736
0.958053 0.968383 0.910231
0 0.106126 0.532403
0 0.101442 0.605951
0.250965 0.00561532 0.75494
0.674983 1.5259e-05 0.720943
0.831327 0.0030518 0.74374
0 0.258732 0.560357
0 0.29366 0.64802
0.397299 0.233463 0.863325
0.826001 0.233707 0.880827
0.962478 0.291997 0.914076
0 0.53257 0.709468
0.0527352 0.587411 0.75053
0.347189 0.597055 0.791348
0.821424 0.59498 0.947433
0.965331 0.640024 0.970459
0.0182803 0.830579 0.861677
0.189258 0.860609 0.905592
0.510307 0.853056 0.919493
0.760342 0.86067 0.933471
0.926574 0.856382 0.979217
0.111192 0.998566 0.9299
0.290715 0.997528 0.947372
0.585153 0.977768 0.969177
0.826307 0.969696 0.982879
0.941024 0.982071 0.998367
