src/luts/crop/1.cube
TITLE "Generated by Resolve"
LUT_3D_SIZE 33
0.0419318 0.0545968 0.0716564
0.0541543 0.0538491 0.0718547
0.0645914 0.054078 0.0704051
0.076173 0.0541085 0.0688945
0.0886702 0.0536812 0.0660868
0.102846 0.0527962 0.0623178
0.118929 0.0512245 0.0577096
0.13756 0.0488441 0.0518959
0.159426 0.0453956 0.0447852
0.184863 0.0408331 0.0369268
0.21294 0.0352331 0.0287327
0.242374 0.0293736 0.0190127
0.272297 0.0237125 0.00817884
0.303822 0.017792 0.00274662
0.334249 0.013489 0.000656138
0.364355 0.0102083 0
0.396109 0.00665293 0
0.428092 0.0031281 0
0.458503 0.000823987 0
0.488579 0.000244144 0
0.517845 1.5259e-05 0
0.544015 0 0
0.567315 0 0
0.589792 0 0
0.608148 0 0
0.628809 0 0
0.648661 0 0
0.665125 0 0
0.679377 0 0
0.692424 0 0
0.704845 0.000320439 0
0.717037 0.00122072 0
0.729549 0.00425727 0
0.0431983 0.0666514 0.0733501
0.0563668 0.0670787 0.0751507
0.0678721 0.0672923 0.074403
0.0792248 0.0672465 0.0729686
0.0918746 0.0669108 0.0704051
0.106615 0.0658274 0.0677348
0.123537 0.0640879 0.0641489
0.143236 0.0615854 0.0594492
0.166247 0.0578622 0.0534829
0.192737 0.0529793 0.0467689
0.2215 0.0475166 0.0383917
0.251255 0.0420539 0.027451
0.281758 0.0366217 0.0159152
0.313283 0.0310979 0.00714122
0.343847 0.025864 0.00239567
0.374914 0.0208438 0.000289921
0.406973 0.0155947 0
0.439338 0.0103456 0
0.471107 0.00595102 0
0.501595 0.0041352 0
0.529702 0.00421149 0
0.557488 0.00378424 0
0.582422 0.00364691 0
0.603571 0.00389105 0
0.624903 0.00433356 0
0.644907 0.00495918 0
0.662806 0.00602731 0
0.680064 0.00709545 0
0.695064 0.00833143 0
0.709255 0.0104067 0
0.722835 0.0125277 0
0.735882 0.0155337 0
0.748623 0.0195926 0
0.0443275 0.079942 0.0742962
0.0574807 0.0805829 0.0765545
0.0714885 0.0805524 0.0780346
0.082948 0.0808423 0.0773327
0.094667 0.0808728 0.0763104
0.109804 0.079942 0.0741588
0.127367 0.0783551 0.0714733
0.147723 0.075761 0.0678111
0.171664 0.0719768 0.063035
0.199115 0.0671244 0.0571145
0.22855 0.0618601 0.0487221
0.259129 0.0565652 0.0378271
0.290974 0.0513313 0.0262913
0.322683 0.0461585 0.014725
0.355062 0.0408484 0.00518807
0.387961 0.0356756 0.00141909
0.421393 0.0305791 0.000656138
0.454765 0.025742 0.000122072
0.48748 0.0214847 0
0.518578 0.0179294 0
0.547921 0.0157015 0
0.575204 0.014435 0
0.600259 0.0140841 0
0.623713 0.0147097 0
0.644907 0.0158083 0
0.664317 0.0173953 0
0.681865 0.0200351 0
0.698314 0.0232242 0
0.713848 0.026566 0
0.728618 0.0306249 0
0.742611 0.0357061 0
0.75613 0.0406958 0
0.76939 0.0464027 0
0.0452888 0.0938735 0.0751507
0.0580911 0.0948653 0.0772412
0.0722362 0.0951095 0.0790875
0.08748 0.0951247 0.080827
0.0993057 0.095552 0.0805829
0.112749 0.0956283 0.0792554
0.130343 0.094255 0.077348
0.151156 0.0919051 0.0742657
0.175586 0.0884108 0.0698558
0.203571 0.0839094 0.0640116
0.234165 0.0789654 0.0562142
0.26627 0.0736248 0.0469673
0.299748 0.0680705 0.0376898
0.333593 0.062623 0.0286412
0.367681 0.0573129 0.0200809
0.402472 0.0521096 0.0126802
0.437598 0.0473793 0.00764477
0.471687 0.0429847 0.00311284
0.504631 0.0392767 0.000946059
0.536141 0.0363165 0.000320439
0.566064 0.0341344 6.10361e-05
0.594034 0.0327611 7.62951e-05
0.61976 0.032929 0
0.643229 0.0338903 0
0.66482 0.0357671 0
0.684474 0.0383154 0
0.702449 0.0419318 0
0.719387 0.0464942 0
0.735439 0.0514992 0
0.7505 0.0567483 6.10361e-05
0.764981 0.0628061 0.000289921
0.779065 0.0692302 0.00129702
0.792813 0.0758373 0.00198367
0.0455787 0.108888 0.0755016
0.0584115 0.110185 0.0778058
0.0725109 0.110933 0.0792859
0.0882887 0.111299 0.0813001
0.105257 0.111376 0.0838941
0.117876 0.112062 0.0831922
0.133379 0.111864 0.0814832
0.154009 0.110094 0.0794232
0.178668 0.107088 0.0756847
0.207584 0.103075 0.0704814
0.239506 0.0981308 0.0639811
0.27335 0.0927901 0.0565347
0.30837 0.0873274 0.049012
0.343786 0.0820172 0.0418097
0.379278 0.0770581 0.0343481
0.415732 0.0723278 0.0264286
0.451911 0.0676585 0.0180209
0.487388 0.0634928 0.0103609
0.521553 0.060029 0.00579843
0.554177 0.0575113 0.00375372
0.585458 0.0557717 0.00248722
0.614801 0.0552682 0.00140383
0.640955 0.0559243 0.00135805
0.664881 0.0576944 0.00169375
0.686809 0.0604562 0.00216678
0.70692 0.0640726 0.00277714
0.725765 0.0686198 0.00341802
0.742885 0.0738994 0.00418097
0.759182 0.0797131 0.005066
0.774701 0.0858015 0.00677501
0.789639 0.0924239 0.00917067
0.804334 0.099733 0.0132448
0.818723 0.107256 0.0172122
0.045182 0.125383 0.0752117
0.0579995 0.127199 0.0777142
0.0721752 0.128542 0.0796063
0.0881666 0.129427 0.0813458
0.106691 0.129549 0.0839246
0.125505 0.129702 0.0869764
0.13901 0.130755 0.0856184
0.157458 0.130343 0.0836347
0.182315 0.128176 0.0811933
0.211292 0.124575 0.0768749
0.24387 0.120104 0.0711986
0.278981 0.115114 0.0647746
0.315312 0.110063 0.0581216
0.352224 0.105394 0.0516518
0.388983 0.100938 0.0450446
0.426627 0.0964065 0.0384222
0.464866 0.0919814 0.032166
0.502083 0.0880293 0.0255131
0.538216 0.0847334 0.0200046
0.572961 0.0826276 0.0154269
0.605234 0.0813306 0.0116884
0.635142 0.0811627 0.00898756
0.662348 0.0823987 0.00883497
0.686763 0.084947 0.00999466
0.709133 0.0884565 0.0115816
0.729992 0.0931411 0.0139162
0.748898 0.0982376 0.0163577
0.766445 0.104097 0.019028
0.783123 0.110552 0.0225681
0.798993 0.117433 0.0265049
0.814374 0.124666 0.0321965
0.829419 0.132509 0.03888
0.843854 0.140337 0.0454414
0.0441291 0.143725 0.0741741
0.0571756 0.146197 0.0770733
0.0712749 0.148013 0.0792554
0.0870069 0.149569 0.0812848
0.106126 0.150164 0.0835737
0.127489 0.150301 0.0865949
0.148821 0.150729 0.0902113
0.163134 0.152529 0.0875868
0.18616 0.151431 0.0858625
0.215259 0.148653 0.0829328
0.248203 0.1449 0.0783551
0.284001 0.140581 0.0728466
0.321691 0.136278 0.0670787
0.359625 0.132097 0.0613565
0.397803 0.128145 0.0557259
0.436881 0.124239 0.0500954
0.476219 0.120424 0.0445106
0.514885 0.117052 0.0393683
0.55259 0.114611 0.03505
0.587915 0.112902 0.0312963
0.621118 0.112184 0.0289158
0.651911 0.112581 0.0277409
0.680232 0.114137 0.0277409
0.705318 0.117113 0.0290684
0.728603 0.121355 0.0318761
0.749569 0.126299 0.0354162
0.768963 0.131975 0.0396429
0.786923 0.138293 0.04448
0.803876 0.145174 0.05037
0.820249 0.152834 0.0568246
0.835523 0.160433 0.0628824
0.850309 0.168261 0.0695201
0.864424 0.176379 0.0761425
0.0421454 0.164233 0.0721599
0.0553292 0.167147 0.0752728
0.0695201 0.169574 0.0778668
0.0853132 0.171832 0.0803998
0.104051 0.173358 0.0826429
0.126177 0.174182 0.0854963
0.151385 0.17435 0.0893111
0.175647 0.174838 0.0932479
0.190784 0.177401 0.088716
0.219287 0.175586 0.0875868
0.252674 0.172732 0.0848249
0.289296 0.169543 0.0808118
0.327337 0.165957 0.0760815
0.366079 0.162509 0.0713054
0.405463 0.159274 0.0665751
0.445838 0.156024 0.0617075
0.486717 0.152941 0.0568399
0.526558 0.150332 0.05243
0.56463 0.148394 0.0486915
0.600687 0.147295 0.0459754
0.634424 0.147204 0.0444648
0.665629 0.148257 0.0441901
0.694636 0.150729 0.0452583
0.720073 0.154376 0.0476997
0.743069 0.158846 0.0510719
0.764172 0.164141 0.0552834
0.783642 0.170153 0.0600748
0.801694 0.176837 0.0654765
0.818616 0.184482 0.0717479
0.834409 0.192035 0.0778668
0.849439 0.199832 0.084123
0.864103 0.207782 0.0908827
0.877806 0.215976 0.0973526
0.0388342 0.186969 0.0686961
0.0522621 0.190524 0.0721599
0.0666361 0.193668 0.0752117
0.0825208 0.196719 0.078233
0.101045 0.199405 0.0809796
0.122972 0.201099 0.0836957
0.149248 0.201801 0.0869459
0.178714 0.20177 0.0916762
0.206546 0.202487 0.0957351
0.223911 0.205722 0.0900435
0.257053 0.203998 0.0893263
0.293797 0.201602 0.0872511
0.33228 0.199054 0.0841077
0.371557 0.196582 0.0805829
0.411582 0.194263 0.0769665
0.45301 0.191974 0.0731212
0.494621 0.189456 0.0690013
0.535256 0.187289 0.0652323
0.574212 0.185824 0.0621195
0.610788 0.185306 0.0599069
0.6448 0.185794 0.0587472
0.676432 0.187732 0.0589609
0.705104 0.190494 0.0601816
0.730526 0.194537 0.0627146
0.753231 0.199557 0.0662852
0.774044 0.205234 0.0705577
0.793271 0.211536 0.0754711
0.811399 0.218784 0.0811933
0.827909 0.226108 0.087068
0.843503 0.233692 0.0932021
0.858167 0.241489 0.0993515
0.872129 0.249439 0.105486
0.885634 0.257939 0.111971
0.0346685 0.212314 0.064271
0.0482795 0.216571 0.0681163
0.0628824 0.220508 0.0716259
0.078996 0.224567 0.0752117
0.0973373 0.227955 0.0784009
0.118914 0.230732 0.0814679
0.144854 0.232547 0.0844587
0.176349 0.23299 0.0884413
0.21088 0.232914 0.0941176
0.242222 0.234226 0.0979934
0.262501 0.23769 0.0918746
0.297932 0.236515 0.091249
0.33666 0.235004 0.0902113
0.376394 0.2336 0.0883497
0.417258 0.232609 0.086183
0.458747 0.230991 0.0833295
0.500526 0.22916 0.0800793
0.541375 0.227558 0.0769818
0.580591 0.226566 0.0744488
0.617746 0.226642 0.0728313
0.652171 0.227634 0.0721447
0.683558 0.229572 0.0724346
0.712123 0.232578 0.0738079
0.737575 0.236728 0.0763256
0.760021 0.241932 0.0798962
0.780713 0.248096 0.0842756
0.799634 0.254536 0.089128
0.817136 0.261341 0.0943618
0.83328 0.268528 0.0998703
0.848295 0.275959 0.105592
0.862638 0.283543 0.111467
0.876554 0.291722 0.117632
0.889693 0.299641 0.123674
0.0301061 0.240284 0.0595407
0.0439918 0.245624 0.063859
0.0588388 0.250294 0.0677653
0.0750896 0.254932 0.0717632
0.0934768 0.25919 0.0754864
0.114794 0.262943 0.0790112
0.140154 0.265904 0.0822309
0.171572 0.267674 0.0857557
0.209216 0.267597 0.0906233
0.248646 0.267445 0.0969253
0.282155 0.269184 0.100267
0.305104 0.273014 0.0942397
0.341238 0.273106 0.0936599
0.381079 0.272969 0.0937819
0.421927 0.272572 0.0931258
0.463691 0.271809 0.0915694
0.505577 0.270756 0.0894179
0.546441 0.269703 0.0870985
0.585672 0.269322 0.0852216
0.622477 0.269688 0.0840162
0.656519 0.270802 0.0835737
0.68777 0.272877 0.0840314
0.716121 0.275944 0.085481
0.741482 0.280034 0.0879377
0.763729 0.285451 0.0915236
0.783871 0.291234 0.0955825
0.802304 0.297429 0.100145
0.819409 0.304067 0.105119
0.835325 0.311101 0.110384
0.85008 0.318593 0.11603
0.864424 0.326757 0.122133
0.878065 0.334676 0.12813
0.891279 0.342824 0.13431
0.0257572 0.271199 0.0552071
0.0398108 0.277028 0.0598001
0.0549477 0.282475 0.0641337
0.0713817 0.287831 0.0685283
0.0898451 0.292851 0.0727245
0.11107 0.297414 0.0767224
0.136172 0.301595 0.0804303
0.166598 0.304143 0.0838026
0.204303 0.304906 0.0877241
0.2486 0.304204 0.0935378
0.290974 0.304463 0.100206
0.326192 0.306798 0.103197
0.350545 0.311528 0.0972457
0.385824 0.312856 0.0964523
0.425956 0.313298 0.0972763
0.467994 0.313237 0.0973678
0.510018 0.312856 0.0965133
0.551232 0.312688 0.0952316
0.590051 0.312459 0.093904
0.626383 0.312825 0.0930343
0.659953 0.314015 0.0929122
0.690745 0.316091 0.0935073
0.718776 0.319295 0.0950484
0.743923 0.323445 0.0975204
0.76582 0.328405 0.100908
0.785672 0.334127 0.105013
0.803998 0.340398 0.109651
0.820951 0.347082 0.114656
0.836957 0.354528 0.120195
0.851896 0.362341 0.126146
0.866178 0.370306 0.13225
0.879973 0.378424 0.138552
0.893355 0.386755 0.145006
0.0221103 0.304234 0.0517433
0.036408 0.310796 0.056733
0.0518044 0.316884 0.0614328
0.0683909 0.322835 0.0661479
0.087129 0.328862 0.0708629
0.10837 0.334081 0.0752728
0.13312 0.338567 0.0792554
0.162844 0.341909 0.0827802
0.199619 0.343557 0.0862135
0.244862 0.343191 0.0907759
0.294087 0.34258 0.0976883
0.337224 0.343465 0.104372
0.373495 0.345937 0.107134
0.396429 0.351476 0.100481
0.430564 0.353826 0.0991226
0.471794 0.354269 0.100374
0.514229 0.354559 0.101183
0.555016 0.354437 0.100969
0.593683 0.354482 0.100404
0.629801 0.355032 0.100038
0.663127 0.356329 0.100267
0.693736 0.358663 0.101289
0.721523 0.361898 0.103044
0.746303 0.36582 0.105547
0.768246 0.370886 0.109117
0.788113 0.376776 0.113588
0.806485 0.383261 0.118547
0.823697 0.390478 0.124025
0.839765 0.397955 0.129824
0.854871 0.405737 0.135927
0.869245 0.413794 0.142351
0.883162 0.421988 0.148836
0.896681 0.430335 0.155428
0.0196994 0.339376 0.0497902
0.034287 0.346548 0.0551614
0.0499275 0.353185 0.0601816
0.0667887 0.359945 0.0652934
0.0855421 0.36611 0.0702068
0.106844 0.37174 0.0749065
0.131441 0.376638 0.0791791
0.160632 0.380423 0.082887
0.196399 0.382635 0.0860914
0.241367 0.383062 0.0897841
0.292622 0.381704 0.0952773
0.342626 0.381033 0.102708
0.385397 0.382483 0.109148
0.422217 0.384909 0.111833
0.441215 0.392096 0.103182
0.476326 0.394553 0.101671
0.517586 0.394629 0.103136
0.558404 0.394659 0.104372
0.597101 0.39501 0.105013
0.633219 0.395911 0.105516
0.66685 0.397879 0.106508
0.697307 0.400336 0.107988
0.724956 0.403708 0.110185
0.749889 0.40798 0.113191
0.771969 0.413306 0.117205
0.791974 0.419577 0.122087
0.810498 0.42649 0.127474
0.827604 0.433585 0.13312
0.843641 0.441016 0.139086
0.858854 0.448783 0.145312
0.873243 0.456809 0.151781
0.88719 0.465232 0.158495
0.900771 0.473671 0.165194
0.0186465 0.376287 0.0493477
0.033463 0.383963 0.0550546
0.0494698 0.391394 0.0604868
0.0664378 0.398184 0.0657664
0.0851911 0.404547 0.0708324
0.106477 0.410346 0.0756847
0.130922 0.415396 0.0800793
0.159823 0.419654 0.0839551
0.194751 0.422141 0.0870222
0.238193 0.422477 0.0897841
0.289525 0.421027 0.0938125
0.343435 0.419287 0.100359
0.392172 0.419272 0.107881
0.434592 0.421378 0.114199
0.471901 0.423377 0.116991
0.486336 0.431952 0.105501
0.521752 0.433646 0.104036
0.561593 0.433997 0.105623
0.600641 0.434699 0.107729
0.6374 0.436469 0.109758
0.670954 0.438651 0.111711
0.701579 0.441627 0.114015
0.72932 0.445426 0.116884
0.754192 0.45005 0.120363
0.77644 0.455695 0.124834
0.796429 0.462257 0.130007
0.81474 0.468956 0.135454
0.831769 0.476066 0.141222
0.847715 0.483497 0.14725
0.862837 0.491218 0.153475
0.877211 0.499336 0.160006
0.89099 0.5075 0.166629
0.904295 0.515541 0.17319
0.0193027 0.415152 0.0502327
0.0337987 0.42327 0.0561837
0.0498207 0.430564 0.0616465
0.066865 0.437507 0.0669871
0.0855421 0.443931 0.0720836
0.10663 0.449744 0.0769055
0.130999 0.454994 0.0813306
0.159319 0.458915 0.0850233
0.193271 0.461295 0.0878309
0.235233 0.461707 0.0899825
0.285298 0.460258 0.092668
0.340414 0.457862 0.0976577
0.394369 0.456718 0.104952
0.440711 0.457527 0.112184
0.482414 0.459449 0.118303
0.521035 0.461082 0.121218
0.533928 0.470665 0.108934
0.566674 0.47364 0.106813
0.604562 0.47538 0.108827
0.64123 0.476997 0.11194
0.674968 0.479484 0.115099
0.705684 0.482795 0.118395
0.733394 0.4869 0.121981
0.758434 0.492195 0.126329
0.780606 0.49781 0.130968
0.80032 0.504097 0.136217
0.818463 0.510765 0.141772
0.835325 0.5178 0.147616
0.851179 0.52517 0.153689
0.866285 0.532998 0.160082
0.880446 0.540642 0.166461
0.893996 0.548287 0.172885
0.907088 0.555932 0.17937
0.0205539 0.455268 0.0522011
0.0348211 0.463294 0.0580453
0.0508278 0.470634 0.0634928
0.0678569 0.477516 0.0687419
0.0864118 0.483833 0.0737011
0.107332 0.489906 0.0784924
0.131243 0.494575 0.0825666
0.15903 0.4981 0.0859541
0.192142 0.500221 0.0884871
0.232715 0.500603 0.0901656
0.281544 0.49955 0.0920119
0.336614 0.497215 0.0956283
0.392981 0.495079 0.101854
0.44445 0.49485 0.10956
0.489219 0.496574 0.116793
0.532311 0.498512 0.123186
0.572229 0.500252 0.126574
0.583825 0.510506 0.11429
0.611002 0.51545 0.11078
0.645212 0.517891 0.112779
0.678996 0.520363 0.116609
0.709743 0.52369 0.12079
0.737636 0.528222 0.125353
0.762264 0.53312 0.130083
0.784253 0.53872 0.13518
0.803876 0.544869 0.140658
0.821866 0.551385 0.14638
0.83859 0.558251 0.152361
0.854353 0.565591 0.158572
0.869078 0.572717 0.164767
0.883101 0.57998 0.171069
0.896468 0.587243 0.177417
0.909361 0.594446 0.183902
0.0216983 0.495079 0.0543526
0.035996 0.502937 0.0600443
0.0519112 0.510124 0.0653697
0.0688945 0.51693 0.0704509
0.0874342 0.523201 0.075288
0.108003 0.528664 0.0797742
0.131685 0.533349 0.0838178
0.159335 0.537011 0.0872663
0.192218 0.539361 0.0899062
0.23241 0.54023 0.0916762
0.279957 0.539437 0.0930495
0.334035 0.537301 0.095552
0.391562 0.534905 0.100603
0.446876 0.533669 0.107927
0.495827 0.534417 0.11574
0.540566 0.536721 0.122911
0.584253 0.538476 0.129427
0.623255 0.539681 0.132921
0.632731 0.550484 0.120989
0.654032 0.557168 0.116258
0.683619 0.560861 0.117815
0.714275 0.564462 0.122087
0.741817 0.568368 0.127001
0.766278 0.573037 0.132235
0.788067 0.578408 0.137743
0.807553 0.584283 0.143542
0.825528 0.590906 0.149584
0.841947 0.597284 0.155627
0.857359 0.603861 0.161761
0.87187 0.610544 0.167941
0.885664 0.617304 0.174197
0.898833 0.624125 0.180529
0.911589 0.631067 0.187213
0.0230564 0.533883 0.0568399
0.0375525 0.541619 0.0624552
0.0535744 0.548913 0.0678111
0.0706798 0.555764 0.0729534
0.0892805 0.561868 0.07776
0.110048 0.567437 0.0823224
0.133639 0.572305 0.0865339
0.16144 0.57615 0.090135
0.194705 0.579034 0.0930495
0.234501 0.579858 0.094789
0.281056 0.579248 0.0959487
0.334066 0.577371 0.0976577
0.391485 0.574914 0.101534
0.44918 0.57322 0.108034
0.502129 0.573007 0.115908
0.54931 0.574197 0.123384
0.592844 0.57615 0.130205
0.635859 0.577661 0.136767
0.670787 0.579507 0.139284
0.680751 0.590082 0.129366
0.696605 0.59823 0.123934
0.720317 0.603342 0.124605
0.746227 0.607416 0.128573
0.770565 0.611688 0.133806
0.792187 0.616587 0.139361
0.811749 0.622354 0.145373
0.829252 0.628046 0.151369
0.845441 0.633997 0.157504
0.860609 0.640116 0.163699
0.874891 0.646342 0.169924
0.888411 0.652506 0.176165
0.901442 0.658976 0.182757
0.913848 0.664973 0.189151
0.0255131 0.572274 0.0605936
0.0406195 0.580392 0.0665293
0.0568399 0.587655 0.0720378
0.0740978 0.594354 0.0771954
0.0930037 0.600565 0.0821546
0.114122 0.606241 0.0868849
0.138079 0.611322 0.091249
0.166049 0.615534 0.0951095
0.199298 0.618051 0.0979629
0.239139 0.618906 0.0997482
0.285145 0.618402 0.10074
0.337163 0.616693 0.101884
0.394095 0.61445 0.104814
0.452461 0.612268 0.110201
0.507973 0.61091 0.117494
0.558358 0.611032 0.125185
0.602884 0.612589 0.132158
0.645167 0.614343 0.138827
0.68603 0.616098 0.145266
0.716869 0.61854 0.147158
0.726909 0.62797 0.139498
0.737911 0.636942 0.133867
0.755215 0.643427 0.133349
0.775769 0.648432 0.136431
0.796735 0.653391 0.141527
0.815961 0.658167 0.147219
0.833204 0.663157 0.153063
0.849165 0.668482 0.15906
0.864103 0.673976 0.165148
0.878309 0.679896 0.171435
0.891569 0.685496 0.177707
0.904234 0.691051 0.184085
0.916365 0.696468 0.190372
0.0298619 0.610742 0.0665904
0.0455024 0.618601 0.0726024
0.0620584 0.626032 0.0784161
0.0797284 0.632822 0.0838178
0.0990158 0.639048 0.0889296
0.120607 0.6448 0.093843
0.145159 0.649973 0.098436
0.173159 0.65388 0.102251
0.206561 0.656306 0.105089
0.246662 0.657023 0.106737
0.292439 0.656413 0.10753
0.34406 0.655024 0.10837
0.399832 0.652613 0.110369
0.457877 0.649973 0.114595
0.514916 0.647852 0.12108
0.567849 0.646906 0.128603
0.61442 0.647761 0.13579
0.656291 0.649577 0.142351
0.696376 0.651072 0.148943
0.733013 0.652552 0.154665
0.760189 0.655192 0.156588
0.77052 0.663584 0.151202
0.778195 0.672999 0.146044
0.7897 0.680568 0.144549
0.804623 0.686458 0.14641
0.822049 0.691173 0.150927
0.837552 0.696071 0.155612
0.853178 0.70071 0.161227
0.867964 0.705882 0.167239
0.881727 0.710842 0.173205
0.894728 0.715724 0.179339
0.907195 0.720623 0.185443
0.919036 0.725292 0.191516
0.0368963 0.648661 0.075288
0.052842 0.65658 0.0814527
0.0697337 0.664057 0.0874647
0.0877546 0.670787 0.0930648
0.107744 0.677272 0.0985428
0.129763 0.68275 0.103456
0.154635 0.687404 0.107927
0.183154 0.691051 0.11165
0.216541 0.693339 0.114443
0.257221 0.693797 0.115877
0.30338 0.693202 0.116533
0.353918 0.691341 0.116808
0.408637 0.688792 0.118029
0.466117 0.685878 0.121294
0.523751 0.683116 0.126802
0.57847 0.681361 0.133928
0.626795 0.681239 0.141115
0.668528 0.682368 0.147509
0.707347 0.683787 0.153704
0.74406 0.685084 0.15993
0.776501 0.686519 0.165148
0.800534 0.689448 0.167346
0.811154 0.696773 0.164172
0.816556 0.705547 0.159792
0.823941 0.713268 0.15787
0.835462 0.719295 0.159258
0.846891 0.724956 0.161669
0.859312 0.730266 0.165545
0.872694 0.734752 0.170565
0.88574 0.739147 0.17612
0.898283 0.743465 0.181811
0.910353 0.747784 0.187533
0.922133 0.752041 0.193484
0.0466011 0.686 0.0868238
0.0627909 0.693843 0.0932021
0.0799268 0.701259 0.0993973
0.0985885 0.708217 0.10544
0.118746 0.714046 0.110765
0.141268 0.719158 0.115618
0.16672 0.72343 0.119875
0.19588 0.72665 0.123369
0.230015 0.728527 0.125872
0.271046 0.728893 0.127214
0.316823 0.727687 0.127352
0.366949 0.725582 0.12726
0.420783 0.72282 0.127916
0.477348 0.719585 0.130266
0.535439 0.716426 0.134997
0.59057 0.713771 0.141329
0.639689 0.712566 0.148104
0.681697 0.712993 0.154284
0.719554 0.714122 0.160052
0.755108 0.715312 0.165957
0.788266 0.716609 0.171908
0.816495 0.717906 0.176638
0.836957 0.720714 0.178882
0.847547 0.726787 0.177523
0.852491 0.734569 0.174502
0.85832 0.742 0.173083
0.865644 0.748547 0.173373
0.872023 0.754849 0.174105
0.882231 0.759594 0.177478
0.892317 0.764294 0.181323
0.903517 0.768429 0.18616
0.915022 0.772519 0.191516
0.926055 0.776318 0.19678
0.0586709 0.722454 0.100938
0.0754406 0.730312 0.10779
0.0929427 0.73756 0.114321
0.111681 0.743877 0.120195
0.132219 0.749325 0.12546
0.155169 0.753994 0.130144
0.181231 0.757733 0.134142
0.211734 0.760555 0.137438
0.246677 0.761746 0.139467
0.287541 0.761395 0.14023
0.332921 0.759869 0.140002
0.382666 0.757412 0.139437
0.435798 0.754376 0.139544
0.491997 0.750988 0.141344
0.54902 0.747066 0.144945
0.603967 0.743618 0.150347
0.653284 0.741665 0.156619
0.695415 0.741344 0.162463
0.732494 0.742077 0.167865
0.766995 0.743069 0.173327
0.798978 0.743938 0.178866
0.827939 0.744961 0.184283
0.851987 0.746197 0.188602
0.869352 0.748989 0.190921
0.879973 0.754131 0.191089
0.885069 0.760967 0.18938
0.889509 0.767666 0.188251
0.893446 0.774166 0.187823
0.89839 0.780072 0.188479
0.905272 0.785122 0.19057
0.913466 0.789944 0.19382
0.922744 0.793957 0.197787
0.931762 0.797925 0.201846
0.0734722 0.757702 0.118105
0.0902266 0.765042 0.124788
0.108019 0.771893 0.131212
0.126894 0.777844 0.13698
0.147829 0.782818 0.142061
0.171252 0.786938 0.146502
0.19826 0.790311 0.150408
0.229313 0.792065 0.152987
0.265248 0.792416 0.15433
0.306172 0.79147 0.154498
0.351202 0.789593 0.153857
0.400443 0.786755 0.152758
0.453346 0.78352 0.152468
0.508186 0.779446 0.153353
0.564477 0.775021 0.156207
0.618753 0.771054 0.1608
0.667506 0.768399 0.166308
0.709743 0.76759 0.171878
0.745968 0.767727 0.176791
0.779171 0.768231 0.181643
0.809888 0.76878 0.186648
0.838178 0.769574 0.191882
0.863066 0.770581 0.196887
0.883589 0.771939 0.200992
0.898329 0.77467 0.203342
0.908476 0.778836 0.204486
0.91342 0.784634 0.203738
0.917098 0.790661 0.203113
0.920516 0.796613 0.203006
0.923949 0.802441 0.203342
0.92781 0.807813 0.20415
0.9346 0.812146 0.206714
0.941619 0.816281 0.209628
0.0897993 0.790784 0.137041
0.106645 0.797635 0.143496
0.124681 0.804105 0.149767
0.143877 0.809644 0.155291
0.165011 0.81442 0.160281
0.189014 0.818006 0.164324
0.216388 0.820401 0.167407
0.248356 0.821302 0.169284
0.285084 0.820874 0.169924
0.326116 0.819303 0.169436
0.371481 0.816953 0.168276
0.419959 0.813809 0.166705
0.471534 0.809903 0.165606
0.525567 0.805371 0.165805
0.581094 0.800427 0.167941
0.634409 0.796017 0.171893
0.682628 0.793042 0.176928
0.72369 0.791424 0.181735
0.759045 0.791028 0.18616
0.791074 0.791135 0.190494
0.820844 0.791394 0.195041
0.848081 0.791882 0.199817
0.872648 0.792859 0.204883
0.89369 0.793744 0.209445
0.911086 0.794919 0.213321
0.923674 0.797574 0.215763
0.933471 0.801053 0.217609
0.938445 0.806195 0.217624
0.942061 0.811597 0.217548
0.945312 0.816831 0.21767
0.947646 0.822232 0.217624
0.949859 0.827543 0.217777
0.955261 0.831724 0.219806
0.106813 0.822141 0.156832
0.123781 0.828275 0.162997
0.142046 0.83415 0.168994
0.161761 0.839261 0.174365
0.183185 0.843275 0.17879
0.207004 0.84622 0.1823
0.235142 0.847654 0.184588
0.268208 0.847745 0.185657
0.305516 0.846616 0.185534
0.34699 0.844663 0.184573
0.391684 0.841733 0.182712
0.439612 0.838071 0.180545
0.490074 0.833783 0.178714
0.543343 0.828794 0.178363
0.598093 0.823377 0.179828
0.650752 0.818753 0.183398
0.697261 0.815259 0.18764
0.737316 0.81323 0.191882
0.771771 0.812375 0.19585
0.80267 0.81207 0.199664
0.831739 0.812192 0.203906
0.857923 0.812329 0.208286
0.881331 0.812894 0.21294
0.902068 0.813657 0.217563
0.920211 0.814466 0.221866
0.935531 0.815641 0.22565
0.9467 0.818326 0.228229
0.956069 0.821317 0.230549
