src/luts/crop/1.cube
TITLE "Generated by Resolve"
LUT_3D_SIZE 9
0.0419318 0.0545968 0.0716564
0.0886702 0.0536812 0.0660868
0.159426 0.0453956 0.0447852
0.272297 0.0237125 0.00817884
0.396109 0.00665293 0
0.517845 1.5259e-05 0
0.608148 0 0
0.679377 0 0
0.729549 0.00425727 0
0.0455787 0.108888 0.0755016
0.105257 0.111376 0.0838941
0.178668 0.107088 0.0756847
0.30837 0.0873274 0.049012
0.451911 0.0676585 0.0180209
0.585458 0.0557717 0.00248722
0.686809 0.0604562 0.00216678
0.759182 0.0797131 0.005066
0.818723 0.107256 0.0172122
0.0388342 0.186969 0.0686961
0.101045 0.199405 0.0809796
0.206546 0.202487 0.0957351
0.33228 0.199054 0.0841077
0.494621 0.189456 0.0690013
0.6448 0.185794 0.0587472
0.753231 0.199557 0.0662852
0.827909 0.226108 0.087068
0.885634 0.257939 0.111971
0.0221103 0.304234 0.0517433
0.087129 0.328862 0.0708629
0.199619 0.343557 0.0862135
0.373495 0.345937 0.107134
0.514229 0.354559 0.101183
0.663127 0.356329 0.100267
0.768246 0.370886 0.109117
0.839765 0.397955 0.129824
0.896681 0.430335 0.155428
0.0205539 0.455268 0.0522011
0.0864118 0.483833 0.0737011
0.192142 0.500221 0.0884871
0.392981 0.495079 0.101854
0.572229 0.500252 0.126574
0.678996 0.520363 0.116609
0.784253 0.53872 0.13518
0.854353 0.565591 0.158572
0.909361 0.594446 0.183902
0.0298619 0.610742 0.0665904
0.0990158 0.639048 0.0889296
0.206561 0.656306 0.105089
0.399832 0.652613 0.110369
0.61442 0.647761 0.13579
0.760189 0.655192 0.156588
0.804623 0.686458 0.14641
0.867964 0.705882 0.167239
0.919036 0.725292 0.191516
0.0734722 0.757702 0.118105
0.147829 0.782818 0.142061
0.265248 0.792416 0.15433
0.453346 0.78352 0.152468
0.667506 0.768399 0.166308
0.809888 0.76878 0.186648
0.898329 0.77467 0.203342
0.920516 0.796613 0.203006
0.941619 0.816281 0.209628
0.141527 0.878462 0.197513
0.219516 0.893889 0.214664
0.346059 0.891188 0.215625
0.52755 0.874525 0.204288
0.725628 0.853666 0.209003
0.851804 0.848478 0.22211
0.935439 0.849424 0.238178
0.984756 0.854093 0.251865
0.994888 0.867826 0.25742
0.203159 0.966644 0.270954
0.287617 0.971511 0.277806
0.420127 0.958816 0.26714
0.59411 0.936721 0.248325
0.774472 0.913588 0.247852
0.885695 0.906126 0.256367
0.958938 0.905211 0.269306
0.998001 0.907851 0.285557
1 0.912734 0.302571
0.0170748 0.0595254 0.106706
0.0912184 0.0518502 0.124544
0.16701 0.0429236 0.101579
0.272648 0.0252384 0.0615854
0.395315 0.00839246 0.019089
0.51809 4.57771e-05 0
0.614664 0 0
0.68188 0.0011902 0
0.735851 0.0083772 0.000350958
0.0385901 0.111849 0.125109
0.0958877 0.118853 0.135958
0.180011 0.113863 0.123369
0.308095 0.0970321 0.0856336
0.451286 0.0797436 0.0465248
0.583566 0.0700542 0.0137179
0.684367 0.0765698 0.00848402
0.756344 0.0973678 0.0218357
0.816739 0.125475 0.0454261
0.0332341 0.193591 0.119066
0.0972763 0.209247 0.137392
0.206546 0.214191 0.152499
0.343221 0.208362 0.139437
0.511803 0.198611 0.122179
0.662058 0.196155 0.111315
0.768261 0.211109 0.120211
0.841413 0.238178 0.142672
0.898421 0.269261 0.168688
0.0193637 0.314855 0.103746
0.0859693 0.342382 0.127062
0.19408 0.360815 0.145968
0.377371 0.361181 0.164218
0.526177 0.367178 0.158846
0.677028 0.368078 0.156268
0.781323 0.38294 0.16672
0.852628 0.410376 0.189609
0.910002 0.442527 0.21767
0.0181888 0.467155 0.104662
0.0841382 0.497292 0.128161
0.187259 0.515358 0.146044
0.384665 0.511604 0.155932
0.573983 0.51516 0.18117
0.689647 0.533715 0.175982
0.794217 0.552224 0.195926
0.864042 0.578531 0.221424
0.918975 0.606622 0.249729
0.0275883 0.6224 0.120546
0.0964218 0.652567 0.145174
0.202533 0.671641 0.164263
0.387427 0.669154 0.168521
0.6121 0.66154 0.190555
0.762264 0.668193 0.213367
0.81004 0.697337 0.206409
0.87396 0.71516 0.229923
0.924773 0.733852 0.258015
0.0708171 0.768124 0.176333
0.144717 0.794308 0.202716
0.258778 0.806149 0.218433
0.437919 0.797665 0.215259
0.656947 0.780713 0.222583
0.805249 0.779232 0.243061
0.894972 0.784207 0.260945
0.915755 0.805814 0.262013
0.940154 0.823499 0.273777
0.135409 0.886244 0.262577
0.211353 0.902617 0.281178
0.334051 0.902541 0.285527
0.504982 0.886824 0.271901
0.707759 0.864424 0.268696
0.842451 0.856886 0.281422
0.927443 0.85716 0.298299
0.978073 0.861494 0.314351
0.992004 0.875578 0.322103
0.191165 0.971847 0.342931
0.272175 0.977996 0.350744
0.400809 0.968612 0.343999
0.563836 0.947921 0.322347
0.751507 0.923232 0.312963
0.87245 0.913725 0.321096
0.947555 0.912398 0.334981
0.99379 0.915022 0.354452
1 0.919783 0.375448
0.000518807 0.065568 0.160464
0.0347753 0.0604105 0.192172
0.168856 0.0374456 0.197818
0.288777 0.0170901 0.148821
0.405142 0.00569162 0.100542
0.522774 0.000213626 0.0610971
0.616403 0.000350958 0.0409094
0.684092 0.00337224 0.0402991
0.737972 0.0105898 0.0517891
0.00268559 0.118135 0.174334
0.0482338 0.126131 0.194415
0.184848 0.108659 0.22536
0.318669 0.09337 0.180728
0.454047 0.0818799 0.140826
0.584878 0.0749523 0.111833
0.685527 0.0831464 0.10692
0.758694 0.104875 0.123156
0.818967 0.133547 0.1505
0.0229801 0.197421 0.205158
0.0850843 0.214557 0.226017
0.188357 0.228092 0.245045
0.344457 0.220249 0.224201
0.510735 0.214496 0.194293
0.657435 0.215747 0.174029
0.758389 0.233371 0.178485
0.829252 0.260975 0.200458
0.884871 0.292317 0.226276
0.00814832 0.326558 0.187335
0.0758526 0.354635 0.21471
0.186175 0.37705 0.244465
0.375814 0.377813 0.263462
0.5346 0.37969 0.255451
0.69044 0.379049 0.249378
0.795148 0.393973 0.260899
0.866743 0.421118 0.287053
0.924697 0.453254 0.32018
0.0104829 0.478279 0.188357
0.0749065 0.507836 0.214817
0.178836 0.529549 0.239902
0.36289 0.532204 0.252552
0.566644 0.533227 0.274708
0.697566 0.548119 0.276768
0.802487 0.566369 0.297185
0.872145 0.591501 0.325429
0.927016 0.618891 0.358526
0.0198367 0.632578 0.20647
0.087068 0.662898 0.234073
0.192752 0.684779 0.25919
0.366018 0.685679 0.268376
0.596887 0.676753 0.281727
0.756268 0.682277 0.308095
0.8121 0.708217 0.306996
0.877195 0.724941 0.335592
0.927398 0.742687 0.367239
0.0612802 0.777356 0.270893
0.133227 0.802777 0.298619
0.245197 0.817258 0.319081
0.414343 0.811566 0.320241
0.628519 0.795285 0.316472
0.791119 0.790692 0.336721
0.884245 0.794736 0.35729
0.904082 0.816098 0.359915
0.936919 0.830243 0.379492
0.120745 0.893187 0.364721
0.193484 0.908751 0.383795
0.31397 0.911406 0.392706
0.475532 0.898665 0.383612
0.670466 0.877485 0.367956
0.823392 0.866285 0.378775
0.910567 0.866087 0.395621
0.963928 0.870024 0.415
0.977569 0.884932 0.423484
0.170382 0.976883 0.448707
0.247272 0.982391 0.456657
0.374472 0.975998 0.455558
0.528618 0.958648 0.439384
0.708232 0.935561 0.417685
0.849317 0.922316 0.423362
0.927611 0.920699 0.436805
0.98114 0.92343 0.458106
0.999985 0.928145 0.481971
0 0.0719463 0.237568
0 0.0695659 0.269413
0.085069 0.0440528 0.315862
0.292119 0.00909438 0.292744
0.431617 1.5259e-05 0.234241
0.54377 0 0.1832
0.634836 0 0.158358
0.702098 0.00189212 0.15668
0.756298 0.00759899 0.169421
0 0.125795 0.246769
0.000442512 0.132174 0.276967
0.0848859 0.120348 0.332418
0.329641 0.0811017 0.337224
0.483299 0.0664073 0.28603
0.608621 0.0656748 0.248661
0.706584 0.0770581 0.24213
0.779232 0.10045 0.259358
0.839918 0.129641 0.287083
0 0.201038 0.280537
0.016022 0.220874 0.298802
0.106584 0.236545 0.331685
0.362509 0.20972 0.389639
0.530007 0.206622 0.350942
0.668193 0.214282 0.328283
0.766079 0.233768 0.332845
0.834775 0.261906 0.353384
0.889921 0.293385 0.379721
0.00178531 0.332555 0.326085
0.0580301 0.362432 0.359228
0.163882 0.386694 0.391165
0.346227 0.397848 0.414588
0.534295 0.39086 0.391562
0.689296 0.393927 0.371832
0.789502 0.412772 0.374563
0.859281 0.440864 0.396323
0.916426 0.473518 0.425574
0.00117494 0.493202 0.322698
0.0515297 0.522972 0.351751
0.154589 0.544793 0.378943
0.341238 0.553109 0.410254
0.554513 0.553552 0.429099
0.702281 0.563546 0.430976
0.810239 0.580316 0.446891
0.88101 0.604044 0.472526
0.936599 0.62977 0.501823
0.00595102 0.646372 0.33434
0.0655833 0.676097 0.365393
0.16994 0.696223 0.393668
0.343771 0.700572 0.416861
0.557504 0.697948 0.426017
0.734936 0.700511 0.449577
0.811872 0.719402 0.457374
0.877928 0.735912 0.484215
0.928786 0.753109 0.511971
0.0405127 0.789502 0.399756
0.110948 0.813596 0.429847
0.219852 0.825833 0.452491
0.388373 0.822477 0.464149
0.577966 0.811963 0.459739
0.765881 0.80293 0.471656
0.863569 0.807065 0.491554
0.890181 0.826307 0.494926
0.933577 0.836805 0.518181
0.0969558 0.903395 0.491432
0.166766 0.917708 0.511086
0.283467 0.917815 0.52105
0.445869 0.907134 0.522408
0.618189 0.891005 0.508385
0.793942 0.876265 0.507897
0.886397 0.876097 0.523232
0.943221 0.879881 0.541955
0.957977 0.894682 0.548058
0.142336 0.984787 0.569024
0.216022 0.989075 0.577173
0.340307 0.980789 0.577417
0.49659 0.965728 0.572656
0.656352 0.947219 0.554345
0.815641 0.931502 0.547524
0.902235 0.929519 0.559472
0.958953 0.932372 0.578927
0.993851 0.93756 0.601785
0 0.0794232 0.319707
0 0.0784466 0.352346
0.00280766 0.0608072 0.400244
0.2374 0.00805676 0.437613
0.431342 0 0.392599
0.571603 0 0.339574
0.665278 0 0.307851
0.730953 0 0.302403
0.785031 0.0027924 0.314366
0 0.133837 0.329778
0 0.139971 0.364019
0.00663767 0.132738 0.416831
0.264988 0.0797284 0.486885
0.491249 0.0556497 0.455192
0.641245 0.0484016 0.416907
0.7402 0.0624399 0.405051
0.811261 0.087602 0.418341
0.871717 0.118608 0.443793
0 0.211551 0.347097
0 0.230121 0.375357
0.0269627 0.242344 0.4215
0.26598 0.213581 0.530526
0.548898 0.194141 0.52842
0.703334 0.198154 0.502647
0.798428 0.220508 0.500603
0.864576 0.249821 0.515221
0.918563 0.282948 0.537072
0 0.333318 0.425757
0.0110781 0.363363 0.456352
0.0989395 0.388449 0.476555
0.253025 0.403098 0.502586
0.551629 0.379675 0.570794
0.702785 0.386236 0.546731
0.800412 0.40856 0.548196
0.868467 0.438453 0.566537
0.923842 0.472145 0.591546
0.000579843 0.499779 0.475898
0.0374762 0.530037 0.509667
0.136965 0.55378 0.541054
0.313344 0.566308 0.569131
0.527016 0.574411 0.592325
0.70164 0.574243 0.576303
0.808057 0.592111 0.579324
0.878447 0.616419 0.59939
0.932113 0.642969 0.619486
0.000244144 0.660121 0.487388
0.0435187 0.691173 0.521279
0.143648 0.71342 0.549432
0.315282 0.717769 0.566629
0.531151 0.71931 0.596948
0.71928 0.71902 0.610636
0.812009 0.73167 0.619257
0.880171 0.747234 0.638834
0.932601 0.763195 0.659678
0.0192264 0.803754 0.546304
0.0855573 0.828168 0.576562
0.189502 0.841001 0.596139
0.357748 0.833295 0.602777
0.552071 0.826749 0.619745
0.736492 0.819074 0.620249
0.840085 0.822003 0.635737
0.882902 0.835218 0.643381
0.930648 0.844358 0.664179
0.0723735 0.914931 0.628351
0.138582 0.929702 0.646906
0.24889 0.930434 0.653162
0.412589 0.914397 0.651225
0.589822 0.901564 0.657099
0.753277 0.890761 0.6486
0.861158 0.887434 0.658854
0.919249 0.891646 0.674067
0.943038 0.903609 0.680934
0.116503 0.992737 0.693904
0.18529 0.996002 0.70132
0.303563 0.991974 0.698344
0.462135 0.971374 0.69247
0.6271 0.955673 0.693095
0.771572 0.944533 0.6822
0.875975 0.939635 0.687922
0.935378 0.942397 0.704677
0.978775 0.948425 0.724285
0 0.0873732 0.39794
0 0.0878462 0.432517
0 0.0744488 0.478294
0.122805 0.0214694 0.552743
0.401755 0 0.533806
0.570306 0 0.493492
0.681804 0 0.466423
0.755322 0 0.461295
0.812589 0.000610361 0.472847
0 0.143374 0.4112
0 0.150256 0.448066
0 0.146166 0.500191
0.148714 0.100801 0.593439
0.466102 0.0526131 0.599359
0.64538 0.0434272 0.57586
0.758907 0.0529946 0.569345
0.835813 0.0769818 0.582666
0.899046 0.107698 0.605524
0 0.225254 0.424445
0 0.243885 0.459327
0 0.255482 0.510109
0.158465 0.232883 0.613138
0.52076 0.190951 0.672923
0.712413 0.192508 0.662058
0.819852 0.209598 0.663188
0.890822 0.237476 0.675715
0.947478 0.270726 0.692775
0 0.344823 0.490425
0 0.375128 0.518349
0.0243076 0.398062 0.53753
0.170764 0.403967 0.580575
0.481346 0.376425 0.707057
0.720913 0.374746 0.70547
0.827008 0.394415 0.707683
0.896086 0.425772 0.72108
0.950713 0.460929 0.738384
0 0.500984 0.584878
0.0124666 0.531365 0.617472
0.106935 0.55523 0.644038
0.259892 0.567422 0.65243
0.441627 0.581277 0.675013
0.713649 0.566598 0.738079
0.816541 0.585229 0.740322
0.88452 0.611353 0.751583
0.93756 0.638239 0.765545
0 0.666621 0.626215
0.0361181 0.697704 0.660838
0.135012 0.720119 0.690883
0.299809 0.727962 0.713832
0.50428 0.733028 0.736721
0.694209 0.736355 0.753613
0.811826 0.739315 0.753185
0.878233 0.753307 0.759197
0.92903 0.768826 0.768627
0.0122225 0.812192 0.679408
0.0749523 0.836393 0.709484
0.175051 0.850095 0.731014
0.333501 0.847868 0.740887
0.525017 0.840513 0.747646
0.710155 0.835233 0.76701
0.8262 0.835431 0.774502
0.880613 0.843565 0.780682
0.930236 0.851987 0.792248
0.0612497 0.921477 0.746242
0.125429 0.936126 0.765148
0.229786 0.938842 0.774777
0.383597 0.927932 0.774212
0.563302 0.912062 0.772808
0.728985 0.903807 0.786526
0.838987 0.901167 0.786389
0.903807 0.903212 0.79823
0.937438 0.911238 0.803983
0.104601 0.995117 0.796063
0.170214 0.997406 0.805524
0.2813 0.997131 0.806836
0.431434 0.983673 0.800763
0.60174 0.963912 0.797589
0.750988 0.955474 0.808438
0.850767 0.953048 0.807172
0.916915 0.954345 0.816739
0.964965 0.959426 0.832441
0 0.0944991 0.460212
0 0.0959029 0.49427
0 0.0850996 0.538109
0.0390631 0.0419471 0.616007
0.347417 0 0.643473
0.558434 0 0.606958
0.680507 0 0.587884
0.761013 0 0.5879
0.822812 0.000701915 0.601938
0 0.151873 0.473915
0 0.159472 0.510292
0 0.157549 0.561807
0.0747387 0.120958 0.654215
0.418357 0.0590524 0.704479
0.64036 0.0475471 0.685039
0.761776 0.0556649 0.684627
0.84332 0.0786755 0.699794
0.909361 0.10869 0.721294
0 0.23743 0.486213
0 0.256565 0.522438
0 0.268986 0.573846
0.106554 0.251118 0.672023
0.470436 0.199634 0.769421
0.709453 0.197848 0.763104
0.823774 0.213001 0.769009
0.898466 0.239246 0.782696
0.958572 0.271641 0.798779
0 0.359731 0.539055
0 0.390158 0.567269
0.00169375 0.41236 0.590814
0.127733 0.413901 0.640131
0.397375 0.388037 0.769207
0.714122 0.376883 0.802182
0.833677 0.395941 0.810285
0.907912 0.425177 0.824643
0.96614 0.458869 0.840024
0 0.509041 0.64535
0.00155642 0.539742 0.674586
0.075639 0.563729 0.694713
0.209674 0.572595 0.689967
0.385473 0.582116 0.725826
0.690074 0.567575 0.835142
0.830167 0.582071 0.840528
0.900298 0.606378 0.851759
0.952956 0.633051 0.862562
0 0.671031 0.710491
0.0306096 0.701976 0.742763
0.129839 0.723949 0.770611
0.290623 0.730922 0.789197
0.479271 0.737469 0.800336
0.645884 0.746502 0.814893
0.811124 0.738201 0.855985
0.878538 0.751583 0.862776
0.929915 0.766369 0.868666
0.0108186 0.818296 0.768215
0.0749218 0.841596 0.796139
0.175158 0.854276 0.817578
0.331502 0.852064 0.830365
0.514534 0.847242 0.842496
0.691386 0.843748 0.853437
0.805951 0.846479 0.863828
0.88159 0.848402 0.870832
0.930205 0.855283 0.871519
0.0604562 0.926146 0.824552
0.124224 0.939849 0.842893
0.227955 0.942382 0.854414
0.377676 0.932906 0.858534
0.547723 0.921416 0.861418
0.714015 0.911665 0.865965
0.826093 0.909804 0.879042
0.893416 0.912642 0.886137
0.936461 0.917006 0.889921
0.102007 0.996246 0.865629
0.166873 0.997848 0.876005
0.276341 0.997559 0.879744
0.421851 0.987869 0.878279
0.583871 0.973678 0.87599
0.738506 0.962112 0.880674
0.839246 0.960967 0.893736
0.904341 0.964599 0.899123
0.958053 0.968383 0.910231
0 0.100618 0.502708
0 0.102724 0.53547
0 0.0937057 0.578088
0.00570687 0.0565957 0.654124
0.293736 0.000976577 0.711818
0.541482 0 0.681376
0.677287 0 0.667048
0.762524 7.62951e-05 0.670466
0.827237 0.00190738 0.686458
0 0.159365 0.516274
0 0.16788 0.551888
0 0.167758 0.602792
0.0379034 0.136355 0.692988
0.377081 0.0727703 0.768597
0.633127 0.0537575 0.753353
0.763684 0.0645151 0.757031
0.847913 0.0871901 0.77348
0.915602 0.116701 0.794797
0 0.248264 0.528817
0 0.268284 0.564904
0 0.281529 0.616236
0.082536 0.266423 0.711833
0.428748 0.215869 0.825772
0.702113 0.205615 0.826001
0.825727 0.222675 0.833875
0.902205 0.248188 0.848539
0.962005 0.280324 0.865248
0 0.374182 0.575128
0 0.404395 0.603037
0.000671397 0.425803 0.629313
0.110124 0.42707 0.682368
0.356176 0.402792 0.804807
0.699397 0.384237 0.863798
0.835737 0.405295 0.872892
0.912367 0.433463 0.888502
0.970703 0.46569 0.904295
0 0.520287 0.682216
4.57771e-05 0.551339 0.709361
0.059678 0.575387 0.726284
0.187854 0.582727 0.719646
0.360128 0.588556 0.762203
0.650309 0.577188 0.885435
0.829374 0.587396 0.90103
0.906218 0.61059 0.913375
0.961563 0.634745 0.924498
0 0.679362 0.760281
0.0295872 0.709789 0.790784
0.129686 0.731304 0.816236
0.285863 0.737682 0.828809
0.456428 0.743755 0.827619
0.617899 0.751827 0.850629
0.799115 0.742199 0.916579
0.886412 0.751385 0.921691
0.936248 0.76582 0.928756
0.0132143 0.823926 0.822187
0.0776837 0.845869 0.8486
0.180621 0.857023 0.868833
0.335103 0.854383 0.880629
0.512062 0.849439 0.889921
0.675944 0.84979 0.894194
0.779385 0.854856 0.904479
0.8719 0.85034 0.932876
0.928649 0.855451 0.935561
0.0634775 0.929839 0.877073
0.127947 0.942504 0.89514
0.233082 0.944045 0.906706
0.381064 0.934417 0.911681
0.54696 0.923186 0.916197
0.705333 0.916442 0.923217
0.815396 0.914305 0.929366
0.878676 0.919326 0.937346
0.938247 0.919936 0.946288
0.104479 0.997391 0.915434
0.170031 0.998383 0.925811
0.280125 0.99762 0.930251
0.423529 0.989258 0.930159
0.581338 0.977279 0.930404
0.729488 0.968429 0.933715
0.833692 0.965774 0.943008
0.900298 0.96939 0.953979
0.953048 0.975998 0.964096
0 0.106126 0.532403
0 0.108934 0.56434
0 0.101442 0.605951
0 0.068513 0.680171
0.250965 0.00561532 0.75494
0.524697 0 0.734386
0.674983 1.5259e-05 0.720943
0.764431 0.00047303 0.726711
0.831327 0.0030518 0.74374
0 0.166522 0.546563
0 0.176104 0.582132
0 0.177325 0.63267
0.0187228 0.14966 0.721218
0.345922 0.0882429 0.811765
0.625757 0.0632639 0.803952
0.766491 0.0755932 0.808286
0.85243 0.0985122 0.825895
0.921248 0.127474 0.847471
0 0.258732 0.560357
0 0.279881 0.596399
0 0.29366 0.64802
0.0698863 0.280842 0.74197
0.397299 0.233463 0.863325
0.69308 0.216159 0.873655
0.826001 0.233707 0.880827
0.904936 0.259998 0.896803
0.962478 0.291997 0.914076
0 0.387976 0.603601
0 0.417975 0.631876
0 0.438682 0.659586
0.102266 0.439902 0.71458
0.334096 0.417685 0.831434
0.682704 0.395209 0.909499
0.8336 0.415122 0.918425
0.915099 0.444694 0.935683
0.974289 0.475624 0.952117
0 0.53257 0.709468
0 0.563714 0.735622
0.0527352 0.587411 0.75053
0.178729 0.593881 0.745266
0.347189 0.597055 0.791348
0.617456 0.588373 0.91635
0.821424 0.59498 0.947433
0.907149 0.617334 0.958541
0.965331 0.640024 0.970459
0 0.689448 0.796033
0.0315709 0.719203 0.825422
0.134218 0.739391 0.848386
0.284718 0.745403 0.855756
0.440742 0.749905 0.846998
0.599557 0.756985 0.877546
0.772641 0.751614 0.954604
0.883665 0.753918 0.967529
0.942351 0.766903 0.97322
0.0182803 0.830579 0.861677
0.0838636 0.851102 0.887037
0.189258 0.860609 0.905592
0.341283 0.857664 0.91516
0.510307 0.853056 0.919493
0.660014 0.856153 0.915831
0.760342 0.86067 0.933471
0.855634 0.855314 0.972457
0.926574 0.856382 0.979217
0.0676585 0.933089 0.916167
0.133791 0.944533 0.93109
0.241535 0.944808 0.941619
0.387411 0.93492 0.948882
0.549447 0.923919 0.95256
0.700298 0.918975 0.957092
0.796323 0.921263 0.957076
0.858351 0.925444 0.968429
0.92604 0.922621 0.988586
0.111192 0.998566 0.9299
0.179461 0.99884 0.937331
0.290715 0.997528 0.947372
0.430793 0.989166 0.958831
0.585153 0.977768 0.969177
0.727108 0.970977 0.976684
0.826307 0.969696 0.982879
0.891264 0.973739 0.991501
0.941024 0.982071 0.998367
