src/luts/crop/10.cube
TITLE "Generated by Resolve"
LUT_3D_SIZE 33
0 0 0
0.0271 0.000442512 0.000213626
0.0547646 0.00103761 0.000503548
0.0826429 0.00170901 0.000823987
0.110338 0.00227359 0.00109865
0.137942 0.0027924 0.00134279
0.165499 0.00323491 0.00157168
0.193011 0.00361639 0.00177005
0.220554 0.00399786 0.00198367
0.24828 0.00442512 0.0021973
0.275746 0.00474556 0.00238041
0.303197 0.00503548 0.00254826
0.330617 0.00529488 0.00270085
0.358068 0.00553903 0.00283818
0.385657 0.00578317 0.00299077
0.413123 0.00608835 0.00317388
0.440513 0.00630198 0.00329595
0.467903 0.0065156 0.00343328
0.495369 0.00669871 0.00355535
0.52285 0.00688182 0.00369268
0.550332 0.00721752 0.00386053
0.577737 0.0074464 0.00401312
0.605142 0.00767529 0.00415045
0.632547 0.00790417 0.00430304
0.660136 0.00810254 0.00444038
0.687633 0.00846876 0.00462348
0.715129 0.00883497 0.00480659
0.742611 0.00915541 0.00500496
0.770092 0.00949111 0.00518807
0.797772 0.00982681 0.00537118
0.82533 0.0102693 0.0055848
0.852979 0.0108492 0.00587472
0.880598 0.0113985 0.00613413
0.0401617 0.0171206 0.00399786
0.0278019 0.0303349 0
0.0553292 0.0310063 0
0.082948 0.0313878 0
0.110399 0.0317998 0
0.137835 0.0321965 0
0.165347 0.0325322 0
0.192935 0.0329442 0
0.220523 0.0331731 0
0.247959 0.0334325 0
0.275395 0.0336767 0
0.302815 0.0339055 0
0.330343 0.0341192 0
0.3579 0.0344091 0
0.385306 0.0346075 0
0.412711 0.0348058 0
0.440116 0.0350195 0
0.467628 0.0352026 0
0.495003 0.0354925 0
0.522469 0.0357977 0
0.549889 0.0360418 0
0.57734 0.0363012 0
0.604852 0.0365759 7.62951e-05
0.632471 0.0368505 0.000244144
0.659998 0.0372473 0.000457771
0.687541 0.037644 0.000671397
0.715084 0.0380407 0.000900282
0.742657 0.0384985 0.00114443
0.770443 0.038941 0.00137331
0.798047 0.0394598 0.00163272
0.825757 0.040116 0.0019379
0.853483 0.0407874 0.00225834
0.881254 0.0415198 0.00260929
0.0806897 0.0341344 0.00781262
0.0540475 0.052018 0
0.055436 0.0603342 0
0.0824445 0.0608225 0
0.109911 0.0611124 0
0.137346 0.0613718 0
0.164981 0.0616922 0
0.192462 0.0619211 0
0.219883 0.06215 0
0.247288 0.0623636 0
0.274693 0.0625772 0
0.302281 0.0627298 0
0.329702 0.0630655 0
0.357015 0.0633097 0
0.384436 0.0635233 0
0.411856 0.0637522 0
0.43946 0.0639353 0
0.466896 0.0641947 0
0.494408 0.0645609 0
0.521889 0.0648661 0
0.549371 0.0651865 0
0.576959 0.0654917 0
0.604547 0.0658274 0
0.632181 0.0663615 0
0.65977 0.0668498 0
0.687388 0.0673533 0
0.714992 0.0678721 0
0.742779 0.0684215 0
0.77052 0.0691691 0
0.798352 0.0700236 0
0.826154 0.0708324 0
0.853986 0.0716869 0
0.881895 0.0726329 0
0.120531 0.0507668 0.011429
0.0971237 0.0675517 0
0.0721294 0.0842145 0
0.0825208 0.0896468 0
0.109285 0.0901045 0
0.136965 0.0903944 0
0.164355 0.0906081 0
0.191699 0.090837 0
0.219013 0.0910658 0
0.246418 0.0912795 0
0.274083 0.0915389 0
0.301503 0.0917678 0
0.328908 0.0919966 0
0.356329 0.0922255 0
0.383825 0.0924697 0
0.411414 0.0927138 0
0.438972 0.0931411 0
0.466453 0.0934615 0
0.49395 0.0938125 0
0.521477 0.0941939 0
0.549142 0.0946059 0
0.576761 0.0951095 0
0.604395 0.0957504 0
0.631998 0.0962997 0
0.659678 0.09691 0
0.687434 0.0976272 0
0.715343 0.0983902 0
0.743282 0.0992447 0
0.771206 0.100191 0
0.799161 0.101198 0
0.827207 0.102358 0
0.855344 0.103624 0
0.883497 0.104936 0
0.160006 0.0670939 0.0148623
0.1402 0.0825666 0.00318914
0.10631 0.102571 0
0.0952468 0.114549 0
0.109529 0.118822 0
0.136095 0.119295 0
0.1635 0.119509 0
0.190906 0.119722 0
0.218402 0.119921 0
0.245975 0.120226 0
0.273411 0.12047 0
0.300862 0.120745 0
0.328313 0.121035 0
0.355901 0.121324 0
0.383474 0.12163 0
0.411002 0.122118 0
0.438468 0.122545 0
0.466011 0.123018 0
0.493614 0.123522 0
0.52134 0.12401 0
0.549081 0.124559 0
0.576867 0.125322 0
0.604639 0.12607 0
0.632456 0.126879 0
0.660288 0.127703 0
0.688167 0.128618 0
0.71635 0.129809 0
0.744533 0.130983 0
0.772671 0.13228 0
0.800855 0.133608 0
0.829129 0.135103 0
0.857694 0.136889 0
0.886488 0.138949 0
0.199451 0.0832837 0.0181735
0.182132 0.0977646 0.00859083
0.148226 0.118196 0
0.121965 0.135164 0
0.120043 0.144228 0
0.136416 0.14786 0
0.162829 0.148409 0
0.190417 0.148608 0
0.21796 0.149004 0
0.245426 0.14931 0
0.272831 0.14966 0
0.300237 0.150027 0
0.327901 0.150347 0
0.35555 0.150866 0
0.383154 0.151369 0
0.410773 0.151873 0
0.438392 0.152392 0
0.466056 0.152987 0
0.493812 0.153658 0
0.521859 0.154528 0
0.549676 0.155352 0
0.577523 0.156191 0
0.605432 0.157153 0
0.633463 0.158282 0
0.661585 0.159533 0
0.689845 0.160983 0
0.718044 0.162356 0
0.74638 0.163928 0
0.774914 0.165774 0
0.803677 0.167788 0
0.832456 0.169924 0
0.861357 0.172305 0
0.890364 0.174868 0
0.238773 0.0995041 0.0215457
0.22298 0.113497 0.0134737
0.191821 0.13312 0
0.158129 0.152834 0
0.142077 0.166323 0
0.145724 0.1738 0
0.163546 0.177203 0
0.189883 0.177966 0
0.21738 0.178302 0
0.244892 0.178683 0
0.272465 0.179141 0
0.300191 0.179583 0
0.327901 0.180194 0
0.35555 0.180758 0
0.383246 0.181384 0
0.411002 0.182116 0
0.438804 0.18291 0
0.466621 0.183734 0
0.494652 0.184726 0
0.522713 0.185718 0
0.55079 0.186892 0
0.578927 0.188174 0
0.60708 0.189487 0
0.635325 0.190906 0
0.663859 0.192752 0
0.692439 0.19469 0
0.721126 0.196765 0
0.749981 0.198856 0
0.778836 0.201175 0
0.808103 0.204105 0
0.837461 0.207172 0
0.866972 0.210407 0
0.896513 0.213687 0
0.278309 0.115801 0.0249332
0.263462 0.129366 0.0178378
0.235447 0.148043 0
0.199802 0.168856 0
0.173404 0.185916 0
0.164904 0.197192 0
0.172335 0.203769 0
0.191028 0.207019 0
0.217227 0.20798 0
0.244831 0.208499 0
0.272587 0.209033 0
0.30045 0.209796 0
0.328237 0.210559 0
0.356039 0.211368 0
0.383871 0.212207 0
0.411765 0.213123 0
0.439826 0.214313 0
0.467948 0.215579 0
0.496101 0.216861 0
0.52433 0.218189 0
0.552712 0.219669 0
0.581231 0.221439 0
0.609964 0.223621 0
0.638666 0.225727 0
0.667506 0.227878 0
0.696437 0.230335 0
0.725551 0.233204 0
0.754955 0.236362 0
0.784619 0.239857 0
0.814328 0.243153 0
0.844007 0.246693 0
0.87396 0.250477 0
0.904341 0.254337 0
0.317983 0.13225 0.0284123
0.303975 0.145556 0.0222629
0.278492 0.163409 0.00527962
0.243641 0.184375 0
0.211017 0.204059 0
0.192523 0.218631 0
0.1897 0.228321 0
0.199649 0.234302 0
0.219059 0.237613 0
0.245243 0.238987 0
0.273289 0.239826 0
0.301137 0.240681 0
0.329061 0.241657 0
0.357092 0.242802 0
0.385214 0.244053 0
0.413428 0.245457 0
0.441672 0.246906 0
0.470024 0.248508 0
0.498573 0.250385 0
0.52723 0.25243 0
0.555932 0.254536 0
0.584863 0.256962 0
0.614069 0.259541 0
0.643366 0.262531 0
0.672816 0.265751 0
0.702327 0.269032 0
0.732067 0.272374 0
0.761868 0.276295 0
0.791791 0.280171 0
0.821988 0.284138 0
0.851987 0.288197 0
0.882094 0.292393 0
0.913008 0.296986 0
0.357946 0.148959 0.0320897
0.344701 0.162173 0.0266728
0.321401 0.179431 0.0111391
0.288167 0.200259 0
0.252918 0.221134 0
0.226917 0.238544 0
0.214908 0.251392 0
0.216175 0.260197 0
0.228107 0.266011 0
0.248173 0.269642 0
0.274418 0.271427 0
0.302586 0.272694 0
0.330755 0.274022 0
0.358984 0.275471 0
0.387533 0.277333 0
0.416114 0.279301 0
0.444816 0.281376 0
0.473533 0.283528 0
0.502403 0.285893 0
0.531777 0.288701 0
0.561212 0.29189 0
0.590524 0.295186 0
0.620035 0.298497 0
0.649821 0.30193 0
0.679728 0.305638 0
0.709804 0.309789 0
0.73994 0.313848 0
0.769894 0.317968 0
0.800061 0.32224 0
0.830594 0.326726 0
0.860883 0.331518 0
0.891783 0.336568 0
0.922759 0.34136 0
0.39852 0.166049 0.0359655
0.386053 0.179339 0.0312047
0.364492 0.196246 0.0169375
0.333379 0.216617 0
0.297856 0.238087 0
0.266651 0.257649 0
0.247013 0.273335 0
0.240269 0.285222 0
0.244694 0.293675 0
0.258152 0.299519 0
0.27866 0.303502 0
0.304768 0.306081 0
0.33344 0.308156 0
0.362219 0.310369 0
0.390967 0.312581 0
0.419944 0.315068 0
0.449287 0.317922 0
0.478737 0.32108 0
0.508324 0.324468 0
0.537942 0.327932 0
0.567788 0.331456 0
0.597574 0.335317 0
0.627558 0.339315 0
0.65774 0.343297 0
0.687938 0.347646 0
0.718151 0.352117 0
0.748623 0.35671 0
0.779141 0.361501 0
0.809857 0.366278 0
0.840284 0.371283 0
0.871489 0.376745 0
0.902739 0.382132 0
0.934035 0.387686 0
0.44007 0.183932 0.0403143
0.427955 0.197147 0.0359655
0.407858 0.213779 0.0229038
0.378882 0.23389 0.00364691
0.344305 0.255741 0
0.31046 0.27686 0
0.28513 0.295048 0
0.271015 0.30956 0
0.268437 0.320806 0
0.275578 0.329381 0
0.29044 0.335744 0
0.311543 0.340505 0
0.337819 0.344244 0
0.367102 0.347265 0
0.396628 0.350469 0
0.426017 0.35378 0
0.455543 0.357214 0
0.485725 0.361059 0
0.515618 0.364965 0
0.545663 0.368978 0
0.575692 0.373022 0
0.605737 0.377264 0
0.636179 0.381857 0
0.666865 0.386664 0
0.697246 0.391516 0
0.727962 0.396323 0
0.758679 0.401358 0
0.789517 0.406668 0
0.820676 0.412436 0
0.852018 0.418112 0
0.882994 0.423865 0
0.914763 0.429603 0
0.946258 0.435752 0
0.482475 0.202487 0.0451057
0.471 0.216007 0.0411841
0.452461 0.232456 0.0293431
0.425315 0.252338 0.0108186
0.392538 0.274479 0
0.357733 0.296956 0
0.328313 0.317311 0
0.308537 0.334325 0
0.299413 0.348196 0
0.300328 0.359457 0
0.309895 0.368841 0
0.326146 0.376165 0
0.347799 0.381964 0
0.373922 0.386587 0
0.403586 0.390417 0
0.433371 0.394476 0
0.463554 0.398718 0
0.493751 0.402762 0
0.523949 0.407065 0
0.554147 0.411688 0
0.584756 0.416388 0
0.615412 0.421317 0
0.646265 0.426352 0
0.676875 0.43154 0
0.707942 0.436896 0
0.738872 0.442542 0
0.770092 0.448142 0
0.801434 0.454093 0
0.832807 0.460197 0
0.864332 0.466453 0
0.895949 0.472847 0
0.92813 0.479118 0.000869764
0.959884 0.485649 0.00337224
0.526238 0.222095 0.0505226
0.515404 0.236042 0.0469673
0.497902 0.25301 0.0357366
0.473304 0.272969 0.0187381
0.441962 0.29514 0
0.407889 0.318242 0
0.376287 0.34052 0
0.352499 0.360204 0
0.337758 0.376928 0
0.332982 0.390921 0
0.336568 0.40235 0
0.347555 0.411948 0
0.364599 0.419928 0
0.386526 0.42652 0
0.412467 0.432029 0
0.441993 0.436973 0
0.472389 0.441627 0
0.503059 0.446357 0
0.53344 0.45124 0
0.564202 0.456168 0
0.595285 0.461707 0
0.626215 0.467201 0
0.657343 0.472831 0
0.688426 0.478492 0
0.719661 0.484321 0
0.751308 0.490471 0
0.782895 0.497047 0
0.814633 0.503441 0
0.846235 0.509896 0
0.878019 0.516503 0
0.910323 0.523186 0.00224308
0.942596 0.530327 0.00521859
0.974792 0.537514 0.00798047
0.572244 0.243488 0.0570535
0.561807 0.257908 0.0536812
0.545754 0.27541 0.0433204
0.523415 0.295537 0.0274815
0.49427 0.318257 0.0083772
0.461112 0.342107 0
0.42855 0.36553 0
0.401038 0.387457 0
0.38201 0.406439 0
0.371771 0.422644 0
0.369879 0.436316 0
0.375509 0.447913 0
0.387717 0.457923 0
0.405493 0.46688 0
0.427695 0.474296 0
0.453452 0.48069 0
0.482521 0.48629 0
0.513313 0.491646 0
0.544518 0.497169 0
0.575647 0.503166 0
0.606973 0.508827 0
0.638056 0.514794 0
0.669703 0.520912 0
0.701411 0.52723 0
0.732967 0.533822 0
0.764981 0.54052 0
0.796689 0.547219 0
0.828611 0.554101 0
0.860731 0.56109 0.00128176
0.892592 0.5682 0.00410468
0.925399 0.575311 0.00695811
0.957855 0.58262 0.00988785
0.990204 0.589868 0.0128939
0.621195 0.267079 0.0648356
0.611872 0.282445 0.0618601
0.596445 0.300252 0.0520638
0.575387 0.320516 0.0369879
0.547738 0.34345 0.0179904
0.516258 0.367666 0
0.483452 0.392309 0
0.453819 0.415427 0
0.431022 0.436179 0
0.416098 0.454582 0
0.409277 0.470588 0
0.409888 0.484413 0
0.417487 0.496605 0
0.430671 0.507134 0
0.448768 0.516518 0
0.471077 0.524849 0
0.496742 0.532219 0
0.525444 0.538796 0
0.556695 0.545235 0
0.588205 0.551507 0
0.619974 0.557855 0
0.651453 0.564355 0
0.683299 0.570855 0
0.715358 0.577981 0
0.747372 0.584924 0
0.7794 0.591959 0
0.811627 0.598962 0.000335698
0.843534 0.606134 0.00314336
0.875959 0.613397 0.00605783
0.908782 0.62089 0.00903334
0.941024 0.62826 0.0119936
0.973465 0.635554 0.0149081
1 0.642832 0.017792
0.672587 0.292638 0.0738384
0.663493 0.308568 0.070634
0.648905 0.32694 0.0611887
0.629191 0.347372 0.0469673
0.603159 0.370245 0.0288396
0.572717 0.395102 0.0102846
0.540703 0.420127 0
0.51017 0.44445 0
0.484031 0.467048 0
0.465461 0.487175 0
0.454307 0.50544 0
0.450507 0.521538 0
0.45333 0.535653 0
0.462089 0.548074 0
0.476066 0.559167 0
0.494545 0.569253 0
0.517205 0.578744 0
0.542763 0.587121 0
0.571145 0.594644 0
0.601892 0.601587 0
0.633967 0.608362 0
0.665766 0.615412 0
0.698253 0.622766 0
0.730312 0.629847 0
0.762417 0.637018 0
0.794614 0.644266 0.00224308
0.826856 0.651606 0.00517281
0.859236 0.659007 0.00807202
0.891615 0.666697 0.0112001
0.924407 0.673854 0.0140688
0.956786 0.681071 0.0169528
0.988952 0.688319 0.019852
1 0.695506 0.0227207
0.726177 0.319783 0.0836347
0.717144 0.336172 0.0805219
0.703456 0.354849 0.0715953
0.685054 0.375814 0.0581216
0.660288 0.399252 0.0403906
0.631403 0.423865 0.0220645
0.599939 0.449348 0.00512703
0.568811 0.474693 0
0.541161 0.498817 0
0.519692 0.521019 0
0.504295 0.5411 0
0.496254 0.558938 0
0.494713 0.575067 0
0.499443 0.589517 0
0.509407 0.602487 0
0.524285 0.614481 0
0.543053 0.625238 0
0.565393 0.635126 0
0.590799 0.644236 0
0.618723 0.652598 0
0.649134 0.660243 0
0.681346 0.667887 0
0.713359 0.675242 0
0.745785 0.682536 0.00138857
0.778058 0.689891 0.0043183
0.810315 0.69723 0.00717174
0.842741 0.704921 0.0103304
0.874968 0.712169 0.0132296
0.907652 0.71928 0.0160525
0.939818 0.726482 0.018967
0.972107 0.733562 0.0217899
1 0.74052 0.0245212
1 0.747646 0.0274357
0.781567 0.348562 0.0944839
0.772915 0.365545 0.0913252
0.759884 0.384649 0.0827344
0.742336 0.405966 0.069749
0.719234 0.429419 0.0528725
0.691356 0.454643 0.0344701
0.661204 0.480461 0.0173953
0.629984 0.506493 0.00289921
0.60145 0.532021 0
0.576867 0.555886 0
0.559121 0.577493 0
0.547173 0.597192 0
0.541451 0.615061 0
0.542245 0.631434 0
0.548394 0.646326 0
0.559289 0.659739 0
0.574365 0.671977 0
0.59321 0.683177 0
0.61532 0.693523 0
0.640558 0.703441 0
0.667979 0.712413 0
0.697765 0.720562 0.000747692
0.729137 0.728176 0.0033875
0.761212 0.735485 0.00639353
0.793591 0.742687 0.00927749
0.826017 0.750301 0.012314
0.858198 0.757504 0.0150759
0.890211 0.764569 0.0180362
0.922713 0.771313 0.0207218
0.954604 0.778088 0.0233921
0.986633 0.784802 0.0261387
1 0.79176 0.0289158
1 0.798245 0.0314794
0.838773 0.378805 0.106126
0.83093 0.396765 0.103136
0.818509 0.416403 0.0948196
0.801846 0.437781 0.0823835
0.779583 0.461448 0.0658732
0.753185 0.486839 0.0477455
0.724041 0.513375 0.0304875
0.693889 0.540246 0.0153506
0.66453 0.566308 0.0037232
0.63801 0.591348 0
0.617411 0.614496 0
0.602304 0.635904 0
0.59321 0.655665 0
0.589883 0.67364 0
0.591959 0.689815 0
0.598917 0.704692 0
0.610346 0.718318 0
0.625681 0.730831 0
0.644633 0.74258 0.00173953
0.666423 0.753246 0.00337224
0.690806 0.762982 0.00488289
0.717372 0.772 0.00677501
0.746365 0.780255 0.00883497
0.776806 0.787961 0.0111543
0.809049 0.795361 0.0140536
0.84094 0.802197 0.016907
0.872709 0.808988 0.0195163
0.904997 0.815579 0.0222782
0.936965 0.822141 0.024918
0.968841 0.828885 0.0274968
1 0.835035 0.0300908
1 0.841123 0.0324254
1 0.847166 0.0349584
0.898604 0.411063 0.118868
0.890532 0.429282 0.115648
0.878874 0.449409 0.107546
0.863081 0.471336 0.0956893
0.842008 0.495308 0.0797284
0.816663 0.520974 0.0618753
0.788754 0.547784 0.0446326
0.758724 0.575006 0.0287327
0.729381 0.601862 0.0158694
0.701808 0.627848 0.0065919
0.678218 0.652384 0.000701915
0.661006 0.675273 0
0.648463 0.696208 0
0.641276 0.715496 0
0.639551 0.733089 0.000427253
0.64268 0.749172 0.0024567
0.650416 0.764035 0.00468452
0.662165 0.777707 0.00663767
0.677363 0.790127 0.00833143
0.695735 0.801556 0.010071
0.716915 0.812039 0.0115358
0.74052 0.821607 0.0129397
0.76643 0.83061 0.014725
0.794415 0.838743 0.0165103
0.823896 0.846204 0.0184939
0.85507 0.852918 0.0210422
0.886488 0.859281 0.0234684
0.918517 0.865263 0.0259556
0.950271 0.871626 0.0285344
0.981765 0.877714 0.0308843
1 0.883711 0.0334325
1 0.889708 0.0357061
1 0.895613 0.0382239
0.960113 0.4448 0.132448
0.952285 0.463584 0.129107
0.940948 0.484047 0.12108
0.925765 0.506264 0.10956
0.906035 0.530877 0.0942702
0.881758 0.556725 0.0767376
0.854368 0.58352 0.0591592
0.824933 0.61088 0.0429236
0.79556 0.638102 0.0291142
0.7673 0.664881 0.0184482
0.742306 0.690654 0.0114137
0.722316 0.714229 0.00747692
0.706249 0.73637 0.00572213
0.695644 0.756664 0.00587472
0.690059 0.775311 0.00708019
0.689525 0.792569 0.00880446
0.693553 0.808469 0.0108797
0.701396 0.822797 0.0129244
0.712871 0.835874 0.0146029
0.727687 0.847837 0.0161593
0.74551 0.858869 0.0177157
0.766186 0.869245 0.019028
0.78909 0.878584 0.0203708
0.813947 0.886931 0.0216373
0.840665 0.89456 0.0230564
0.869383 0.901518 0.0248875
0.899855 0.907897 0.0268254
0.931517 0.914244 0.0294652
0.96289 0.920226 0.031754
0.994415 0.926131 0.0341802
1 0.932097 0.0365301
1 0.937987 0.0388952
1 0.944198 0.0415045
1 0.47982 0.1467
1 0.499214 0.143191
1 0.520104 0.135317
0.990539 0.542794 0.124346
0.970779 0.567239 0.10901
0.94754 0.592996 0.0920272
0.920806 0.619974 0.0743114
0.892531 0.647272 0.0579538
0.862425 0.674998 0.0430915
0.834073 0.702205 0.0313573
0.807263 0.728191 0.0225834
0.783642 0.752895 0.016907
0.765988 0.775494 0.0142519
0.751858 0.796765 0.0132143
0.743038 0.816587 0.0137636
0.738521 0.834409 0.0149996
0.738476 0.850752 0.0166629
0.742611 0.865797 0.0185397
0.750561 0.879561 0.0202335
0.761959 0.892195 0.0218204
0.776471 0.903792 0.0233463
0.793667 0.914244 0.0244144
0.813443 0.923919 0.0256504
0.835645 0.932845 0.026627
0.859922 0.941085 0.0277867
0.886168 0.948913 0.0291905
0.914733 0.955962 0.0307469
0.944366 0.962463 0.0327001
0.975464 0.968505 0.0349279
1 0.974411 0.0374304
1 0.980362 0.039704
1 0.986542 0.0422522
1 0.992569 0.0446174
1 0.516045 0.161608
1 0.536004 0.157946
1 0.557336 0.150042
1 0.579782 0.139269
1 0.604303 0.124086
1 0.63003 0.107164
0.987686 0.656596 0.0897688
0.959319 0.684337 0.0727245
0.929778 0.711757 0.0573587
0.900191 0.738918 0.0444343
0.872404 0.765103 0.0343328
0.846677 0.790204 0.0270237
0.826154 0.813306 0.0230259
0.80943 0.835401 0.0208896
0.79675 0.855634 0.0203098
0.788678 0.874174 0.0209201
0.784985 0.891096 0.022034
0.785275 0.9066 0.0234989
0.789746 0.920913 0.0251316
0.797864 0.934279 0.0267338
0.809125 0.94641 0.0281834
0.823407 0.957595 0.0294041
0.840375 0.967941 0.0306249
0.859937 0.977539 0.0316014
0.881956 0.986603 0.0327306
0.906126 0.995026 0.0338598
0.931975 1 0.0350805
0.959579 1 0.0365911
0.988876 1 0.0383612
1 1 0.0405127
1 1 0.0430152
1 1 0.0454414
1 1 0.0477913
1 0.553292 0.176989
1 0.573251 0.172946
1 0.594537 0.16492
1 0.616999 0.15407
1 0.641138 0.139315
1 0.666712 0.122362
1 0.693492 0.104906
1 0.720378 0.0876936
0.995941 0.747555 0.0714733
0.965866 0.774441 0.0574502
0.936843 0.800687 0.0460975
0.909651 0.826001 0.0374304
0.88571 0.850248 0.0315557
0.866865 0.872007 0.0284276
0.850904 0.892638 0.026688
0.839536 0.911711 0.0263981
0.832502 0.929381 0.0270237
0.829999 0.945998 0.0283818
0.831144 0.961059 0.0298161
0.835935 0.97499 0.0313115
0.844236 0.987884 0.0328374
0.85565 0.999863 0.034165
0.870039 1 0.0354467
0.887205 1 0.0366674
0.906538 1 0.0377356
0.928359 1 0.0387121
0.95201 1 0.0398413
0.977279 1 0.0408484
1 1 0.0422522
1 1 0.0440681
1 1 0.0460059
1 1 0.0484016
1 1 0.050721
1 0.590372 0.192233
1 0.6103 0.187655
1 0.631525 0.179614
1 0.653696 0.168978
1 0.677882 0.154055
1 0.702876 0.13753
1 0.728893 0.119615
1 0.755398 0.101991
1 0.782101 0.0856031
1 0.80885 0.0703746
1 0.835142 0.057908
0.972 0.860365 0.0478828
0.945953 0.884504 0.0404974
0.924361 0.907012 0.0360113
0.905974 0.928328 0.0332189
0.891783 0.94818 0.0321202
0.882139 0.966964 0.0322881
0.876478 0.984085 0.0329442
0.874632 1 0.0341497
0.876509 1 0.0356756
0.881865 1 0.0371405
0.890547 1 0.0386053
0.902388 1 0.0401007
0.916732 1 0.0412757
0.933715 1 0.0424048
0.952972 1 0.0433814
0.974334 1 0.04448
0.997787 1 0.0455482
1 1 0.0468757
1 1 0.0481575
1 1 0.0496986
1 1 0.0516518
1 1 0.0538033
1 0.627024 0.207187
1 0.646738 0.202289
1 0.667613 0.193896
1 0.689723 0.183032
1 0.713359 0.168399
1 0.737789 0.151843
1 0.763226 0.133822
1 0.788968 0.115816
1 0.815305 0.0985885
1 0.841917 0.0830091
1 0.86804 0.0694591
1 0.893584 0.0581521
1 0.918029 0.0497139
0.98201 0.941527 0.0434577
0.96257 0.963165 0.0400092
0.946166 0.984161 0.0381476
0.933608 1 0.0374456
0.924941 1 0.0378119
0.920287 1 0.0387274
0.919341 1 0.040116
0.92221 1 0.0416724
0.928115 1 0.0432288
0.937072 1 0.0446479
0.948867 1 0.0460212
0.963363 1 0.0471809
0.980301 1 0.0482338
0.999619 1 0.0494698
1 1 0.0504311
1 1 0.0515602
1 1 0.0526589
1 1 0.0540169
1 1 0.0555276
1 1 0.0573434
1 0.662486 0.221424
1 0.682017 0.216159
1 0.702968 0.207538
1 0.724361 0.196368
1 0.747112 0.181994
1 0.771054 0.165454
1 0.796109 0.147448
1 0.821897 0.12958
1 0.848203 0.11194
