src/luts/crop/10.cube
TITLE "Generated by Resolve"
LUT_3D_SIZE 5
0 0 0
0.220554 0.00399786 0.00198367
0.440513 0.00630198 0.00329595
0.660136 0.00810254 0.00444038
0.880598 0.0113985 0.00613413
0.317983 0.13225 0.0284123
0.219059 0.237613 0
0.441672 0.246906 0
0.672816 0.265751 0
0.913008 0.296986 0
0.672587 0.292638 0.0738384
0.484031 0.467048 0
0.517205 0.578744 0
0.762417 0.637018 0
1 0.695506 0.0227207
1 0.553292 0.176989
0.995941 0.747555 0.0714733
0.832502 0.929381 0.0270237
0.906538 1 0.0377356
1 1 0.050721
1 0.829648 0.286717
1 1 0.178637
1 1 0.0786755
1 1 0.0744945
1 1 0.0850233
0 0.0225528 0.133272
0.179553 0.0258793 0.136065
0.399619 0.0276341 0.13843
0.619928 0.0294499 0.140963
0.841459 0.0332036 0.144183
0.208499 0.196841 0
0.255055 0.237644 0.109117
0.403449 0.272831 0.107118
0.637613 0.296147 0.116686
0.880003 0.330831 0.130678
0.680781 0.323186 0.0975509
0.672511 0.430106 0.181964
0.532006 0.603662 0.123156
0.734356 0.678141 0.140475
0.992798 0.735866 0.163561
1 0.576043 0.264836
1 0.715145 0.295567
0.96556 0.916808 0.181292
0.923003 1 0.180896
1 1 0.190768
1 0.841474 0.401679
1 0.981552 0.398657
1 1 0.268147
1 1 0.218418
1 1 0.22826
0 0.0452125 0.26685
0.137865 0.0478218 0.269154
0.357717 0.0494087 0.271397
0.578241 0.0517739 0.274037
0.800534 0.0566567 0.277699
0 0.282307 0.211444
0.153689 0.288182 0.162158
0.365881 0.299916 0.242817
0.603265 0.328023 0.254215
0.847944 0.36611 0.269535
0.536065 0.417945 0
0.735149 0.442344 0.286534
0.644648 0.600412 0.275807
0.706584 0.719051 0.281697
0.96376 0.775418 0.304097
1 0.628656 0.239689
1 0.718166 0.440116
1 0.879835 0.384695
0.983948 1 0.322881
1 1 0.332967
1 0.877379 0.427039
1 0.979889 0.555169
1 1 0.492317
1 1 0.377554
1 1 0.37023
0 0.0673686 0.400305
0.0961929 0.0696574 0.40235
0.316014 0.0713054 0.404456
0.536873 0.074403 0.407279
0.760189 0.0808118 0.411536
0 0.301472 0.366186
0.0980392 0.310323 0.370748
0.329641 0.329335 0.379309
0.569726 0.360388 0.393149
0.817823 0.402106 0.411246
0.030457 0.604044 0
0.621347 0.531151 0.164904
0.800244 0.581079 0.468071
0.703273 0.75198 0.425834
0.933837 0.813977 0.444251
1 0.714321 0.11812
1 0.758968 0.447318
1 0.859342 0.586099
1 1 0.481682
1 1 0.476646
1 0.932937 0.377951
1 1 0.613443
1 1 0.690303
1 1 0.577935
1 1 0.514977
0 0.0894484 0.533684
0.0544289 0.0913405 0.535515
0.274479 0.0933852 0.537667
0.49575 0.0972305 0.540658
0.720424 0.105715 0.545708
0 0.32491 0.500069
0.0593271 0.336446 0.505684
0.293996 0.359945 0.516014
0.536217 0.394781 0.531304
0.786679 0.440253 0.550896
0 0.651499 0.392187
0.162173 0.700145 0.281468
0.739452 0.653071 0.400275
0.825849 0.744976 0.590249
0.90309 0.851377 0.584619
0.757717 0.881407 0
1 0.835065 0.341085
1 0.886519 0.643503
1 1 0.69836
1 1 0.619562
1 1 0.261051
1 1 0.582223
1 1 0.790463
1 1 0.80206
1 1 0.679179
