src/luts/crop/10.cube
TITLE "Generated by Resolve"
LUT_3D_SIZE 9
0 0 0
0.110338 0.00227359 0.00109865
0.220554 0.00399786 0.00198367
0.330617 0.00529488 0.00270085
0.440513 0.00630198 0.00329595
0.550332 0.00721752 0.00386053
0.660136 0.00810254 0.00444038
0.770092 0.00949111 0.00518807
0.880598 0.0113985 0.00613413
0.160006 0.0670939 0.0148623
0.109529 0.118822 0
0.218402 0.119921 0
0.328313 0.121035 0
0.438468 0.122545 0
0.549081 0.124559 0
0.660288 0.127703 0
0.772671 0.13228 0
0.886488 0.138949 0
0.317983 0.13225 0.0284123
0.211017 0.204059 0
0.219059 0.237613 0
0.329061 0.241657 0
0.441672 0.246906 0
0.555932 0.254536 0
0.672816 0.265751 0
0.791791 0.280171 0
0.913008 0.296986 0
0.482475 0.202487 0.0451057
0.392538 0.274479 0
0.299413 0.348196 0
0.347799 0.381964 0
0.463554 0.398718 0
0.584756 0.416388 0
0.707942 0.436896 0
0.832807 0.460197 0
0.959884 0.485649 0.00337224
0.672587 0.292638 0.0738384
0.603159 0.370245 0.0288396
0.484031 0.467048 0
0.45333 0.535653 0
0.517205 0.578744 0
0.633967 0.608362 0
0.762417 0.637018 0
0.891615 0.666697 0.0112001
1 0.695506 0.0227207
0.898604 0.411063 0.118868
0.842008 0.495308 0.0797284
0.729381 0.601862 0.0158694
0.648463 0.696208 0
0.650416 0.764035 0.00468452
0.716915 0.812039 0.0115358
0.823896 0.846204 0.0184939
0.950271 0.871626 0.0285344
1 0.895613 0.0382239
1 0.553292 0.176989
1 0.641138 0.139315
0.995941 0.747555 0.0714733
0.88571 0.850248 0.0315557
0.832502 0.929381 0.0270237
0.844236 0.987884 0.0328374
0.906538 1 0.0377356
1 1 0.0422522
1 1 0.050721
1 0.696895 0.235019
1 0.780301 0.195224
1 0.880613 0.125139
1 0.984482 0.069749
1 1 0.049485
1 1 0.0505684
1 1 0.0565347
1 1 0.0612345
1 1 0.0657969
1 0.829648 0.286717
1 0.912276 0.247868
1 1 0.178637
1 1 0.114458
1 1 0.0786755
1 1 0.0706645
1 1 0.0744945
1 1 0.0802167
1 1 0.0850233
0 0.0111391 0.0665141
0.0899825 0.0134737 0.0681163
0.200412 0.0148165 0.0694896
0.310536 0.0158694 0.0707561
0.4206 0.0166934 0.0720531
0.530663 0.0174105 0.0731823
0.640848 0.0183413 0.0743877
0.751202 0.0196994 0.0758679
0.862013 0.0216678 0.0775311
0.106844 0.0985885 0
0.126665 0.118059 0.0541848
0.198001 0.130724 0.0513313
0.307942 0.131991 0.0520333
0.418158 0.13373 0.0529335
0.528984 0.135973 0.0540322
0.640452 0.139513 0.0556191
0.753231 0.144656 0.057847
0.867689 0.152224 0.0610208
0.312932 0.145113 0.0311437
0.296757 0.180301 0.0746319
0.213703 0.244709 0.0372015
0.309438 0.253773 0.0369573
0.422507 0.259693 0.0394751
0.537469 0.268208 0.0429999
0.655268 0.280766 0.0481422
0.774853 0.296178 0.0544289
0.896284 0.31371 0.061387
0.488182 0.211978 0.0656443
0.470207 0.255009 0.0968185
0.355901 0.339895 0.036408
0.343481 0.393256 0.0334325
0.446586 0.414649 0.037232
0.568429 0.433539 0.0448768
0.692149 0.455177 0.0535744
0.817823 0.479347 0.0632486
0.945357 0.505455 0.0737011
0.689601 0.301686 0.109499
0.674907 0.357153 0.132113
0.578592 0.449058 0.0699321
0.49102 0.538033 0.0458534
0.5178 0.59292 0.0514229
0.619745 0.628458 0.0583658
0.748379 0.657526 0.0698253
0.878004 0.687144 0.0816663
1 0.715831 0.0931868
0.925246 0.419471 0.168002
0.912261 0.486381 0.181476
0.833036 0.5832 0.124193
0.722286 0.689845 0.0773327
0.681514 0.770764 0.0762493
0.721004 0.826383 0.0837415
0.812802 0.864454 0.0896468
0.934813 0.890211 0.0982986
1 0.914336 0.107942
1 0.56025 0.236545
1 0.633722 0.240177
1 0.728695 0.184741
0.97937 0.834836 0.122683
0.889448 0.926299 0.100954
0.869307 0.994476 0.103853
0.910796 1 0.109392
0.995773 1 0.113497
1 1 0.120592
1 0.700694 0.300084
1 0.771954 0.294118
1 0.861784 0.239521
1 0.965484 0.170428
1 1 0.129839
1 1 0.122637
1 1 0.127596
1 1 0.132967
1 1 0.137209
1 0.832212 0.355627
1 0.904662 0.34522
1 0.99324 0.292775
1 1 0.221729
1 1 0.168215
1 1 0.14667
1 1 0.145647
1 1 0.151339
1 1 0.156756
0 0.0225528 0.133272
0.0693065 0.0246281 0.134676
0.179553 0.0258793 0.136065
0.28957 0.0268559 0.137285
0.399619 0.0276341 0.13843
0.509621 0.0283665 0.139696
0.619928 0.0294499 0.140963
0.730541 0.0309758 0.142428
0.841459 0.0332036 0.144183
0 0.141741 0.105501
0.073228 0.142412 0.0831617
0.177371 0.141604 0.118181
0.287434 0.142977 0.118898
0.397818 0.14493 0.119783
0.508919 0.147585 0.121019
0.620737 0.151614 0.12282
0.733898 0.157427 0.125322
0.848829 0.165866 0.128893
0.208499 0.196841 0
0.310124 0.185061 0.106966
0.255055 0.237644 0.109117
0.289815 0.266072 0.104234
0.403449 0.272831 0.107118
0.519326 0.282567 0.111147
0.637613 0.296147 0.116686
0.757656 0.312367 0.123232
0.880003 0.330831 0.130678
0.459739 0.23772 0.0269017
0.491493 0.258762 0.142214
0.449912 0.318242 0.137789
0.359335 0.39913 0.103609
0.429679 0.431266 0.106203
0.552285 0.45095 0.114168
0.676631 0.473518 0.123217
0.802853 0.498466 0.133227
0.93106 0.525567 0.144091
0.680781 0.323186 0.0975509
0.706127 0.361212 0.18967
0.672511 0.430106 0.181964
0.56051 0.53077 0.123857
0.532006 0.603662 0.123156
0.609064 0.647517 0.129641
0.734356 0.678141 0.140475
0.863676 0.707225 0.152117
0.992798 0.735866 0.163561
0.930877 0.438132 0.178653
0.952026 0.49041 0.249226
0.922393 0.568475 0.237201
0.819974 0.674388 0.172503
0.732891 0.771466 0.149599
0.734997 0.837568 0.155581
0.806271 0.880827 0.161303
0.919631 0.90898 0.168139
1 0.933059 0.177798
1 0.576043 0.264836
1 0.636057 0.314794
1 0.715145 0.295567
1 0.814801 0.228229
0.96556 0.916808 0.181292
0.9084 0.996887 0.175113
0.923003 1 0.180896
0.991363 1 0.185183
1 1 0.190768
1 0.712093 0.338689
1 0.771817 0.371344
1 0.849027 0.34728
1 0.945159 0.281498
1 1 0.22121
1 1 0.197848
1 1 0.198505
1 1 0.204318
1 1 0.208972
1 0.841474 0.401679
1 0.903868 0.424399
1 0.981552 0.398657
1 1 0.335637
1 1 0.268147
1 1 0.228122
1 1 0.218418
1 1 0.222324
1 1 0.22826
0 0.0339361 0.200153
0.0485084 0.0356451 0.201373
0.158724 0.0368658 0.202518
0.268742 0.0377661 0.2038
0.378622 0.0385901 0.204959
0.488685 0.039353 0.206104
0.599054 0.0405737 0.207477
0.709804 0.0423438 0.20911
0.82092 0.0448615 0.210971
0 0.150683 0.183062
0.0465858 0.151537 0.183948
0.156741 0.15256 0.184924
0.267048 0.153964 0.186343
0.377752 0.155886 0.187976
0.489433 0.158877 0.190051
0.601923 0.163394 0.192706
0.71606 0.169986 0.19617
0.831876 0.179416 0.200763
0 0.276539 0.0239872
0.177447 0.244907 0.0259709
0.308858 0.226871 0.183246
0.270878 0.278279 0.171862
0.384527 0.286198 0.174823
0.501305 0.297536 0.179477
0.620371 0.311971 0.185336
0.741054 0.328847 0.192264
0.863813 0.348226 0.200015
0.334112 0.299306 0
0.469383 0.283513 0.111757
0.499565 0.312093 0.218036
0.420096 0.391272 0.179736
0.418341 0.446662 0.176501
0.536431 0.468864 0.183749
0.661494 0.49218 0.193118
0.787945 0.51783 0.203387
0.916808 0.545769 0.214542
0.646967 0.356237 0.0488136
0.705577 0.380514 0.191226
0.724285 0.426917 0.265446
0.659983 0.512566 0.224857
0.569528 0.607889 0.195056
0.606119 0.664332 0.201968
0.720348 0.698711 0.210986
0.849622 0.727687 0.222599
0.978286 0.755688 0.233906
0.919783 0.465599 0.157504
0.966674 0.506462 0.274891
0.978088 0.566598 0.324544
0.921691 0.656245 0.28452
0.809888 0.763607 0.230503
0.763867 0.844251 0.22707
0.805936 0.894881 0.233005
0.905196 0.927443 0.238239
1 0.951766 0.2477
1 0.599161 0.264225
1 0.647868 0.355917
1 0.711513 0.384573
1 0.796429 0.342168
1 0.900008 0.275303
0.966217 0.993439 0.249165
0.945785 1 0.251575
0.992721 1 0.256977
1 1 0.261494
1 0.730114 0.35137
1 0.780041 0.421042
1 0.844312 0.436561
1 0.928054 0.3953
1 1 0.325673
1 1 0.279591
1 1 0.270405
1 1 0.275456
1 1 0.280766
1 0.856733 0.424964
1 0.910262 0.480522
1 0.976684 0.488258
1 1 0.448051
1 1 0.377844
1 1 0.319722
1 1 0.294789
1 1 0.293645
1 1 0.299321
0 0.0452125 0.26685
0.0277714 0.0467384 0.268116
0.137865 0.0478218 0.269154
0.247868 0.0486763 0.270222
0.357717 0.0494087 0.271397
0.467781 0.0504158 0.272663
0.578241 0.0517739 0.274037
0.689113 0.053666 0.275654
0.800534 0.0566567 0.277699
0 0.161456 0.249577
0.0257572 0.162463 0.250645
0.135988 0.163607 0.251667
0.246387 0.16527 0.252888
0.357244 0.167468 0.254627
0.469169 0.17084 0.25684
0.58204 0.175937 0.259724
0.696681 0.183352 0.263661
0.813825 0.1944 0.268864
0 0.282307 0.211444
0.0196841 0.286732 0.199207
0.153689 0.288182 0.162158
0.304433 0.274372 0.249775
0.365881 0.299916 0.242817
0.483619 0.312566 0.247974
0.603265 0.328023 0.254215
0.72433 0.345739 0.261357
0.847944 0.36611 0.269535
0.0554208 0.396857 0
0.334142 0.349691 0.0125582
0.488029 0.334142 0.20325
0.50547 0.373266 0.283482
0.426368 0.456428 0.247333
0.520851 0.487083 0.253391
0.646479 0.511345 0.263203
0.773434 0.537667 0.27361
0.902617 0.566094 0.285084
0.536065 0.417945 0
0.67866 0.412375 0.149889
0.735149 0.442344 0.286534
0.739773 0.499901 0.331548
0.644648 0.600412 0.275807
0.616709 0.677363 0.274266
0.706584 0.719051 0.281697
0.835416 0.747997 0.293126
0.96376 0.775418 0.304097
0.88957 0.501595 0.110231
0.961608 0.532265 0.263096
1 0.57821 0.368566
0.997665 0.646433 0.389929
0.910704 0.74638 0.330327
0.814755 0.84387 0.300069
0.81561 0.906035 0.304509
0.894591 0.944656 0.30927
1 0.970459 0.317601
1 0.628656 0.239689
1 0.667964 0.364691
1 0.718166 0.440116
1 0.786389 0.444617
1 0.879835 0.384695
1 0.982757 0.331258
0.983948 1 0.322881
1 1 0.328435
1 1 0.332967
1 0.753979 0.341085
1 0.795682 0.442863
1 0.848798 0.498848
1 0.918975 0.495766
1 1 0.43859
1 1 0.373434
1 1 0.345907
1 1 0.346471
1 1 0.352361
1 0.877379 0.427039
1 0.923278 0.512413
1 0.979889 0.555169
1 1 0.546685
1 1 0.492317
1 1 0.422492
1 1 0.377554
1 1 0.366384
1 1 0.37023
0 0.0562905 0.333608
0.00703441 0.0577554 0.334707
0.117037 0.0587472 0.335744
0.226932 0.059556 0.336797
0.336904 0.0603342 0.337865
0.446967 0.0615091 0.339132
0.557519 0.0630655 0.340688
0.668528 0.0652018 0.342412
0.780224 0.0685893 0.344625
0 0.17232 0.316258
0.0049897 0.173404 0.31722
0.115267 0.174685 0.318273
0.225742 0.176501 0.319646
0.336843 0.179202 0.321492
0.449058 0.183093 0.323888
0.562463 0.18883 0.326955
0.677684 0.197177 0.331182
0.795621 0.209613 0.336934
0 0.289921 0.299367
0.00534066 0.293187 0.301198
0.117754 0.297841 0.303578
0.231586 0.304524 0.306615
0.347616 0.314351 0.311025
0.466117 0.327932 0.316548
0.586175 0.344045 0.322942
0.708125 0.362844 0.330632
0.832364 0.384298 0.339239
0 0.436393 0.136049
0.0682994 0.438453 0.0799573
0.346349 0.403174 0.111818
0.511818 0.388556 0.298085
0.493385 0.447929 0.328634
0.505257 0.505455 0.323125
0.631281 0.530373 0.33315
0.759091 0.557809 0.344091
0.888609 0.586603 0.355566
0.298543 0.515419 0
0.573968 0.473442 0.0542916
0.716426 0.472419 0.254841
0.767605 0.508904 0.380514
0.745098 0.582727 0.383963
0.653239 0.682811 0.346365
0.69839 0.737362 0.353384
0.821042 0.768017 0.363546
0.948882 0.794903 0.374212
0.805508 0.558175 0.0222629
0.937926 0.566629 0.222889
1 0.600961 0.36849
1 0.651621 0.455558
1 0.729305 0.443778
0.89482 0.833356 0.382834
0.841169 0.912566 0.375647
0.890074 0.959976 0.38088
0.999847 0.989151 0.387366
1 0.66424 0.195575
1 0.695125 0.345861
1 0.734432 0.459556
1 0.787823 0.516808
1 0.863737 0.49723
1 0.964675 0.429175
1 1 0.397101
1 1 0.399558
1 1 0.404746
1 0.783062 0.311849
1 0.817807 0.439155
1 0.861677 0.531182
1 0.919295 0.571588
1 0.99617 0.548577
1 1 0.480949
1 1 0.429221
1 1 0.418479
1 1 0.423392
1 0.902907 0.410422
1 0.942077 0.521263
1 0.990341 0.59675
1 1 0.625208
1 1 0.599878
1 1 0.534585
1 1 0.471672
1 1 0.443565
1 1 0.441825
0 0.0673686 0.400305
0 0.0687114 0.401404
0.0961929 0.0696574 0.40235
0.206088 0.0704356 0.403281
0.316014 0.0713054 0.404456
0.426139 0.0726024 0.405737
0.536873 0.074403 0.407279
0.648142 0.0769207 0.409125
0.760189 0.0808118 0.411536
0 0.18323 0.382818
0 0.184405 0.383963
0.0944991 0.18587 0.385
0.205234 0.187823 0.386358
0.316579 0.190951 0.388281
0.429175 0.195483 0.390875
0.543191 0.202075 0.394446
0.659159 0.211673 0.398978
0.777691 0.225101 0.405112
0 0.301472 0.366186
0 0.305119 0.368154
0.0980392 0.310323 0.370748
0.212512 0.318013 0.374319
0.329641 0.329335 0.379309
0.448768 0.343755 0.385763
0.569726 0.360388 0.393149
0.692576 0.379873 0.40174
0.817823 0.402106 0.411246
0 0.441398 0.31281
0 0.456962 0.292927
0.124758 0.473075 0.247425
0.365362 0.458946 0.221546
0.540444 0.447501 0.39498
0.50161 0.520592 0.3944
0.61648 0.549889 0.403235
0.744793 0.578012 0.414557
0.874601 0.607217 0.42623
0.030457 0.604044 0
0.33138 0.572671 0
0.621347 0.531151 0.164904
0.758068 0.536263 0.362173
0.800244 0.581079 0.468071
0.734813 0.673259 0.431281
0.703273 0.75198 0.425834
0.806561 0.787823 0.433753
0.933837 0.813977 0.444251
0.632013 0.643244 0
0.864637 0.620127 0.141497
0.986328 0.633249 0.33518
1 0.670466 0.470924
1 0.725933 0.532265
0.995773 0.813794 0.487617
0.891676 0.911437 0.448554
0.895445 0.972381 0.452491
0.985443 1 0.457465
1 0.714321 0.11812
1 0.72845 0.305409
1 0.758968 0.447318
1 0.800488 0.549966
1 0.859342 0.586099
1 0.944595 0.541909
1 1 0.481682
1 1 0.471138
1 1 0.476646
1 0.817411 0.266377
1 0.845426 0.413779
1 0.88188 0.53521
1 0.928893 0.616327
1 0.991531 0.638483
1 1 0.595728
1 1 0.526986
1 1 0.494835
1 1 0.49482
1 0.932937 0.377951
1 0.966201 0.509346
1 1 0.613443
1 1 0.677897
1 1 0.690303
1 1 0.648569
1 1 0.577935
1 1 0.528161
1 1 0.514977
0 0.0784466 0.466972
0 0.0796521 0.467979
0.0753033 0.0805371 0.469001
0.185183 0.0813001 0.469902
0.295262 0.0823377 0.470985
0.405478 0.083772 0.472358
0.516167 0.0856794 0.473976
0.627771 0.0887007 0.476005
0.74023 0.0932174 0.47866
0 0.194141 0.4495
0 0.195453 0.450584
0.0738689 0.197147 0.45182
0.184802 0.199374 0.453285
0.296407 0.202884 0.455329
0.409354 0.207996 0.458091
0.52401 0.215503 0.46186
0.640986 0.226703 0.467109
0.760601 0.240894 0.473548
0 0.313161 0.433173
0 0.317342 0.435355
0.0785687 0.323201 0.438132
0.193805 0.331823 0.4421
0.311727 0.344457 0.447623
0.431586 0.359869 0.454353
0.552972 0.377508 0.461982
0.676295 0.397955 0.470863
0.802106 0.420966 0.480766
0 0.449485 0.419776
0 0.464012 0.421744
0.0983597 0.481636 0.418921
0.21886 0.503716 0.400671
0.399313 0.51487 0.347616
0.567224 0.513939 0.481376
0.601938 0.569757 0.473594
0.730617 0.598352 0.485008
0.860655 0.627817 0.496757
0 0.640391 0.198566
0.0873732 0.652003 0.128481
0.377432 0.630991 0.112383
0.67837 0.591134 0.281346
0.802945 0.603494 0.470695
0.824369 0.659068 0.539864
0.737301 0.757763 0.498238
0.79266 0.807294 0.504616
0.918471 0.832715 0.514488
0.368887 0.748165 0
0.696452 0.703914 0.037644
0.922911 0.68307 0.260304
1 0.700069 0.444663
1 0.738827 0.567102
1 0.800443 0.595575
0.976928 0.898573 0.535088
0.917388 0.979843 0.524147
0.976043 1 0.529122
0.970077 0.786313 0.0128786
1 0.775341 0.230854
1 0.790616 0.410101
1 0.822644 0.546487
1 0.867308 0.635874
1 0.933181 0.646922
1 1 0.584741
1 1 0.546151
1 1 0.548104
1 0.864027 0.192203
1 0.878782 0.37116
1 0.908415 0.515053
1 0.946715 0.629557
1 0.996902 0.69688
1 1 0.6981
1 1 0.638224
1 1 0.580484
1 1 0.567071
1 0.967468 0.332067
1 0.995239 0.480217
1 1 0.607355
1 1 0.703502
1 1 0.754665
1 1 0.749157
1 1 0.69218
1 1 0.62504
1 1 0.59263
0 0.0894484 0.533684
0 0.0905776 0.534661
0.0544289 0.0913405 0.535515
0.164324 0.0922255 0.536568
0.274479 0.0933852 0.537667
0.38497 0.0950027 0.53901
0.49575 0.0972305 0.540658
0.607569 0.100633 0.542824
0.720424 0.105715 0.545708
0 0.205081 0.516213
0 0.206531 0.517296
0.053254 0.208316 0.518502
0.164553 0.211063 0.520165
0.276509 0.215091 0.522377
0.389792 0.220935 0.525399
0.504921 0.229374 0.529473
0.622965 0.241871 0.535195
0.743038 0.257099 0.542306
0 0.32491 0.500069
0 0.329717 0.502495
0.0593271 0.336446 0.505684
0.175509 0.346334 0.510109
0.293996 0.359945 0.516014
0.413962 0.375952 0.52311
0.536217 0.394781 0.531304
0.66038 0.416266 0.540612
0.786679 0.440253 0.550896
0 0.463767 0.491508
0 0.478477 0.497993
0.0859388 0.495323 0.505119
0.208743 0.515023 0.51339
0.332204 0.538277 0.519356
0.461845 0.565606 0.49546
0.587579 0.589868 0.544457
0.71635 0.618891 0.556054
0.846342 0.648295 0.567849
0 0.651499 0.392187
0 0.67808 0.349737
0.162173 0.700145 0.281468
0.433783 0.691173 0.239261
0.739452 0.653071 0.400275
0.845991 0.672343 0.575952
0.825849 0.744976 0.590249
0.788937 0.823255 0.576684
0.90309 0.851377 0.584619
0.108614 0.83714 0
0.430396 0.809461 0.0071107
0.759579 0.765484 0.156313
0.977996 0.745541 0.376989
1 0.764721 0.550347
1 0.805692 0.655055
1 0.879133 0.64567
0.968338 0.9785 0.597528
0.976226 1 0.601144
0.757717 0.881407 0
1 0.845487 0.125597
1 0.835065 0.341085
1 0.852735 0.514061
1 0.886519 0.643503
1 0.935637 0.71577
1 1 0.69836
1 1 0.633539
1 1 0.619562
1 0.9281 0.0909895
1 0.923476 0.301137
1 0.940627 0.4757
1 0.971618 0.615366
1 1 0.721172
1 1 0.772168
1 1 0.750744
1 1 0.68188
1 1 0.643885
1 1 0.261051
1 1 0.43682
1 1 0.582223
1 1 0.703975
1 1 0.790463
1 1 0.826535
1 1 0.80206
1 1 0.734508
1 1 0.679179
