src/luts/crop/11.cube
TITLE "Generated by Resolve"
LUT_3D_SIZE 5
0 0 0
0.152544 0 0
0.380804 0 0
0.655711 0 0
0.965881 0 0
0 0.152056 0
0.155871 0.157321 0
0.41912 0.146014 0
0.681254 0.135042 0
1 0.114611 0
0 0.376806 0
0.145846 0.392569 0
0.394934 0.398337 0
0.757549 0.383124 0
1 0.370214 0
0 0.650843 0
0.128466 0.675639 0
0.383429 0.688167 0
0.687037 0.692821 0
1 0.680827 0
0 0.963333 0
0.106737 0.995621 0
0.368017 1 0
0.675853 1 0
1 1 0
0 0 0.117556
0.149157 0 0.153887
0.381506 0 0.137804
0.657435 0 0.113695
0.969512 0 0.0832685
0 0.165499 0.0778058
0.158801 0.158801 0.158801
0.398825 0.153384 0.151873
0.684489 0.139437 0.136065
1 0.120089 0.114611
0.00860609 0.379507 0.0122377
0.153658 0.397559 0.151217
0.401816 0.403784 0.147051
0.735164 0.391577 0.106096
1 0.385992 0.13518
0.0662089 0.6392 0
0.142046 0.683085 0.136614
0.393286 0.696712 0.152148
0.697566 0.701915 0.130724
1 0.687633 0
0.104799 0.940429 0
0.12549 1 0.116655
0.380209 1 0.142641
0.688792 1 0.149264
1 1 0.112535
0 0.0235447 0.303838
0.00611887 0.00773632 0.376837
0.37171 0 0.382788
0.653391 0 0.357275
0.966445 0 0.325322
0 0.194125 0.266804
0.0674144 0.188006 0.349523
0.394491 0.152148 0.4009
0.68481 0.138842 0.385397
1 0.120562 0.365255
0 0.410895 0.204486
0.133623 0.415595 0.296422
0.404761 0.404761 0.404761
0.701473 0.400763 0.398901
1 0.390906 0.386938
0 0.672984 0.123842
0.204318 0.686107 0.223484
0.401953 0.70071 0.398947
0.703578 0.705974 0.391287
1 0.69337 0.336889
0.0556039 0.969894 0.0303197
0.279484 0.990448 0.13785
0.393622 1 0.387213
0.697414 1 0.401205
1 1 0.375113
0 0.0518959 0.52961
0 0.0376287 0.603998
0.198505 0 0.699336
0.637613 0 0.656474
0.957214 0 0.623774
0 0.225757 0.496422
0 0.220874 0.580392
0.214984 0.200793 0.680751
0.674342 0.136538 0.688548
1 0.117754 0.667369
0 0.44625 0.436194
0.0227207 0.452369 0.530007
0.294057 0.441871 0.639841
0.697414 0.400534 0.705257
1 0.390173 0.693172
0 0.710704 0.359091
0.0979019 0.724453 0.459632
0.376669 0.722148 0.576135
0.705821 0.705821 0.705821
1 0.703685 0.701579
0 1 0.267582
0.178317 1 0.375479
0.461662 1 0.498085
0.705638 1 0.70222
1 1 0.691798
0 0.0831464 0.785489
0 0.0700999 0.861082
0.00570687 0.0426947 0.952987
0.513664 0 1
0.93753 0 0.965255
0 0.260685 0.755901
0 0.256764 0.840879
0.0831006 0.238178 0.94255
0.497917 0.177157 1
0.988571 0.114488 1
0 0.484382 0.699077
0 0.491035 0.794079
0.166033 0.481849 0.904875
0.491814 0.458289 1
1 0.388861 1
0 0.751415 0.623835
0 0.765652 0.724865
0.251255 0.764706 0.842451
0.581079 0.749157 0.974304
1 0.703548 1
0 1 0.535424
0.0562142 1 0.643702
0.34078 1 0.766766
0.676463 1 0.903136
1 1 1
