src/luts/crop/11.cube
TITLE "Generated by Resolve"
LUT_3D_SIZE 33
0 0 0
0 0 0
0.0154269 0 0
0.0364385 0 0
0.0583963 0 0
0.0804761 0 0
0.103349 0 0
0.127367 0 0
0.152544 0 0
0.177661 0 0
0.204837 0 0
0.231113 0 0
0.260273 0 0
0.289448 0 0
0.318624 0 0
0.349264 0 0
0.380804 0 0
0.412741 0 0
0.446906 0 0
0.478706 0 0
0.514946 0 0
0.549096 0 0
0.585092 0 0
0.620737 0 0
0.655711 0 0
0.694636 0 0
0.730556 0 0
0.768353 0 0
0.807157 0 0
0.848676 0 0
0.885756 0 0
0.92607 0 0
0.965881 0 0
0 0 0
0 0 0
0.0188449 0 0
0.0371862 0 0
0.0581521 0 0
0.081178 0 0
0.104326 0 0
0.128939 0 0
0.153643 0 0
0.179828 0 0
0.206088 0 0
0.233875 0 0
0.262104 0 0
0.291737 0 0
0.321553 0 0
0.352743 0 0
0.384222 0 0
0.417044 0 0
0.449714 0 0
0.48336 0 0
0.517968 0 0
0.552544 0 0
0.587839 0 0
0.623941 0 0
0.660929 0 0
0.697795 0 0
0.735958 0 0
0.774212 0 0
0.813336 0 0
0.852445 0 0
0.891981 0 0
0.932647 0 0
0.972305 0 0
0 0.0150759 0
0 0.0154421 0
0.0155337 0.0158389 0
0.0420996 0.0150759 0
0.065507 0.0142061 0
0.0850233 0.0142061 0
0.107179 0.0141146 0
0.130755 0.0133516 0
0.155749 0.0127565 0
0.180987 0.01149 0
0.208179 0.0106966 0
0.235904 0.00889601 0
0.26479 0.00756847 0
0.294408 0.00567636 0
0.324422 0.00373846 0
0.355642 0.00195315 0
0.386954 0 0
0.419837 0 0
0.45275 0 0
0.486839 0 0
0.520897 0 0
0.55642 0 0
0.591577 0 0
0.627741 0 0
0.664683 0 0
0.701839 0 0
0.740291 0 0
0.778225 0 0
0.817456 0 0
0.857084 0 0
0.896681 0 0
0.93724 0 0
0.977615 0 0
0 0.035996 0
0 0.0362707 0
0.0150759 0.0369116 0
0.0365148 0.0369879 0
0.0642405 0.0366979 0
0.0918441 0.0349889 0
0.115587 0.0343633 0
0.136294 0.034165 0
0.158953 0.0342565 0
0.183062 0.0333715 0
0.209735 0.0330358 0
0.236866 0.0315557 0
0.266102 0.0306401 0
0.295537 0.0286412 0
0.326223 0.0271305 0
0.357549 0.0250248 0
0.38967 0.0228122 0
0.422049 0.0206149 0
0.455131 0.018265 0
0.489326 0.0160525 0
0.523766 0.0130312 0
0.559319 0.0108949 0
0.594781 0.00775158 0
0.631159 0.00485237 0
0.668162 0.00204471 0
0.705165 0 0
0.743557 0 0
0.782101 0 0
0.821332 0 0
0.860777 0 0
0.900847 0 0
0.941588 0 0
0.981857 0 0
0 0.0573587 0
0 0.0583963 0
0.0143435 0.0588998 0
0.0362402 0.0592813 0
0.0585794 0.0592355 0
0.0876173 0.0596323 0
0.117067 0.0577249 0
0.145815 0.056611 0
0.169238 0.0555428 0
0.191272 0.055436 0
0.215015 0.0552987 0
0.240497 0.0543832 0
0.26833 0.0535134 0
0.297185 0.0521553 0
0.327733 0.0508278 0
0.358938 0.0488899 0
0.391241 0.0472725 0
0.423484 0.0448768 0
0.45713 0.0426032 0
0.491295 0.0404974 0
0.526116 0.037583 0
0.561257 0.0355993 0
0.597131 0.0326696 0
0.633738 0.0298161 0
0.670848 0.0269474 0
0.708247 0.0239567 0
0.746838 0.0211185 0
0.78529 0.0176547 0
0.825071 0.0144808 0
0.864622 0.0113375 0
0.904784 0.00756847 0
0.945541 0.0043946 0
0.986191 0.00105287 0
0 0.0800641 0
0 0.0808576 0
0.0137636 0.0817578 0
0.0357671 0.0822309 0
0.0580911 0.0821241 0
0.0821241 0.0829633 0
0.110826 0.0827497 0
0.14313 0.0814069 0
0.173419 0.0794537 0
0.201755 0.0782483 0
0.226276 0.0774395 0
0.250111 0.0773175 0
0.274907 0.076585 0
0.301915 0.0757305 0
0.331136 0.0748455 0
0.361074 0.0730755 0
0.393072 0.0719615 0
0.425254 0.0697337 0
0.4589 0.0676432 0
0.493034 0.0657206 0
0.527764 0.0630655 0
0.563531 0.0609293 0
0.599329 0.0582895 0
0.636133 0.0555581 0
0.673335 0.0529488 0
0.710826 0.049836 0
0.749813 0.0474098 0
0.788373 0.0441596 0
0.827497 0.0408637 0
0.867872 0.0378882 0
0.908232 0.0346075 0
0.948959 0.0312505 0
0.989853 0.0282292 0
0 0.103456 0
0 0.104295 0
0.0132601 0.105669 0
0.0350958 0.105882 0
0.0581216 0.106401 0
0.0814679 0.106538 0
0.105745 0.106783 0
0.135958 0.107134 0
0.168795 0.105669 0
0.201602 0.103944 0
0.232395 0.101701 0
0.261311 0.100801 0
0.286748 0.0996719 0
0.311879 0.0988937 0
0.338979 0.0986496 0
0.367163 0.0973831 0
0.39765 0.0964218 0
0.428962 0.0948959 0
0.46157 0.0931258 0
0.494972 0.0913558 0
0.529671 0.089128 0
0.565835 0.087129 0
0.601434 0.0845502 0
0.63798 0.0817273 0
0.67602 0.0797131 0
0.713573 0.0767834 0
0.752392 0.0739452 0
0.791592 0.0710765 0
0.830884 0.0682231 0
0.871427 0.0654307 0
0.912032 0.0621195 0
0.952346 0.058854 0
0.993667 0.0561379 0
0 0.127413 0
0 0.12842 0
0.0122377 0.129763 0
0.0341497 0.130312 0
0.0572519 0.131044 0
0.0805066 0.13109 0
0.105211 0.131609 0
0.130602 0.131838 0
0.160693 0.131975 0
0.195575 0.131167 0
0.229511 0.128801 0
0.263615 0.126802 0
0.295354 0.124758 0
0.324346 0.122988 0
0.351247 0.122423 0
0.377798 0.121736 0
0.406088 0.121248 0
0.435569 0.119966 0
0.466636 0.118654 0
0.499565 0.117479 0
0.533043 0.11548 0
0.568048 0.113603 0
0.60412 0.111681 0
0.640085 0.10927 0
0.67808 0.107134 0
0.716106 0.104311 0
0.754818 0.101686 0
0.794354 0.099382 0
0.83389 0.0963455 0
0.874205 0.0933242 0
0.915022 0.0907301 0
0.956115 0.0878462 0
0.996979 0.0848707 0
0 0.152056 0
0 0.153552 0
0.0113375 0.154665 0
0.0332189 0.155383 0
0.0564584 0.156237 0
0.0797894 0.156374 0
0.104814 0.157092 0
0.129809 0.156954 0
0.155871 0.157321 0
0.187564 0.158038 0
0.222797 0.156878 0
0.259449 0.154971 0
0.295033 0.152224 0
0.329778 0.149752 0
0.362112 0.148074 0
0.390845 0.146548 0
0.41912 0.146014 0
0.446906 0.145357 0
0.476036 0.144213 0
0.507378 0.14345 0
0.539788 0.142107 0
0.573343 0.140368 0
0.608423 0.13901 0
0.644083 0.136873 0
0.681254 0.135042 0
0.719142 0.132876 0
0.75761 0.13022 0
0.797208 0.127764 0
0.837079 0.125353 0
0.877592 0.122713 0
0.918822 0.120027 0
0.960143 0.117372 0
1 0.114611 0
0 0.177203 0
0 0.179324 0
0.0100252 0.180346 0
0.0317998 0.180941 0
0.0556039 0.182147 0
0.0790875 0.182422 0
0.104021 0.183139 0
0.129259 0.183246 0
0.155138 0.183352 0
0.182544 0.184207 0
0.214496 0.184482 0
0.252033 0.183948 0
0.289708 0.181491 0
0.327214 0.178561 0
0.364767 0.176455 0
0.39881 0.174029 0
0.431083 0.172168 0
0.461097 0.171099 0
0.489723 0.17023 0
0.519219 0.169696 0
0.549935 0.168795 0
0.581888 0.167452 0
0.61561 0.166232 0
0.650599 0.165133 0
0.686458 0.16321 0
0.723812 0.161608 0
0.761807 0.159472 0
0.800443 0.157092 0
0.840604 0.155123 0
0.881254 0.152728 0
0.922057 0.149966 0
0.963561 0.147494 0
1 0.145159 0
0 0.203326 0
0 0.205478 0
0.00848402 0.206806 0
0.0307164 0.207477 0
0.054078 0.208682 0
0.0779583 0.209369 0
0.102861 0.210056 0
0.128267 0.21033 0
0.154162 0.210437 0
0.181399 0.2112 0
0.209689 0.211566 0
0.243015 0.2121 0
0.281621 0.211414 0
0.321126 0.208957 0
0.360784 0.206607 0
0.398871 0.203723 0
0.436347 0.201083 0
0.471519 0.199313 0
0.503471 0.197589 0
0.533806 0.196246 0
0.564141 0.195895 0
0.594537 0.195254 0
0.626383 0.194156 0
0.660365 0.193469 0
0.694896 0.192035 0
0.730678 0.190402 0
0.768139 0.189273 0
0.806378 0.18732 0
0.84535 0.185077 0
0.885374 0.183078 0
0.926131 0.180911 0
0.967208 0.178286 0
1 0.17612 0
0 0.230152 0
0 0.232471 0
0.00631724 0.23389 0
0.0287785 0.235019 0
0.05243 0.236347 0
0.0763714 0.236881 0
0.101152 0.237629 0
0.12723 0.238468 0
0.153246 0.238621 0
0.180392 0.239185 0
0.208347 0.239368 0
0.237842 0.239948 0
0.272755 0.240833 0
0.312184 0.23978 0
0.353109 0.237766 0
0.39411 0.235462 0
0.434501 0.232303 0
0.473365 0.229664 0
0.511086 0.227466 0
0.546166 0.225391 0
0.579309 0.224231 0
0.610529 0.223423 0
0.641199 0.222522 0
0.672953 0.221805 0
0.70634 0.221225 0
0.740887 0.220005 0
0.776959 0.218952 0
0.814084 0.217334 0
0.852384 0.215747 0
0.891112 0.213794 0
0.931289 0.211948 0
0.971984 0.209995 0
1 0.207782 0
0 0.257679 0
0 0.26041 0
0.00407416 0.262104 0
0.0267033 0.263066 0
0.0506752 0.264683 0
0.0750591 0.265461 0
0.0996109 0.266209 0
0.125582 0.267262 0
0.151736 0.267659 0
0.17911 0.268254 0
0.207324 0.268833 0
0.236133 0.268818 0
0.267231 0.269581 0
0.303029 0.270451 0
0.343435 0.269673 0
0.385733 0.267872 0
0.42855 0.265248 0
0.469795 0.262303 0
0.511299 0.259586 0
0.550973 0.257298 0
0.588891 0.254688 0
0.623941 0.253132 0
0.657099 0.252049 0
0.689158 0.25095 0
0.721523 0.250431 0
0.754864 0.249973 0
0.788922 0.24892 0
0.824521 0.247593 0
0.861494 0.246448 0
0.899657 0.24509 0
0.938506 0.243229 0
0.978378 0.241642 0
1 0.239902 0
0 0.286336 0
0 0.288716 0
0.00164797 0.290883 0
0.0243992 0.292332 0
0.0482185 0.293843 0
0.0728466 0.294865 0
0.0977951 0.295811 0
0.123873 0.297078 0
0.150378 0.297826 0
0.177646 0.298192 0
0.206073 0.299168 0
0.235401 0.299413 0
0.265461 0.29955 0
0.297932 0.300526 0
0.334264 0.301198 0
0.375265 0.300587 0
0.419501 0.299001 0
0.463157 0.296681 0
0.506416 0.293584 0
0.549233 0.290776 0
0.591348 0.287938 0
0.630671 0.285344 0
0.668772 0.283299 0
0.704326 0.281788 0
0.738048 0.280537 0
0.771252 0.279896 0
0.804364 0.279072 0
0.83859 0.278431 0
0.873579 0.277363 0
0.910536 0.276356 0
0.94815 0.275013 0
0.986923 0.27361 0
1 0.272068 0
0 0.315602 0
0 0.318227 0
0 0.320668 0
0.0221408 0.322087 0
0.0458076 0.32343 0
0.0708934 0.325368 0
0.0957961 0.326421 0
0.121843 0.327276 0
0.148989 0.328664 0
0.176471 0.329259 0
0.204837 0.330266 0
0.234424 0.330877 0
0.264668 0.330999 0
0.295842 0.331106 0
0.329412 0.33228 0
0.366308 0.332952 0
0.408865 0.332601 0
0.453498 0.331182 0
0.498909 0.32871 0
0.542931 0.32575 0
0.587945 0.322683 0
0.631342 0.319829 0
0.673014 0.316869 0
0.713268 0.314488 0
0.751507 0.312581 0
0.787198 0.311299 0
0.821408 0.310048 0
0.855543 0.309361 0
0.889479 0.308461 0
0.924651 0.307805 0
0.960754 0.306752 0
0.998077 0.305882 0
1 0.304616 0
0 0.345998 0
0 0.348608 0
0 0.350713 0
0.0196231 0.35288 0
0.0436408 0.354574 0
0.0683604 0.356161 0
0.093904 0.35787 0
0.120134 0.358877 0
0.14728 0.360113 0
0.175326 0.361486 0
0.203769 0.362081 0
0.233219 0.362631 0
0.263935 0.363394 0
0.295293 0.363409 0
0.327459 0.363714 0
0.361822 0.364935 0
0.400168 0.365728 0
0.442893 0.365393 0
0.488594 0.36405 0
0.534569 0.361852 0
0.58088 0.358633 0
0.626413 0.355627 0
0.67126 0.352407 0
0.715282 0.34963 0
0.757885 0.346777 0
0.798459 0.344564 0
0.836286 0.342824 0
0.872312 0.341436 0
0.907179 0.340307 0
0.942107 0.339666 0
0.977035 0.338735 0
1 0.338201 0
1 0.337316 0
0 0.376806 0
0 0.379889 0
0 0.382284 0
0.0172885 0.384497 0
0.0414588 0.386496 0
0.0661326 0.388006 0
0.0916152 0.389822 0
0.118654 0.391318 0
0.145846 0.392569 0
0.173632 0.393912 0
0.202533 0.394995 0
0.231907 0.395605 0
0.262364 0.396201 0
0.294087 0.396704 0
0.326421 0.396841 0
0.35967 0.397421 0
0.394934 0.398337 0
0.433951 0.399298 0
0.477378 0.3991 0
0.523964 0.397787 0
0.57171 0.395239 0
0.618891 0.392523 0
0.665446 0.389258 0
0.71191 0.386236 0
0.757549 0.383124 0
0.802045 0.38027 0
0.844602 0.377661 0
0.884825 0.375525 0
0.922927 0.373754 0
0.959747 0.372534 0
0.995377 0.371405 0
1 0.370977 0
1 0.370214 0
0 0.408362 0
0 0.411948 0
0 0.414618 0
0.0147097 0.416648 0
0.0390631 0.418936 0
0.0644694 0.420768 0
0.0899367 0.422339 0
0.116854 0.424308 0
0.144228 0.425879 0
0.171832 0.427054 0
0.200748 0.428199 0
0.230533 0.429236 0
0.261219 0.429892 0
0.292638 0.43032 0
0.325307 0.430793 0
0.358907 0.43122 0
0.392813 0.431617 0
0.428962 0.432639 0
0.468635 0.43328 0
0.512978 0.433509 0
0.560525 0.432105 0
0.609003 0.430014 0
0.657221 0.426978 0
0.705333 0.424018 0
0.753124 0.420569 0
0.800427 0.417365 0
0.846311 0.41413 0
0.890776 0.411429 0
0.933288 0.409003 0
0.973907 0.407187 0
1 0.405539 0
1 0.404486 0
1 0.403662 0
0 0.441276 0
0 0.444572 0
0 0.447532 0
0.012253 0.449958 0
0.0363317 0.452018 0
0.0618906 0.454154 0
0.088014 0.456367 0
0.114641 0.457908 0
0.141924 0.459709 0
0.170108 0.461051 0
0.199008 0.462303 0
0.228702 0.463279 0
0.259785 0.464179 0
0.291859 0.464897 0
0.324269 0.465293 0
0.35787 0.465858 0
0.391882 0.46598 0
0.426902 0.466667 0
0.463493 0.467445 0
0.504097 0.468513 0
0.549279 0.468452 0
0.597528 0.467567 0
0.646723 0.465248 0
0.696391 0.462638 0
0.745663 0.459266 0
0.794461 0.456092 0
0.842969 0.452644 0
0.89073 0.449531 0
0.936721 0.446357 0
0.981308 0.443381 0
1 0.441245 0
1 0.439673 0
1 0.438254 0
0 0.474662 0
0 0.478202 0
0 0.480842 0
0.00958267 0.483635 0
0.0342718 0.486091 0
0.0595102 0.488365 0
0.0859388 0.490425 0
0.112932 0.492409 0
0.13994 0.494041 0
0.168017 0.495476 0
0.197192 0.496971 0
0.22742 0.498283 0
0.258244 0.499092 0
0.29044 0.500008 0
0.322789 0.500511 0
0.35642 0.501122 0
0.390539 0.501396 0
0.425681 0.501793 0
0.461173 0.502342 0
0.499184 0.503426 0
0.540352 0.504173 0
0.586114 0.504631 0
0.634989 0.503517 0
0.685496 0.50161 0
0.736187 0.498665 0
0.786801 0.49572 0
0.836851 0.492195 0
0.886336 0.488655 0
0.935607 0.485405 0
0.983581 0.482124 0
1 0.479347 0
1 0.476738 0
1 0.474464 0
0 0.508354 0
0 0.512322 0
0 0.515511 0
0.00671397 0.518013 0
0.0315251 0.520623 0
0.0572366 0.523018 0
0.0831159 0.525368 0
0.110277 0.527504 0
0.137911 0.529107 0
0.166201 0.530999 0
0.195239 0.532341 0
0.225467 0.533837 0
0.256352 0.534798 0
0.28864 0.535836 0
0.321126 0.536446 0
0.355169 0.537133 0
0.389197 0.537438 0
0.424338 0.537804 0
0.460014 0.537926 0
0.496834 0.538964 0
0.535286 0.539834 0
0.577096 0.540719 0
0.623407 0.541176 0
0.673472 0.540566 0
0.724941 0.53843 0
0.776333 0.535653 0
0.828016 0.532494 0
0.879057 0.529229 0
0.930297 0.525917 0
0.980438 0.522347 0
1 0.518944 0
1 0.515785 0
1 0.513207 0
0 0.543236 0
0 0.546944 0
0 0.550408 0
0.00410468 0.553353 0
0.0286717 0.555825 0
0.0545663 0.558297 0
0.0809033 0.560571 0
0.108293 0.562951 0
0.135744 0.564813 0
0.164157 0.566888 0
0.193332 0.568368 0
0.223545 0.570016 0
0.254536 0.571099 0
0.28716 0.572213 0
0.319814 0.572961 0
0.35346 0.573495 0
0.388205 0.574151 0
0.423239 0.574838 0
0.459007 0.574945 0
0.495247 0.575082 0
0.532723 0.575875 0
0.572168 0.57702 0
0.614847 0.577981 0
0.661799 0.578241 0
0.712245 0.577401 0
0.76466 0.575708 0
0.817319 0.573434 0
0.86978 0.570214 0
0.92192 0.566751 0
0.973999 0.563043 0
1 0.559564 0
1 0.556664 0
1 0.553399 0
0 0.578439 0
0 0.582605 0
0 0.58587 0
0.0012665 0.588937 0
0.0258335 0.591699 0
0.0520333 0.594263 0
0.0781567 0.596582 0
0.105745 0.598917 0
0.13344 0.60119 0
0.162249 0.60325 0
0.191394 0.604974 0
0.221759 0.60679 0
0.252613 0.608087 0
0.284962 0.60914 0
0.318288 0.610147 0
0.351965 0.610986 0
0.386892 0.611643 0
0.421668 0.612116 0
0.458045 0.612543 0
0.494331 0.612772 0
0.531975 0.613214 0
0.569741 0.613886 0
0.609659 0.614816 0
0.653239 0.61593 0
0.700877 0.616541 0
0.752056 0.616053 0
0.805066 0.614237 0
0.858442 0.611582 0
0.911879 0.608438 0
0.965866 0.60528 0
1 0.602029 0
1 0.598413 0
1 0.594873 0
0 0.614328 0
0 0.61854 0
0 0.622126 0
0 0.625299 0
0.0234684 0.628016 0
0.0493477 0.630884 0
0.0755474 0.633356 0
0.102876 0.635584 0
0.130663 0.638025 0
0.159701 0.640238 0
0.18912 0.642023 0
0.219303 0.643671 0
0.250782 0.645319 0
0.283284 0.646967 0
0.316457 0.648005 0
0.350134 0.648859 0
0.384924 0.649439 0
0.420233 0.650401 0
0.45687 0.650996 0
0.493126 0.651286 0
0.53051 0.651301 0
0.568185 0.651652 0
0.607324 0.652567 0
0.64828 0.653758 0
0.692287 0.654566 0
0.740597 0.655146 0
0.792035 0.654505 0
0.845594 0.652766 0
0.900526 0.650767 0
0.955215 0.647745 0
1 0.644327 0
1 0.640864 0
1 0.637247 0
0 0.650843 0
0 0.655406 0
0 0.65893 0
0 0.662135 0
0.0202029 0.665293 0
0.0463722 0.667796 0
0.0730602 0.670695 0
0.100328 0.673243 0
0.128466 0.675639 0
0.156909 0.677775 0
0.186435 0.679713 0
0.217197 0.681651 0
0.249012 0.683467 0
0.281193 0.684779 0
0.314351 0.685878 0
0.348226 0.686885 0
0.383429 0.688167 0
0.418677 0.688975 0
0.454856 0.689433 0
0.491447 0.68983 0
0.528786 0.690074 0
0.567376 0.690745 0
0.606012 0.691112 0
0.645533 0.691829 0
0.687037 0.692821 0
0.731853 0.693736 0
0.780804 0.694408 0
0.833188 0.694514 0
0.887724 0.692943 0
0.942901 0.690532 0
0.998154 0.687526 0
1 0.684199 0
1 0.680827 0
0 0.688045 0
0 0.692744 0
0 0.696452 0
0 0.699596 0
0.0172885 0.703029 0
0.0432593 0.705806 0
0.0705882 0.708644 0
0.0979477 0.711177 0
0.125811 0.713664 0
0.154803 0.716121 0
0.184421 0.718486 0
0.21503 0.720363 0
0.246448 0.721996 0
0.279149 0.723339 0
0.312551 0.724926 0
0.346914 0.726345 0
0.381613 0.727275 0
0.417121 0.728023 0
0.453178 0.728679 0
0.490013 0.729351 0
0.527993 0.73022 0
0.56614 0.730449 0
0.604685 0.730602 0
0.644083 0.730922 0
0.684382 0.731563 0
0.726406 0.732525 0
0.772442 0.733959 0
0.821546 0.734676 0
0.874403 0.734325 0
0.929625 0.732891 0
0.985611 0.730602 0
1 0.72813 0
1 0.724956 0
0 0.725521 0
0 0.730129 0
0 0.734142 0
0 0.737713 0
0.0142824 0.741131 0
0.0404669 0.74403 0
0.0669566 0.746853 0
0.095201 0.749722 0
0.123339 0.752636 0
0.152285 0.75491 0
0.181827 0.757092 0
0.212329 0.759304 0
0.2439 0.760998 0
0.27715 0.762982 0
0.310353 0.764355 0
0.34464 0.76553 0
0.379339 0.766629 0
0.414969 0.767498 0
0.45156 0.768521 0
0.488579 0.769589 0
0.526436 0.770001 0
0.564416 0.770413 0
0.603296 0.770626 0
0.642618 0.770764 0
0.682994 0.771511 0
0.724346 0.772595 0
0.767239 0.773678 0
0.813397 0.77467 0
0.862882 0.775372 0
0.916457 0.775082 0
0.972427 0.773892 0
1 0.771908 0
1 0.769192 0
0 0.763653 0
0 0.768658 0
0 0.773068 0
0 0.776455 0
0.0109865 0.779736 0
0.037171 0.782803 0
0.0642405 0.786099 0
0.0924239 0.789044 0
0.120562 0.791699 0
