src/luts/crop/11.cube
TITLE "Generated by Resolve"
LUT_3D_SIZE 9
0 0 0
0.0583963 0 0
0.152544 0 0
0.260273 0 0
0.380804 0 0
0.514946 0 0
0.655711 0 0
0.807157 0 0
0.965881 0 0
0 0.0573587 0
0.0585794 0.0592355 0
0.169238 0.0555428 0
0.26833 0.0535134 0
0.391241 0.0472725 0
0.526116 0.037583 0
0.670848 0.0269474 0
0.825071 0.0144808 0
0.986191 0.00105287 0
0 0.152056 0
0.0564584 0.156237 0
0.155871 0.157321 0
0.295033 0.152224 0
0.41912 0.146014 0
0.539788 0.142107 0
0.681254 0.135042 0
0.837079 0.125353 0
1 0.114611 0
0 0.257679 0
0.0506752 0.264683 0
0.151736 0.267659 0
0.267231 0.269581 0
0.42855 0.265248 0
0.588891 0.254688 0
0.721523 0.250431 0
0.861494 0.246448 0
1 0.239902 0
0 0.376806 0
0.0414588 0.386496 0
0.145846 0.392569 0
0.262364 0.396201 0
0.394934 0.398337 0
0.57171 0.395239 0
0.757549 0.383124 0
0.922927 0.373754 0
1 0.370214 0
0 0.508354 0
0.0315251 0.520623 0
0.137911 0.529107 0
0.256352 0.534798 0
0.389197 0.537438 0
0.535286 0.539834 0
0.724941 0.53843 0
0.930297 0.525917 0
1 0.513207 0
0 0.650843 0
0.0202029 0.665293 0
0.128466 0.675639 0
0.249012 0.683467 0
0.383429 0.688167 0
0.528786 0.690074 0
0.687037 0.692821 0
0.887724 0.692943 0
1 0.680827 0
0 0.802747 0
0.00787366 0.819257 0
0.117632 0.831464 0
0.239704 0.841352 0
0.375586 0.847547 0
0.522942 0.851591 0
0.680735 0.853834 0
0.849195 0.856306 0
1 0.858061 0
0 0.963333 0
0 0.981414 0
0.106737 0.995621 0
0.230243 1 0
0.368017 1 0
0.516518 1 0
0.675853 1 0
0.843549 1 0
1 1 0
0 0 0.0417182
0.0565805 0 0.0587167
0.152056 0 0.0534981
0.26009 0 0.0471199
0.381826 0 0.0378576
0.515099 0 0.0267948
0.657572 0 0.0135958
0.809827 0 0
0.968627 0 0
0 0.0635996 0.0238041
0.0596933 0.0596933 0.0596933
0.157382 0.0583963 0.0584878
0.268574 0.0547646 0.0549783
0.392981 0.0480812 0.0484169
0.527382 0.0395361 0.0365148
0.673671 0.0282292 0.0288701
0.82826 0.0161593 0.016968
0.987564 0.0037232 0
0 0.152758 0
0.059144 0.157153 0.0581674
0.158175 0.158953 0.0553902
0.286381 0.153903 0.0371099
0.399954 0.152117 0.0505684
0.535409 0.145708 0.04448
0.682948 0.13756 0.0357214
0.840497 0.128084 0.0261082
1 0.117601 0.0152743
0.0159762 0.252705 0
0.0547341 0.266377 0.0526131
0.154711 0.270085 0.0573129
0.270512 0.272221 0.0493324
0.430732 0.26656 0
0.570916 0.260319 0.0161746
0.701701 0.258183 0.0355383
0.853529 0.252674 0.0347448
1 0.244587 0.0276493
0.0363775 0.366506 0
0.0475166 0.389151 0.0440833
0.149065 0.395727 0.052842
0.266529 0.399786 0.0556954
0.398886 0.401633 0.0414893
0.57641 0.397711 0
0.754345 0.386404 0
0.901335 0.381537 0
1 0.379263 0.0165103
0.0372625 0.496834 0
0.0395056 0.523919 0.0346532
0.142153 0.53312 0.0470436
0.261189 0.539086 0.0517281
0.394339 0.541924 0.0531624
0.540154 0.54406 0.0328069
0.731151 0.541848 0
0.933104 0.529244 0
1 0.518807 0
0.0211337 0.640818 0
0.0305333 0.668956 0.0241245
0.133654 0.680446 0.0398108
0.254017 0.688533 0.0462501
0.38912 0.693034 0.0498817
0.534997 0.695369 0.0506752
0.693004 0.698146 0.023682
0.895323 0.6972 0
1 0.684794 0
0 0.795163 0
0.0192264 0.823072 0.0111696
0.12311 0.836728 0.0307927
0.245335 0.84686 0.0392615
0.38172 0.853132 0.0442359
0.529534 0.857557 0.0469825
0.686839 0.859464 0.0475471
0.855909 0.862394 0.013611
1 0.863111 0
0 0.957687 0
0.00868238 0.986007 0
0.113542 1 0.0225071
0.236622 1 0.0322271
0.374456 1 0.03888
0.523888 1 0.0433356
0.682368 1 0.0448463
0.850416 1 0.0452277
1 1 0.00396735
0 0 0.117556
0 0 0.150973
0.149157 0 0.153887
0.258976 0 0.147082
0.381506 0 0.137804
0.514504 0 0.126421
0.657435 0 0.113695
0.809857 0 0.0990311
0.969512 0 0.0832685
0 0.0755016 0.100481
0.0236973 0.072282 0.137362
0.156191 0.0588235 0.15877
0.268025 0.0545968 0.154345
0.39266 0.0481575 0.147723
0.528527 0.0396124 0.138735
0.673579 0.0290379 0.12755
0.82829 0.0173495 0.115465
0.989914 0.00399786 0.101808
0 0.165499 0.0778058
0.05066 0.163958 0.116075
0.158801 0.158801 0.158801
0.271702 0.157015 0.157137
0.398825 0.153384 0.151873
0.537163 0.146593 0.146975
0.684489 0.139437 0.136065
0.843259 0.12929 0.129992
1 0.120089 0.114611
0 0.265858 0.047837
0.0774853 0.267231 0.0886244
0.157473 0.271 0.156329
0.272465 0.273381 0.153765
0.420691 0.268254 0.132845
0.546029 0.267247 0.149477
0.694453 0.262547 0.145998
0.854841 0.255512 0.139101
1 0.247227 0.130663
0.00860609 0.379507 0.0122377
0.105608 0.383536 0.0555123
0.153658 0.397559 0.151217
0.269627 0.402213 0.157198
0.401816 0.403784 0.147051
0.57908 0.398581 0.0843061
0.735164 0.391577 0.106096
0.874571 0.390066 0.131807
1 0.385992 0.13518
0.0369268 0.504585 0
0.132769 0.511559 0.0198825
0.148562 0.535363 0.144686
0.264881 0.542199 0.153674
0.39852 0.545113 0.155749
0.544091 0.547204 0.139498
0.736782 0.543664 0.0486152
0.929686 0.532006 0.0430304
1 0.526467 0.0787976
0.0662089 0.6392 0
0.140597 0.653681 0
0.142046 0.683085 0.136614
0.258686 0.692088 0.149004
0.393286 0.696712 0.152148
0.539696 0.699275 0.153353
0.697566 0.701915 0.130724
0.901991 0.70013 0.0188907
1 0.687633 0
0.0931868 0.783917 0
0.12932 0.809033 0
0.1337 0.84004 0.126604
0.250462 0.851301 0.142489
0.386725 0.857374 0.147036
0.534813 0.862104 0.150286
0.692699 0.864363 0.151431
0.86125 0.866926 0.121355
1 0.867338 0
0.104799 0.940429 0
0.110414 0.974517 0
0.12549 1 0.116655
0.242023 1 0.135805
0.380209 1 0.142641
0.529427 1 0.146624
0.688792 1 0.149264
0.856474 1 0.149203
1 1 0.112535
0 0.0107729 0.204852
0 0.00411994 0.238346
0.0902419 0 0.277699
0.253681 0 0.261357
0.37882 0 0.251759
0.512901 0 0.240284
0.656245 0 0.226688
0.808804 0 0.211917
0.968734 0 0.196338
0 0.0882887 0.188495
0 0.085359 0.225574
0.0877241 0.07776 0.26717
0.264714 0.0544137 0.270283
0.390906 0.0472419 0.262364
0.527687 0.0387732 0.253208
0.673198 0.0284886 0.241886
0.828122 0.0170596 0.229679
0.990158 0.00404364 0.215946
0 0.1794 0.166323
0.00825513 0.17789 0.204578
0.116655 0.172885 0.248219
0.269963 0.157153 0.272938
0.398856 0.152895 0.268116
0.537041 0.14696 0.261509
0.685802 0.139498 0.253223
0.84332 0.130465 0.243458
1 0.12079 0.23299
0 0.280613 0.137499
0.0369726 0.281758 0.178302
0.14789 0.279271 0.223743
0.273426 0.273426 0.273426
0.403601 0.272068 0.27219
0.5449 0.268559 0.268833
0.696605 0.263447 0.263874
0.857053 0.256321 0.256916
1 0.248692 0.24947
0 0.394568 0.102358
0.0670481 0.398795 0.145922
0.180026 0.398779 0.193194
0.272999 0.40322 0.271687
0.40383 0.404868 0.267796
0.568887 0.399405 0.242725
0.704509 0.399298 0.26334
0.863386 0.395117 0.261219
1 0.389258 0.254749
0 0.520073 0.0628672
0.098909 0.52668 0.108537
0.213443 0.528954 0.158694
0.269825 0.543526 0.267063
0.401373 0.547158 0.271977
0.547051 0.549249 0.260929
0.73933 0.543984 0.191196
0.909972 0.536339 0.211917
1 0.535698 0.242863
0.0306249 0.65539 0.0203861
0.131685 0.664012 0.0679637
0.24564 0.669078 0.121157
0.265187 0.693935 0.260884
0.39707 0.699351 0.268956
0.543389 0.702449 0.270649
0.701396 0.704845 0.252796
0.906889 0.700999 0.153445
1 0.68954 0.144961
0.0627146 0.799527 0
0.165209 0.810208 0.0238041
0.258213 0.822202 0.0946365
0.258839 0.85333 0.252872
0.391058 0.860945 0.264607
0.539528 0.865599 0.26804
0.696849 0.867658 0.268833
0.865568 0.870359 0.24387
1 0.869139 0.1243
0.0972305 0.951659 0
0.19884 0.964675 0
0.25124 0.987778 0.0824903
0.252537 1 0.244816
0.384833 1 0.26006
0.534371 1 0.264714
0.693538 1 0.26717
0.861616 1 0.267674
1 1 0.235111
0 0.0235447 0.303838
0 0.0172274 0.337713
0.00611887 0.00773632 0.376837
0.212085 0 0.404471
0.37171 0 0.382788
0.508354 0 0.370748
0.653391 0 0.357275
0.805966 0 0.341543
0.966445 0 0.325322
0 0.102388 0.288945
0 0.0994888 0.326223
0.0369421 0.0926223 0.368002
0.198352 0.0697185 0.413306
0.385458 0.0459449 0.39443
0.524376 0.0371862 0.384649
0.671183 0.0273289 0.373419
0.82652 0.0156405 0.360723
0.989288 0.00325017 0.346883
0 0.194125 0.266804
0 0.193378 0.306447
0.0674144 0.188006 0.349523
0.191516 0.179553 0.397955
0.394491 0.152148 0.4009
0.535332 0.146014 0.393515
0.68481 0.138842 0.385397
0.843015 0.129976 0.375692
1 0.120562 0.365255
0 0.296056 0.238956
0 0.297566 0.280018
0.0999313 0.295583 0.325978
0.225422 0.28986 0.376165
0.401617 0.272175 0.405035
0.544488 0.268681 0.400961
0.696361 0.263798 0.395438
0.856886 0.256931 0.388312
1 0.249485 0.380194
0 0.410895 0.204486
0.0202029 0.415091 0.248188
0.133623 0.415595 0.296422
0.261601 0.412177 0.348531
0.404761 0.404761 0.404761
0.548272 0.403662 0.402762
0.701473 0.400763 0.398901
0.863996 0.39646 0.393576
1 0.390906 0.386938
0 0.537057 0.166125
0.0532235 0.543572 0.211902
0.168704 0.546212 0.262058
0.29807 0.544869 0.316228
0.404318 0.547982 0.402884
0.548653 0.549813 0.398535
0.728344 0.544259 0.370657
0.87303 0.543969 0.394354
1 0.541222 0.393439
0 0.672984 0.123842
0.0877241 0.681697 0.171695
0.204318 0.686107 0.223484
0.33492 0.68687 0.279408
0.401953 0.70071 0.398947
0.546532 0.70425 0.404196
0.703578 0.705974 0.391287
0.909529 0.700343 0.315953
1 0.69337 0.336889
0.0196231 0.817227 0.0774548
0.122728 0.828061 0.127443
0.241291 0.834684 0.181521
0.371054 0.837415 0.23949
0.397818 0.862531 0.393149
0.542367 0.867704 0.401556
0.700587 0.870298 0.402869
0.868696 0.872435 0.382971
1 0.869825 0.277867
0.0556039 0.969894 0.0303197
0.160128 0.982696 0.0819257
0.279484 0.990448 0.13785
0.392569 0.999603 0.210681
0.393622 1 0.387213
0.538094 1 0.398459
0.697414 1 0.401205
0.865873 1 0.402258
1 1 0.375113
0 0.0369116 0.412024
0 0.031693 0.446952
0 0.0225528 0.486458
0.0808728 0.00564584 0.531868
0.341741 0 0.536294
0.500175 0 0.515007
0.647318 0 0.501152
0.801831 0 0.485313
0.962539 0 0.468666
0 0.117769 0.399115
0 0.114885 0.43653
0 0.107774 0.478004
0.102266 0.0971542 0.523598
0.344396 0.0532692 0.552087
0.516594 0.0356451 0.529305
0.666545 0.025452 0.518166
0.823178 0.0135042 0.505165
0.986542 0.0011902 0.491295
0 0.209628 0.377157
0 0.20911 0.417227
0.0123598 0.203998 0.460685
0.135698 0.196078 0.508919
0.32578 0.168338 0.559945
0.529747 0.145418 0.539895
0.681437 0.137667 0.53109
0.841031 0.128817 0.520958
1 0.119356 0.510185
0 0.312444 0.349615
0 0.314168 0.391501
0.0461128 0.312718 0.43801
0.171633 0.307149 0.488655
0.314641 0.296742 0.543938
0.540505 0.268482 0.547707
0.69456 0.263066 0.541588
0.856062 0.256443 0.534157
1 0.248859 0.52575
0 0.428244 0.316411
0 0.43267 0.360418
0.0809796 0.433707 0.40885
0.208652 0.43032 0.461204
0.351919 0.423011 0.518227
0.546471 0.403708 0.55024
0.701732 0.400519 0.546105
0.864607 0.396002 0.541344
1 0.390555 0.534997
0 0.555032 0.278798
0.00143435 0.561761 0.324926
0.117159 0.564538 0.375448
0.247059 0.563378 0.429679
0.39202 0.558145 0.487922
0.54963 0.54963 0.54963
0.704768 0.548669 0.547707
0.870008 0.54551 0.54583
1 0.542519 0.539437
0 0.691295 0.237079
0.0369726 0.700191 0.285069
0.154009 0.704814 0.337163
0.284947 0.705257 0.393027
0.431968 0.702022 0.45304
0.54963 0.704753 0.548074
0.70515 0.706401 0.543297
0.898161 0.700633 0.512901
1 0.701564 0.539193
0 0.836362 0.191775
0.0734417 0.847303 0.241657
0.192279 0.853788 0.295552
0.324239 0.856184 0.352743
0.472389 0.854902 0.415259
0.547433 0.868681 0.544213
0.702937 0.871839 0.549035
0.871275 0.873854 0.535454
1 0.86833 0.454566
0.00674449 0.989593 0.144701
0.111559 1 0.196094
0.232059 1 0.252064
0.365408 1 0.311391
0.513024 1 0.375265
0.54519 1 0.54023
0.700572 1 0.547784
0.86894 1 0.548791
1 1 0.527581
0 0.0518959 0.52961
0 0.0466621 0.564569
0 0.0376287 0.603998
0.00688182 0.0256199 0.647562
0.198505 0 0.699336
0.476555 0 0.676585
0.637613 0 0.656474
0.794888 0 0.640436
0.957214 0 0.623774
0 0.133196 0.517327
0 0.130678 0.554772
0 0.124025 0.596658
0.0410468 0.113497 0.642313
0.198703 0.0925307 0.695933
0.48777 0.0383612 0.694896
0.657832 0.0234531 0.674601
0.817136 0.0112612 0.660868
0.981903 0 0.647044
0 0.225757 0.496422
0 0.22562 0.53611
0 0.220874 0.580392
0.0756542 0.213092 0.62858
0.214984 0.200793 0.680751
0.488823 0.152621 0.710674
0.674342 0.136538 0.688548
0.83653 0.127382 0.67834
1 0.117754 0.667369
0 0.329564 0.469581
0 0.331899 0.511376
0 0.33048 0.558801
0.112917 0.3252 0.609522
0.254047 0.315679 0.664454
0.470893 0.285237 0.720897
0.68835 0.262577 0.699611
0.85304 0.255573 0.692332
1 0.247883 0.683589
0 0.44625 0.436194
0 0.451194 0.480629
0.0227207 0.452369 0.530007
0.150668 0.44918 0.582757
0.294057 0.441871 0.639841
0.452247 0.430961 0.701244
0.697414 0.400534 0.705257
0.86302 0.39559 0.699596
1 0.390173 0.693172
0 0.573846 0.399847
0 0.58085 0.446036
0.0601358 0.583551 0.496788
0.1897 0.582696 0.551278
0.334997 0.577768 0.609751
0.492775 0.569482 0.672206
0.702724 0.548577 0.706798
0.869337 0.54548 0.70338
1 0.542138 0.698863
0 0.710704 0.359091
0 0.719676 0.40734
0.0979019 0.724453 0.459632
0.229404 0.725231 0.515663
0.376669 0.722148 0.576135
0.536507 0.715755 0.639994
0.705821 0.705821 0.705821
0.873121 0.705196 0.705364
1 0.703685 0.701579
0 0.856321 0.314244
0.0181888 0.867201 0.364401
0.137118 0.873655 0.418204
0.269902 0.876616 0.476081
0.418753 0.874998 0.538064
0.578973 0.869978 0.603143
0.706004 0.872251 0.704326
0.872511 0.873838 0.698634
1 0.868208 0.665949
0 1 0.267582
0.0575265 1 0.319615
0.178317 1 0.375479
0.31191 1 0.434531
0.461662 1 0.498085
0.623178 1 0.564538
0.705638 1 0.70222
0.871351 1 0.706279
1 1 0.691798
0 0.0670787 0.654414
0 0.0623636 0.689937
0 0.0534676 0.729595
0 0.0416724 0.77348
0.0805676 0.0236667 0.822477
0.348775 0 0.867079
0.616724 0 0.826841
0.783841 0 0.807019
0.94902 0 0.789929
0 0.149325 0.643183
0 0.147234 0.681163
0 0.140932 0.723339
0 0.130343 0.768826
0.112245 0.116411 0.818799
0.340032 0.0753796 0.875731
0.634836 0.024094 0.847501
0.807691 0.00910964 0.828794
0.975143 0 0.814221
0 0.243137 0.623072
0 0.242725 0.663417
0 0.238804 0.707942
0.011429 0.230823 0.755978
0.150546 0.219181 0.808896
0.33228 0.195499 0.869825
0.645884 0.13991 0.865568
0.827832 0.126024 0.846372
0.997604 0.116075 0.834928
0 0.347478 0.597177
0 0.350164 0.640055
0 0.348898 0.68716
0.0495613 0.343969 0.738293
0.191135 0.334691 0.793545
0.347097 0.322255 0.85301
0.64802 0.269993 0.882307
0.845121 0.254719 0.860716
1 0.246586 0.852079
0 0.465019 0.56463
0 0.470207 0.609598
0 0.47129 0.659007
0.0881819 0.468666 0.71223
0.231724 0.461601 0.769497
0.387381 0.451469 0.83032
0.624399 0.418189 0.890822
0.857206 0.395346 0.869413
1 0.38941 0.862425
0 0.59321 0.528511
0 0.600763 0.575204
0 0.603723 0.626032
0.127642 0.603067 0.680903
0.273396 0.598062 0.740215
0.430823 0.589792 0.802701
0.601785 0.57763 0.868986
0.864958 0.545724 0.873396
1 0.541848 0.868467
0 0.730877 0.488701
0 0.739895 0.537102
0.0369573 0.744854 0.589426
0.168627 0.746105 0.645899
0.315877 0.743099 0.706249
0.475013 0.736553 0.770138
0.644999 0.727321 0.837583
0.870802 0.705608 0.875166
1 0.702968 0.871473
0 0.876875 0.444572
0 0.888182 0.495064
0.076997 0.89456 0.549004
0.209964 0.897673 0.607004
0.35906 0.896193 0.669169
0.520058 0.891508 0.734508
0.691493 0.883803 0.802518
0.873503 0.873503 0.873503
1 0.873198 0.872114
0 1 0.398825
0 1 0.450553
0.118975 1 0.506905
0.252995 1 0.566155
0.40325 1 0.629648
0.565316 1 0.695857
0.738567 1 0.766094
0.874556 1 0.872816
1 1 0.866453
0 0.0831464 0.785489
0 0.0787976 0.821302
0 0.0700999 0.861082
0 0.0583658 0.904768
0.00570687 0.0426947 0.952987
0.186328 0.0128176 1
0.513664 0 1
0.76527 0 0.984466
0.93753 0 0.965255
0 0.166339 0.774823
0 0.164187 0.813062
0 0.157946 0.855604
0 0.14844 0.90135
0.0438849 0.134035 0.951537
0.20528 0.113695 1
0.512093 0.0514534 1
0.787823 0.00872816 1
0.964706 0 0.990356
0 0.260685 0.755901
0 0.260471 0.795941
0 0.256764 0.840879
0 0.249195 0.889189
0.0831006 0.238178 0.94255
0.235279 0.223804 0.999161
0.497917 0.177157 1
0.806622 0.127321 1
0.988571 0.114488 1
0 0.365698 0.730648
0 0.368963 0.774273
0 0.36788 0.82121
0 0.362982 0.872312
0.124514 0.35436 0.928038
0.278599 0.342428 0.986984
0.484001 0.315312 1
0.818875 0.258045 1
1 0.245563 1
0 0.484382 0.699077
0 0.490074 0.744823
0 0.491035 0.794079
0.0219577 0.488518 0.847242
0.166033 0.481849 0.904875
0.321828 0.471946 0.965911
0.491814 0.458289 1
0.817472 0.402869 1
1 0.388861 1
0 0.613352 0.662898
0 0.620859 0.709957
0 0.624277 0.761395
0.0624704 0.623835 0.816587
0.208301 0.61883 0.876097
0.365972 0.610834 0.938811
0.534737 0.599802 1
0.79202 0.563897 1
1 0.541619 1
0 0.751415 0.623835
0 0.760723 0.672328
0 0.765652 0.724865
0.103761 0.767391 0.781415
0.251255 0.764706 0.842451
0.410559 0.758038 0.906508
0.581079 0.749157 0.974304
0.765072 0.736171 1
1 0.703548 1
0 0.898314 0.580804
0 0.909133 0.630732
0.0132448 0.916075 0.685084
0.146563 0.919631 0.743542
0.295338 0.918013 0.80557
0.456565 0.913619 0.870939
0.628168 0.906188 0.939208
0.809827 0.895689 1
1 0.873426 1
0 1 0.535424
0 1 0.587549
0.0562142 1 0.643702
0.190326 1 0.703166
0.34078 1 0.766766
0.502998 1 0.833448
0.676463 1 0.903136
0.859266 1 0.975113
1 1 1
