src/luts/crop/12.cube
TITLE "Generated by Resolve"
LUT_3D_SIZE 5
0 0 0
0.0455177 0.0400244 0.00462348
0.118334 0.107622 0.0342107
0.193668 0.177523 0.0608377
0.276524 0.250019 0.0767376
0.228046 0.0702983 0.400351
0.381949 0.151751 0.259068
0.469642 0.231006 0.127016
0.579034 0.301915 0.0782177
0.671016 0.378454 0.0906081
0.731456 0.158892 0.743999
0.82916 0.243885 0.683055
0.839429 0.358373 0.54609
0.854063 0.464302 0.41471
0.94728 0.53431 0.276783
1 0.312444 0.767208
1 0.397864 0.784833
1 0.480674 0.80087
0.986786 0.564416 0.800458
0.918639 0.666377 0.712535
1 0.439307 0.792966
0.996582 0.521706 0.808606
0.98381 0.602335 0.82414
0.972396 0.679667 0.840024
0.963119 0.752865 0.856809
0 0.0386358 0.0831311
0.0281987 0.0907759 0.0158999
0.0529793 0.153185 0.0332952
0.0728771 0.218463 0.0417487
0.131029 0.290211 0.0565652
0.00140383 0.137011 0.47747
0.0911727 0.205112 0.367712
0.236942 0.301549 0.272618
0.360067 0.353002 0.126955
0.449363 0.420951 0.0930953
0.347738 0.224994 0.698054
0.449454 0.290562 0.71429
0.607797 0.386694 0.674098
0.686687 0.507759 0.550072
0.794888 0.586496 0.410849
0.871687 0.366506 0.782071
0.919127 0.457862 0.798093
0.957794 0.549172 0.814374
0.978653 0.635615 0.830762
0.94641 0.720058 0.802625
0.997238 0.515221 0.807385
0.984756 0.596262 0.822934
0.97319 0.673716 0.838727
0.963806 0.747204 0.855451
0.956756 0.816617 0.874189
0 0.0979019 0.200717
0.0270695 0.159426 0.0975967
0.0688334 0.213077 0.0405127
0.0811017 0.27924 0.0420691
0.0901045 0.345663 0.0394141
0 0.199039 0.5608
0 0.262333 0.460243
0.0510567 0.355962 0.388907
0.139849 0.417334 0.194598
0.245914 0.462821 0.0804303
0.0675212 0.31284 0.658259
0.14342 0.377539 0.66569
0.230854 0.438148 0.656321
0.396262 0.54435 0.630625
0.561364 0.631357 0.533639
0.509026 0.390921 0.719768
0.617594 0.480201 0.753674
0.725734 0.580346 0.795743
0.81268 0.676326 0.832456
0.877043 0.761715 0.860777
0.941649 0.580941 0.820493
0.973938 0.66804 0.837491
0.964477 0.741558 0.854109
0.957183 0.811368 0.872618
0.957916 0.875837 0.897536
0 0.150683 0.320363
0.0233768 0.230625 0.228443
0.0727398 0.278935 0.0648508
0.0894026 0.340337 0.0396582
0.0997787 0.408682 0.0379339
0 0.269276 0.628824
0 0.336553 0.564309
0.00114443 0.420066 0.503929
0.00689708 0.495109 0.3364
0.0861372 0.530266 0.129778
0 0.384222 0.658549
0.00424201 0.465599 0.691264
0.0713207 0.550179 0.733486
0.170565 0.632471 0.746502
0.27042 0.707683 0.665705
0.219913 0.476844 0.68217
0.319066 0.547753 0.702815
0.436759 0.63299 0.743618
0.561639 0.723766 0.796506
0.679744 0.807157 0.848341
0.691554 0.607782 0.788998
0.789364 0.704082 0.833051
0.863035 0.789014 0.867109
0.923354 0.861799 0.894408
0.972946 0.928985 0.924926
0 0.213611 0.435218
0.0134737 0.298009 0.354406
0.0422217 0.363012 0.164538
0.0984207 0.403647 0.0390631
0.111818 0.472755 0.0387427
0 0.337926 0.645258
0 0.413809 0.649653
0 0.492348 0.615808
0 0.571878 0.490852
0.0454261 0.617029 0.258549
0 0.455207 0.687678
0 0.5355 0.729686
0 0.616251 0.768994
0.0240787 0.697627 0.802579
0.0842756 0.773022 0.773022
0.0750744 0.585306 0.753429
0.157565 0.667216 0.79324
0.252644 0.740764 0.822873
0.353811 0.805707 0.848463
0.457298 0.863172 0.872816
0.443976 0.675929 0.771511
0.565423 0.760311 0.820798
0.678874 0.835843 0.86595
0.777966 0.902785 0.903365
0.859632 0.963516 0.928344
