src/luts/crop/12.cube
TITLE "Generated by Resolve"
LUT_3D_SIZE 9
0 0 0
0.0105135 0.00833143 3.0518e-05
0.0455177 0.0400244 0.00462348
0.0818341 0.07364 0.0189212
0.118334 0.107622 0.0342107
0.155367 0.142092 0.0485237
0.193668 0.177523 0.0608377
0.233768 0.213611 0.0700084
0.276524 0.250019 0.0767376
0.082002 0.0373541 0.175525
0.13933 0.0683452 0.120317
0.173251 0.102602 0.0649119
0.226032 0.132952 0.0442054
0.275273 0.167025 0.0559548
0.324331 0.202579 0.0659648
0.373022 0.239368 0.074052
0.420386 0.276799 0.0808423
0.467185 0.314336 0.0865187
0.228046 0.0702983 0.400351
0.331701 0.107515 0.346242
0.381949 0.151751 0.259068
0.398413 0.200031 0.189837
0.469642 0.231006 0.127016
0.529732 0.263813 0.0755627
0.579034 0.301915 0.0782177
0.626108 0.340429 0.0847334
0.671016 0.378454 0.0906081
0.463996 0.104646 0.614572
0.556222 0.142367 0.564279
0.623423 0.188342 0.488807
0.632563 0.248463 0.400412
0.625483 0.309499 0.333928
0.697902 0.343191 0.24567
0.754772 0.375219 0.186007
0.801709 0.408057 0.127031
0.83946 0.443595 0.0987106
0.731456 0.158892 0.743999
0.78613 0.19968 0.729534
0.82916 0.243885 0.683055
0.853697 0.293584 0.620356
0.839429 0.358373 0.54609
0.810575 0.424598 0.485969
0.854063 0.464302 0.41471
0.903426 0.499306 0.342535
0.94728 0.53431 0.276783
0.922545 0.231174 0.75407
0.947784 0.277119 0.76321
0.970031 0.323857 0.772152
0.990158 0.370642 0.780606
0.996414 0.420142 0.742092
0.974609 0.472465 0.693126
0.92401 0.533089 0.637552
0.90425 0.581003 0.584497
0.942077 0.610727 0.502907
1 0.312444 0.767208
1 0.355459 0.776272
1 0.397864 0.784833
1 0.439445 0.792996
1 0.480674 0.80087
0.996567 0.521843 0.808637
0.986786 0.564416 0.800458
0.958251 0.614099 0.755611
0.918639 0.666377 0.712535
1 0.376928 0.780667
1 0.418585 0.788952
1 0.459998 0.796948
0.998642 0.501274 0.804761
0.993454 0.542153 0.812528
0.986954 0.582559 0.820294
0.980713 0.622171 0.828061
0.974945 0.660761 0.83592
0.969863 0.698558 0.844129
1 0.439307 0.792966
1 0.480674 0.80087
0.996582 0.521706 0.808606
0.990188 0.562524 0.816449
0.98381 0.602335 0.82414
0.977798 0.641474 0.831968
0.972396 0.679667 0.840024
0.967575 0.716701 0.848295
0.963119 0.752865 0.856809
0 0.00805676 0.0281529
0.002121 0.0319677 0.000717174
0.015259 0.0625925 0.00665293
0.0361028 0.0936904 0.018555
0.0683757 0.126284 0.0333104
0.103227 0.160678 0.0469825
0.135882 0.196353 0.0578012
0.16762 0.233051 0.0665293
0.200122 0.269764 0.0733501
0.00320439 0.0619516 0.217426
0.0505989 0.0964675 0.167788
0.102876 0.128756 0.125841
0.155047 0.156222 0.0724804
0.195758 0.190005 0.0637064
0.235218 0.226368 0.0721447
0.277012 0.262974 0.0785687
0.319875 0.299596 0.0835126
0.363363 0.336599 0.0873732
0.0721447 0.105959 0.433951
0.141527 0.136431 0.382193
0.232334 0.180362 0.339513
0.308858 0.225345 0.276219
0.353674 0.264652 0.203311
0.409888 0.296651 0.138552
0.460914 0.328344 0.0883803
0.507027 0.365347 0.0923629
0.552834 0.401648 0.0957656
0.262531 0.1449 0.627466
0.338491 0.17023 0.592493
0.432074 0.210727 0.551461
0.527047 0.268528 0.498589
0.550469 0.326619 0.410544
0.582345 0.374777 0.334295
0.649897 0.410163 0.264607
0.702312 0.441108 0.192905
0.7467 0.469154 0.124773
0.551446 0.189776 0.736431
0.610788 0.228519 0.748058
0.676112 0.271382 0.728908
0.736614 0.319432 0.688945
0.777508 0.371099 0.624338
0.767208 0.43537 0.547173
0.769757 0.490822 0.48777
0.832364 0.526818 0.41181
0.878584 0.561074 0.343328
0.815961 0.25948 0.764096
0.851987 0.304158 0.771481
0.88127 0.34992 0.779187
0.90602 0.396139 0.787228
0.927489 0.441901 0.78793
0.939574 0.491569 0.743282
0.925292 0.551568 0.692622
0.902052 0.611856 0.644388
0.938231 0.646082 0.572137
0.962905 0.34081 0.775769
0.982864 0.387549 0.78407
0.99469 0.433799 0.792187
0.999451 0.476982 0.800183
0.996887 0.518608 0.808026
0.990677 0.559503 0.815854
0.984268 0.59939 0.82356
0.969024 0.643305 0.800702
0.931579 0.693462 0.759503
1 0.41532 0.788312
1 0.456748 0.796323
0.998978 0.498039 0.80415
0.993957 0.538933 0.811902
0.987472 0.5794 0.819684
0.981186 0.619058 0.827451
0.975402 0.65771 0.835294
0.970275 0.695537 0.843503
0.965621 0.732219 0.851865
1 0.477409 0.800259
0.996902 0.518471 0.807996
0.990692 0.55935 0.815839
0.984268 0.599374 0.82356
0.978241 0.638437 0.831342
0.972793 0.676692 0.839384
0.967941 0.713802 0.847639
0.963455 0.750042 0.856138
0.959426 0.785245 0.865019
0 0.0386358 0.0831311
0.00442512 0.0648966 0.0385901
0.0281987 0.0907759 0.0158999
0.0413825 0.121599 0.0256199
0.0529793 0.153185 0.0332952
0.0623789 0.185489 0.0381933
0.0728771 0.218463 0.0417487
0.102007 0.254124 0.0497749
0.131029 0.290211 0.0565652
0 0.0853437 0.271397
0.000732433 0.118349 0.216602
0.0353857 0.15349 0.178424
0.0800946 0.185595 0.11342
0.133501 0.210178 0.0618906
0.165393 0.246387 0.0666056
0.196582 0.282979 0.0732738
0.230289 0.319448 0.0783703
0.268254 0.355093 0.0817884
0.00140383 0.137011 0.47747
0.0312963 0.163684 0.419181
0.0911727 0.205112 0.367712
0.168048 0.258686 0.32668
0.236942 0.301549 0.272618
0.305776 0.325856 0.197513
0.360067 0.353002 0.126955
0.406119 0.385061 0.0906539
0.449363 0.420951 0.0930953
0.112596 0.190936 0.640742
0.16318 0.214694 0.603677
0.218235 0.240055 0.554864
0.297108 0.284672 0.512139
0.399619 0.348592 0.482185
0.466163 0.402564 0.418326
0.522118 0.437781 0.339361
0.577844 0.466224 0.254337
0.629755 0.494011 0.17789
0.347738 0.224994 0.698054
0.398993 0.257115 0.706081
0.449454 0.290562 0.71429
0.518074 0.328954 0.690883
0.607797 0.386694 0.674098
0.685634 0.447807 0.627619
0.686687 0.507759 0.550072
0.737453 0.54931 0.479011
0.794888 0.586496 0.410849
0.647501 0.284276 0.756863
0.697734 0.327199 0.766964
0.744335 0.371725 0.776623
0.786984 0.416968 0.786145
0.823728 0.462837 0.795697
0.856107 0.511559 0.786313
0.8757 0.561639 0.742184
0.858534 0.621561 0.68983
0.880812 0.667887 0.634287
0.871687 0.366506 0.782071
0.896986 0.412329 0.790021
0.919127 0.457862 0.798093
0.939223 0.503685 0.806256
0.957794 0.549172 0.814374
0.973556 0.593912 0.82266
0.978653 0.635615 0.830762
0.973144 0.673976 0.838788
0.94641 0.720058 0.802625
0.990204 0.450187 0.795514
0.997665 0.494163 0.803479
0.994476 0.535698 0.811292
0.987976 0.576257 0.819089
0.981674 0.615961 0.826825
0.975845 0.654673 0.834684
0.970672 0.692576 0.842847
0.965957 0.729381 0.851179
0.961685 0.765011 0.859815
0.997238 0.515221 0.807385
0.991211 0.556146 0.815213
0.984756 0.596262 0.822934
0.978698 0.635401 0.830716
0.97319 0.673716 0.838727
0.968292 0.71104 0.847013
0.963806 0.747204 0.855451
0.959731 0.782498 0.864317
0.956756 0.816617 0.874189
1.5259e-05 0.0695506 0.14052
0.00704967 0.0975204 0.101671
0.0349126 0.121721 0.0385138
0.0521248 0.150668 0.0327764
0.0616922 0.182925 0.0378729
0.0694285 0.215671 0.0406958
0.0759442 0.248631 0.0419928
0.0814832 0.281849 0.0419776
0.0860761 0.314916 0.0408331
0 0.111604 0.332341
0 0.144671 0.275776
0.0130465 0.183215 0.236301
0.0250095 0.219776 0.17261
0.0573892 0.242374 0.0874952
0.0991836 0.267384 0.048249
0.127825 0.303548 0.0545968
0.156268 0.340063 0.0600443
0.185275 0.376455 0.0649577
0 0.166247 0.518318
0 0.194644 0.463951
0.00703441 0.229129 0.408377
0.0729534 0.281132 0.374228
0.132372 0.333227 0.33666
0.181704 0.364904 0.236576
0.244022 0.383337 0.169497
0.299901 0.405493 0.104616
0.350134 0.436408 0.0860151
0.0111849 0.230121 0.648615
0.0447547 0.260151 0.624353
0.0864271 0.288106 0.584222
0.13875 0.317662 0.533394
0.221134 0.370565 0.496361
0.325643 0.435706 0.476799
0.396994 0.471351 0.404257
0.465476 0.489418 0.318288
0.523018 0.513985 0.231296
0.186374 0.268589 0.669825
0.229145 0.298848 0.673228
0.271183 0.329015 0.675837
0.314397 0.357671 0.670405
0.375113 0.394202 0.641703
0.461402 0.45359 0.630091
0.565591 0.524895 0.61593
0.621042 0.573922 0.552331
0.678172 0.604623 0.472129
0.429908 0.304753 0.708049
0.478248 0.339269 0.715831
0.52958 0.377737 0.726726
0.583322 0.42031 0.741573
0.63859 0.467247 0.759777
0.692439 0.516869 0.779049
0.762066 0.577493 0.779126
0.807492 0.630259 0.742733
0.803571 0.683253 0.688457
0.727169 0.38584 0.775372
0.77145 0.431357 0.786038
0.810407 0.477943 0.796674
0.842649 0.524834 0.807233
0.869123 0.570871 0.817304
0.892714 0.615885 0.827131
0.914473 0.659297 0.8365
0.934752 0.701045 0.845563
0.95053 0.74377 0.846937
0.910445 0.474144 0.800916
0.930816 0.51989 0.809186
0.949706 0.564996 0.817426
0.967422 0.609766 0.825849
0.976272 0.651804 0.834089
0.971069 0.689601 0.842206
0.966323 0.726513 0.850523
0.96199 0.762264 0.859098
0.958312 0.79704 0.86833
0.99173 0.552911 0.814603
0.98526 0.593133 0.822339
0.979141 0.632349 0.830091
0.973587 0.670756 0.838071
0.968658 0.708141 0.846357
0.964141 0.744381 0.85478
0.960052 0.779736 0.8636
0.95697 0.814054 0.873411
0.956054 0.846998 0.885054
0 0.0979019 0.200717
0.0105592 0.12932 0.160082
0.0270695 0.159426 0.0975967
0.0598154 0.180987 0.0408179
0.0688334 0.213077 0.0405127
0.0754406 0.246036 0.0419013
0.0811017 0.27924 0.0420691
0.0857252 0.312245 0.0409552
0.0901045 0.345663 0.0394141
0 0.140597 0.39292
0 0.171939 0.333562
0.00560006 0.214572 0.293965
0.0233768 0.255329 0.23978
0.041062 0.284001 0.141711
0.0742809 0.301762 0.0692607
0.087892 0.328908 0.040177
0.0955673 0.363226 0.0395819
0.117357 0.399207 0.0434424
0 0.199039 0.5608
0 0.228443 0.511803
0 0.262333 0.460243
0.00340276 0.305379 0.424384
0.0510567 0.355962 0.388907
0.0792859 0.398566 0.303685
0.139849 0.417334 0.194598
0.194644 0.436912 0.132128
0.245914 0.462821 0.0804303
0 0.26009 0.639185
0 0.296605 0.643336
0.00610361 0.330251 0.614755
0.0423896 0.366308 0.582345
0.104692 0.408652 0.550713
0.191226 0.463218 0.532067
0.247471 0.510582 0.473396
0.317891 0.528344 0.361486
0.390173 0.539605 0.282704
0.0675212 0.31284 0.658259
0.104463 0.345647 0.66212
0.14342 0.377539 0.66569
0.184421 0.408484 0.669154
0.230854 0.438148 0.656321
0.298283 0.478874 0.633906
0.396262 0.54435 0.630625
0.491035 0.608515 0.617563
0.561364 0.631357 0.533639
0.259648 0.344503 0.673304
0.301274 0.374273 0.675151
0.34435 0.404913 0.678279
0.392935 0.440955 0.687236
0.445289 0.482307 0.701869
0.50074 0.527825 0.721035
0.558419 0.576013 0.743114
0.644388 0.642634 0.751644
0.72372 0.700542 0.742565
0.509026 0.390921 0.719768
0.562371 0.43331 0.734874
0.617594 0.480201 0.753674
0.672557 0.529641 0.774517
0.725734 0.580346 0.795743
0.773083 0.629679 0.815274
0.81268 0.676326 0.832456
0.846815 0.720394 0.847562
0.877043 0.761715 0.860777
0.796536 0.492851 0.797284
0.830808 0.53994 0.808759
0.859602 0.586297 0.819776
0.884581 0.631235 0.830198
0.907118 0.674128 0.839826
0.928069 0.715587 0.849073
0.947265 0.756268 0.858259
0.956115 0.793835 0.867536
0.956344 0.828107 0.878141
0.941649 0.580941 0.820493
0.959991 0.625269 0.828977
0.973938 0.66804 0.837491
0.969024 0.705242 0.845701
0.964477 0.741558 0.854109
0.960357 0.776989 0.862898
0.957183 0.811368 0.872618
0.9561 0.844404 0.884108
0.957916 0.875837 0.897536
0 0.124392 0.261372
0.00848402 0.160555 0.218601
0.0238041 0.195621 0.162829
0.0531624 0.219333 0.0809796
0.0749371 0.243442 0.041825
0.0806897 0.276631 0.0420996
0.0853742 0.309621 0.0410773
0.0897536 0.343008 0.0395361
0.0945449 0.376989 0.0383001
0 0.17203 0.449851
0 0.202762 0.390829
0.00120546 0.245441 0.35024
0.0205386 0.290028 0.305913
0.026154 0.325551 0.211383
0.0612955 0.342962 0.113542
0.0881361 0.362295 0.0504311
0.0972 0.394064 0.0379339
0.10341 0.428794 0.0380407
0 0.233707 0.596841
0 0.264164 0.557748
0 0.298848 0.514015
0 0.340063 0.480156
0.00723278 0.384817 0.443793
0.0104219 0.425971 0.37113
0.0368658 0.455039 0.253529
0.104982 0.470726 0.156359
0.160891 0.494835 0.101671
0 0.290929 0.63653
0 0.328756 0.643961
0 0.36701 0.645594
6.10361e-05 0.404639 0.624613
0.0327001 0.446555 0.608209
0.0925002 0.493339 0.585718
0.132509 0.539483 0.533532
0.167239 0.574624 0.436835
0.244709 0.583093 0.318379
0.00180056 0.350622 0.654856
0.0197604 0.389136 0.66421
0.0522164 0.426596 0.675013
0.0919051 0.463813 0.686763
0.136904 0.500786 0.699443
0.197772 0.539071 0.694743
0.274006 0.584237 0.687236
0.350912 0.636118 0.668177
0.403525 0.673991 0.596933
0.137179 0.394141 0.667002
0.178668 0.425742 0.671229
0.222309 0.457435 0.676143
0.268284 0.490349 0.68278
0.319371 0.527047 0.694301
0.37583 0.567803 0.711101
0.435126 0.611948 0.732555
0.503044 0.661967 0.755505
0.596109 0.725231 0.768963
0.334646 0.421103 0.677119
0.383856 0.457755 0.68661
0.436347 0.499382 0.701442
0.492317 0.544884 0.720913
0.550134 0.592935 0.743862
0.608087 0.641657 0.768841
0.664744 0.689876 0.794354
0.718654 0.736355 0.819287
0.767895 0.779721 0.842741
0.598184 0.493858 0.748058
0.653849 0.54345 0.769818
0.708659 0.593927 0.792676
0.758495 0.64329 0.813977
0.800946 0.690211 0.832944
0.83743 0.734401 0.849515
0.869734 0.775464 0.86392
0.899489 0.813214 0.876707
0.92607 0.849302 0.888975
0.849363 0.601541 0.821942
0.876066 0.646311 0.833097
0.899962 0.689021 0.843244
0.921736 0.729778 0.852644
0.941482 0.769909 0.862043
0.953536 0.807782 0.871809
0.95613 0.841825 0.883162
0.957732 0.873381 0.896452
0.963394 0.903334 0.91136
0 0.150683 0.320363
0.00297551 0.190799 0.276432
0.0233768 0.230625 0.228443
0.0390478 0.260716 0.135821
0.0727398 0.278935 0.0648508
0.0850385 0.306996 0.0411841
0.0894026 0.340337 0.0396582
0.0941176 0.374289 0.0383612
0.0997787 0.408682 0.0379339
0 0.205249 0.502373
0 0.237446 0.447089
6.10361e-05 0.277714 0.405646
0.0146181 0.32401 0.369512
0.0171817 0.36434 0.287617
0.0424811 0.386114 0.170123
0.0767987 0.402411 0.0922866
0.101762 0.426688 0.0411383
0.109453 0.460746 0.038468
0 0.269276 0.628824
0 0.301274 0.596567
0 0.336553 0.564309
0 0.377081 0.535592
0.00114443 0.420066 0.503929
0.00578317 0.461524 0.439704
0.00689708 0.495109 0.3364
0.0423285 0.512642 0.212039
0.0861372 0.530266 0.129778
0 0.324987 0.642573
0 0.363195 0.651743
0 0.402075 0.664439
0 0.440482 0.665461
6.10361e-05 0.479881 0.65507
0.0179294 0.522942 0.634714
0.0532082 0.567452 0.588769
0.0762951 0.607416 0.511208
0.119097 0.633921 0.396384
0 0.384222 0.658549
0 0.424292 0.673396
0.00424201 0.465599 0.691264
0.0327611 0.507866 0.711742
0.0713207 0.550179 0.733486
0.113954 0.591791 0.753719
0.170565 0.632471 0.746502
0.224689 0.671778 0.721416
0.27042 0.707683 0.665705
0.0516518 0.443931 0.680797
0.0916304 0.482124 0.694331
0.137865 0.520378 0.709331
0.188128 0.558602 0.725612
0.241245 0.596597 0.742763
0.295933 0.63444 0.760494
0.351797 0.672679 0.779156
0.408179 0.711055 0.798383
0.47129 0.752819 0.808103
0.219913 0.476844 0.68217
0.267323 0.510826 0.690486
0.319066 0.547753 0.702815
0.376562 0.589014 0.720851
0.436759 0.63299 0.743618
0.499229 0.678553 0.769528
0.561639 0.723766 0.796506
0.622141 0.766995 0.823102
0.679744 0.807157 0.848341
0.429404 0.516869 0.702541
0.486351 0.562615 0.722774
0.544823 0.610315 0.74612
0.603479 0.658839 0.77145
0.660578 0.706645 0.797162
0.714702 0.752346 0.822141
0.765347 0.794781 0.846342
0.811658 0.833768 0.869627
0.853361 0.869581 0.891249
0.691554 0.607782 0.788998
0.743969 0.657191 0.812314
0.789364 0.704082 0.833051
0.828122 0.748211 0.851087
0.863035 0.789014 0.867109
0.895216 0.826215 0.881346
0.923354 0.861799 0.894408
0.946639 0.897246 0.908721
0.972946 0.928985 0.924926
0 0.17998 0.378485
0.000366217 0.220691 0.332891
0.020325 0.264607 0.292485
0.0263828 0.301274 0.205005
0.0603189 0.320012 0.109346
0.0863203 0.33959 0.0482948
0.0937057 0.371588 0.038407
0.0992905 0.405936 0.0379339
0.105653 0.440711 0.0381933
0 0.240375 0.549157
0 0.273503 0.501137
0 0.312947 0.461769
0.00657664 0.358297 0.428595
0.012314 0.400458 0.360784
0.0219883 0.429358 0.245457
0.0615702 0.443915 0.140673
0.0944533 0.465202 0.0765087
0.115801 0.492805 0.0392767
0 0.303334 0.638468
0 0.339406 0.633219
0 0.375143 0.608438
0 0.414038 0.588663
0 0.456077 0.561547
0.00254826 0.497734 0.505608
0.00062562 0.534401 0.416648
0.0206455 0.558221 0.293004
0.0674296 0.572045 0.186419
0 0.360128 0.650904
0 0.399023 0.66334
0 0.438499 0.679774
0 0.47837 0.699245
0 0.517037 0.697536
0 0.55613 0.681132
0 0.596414 0.640864
0.00834669 0.635615 0.574411
0.0334173 0.670512 0.480262
0 0.418463 0.670863
0 0.458717 0.689464
0 0.499504 0.710414
0.000503548 0.541512 0.732158
0.0191653 0.58439 0.754192
0.0527657 0.627115 0.775219
0.0873732 0.668956 0.789624
0.124804 0.708232 0.767056
0.160449 0.744381 0.727474
0.0053254 0.482704 0.699535
0.035172 0.525154 0.72108
0.0733806 0.567987 0.743709
0.114046 0.609674 0.765087
0.158724 0.649607 0.783993
0.206714 0.687755 0.80061
0.255818 0.724147 0.815412
0.305791 0.758984 0.828977
0.35697 0.791287 0.841901
0.139757 0.540017 0.720653
0.190417 0.578714 0.73814
0.244099 0.617365 0.75639
0.298512 0.654932 0.774166
0.353063 0.692226 0.791714
0.407645 0.729244 0.80911
0.462501 0.76553 0.826673
0.518425 0.800366 0.844358
0.574258 0.834073 0.862058
0.321294 0.569726 0.714519
0.379721 0.610895 0.733944
0.44033 0.654505 0.757366
0.502678 0.699184 0.783154
0.564233 0.742824 0.809293
0.62417 0.784314 0.834791
0.680293 0.822171 0.858045
0.73254 0.857496 0.879286
0.780697 0.890852 0.898146
0.54049 0.628168 0.749279
0.600137 0.676234 0.775189
0.658244 0.723445 0.801755
0.713802 0.768292 0.82771
0.765438 0.809339 0.852293
0.812177 0.847272 0.875593
0.854047 0.88246 0.897185
0.891936 0.915221 0.916472
0.928023 0.945754 0.93022
0 0.213611 0.435218
0 0.251881 0.388434
0.0134737 0.298009 0.354406
0.0192721 0.339208 0.279164
0.0422217 0.363012 0.164538
0.0760052 0.37937 0.08748
0.0984207 0.403647 0.0390631
0.10515 0.43798 0.0381476
0.111818 0.472755 0.0387427
0 0.276707 0.588159
0 0.310491 0.551568
0 0.350088 0.517494
0.00109865 0.393576 0.487404
0.00814832 0.435798 0.428534
0.0081178 0.470634 0.32874
0.0412299 0.488411 0.203662
0.0825666 0.50576 0.121843
0.113527 0.52874 0.0643015
0 0.337926 0.645258
0 0.376654 0.655406
0 0.413809 0.649653
0 0.451926 0.636927
0 0.492348 0.615808
0.000106813 0.533852 0.568597
0 0.571878 0.490852
0.00462348 0.601801 0.381262
0.0454261 0.617029 0.258549
0 0.395956 0.662226
0 0.43537 0.67837
0 0.475319 0.697841
0 0.515557 0.719127
0 0.55552 0.738048
0 0.593805 0.724453
0 0.632044 0.694331
0 0.668986 0.638285
0 0.703349 0.557702
0 0.455207 0.687678
0 0.49543 0.70837
0 0.5355 0.729686
0 0.575769 0.750195
0 0.616251 0.768994
0.00326543 0.656565 0.785977
0.0240787 0.697627 0.802579
0.0540475 0.737133 0.803052
0.0842756 0.773022 0.773022
0 0.516243 0.719417
0.000366217 0.558297 0.741192
0.0196231 0.601038 0.762493
0.0522774 0.643412 0.782498
0.0849775 0.6851 0.801022
0.118685 0.725109 0.817639
0.156237 0.76286 0.832563
0.200336 0.797101 0.846281
0.249485 0.828397 0.859419
0.0750744 0.585306 0.753429
0.114458 0.627222 0.774685
0.157565 0.667216 0.79324
0.204273 0.704936 0.809018
0.252644 0.740764 0.822873
0.302358 0.774441 0.835782
0.353811 0.805707 0.848463
0.405676 0.835142 0.860868
0.457298 0.863172 0.872816
0.245579 0.636927 0.768795
0.29897 0.674113 0.786053
0.352651 0.710826 0.802625
0.405951 0.746548 0.818586
0.460029 0.781415 0.834989
0.515343 0.81474 0.851514
0.570367 0.847028 0.868009
0.624292 0.87863 0.884062
0.675914 0.90959 0.899245
0.443976 0.675929 0.771511
0.505333 0.718837 0.796353
0.565423 0.760311 0.820798
0.623835 0.799451 0.844221
0.678874 0.835843 0.86595
0.730495 0.870314 0.885908
0.777966 0.902785 0.903365
0.820768 0.933898 0.917891
0.859632 0.963516 0.928344
