src/luts/crop/12.cube
TITLE "Generated by Resolve"
LUT_3D_SIZE 33
0 0 0
0.000518807 0.000717174 0
0.00204471 0.00187686 0
0.00460822 0.00347906 0
0.0105135 0.00833143 3.0518e-05
0.0190738 0.0161746 0.000259403
0.0275578 0.0238956 0.000717174
0.0361791 0.0317388 0.00140383
0.0455177 0.0400244 0.00462348
0.0546578 0.0484016 0.00798047
0.0635538 0.0568551 0.0114137
0.0725872 0.0652628 0.0150607
0.0818341 0.07364 0.0189212
0.0908675 0.0821088 0.0228122
0.0997177 0.0906844 0.0267338
0.109117 0.0991073 0.0304723
0.118334 0.107622 0.0342107
0.127184 0.116106 0.0379187
0.136431 0.124727 0.0415503
0.146044 0.133349 0.0450294
0.155367 0.142092 0.0485237
0.164401 0.150973 0.0520333
0.174441 0.159655 0.054963
0.184222 0.168505 0.0578775
0.193668 0.177523 0.0608377
0.203586 0.186481 0.0634623
0.214191 0.195346 0.0656291
0.224292 0.204425 0.0678111
0.233768 0.213611 0.0700084
0.244923 0.222477 0.0717479
0.255711 0.23151 0.0734417
0.265904 0.240818 0.0751354
0.276524 0.250019 0.0767376
0.00662242 0.00361639 0.0217288
0.0131685 0.00579843 0.0105592
0.0205692 0.00799573 0.00448615
0.0306859 0.0148928 0.00047303
0.0395666 0.0227207 0.00131228
0.0482643 0.0305791 0.00250248
0.0570687 0.0387121 0.00486763
0.0662242 0.0470893 0.00819409
0.0751354 0.0554055 0.0116121
0.0838178 0.0638743 0.015198
0.09308 0.0723125 0.019028
0.102449 0.0807813 0.0228885
0.111482 0.0893111 0.0268254
0.120424 0.0978866 0.0307164
0.130175 0.106325 0.0343481
0.139696 0.114855 0.0380407
0.148852 0.123491 0.0418402
0.158648 0.132128 0.0452583
0.168902 0.140719 0.0485695
0.178607 0.149294 0.0519417
0.188205 0.158114 0.0551919
0.199222 0.166812 0.0578622
0.209995 0.17557 0.0605783
0.220264 0.184466 0.0634012
0.230976 0.193423 0.0655528
0.242313 0.202319 0.0675517
0.253132 0.211337 0.0696727
0.26363 0.220462 0.0716564
0.27512 0.22948 0.0732738
0.286351 0.238575 0.0749523
0.296941 0.247684 0.0767224
0.308095 0.25684 0.0781262
0.319707 0.265949 0.0794842
0.031281 0.0113222 0.0708629
0.0433204 0.0156558 0.0593423
0.0523079 0.0230411 0.046128
0.0584268 0.0310979 0.0329595
0.0670176 0.0383917 0.0208438
0.0778973 0.0458991 0.0128939
0.0877699 0.0539101 0.0115053
0.0968643 0.0623484 0.0150912
0.106035 0.0708324 0.0188754
0.115328 0.0793164 0.0227359
0.12491 0.0877546 0.0265507
0.134249 0.0960861 0.0304417
0.143755 0.104616 0.0341497
0.153903 0.113069 0.0376898
0.164096 0.121538 0.0412909
0.174197 0.130083 0.0448463
0.184588 0.138689 0.0481117
0.19588 0.147173 0.0512398
0.206973 0.155718 0.05449
0.217762 0.164477 0.0572519
0.229267 0.173175 0.0598001
0.240833 0.181888 0.0624247
0.251987 0.190585 0.0648356
0.263157 0.199573 0.0668803
0.274815 0.20853 0.0689097
0.286229 0.217502 0.0710918
0.297459 0.226596 0.0728313
0.309102 0.235798 0.0744945
0.320699 0.244968 0.0762493
0.332113 0.254108 0.0778973
0.343542 0.26331 0.0793011
0.355367 0.272541 0.080705
0.366934 0.281758 0.0822309
0.0572519 0.0239719 0.121614
0.0711376 0.030869 0.110109
0.0839399 0.0376287 0.0972457
0.09337 0.0455482 0.0833143
0.0984054 0.0548409 0.0690013
0.104829 0.0637064 0.0565499
0.116045 0.0708324 0.0438544
0.128176 0.0780652 0.0327459
0.139376 0.085893 0.0272068
0.149935 0.0941024 0.0294499
0.16025 0.10248 0.0330968
0.170443 0.110948 0.0367132
0.181628 0.119295 0.0400854
0.193133 0.127626 0.0434882
0.20441 0.135988 0.0465858
0.215656 0.144488 0.0497444
0.227756 0.152926 0.0527657
0.239673 0.161501 0.0556191
0.25124 0.170199 0.0582437
0.263249 0.178912 0.0608377
0.27541 0.187686 0.0635386
0.287098 0.196628 0.0656291
0.298695 0.205615 0.0677501
0.31078 0.214694 0.0699168
0.322713 0.223865 0.0719463
0.334295 0.232929 0.0736706
0.346029 0.2421 0.0753796
0.358007 0.251347 0.0771954
0.369848 0.260594 0.0786603
0.381491 0.269825 0.0801404
0.39321 0.279164 0.0816663
0.404837 0.288533 0.0831464
0.416297 0.297841 0.0844129
0.082002 0.0373541 0.175525
0.0983291 0.04448 0.162997
0.114427 0.052079 0.150118
0.128664 0.0598459 0.136248
0.13933 0.0683452 0.120317
0.142718 0.0787518 0.104616
0.147631 0.0879988 0.0908064
0.157946 0.0957809 0.0777752
0.173251 0.102602 0.0649119
0.187381 0.109453 0.0521096
0.200687 0.116854 0.0437934
0.213764 0.124727 0.0411383
0.226032 0.132952 0.0442054
0.238163 0.141497 0.0472725
0.25034 0.149981 0.0503853
0.263035 0.15845 0.0534218
0.275273 0.167025 0.0559548
0.287449 0.175906 0.0586862
0.299763 0.184588 0.0613565
0.312245 0.1935 0.0638132
0.324331 0.202579 0.0659648
0.336416 0.211749 0.0682536
0.348928 0.220935 0.0705119
0.361028 0.230121 0.0722362
0.373022 0.239368 0.074052
0.385016 0.248692 0.0759136
0.396994 0.258061 0.0776684
0.408728 0.267399 0.0791943
0.420386 0.276799 0.0808423
0.432135 0.286168 0.0824903
0.4439 0.295567 0.0838178
0.455512 0.304952 0.0851606
0.467185 0.314336 0.0865187
0.108766 0.0488441 0.231632
0.127642 0.0568246 0.218936
0.146548 0.0647593 0.206012
0.165545 0.0726329 0.191196
0.18201 0.0805676 0.173983
0.192477 0.0899977 0.155337
0.19527 0.100832 0.138033
0.198352 0.11133 0.122957
0.209232 0.119554 0.108934
0.225803 0.126268 0.0950637
0.241978 0.132738 0.0820783
0.257298 0.13994 0.0694896
0.272618 0.147387 0.0564889
0.286503 0.155215 0.0526131
0.299809 0.163745 0.0531472
0.312428 0.172519 0.0557717
0.325185 0.181399 0.0585794
0.338186 0.190311 0.0614328
0.350622 0.19939 0.0635691
0.363134 0.208576 0.0658122
0.375753 0.217868 0.0682383
0.388098 0.226993 0.0702678
0.399954 0.236286 0.0720684
0.41207 0.245716 0.0740673
0.424308 0.255238 0.0761578
0.436194 0.264622 0.0776989
0.448112 0.274128 0.0793774
0.460121 0.283772 0.0812543
0.472114 0.293233 0.0827955
0.483894 0.302586 0.0840772
0.495705 0.312093 0.0855726
0.507622 0.321645 0.0871443
0.519341 0.330861 0.0881971
0.141329 0.0579385 0.288365
0.162966 0.0660563 0.275883
0.186389 0.0738689 0.262547
0.209262 0.0823224 0.247684
0.229969 0.0906386 0.230793
0.246082 0.099382 0.211109
0.252934 0.110201 0.189746
0.254124 0.122301 0.170489
0.254032 0.134249 0.154681
0.265187 0.14284 0.140276
0.282307 0.149828 0.124544
0.299901 0.156832 0.109957
0.316518 0.164157 0.0981003
0.332509 0.171511 0.0852979
0.348089 0.179019 0.0721752
0.363546 0.186709 0.0597391
0.376745 0.195773 0.0608225
0.389319 0.20499 0.0627298
0.401984 0.214282 0.0651255
0.414771 0.223667 0.067689
0.426902 0.233005 0.0695201
0.439139 0.242481 0.0715038
0.45156 0.252094 0.0737011
0.463844 0.261646 0.0756542
0.475853 0.271 0.0772259
0.487892 0.280598 0.079057
0.500252 0.290333 0.0810864
0.512078 0.29958 0.0823529
0.52401 0.309178 0.0838331
0.53611 0.318807 0.0855268
0.548012 0.328359 0.0870222
0.559533 0.337713 0.0880903
0.571206 0.347234 0.0894026
0.181109 0.0643168 0.344854
0.205875 0.0726177 0.332692
0.231907 0.0812848 0.319738
0.25716 0.0904097 0.305379
0.280629 0.0996719 0.28925
0.299138 0.109133 0.26891
0.311284 0.118975 0.246509
0.316869 0.130465 0.224216
0.315679 0.144121 0.203525
0.315267 0.156756 0.187549
0.323949 0.166629 0.172778
0.340581 0.174365 0.1561
0.36025 0.181384 0.138201
0.376806 0.189014 0.124483
0.393286 0.196536 0.112551
0.409262 0.204501 0.10013
0.424598 0.212512 0.0868086
0.439597 0.220523 0.0737163
0.453407 0.229297 0.0663462
0.465782 0.238773 0.0682841
0.478294 0.248341 0.0704051
0.49099 0.258015 0.0727092
0.503197 0.267552 0.074464
0.515419 0.277104 0.0762036
0.527825 0.286793 0.0781415
0.540139 0.296483 0.0800183
0.551949 0.305898 0.0814069
0.563928 0.315358 0.0829938
0.576089 0.325124 0.0848402
0.587518 0.334569 0.0861219
0.598962 0.344015 0.0873732
0.610605 0.353628 0.0888533
0.622232 0.36321 0.0903029
0.228046 0.0702983 0.400351
0.254475 0.0786145 0.388602
0.281498 0.0878462 0.376562
0.307927 0.0975052 0.363088
0.331701 0.107515 0.346242
0.352712 0.117479 0.327199
0.368795 0.127657 0.305364
0.378943 0.138964 0.28217
0.381949 0.151751 0.259068
0.378882 0.166308 0.238209
0.377798 0.18024 0.221592
0.383856 0.191333 0.206394
0.398413 0.200031 0.189837
0.419837 0.206912 0.169482
0.437186 0.214923 0.152407
0.453117 0.22327 0.138705
0.469642 0.231006 0.127016
0.485374 0.239322 0.114153
0.500633 0.247562 0.100618
0.515618 0.25568 0.0867781
0.529732 0.263813 0.0755627
0.542519 0.273075 0.0726482
0.554589 0.282658 0.0745098
0.566979 0.292317 0.0765393
0.579034 0.301915 0.0782177
0.590845 0.311528 0.0798505
0.602777 0.321202 0.0816205
0.614633 0.330861 0.0833143
0.626108 0.340429 0.0847334
0.637476 0.350057 0.086244
0.648997 0.35964 0.0879072
0.660212 0.369024 0.0892348
0.671016 0.378454 0.0906081
0.281392 0.0768902 0.455329
0.308034 0.0850996 0.443519
0.335332 0.0942397 0.431647
0.361318 0.104662 0.417792
0.385672 0.1149 0.402152
0.40737 0.12575 0.384619
0.424857 0.136294 0.364004
0.437461 0.147417 0.34139
0.445304 0.159594 0.317861
0.446265 0.174029 0.294194
0.441581 0.18996 0.273854
0.43975 0.204349 0.256626
0.443198 0.216892 0.241291
0.456504 0.226429 0.224445
0.477256 0.233845 0.203632
0.498009 0.241443 0.1823
0.513527 0.250263 0.166003
0.529595 0.25864 0.153231
0.546014 0.266606 0.141085
0.561563 0.274693 0.127794
0.576303 0.282872 0.113802
0.590494 0.290776 0.0993668
0.604227 0.298924 0.0861372
0.617182 0.307424 0.0771191
0.628931 0.31696 0.0779583
0.640543 0.326696 0.079942
0.652003 0.336355 0.081529
0.663355 0.346059 0.0832074
0.674495 0.355886 0.0850233
0.685557 0.365621 0.0867781
0.696422 0.375128 0.0883192
0.707012 0.384695 0.0899672
0.717617 0.394308 0.0917372
0.339178 0.08542 0.510735
0.365164 0.0931716 0.499001
0.391257 0.102327 0.486305
0.416693 0.112184 0.472282
0.44094 0.123049 0.457206
0.463066 0.134157 0.440162
0.481147 0.145068 0.420356
0.495384 0.156252 0.398932
0.506386 0.168109 0.376486
0.511757 0.181689 0.353307
0.509422 0.197757 0.330297
0.504021 0.214145 0.309361
0.500557 0.229969 0.291859
0.503578 0.242985 0.27689
0.514321 0.253468 0.260304
0.533257 0.261616 0.239994
0.556725 0.268849 0.215824
0.573297 0.277546 0.196048
0.588556 0.286305 0.180926
0.604517 0.294392 0.167758
0.62034 0.302235 0.155062
0.634836 0.310384 0.14107
0.648859 0.318486 0.12665
0.662364 0.32665 0.112184
0.675364 0.334478 0.0973068
0.687633 0.342855 0.0867628
0.699306 0.351827 0.0818952
0.710124 0.361898 0.0840162
0.720668 0.371527 0.0857557
0.731151 0.38114 0.0875257
0.741466 0.390829 0.0894331
0.751583 0.400443 0.0912642
0.761578 0.409888 0.0928817
0.400305 0.0944839 0.564569
0.425269 0.102556 0.552987
0.449897 0.111696 0.540368
0.474372 0.121447 0.526665
0.497978 0.132174 0.511803
0.519066 0.143114 0.494591
0.537835 0.154345 0.475654
0.553994 0.165927 0.455207
0.566308 0.177661 0.433448
0.573999 0.190723 0.410544
0.575723 0.205661 0.38761
0.572274 0.222354 0.365423
0.565667 0.239887 0.345296
0.561471 0.256031 0.327993
0.563378 0.269566 0.312551
0.570581 0.281498 0.297063
0.586557 0.290562 0.278126
0.610407 0.297383 0.253697
0.630106 0.305669 0.230426
0.644923 0.314687 0.211475
0.659953 0.322789 0.196765
0.675334 0.330587 0.183352
0.69015 0.338369 0.169848
0.70367 0.346548 0.155276
0.71667 0.354772 0.140658
0.729458 0.363027 0.12604
0.741573 0.371191 0.111299
0.753323 0.37908 0.0962081
0.764263 0.387808 0.0901656
0.77438 0.397101 0.0891432
0.783871 0.406836 0.0910811
0.793484 0.416526 0.0930037
0.802945 0.426276 0.095079
0.463996 0.104646 0.614572
0.487572 0.113191 0.604105
0.511559 0.122042 0.592615
0.535042 0.132021 0.57966
0.556222 0.142367 0.564279
0.576547 0.153368 0.547753
0.59559 0.164721 0.530144
0.611017 0.176425 0.510185
0.623423 0.188342 0.488807
0.633463 0.200702 0.466835
0.638972 0.214801 0.444389
0.637797 0.231083 0.421927
0.632563 0.248463 0.400412
0.625101 0.266239 0.380941
0.620645 0.282597 0.364355
0.620768 0.296849 0.34902
0.625483 0.309499 0.333928
0.638285 0.319585 0.316594
0.660563 0.326757 0.293095
0.682155 0.334249 0.26804
0.697902 0.343191 0.24567
0.711559 0.351629 0.229007
0.726146 0.35935 0.214496
0.740856 0.367117 0.200336
0.754772 0.375219 0.186007
0.766964 0.383383 0.171115
0.778958 0.391867 0.156298
0.790738 0.399908 0.141588
0.801709 0.408057 0.127031
0.81207 0.416159 0.112261
0.822293 0.424399 0.0991226
0.831525 0.43386 0.0973983
0.83946 0.443595 0.0987106
0.531304 0.116381 0.657893
0.553338 0.12491 0.649638
0.575143 0.133852 0.640192
0.595468 0.143664 0.627939
0.615625 0.154086 0.614054
0.635096 0.164721 0.598901
0.651514 0.176074 0.581674
0.665949 0.187961 0.562676
0.67895 0.19968 0.542809
0.689784 0.21207 0.521996
0.696132 0.225818 0.500282
0.698665 0.240955 0.478264
0.697154 0.257282 0.456397
0.690349 0.27512 0.435264
0.682063 0.293156 0.416846
0.676753 0.309819 0.400549
0.675303 0.324712 0.385763
0.678035 0.337804 0.371328
0.687846 0.348363 0.354559
0.706233 0.35671 0.333883
0.729946 0.363134 0.307958
0.745968 0.371771 0.283955
0.758999 0.380545 0.264454
0.772335 0.388693 0.248569
0.786191 0.396582 0.234546
0.799283 0.404578 0.219974
0.811719 0.413138 0.205188
0.822812 0.421424 0.189899
0.833097 0.429862 0.17528
0.843305 0.438346 0.160739
0.853239 0.446815 0.146273
0.862257 0.455131 0.131731
0.871168 0.463432 0.117159
0.599878 0.12961 0.696437
0.619883 0.138415 0.688441
0.638437 0.147692 0.679286
0.656886 0.157122 0.669459
0.674861 0.167132 0.658152
0.690959 0.17789 0.644862
0.705974 0.189197 0.629953
0.72018 0.200855 0.613031
0.732311 0.212924 0.594522
0.741939 0.22504 0.574975
0.74966 0.23801 0.554803
0.754604 0.251987 0.533867
0.755505 0.267521 0.512535
0.752331 0.284337 0.491371
0.744518 0.302419 0.471153
0.735866 0.3205 0.452811
0.729015 0.337301 0.436637
0.726192 0.35256 0.422095
0.727489 0.366125 0.408179
0.733288 0.37763 0.393133
0.746609 0.386847 0.37525
0.769818 0.393393 0.350698
0.788037 0.401266 0.325322
0.800504 0.410315 0.303914
0.811795 0.419211 0.287266
0.824842 0.427192 0.27303
0.837613 0.435401 0.258518
0.849332 0.443824 0.243305
0.860288 0.452705 0.227955
0.870542 0.461402 0.212451
0.880095 0.469825 0.197208
0.889418 0.478508 0.182437
0.898299 0.486854 0.167834
0.666026 0.143786 0.731319
0.68333 0.153109 0.723873
0.700618 0.162676 0.715145
0.716762 0.17258 0.705501
0.731777 0.18291 0.695109
0.745846 0.193469 0.683894
0.759136 0.204456 0.671824
0.771527 0.215503 0.658
0.781994 0.227176 0.642191
0.791623 0.239139 0.625055
0.79968 0.251713 0.606546
0.805188 0.265003 0.587213
0.807828 0.279484 0.567544
0.807645 0.295018 0.547478
0.803281 0.312032 0.527077
0.794537 0.330114 0.507851
0.784741 0.348531 0.490013
0.776486 0.365499 0.474006
0.77229 0.381125 0.459922
0.770993 0.394903 0.446311
0.772915 0.407736 0.432654
0.782818 0.4177 0.416403
0.802319 0.424994 0.394888
0.82356 0.431983 0.370077
0.836789 0.441047 0.346731
0.847105 0.450431 0.329168
0.8589 0.459022 0.314351
0.871763 0.467384 0.300404
0.883452 0.475807 0.284703
0.894316 0.48484 0.268666
0.904601 0.493278 0.252369
0.914305 0.50193 0.235996
0.923506 0.510582 0.220325
0.731456 0.158892 0.743999
0.74519 0.168704 0.746517
0.758846 0.178958 0.745708
0.772839 0.189029 0.739666
0.78613 0.19968 0.729534
0.798276 0.210285 0.718608
0.809781 0.221561 0.707515
0.819852 0.232547 0.695735
0.82916 0.243885 0.683055
0.83769 0.255406 0.669276
0.844999 0.267216 0.654475
0.850278 0.27982 0.637934
0.853697 0.293584 0.620356
0.855314 0.307912 0.601953
0.853391 0.323537 0.583307
0.847883 0.340536 0.564523
0.839429 0.358373 0.54609
0.828901 0.376669 0.528649
0.819532 0.394202 0.513359
0.813458 0.410025 0.499336
0.810575 0.424598 0.485969
0.810575 0.437736 0.472847
0.815946 0.449012 0.458289
0.831632 0.457481 0.439078
0.854063 0.464302 0.41471
0.869718 0.472816 0.390967
0.879942 0.482429 0.372091
0.890822 0.491188 0.356405
0.903426 0.499306 0.342535
0.915648 0.507683 0.327565
0.92668 0.516625 0.310979
0.937179 0.525475 0.293751
0.94728 0.53431 0.276783
0.791272 0.175204 0.746944
0.803449 0.185626 0.749126
0.815259 0.196094 0.751354
0.825864 0.206592 0.753307
0.835874 0.217273 0.755062
0.846387 0.228275 0.750637
0.855497 0.239826 0.742138
0.863783 0.250996 0.730953
0.871504 0.26247 0.719539
0.878538 0.273854 0.70782
0.884062 0.285664 0.695796
0.888914 0.297536 0.682765
0.892973 0.310155 0.668818
0.895262 0.323598 0.653986
0.895598 0.337865 0.637598
0.893309 0.353384 0.620157
0.888273 0.370108 0.602518
0.880278 0.387579 0.585031
0.869749 0.405478 0.568338
0.859907 0.422843 0.553033
0.852171 0.439384 0.539132
0.84802 0.45417 0.526116
0.847257 0.46804 0.513359
0.849897 0.48011 0.499779
0.859144 0.49044 0.483894
0.88159 0.496956 0.46041
0.900236 0.504768 0.435767
0.912077 0.514153 0.414008
0.921874 0.523476 0.397864
0.93434 0.531868 0.384054
0.945541 0.539528 0.369574
0.952667 0.547494 0.353536
0.958633 0.555489 0.335668
0.843824 0.192523 0.748775
0.854398 0.20322 0.75108
0.862821 0.214298 0.753109
0.871397 0.225452 0.755154
0.880095 0.236637 0.757275
0.887541 0.247807 0.759396
0.894453 0.259144 0.761471
0.901518 0.270298 0.763516
0.908232 0.282002 0.755322
0.913802 0.293675 0.745037
0.919036 0.305379 0.733791
0.923796 0.317205 0.722301
0.927443 0.329442 0.710552
0.930068 0.342153 0.69839
0.931945 0.3552 0.685603
0.932128 0.369299 0.671412
0.930053 0.384192 0.656168
0.925811 0.399619 0.640009
0.918395 0.416663 0.623255
0.908598 0.434394 0.607172
0.898589 0.452018 0.592325
0.889921 0.468894 0.578485
0.885039 0.484321 0.565835
0.883223 0.49839 0.553368
0.884184 0.511025 0.540459
0.890455 0.522103 0.525933
0.904967 0.529229 0.505608
0.921523 0.535485 0.480552
0.931609 0.543496 0.45655
0.936019 0.552209 0.438544
0.942031 0.559701 0.424079
0.949096 0.566812 0.409934
0.955383 0.574151 0.394141
0.887312 0.211109 0.75111
0.894636 0.222431 0.753353
0.902037 0.233783 0.755627
0.909514 0.245151 0.757931
0.916045 0.256458 0.760067
0.922316 0.268101 0.76228
0.928557 0.279637 0.764492
0.934752 0.291249 0.76669
0.940352 0.302846 0.768856
0.946014 0.314199 0.770993
0.951492 0.325994 0.770565
0.955917 0.337804 0.760372
0.959579 0.349844 0.749111
0.962737 0.36228 0.737896
0.965225 0.374792 0.726543
0.966339 0.387732 0.714641
0.966339 0.40145 0.702266
0.964965 0.415457 0.689204
0.961318 0.430304 0.675013
0.954681 0.446845 0.659907
0.946166 0.463767 0.644709
0.935607 0.481132 0.630091
0.922972 0.496635 0.616342
0.912779 0.51133 0.603296
0.905241 0.525185 0.590814
0.900252 0.537148 0.578027
0.898985 0.547875 0.563897
0.905196 0.556481 0.546685
0.920531 0.562402 0.524453
0.931975 0.569451 0.499229
0.937102 0.577798 0.479515
0.941894 0.585672 0.4636
0.949004 0.592599 0.449454
0.922545 0.231174 0.75407
0.92929 0.242466 0.756405
0.935882 0.253941 0.758709
0.941894 0.265507 0.760937
0.947784 0.277119 0.76321
0.953704 0.288746 0.765499
0.95935 0.30042 0.767727
0.964645 0.312139 0.769924
0.970031 0.323857 0.772152
0.97528 0.335576 0.774334
0.979965 0.347204 0.776394
0.984771 0.35906 0.778515
0.990158 0.370642 0.780606
0.993606 0.382376 0.775891
0.992813 0.394614 0.764721
0.99379 0.407187 0.753491
0.996414 0.420142 0.742092
0.995392 0.432761 0.730648
0.990524 0.445075 0.718837
0.983368 0.458534 0.70634
0.974609 0.472465 0.693126
0.963424 0.487083 0.679362
0.950027 0.502632 0.664851
0.936431 0.51812 0.650828
0.92401 0.533089 0.637552
0.91371 0.547143 0.624918
0.906676 0.55996 0.612512
0.902953 0.571298 0.599374
0.90425 0.581003 0.584497
0.916014 0.5879 0.564599
0.929717 0.594522 0.54081
0.937346 0.602502 0.519478
0.942077 0.610727 0.502907
0.954681 0.251499 0.757366
0.960616 0.263096 0.759655
0.966064 0.274723 0.761944
0.971527 0.286397 0.764248
0.97705 0.297948 0.766491
0.982269 0.309682 0.768704
0.986297 0.321462 0.770932
0.991089 0.333257 0.773159
0.996033 0.345037 0.77528
0.998016 0.356771 0.777386
0.998154 0.368536 0.779507
0.998718 0.380316 0.781598
0.999802 0.391867 0.783658
0.999756 0.402258 0.785733
0.999786 0.41297 0.787747
0.999878 0.423285 0.788815
1 0.434409 0.780118
0.999863 0.44596 0.768887
0.998917 0.457633 0.757748
0.994263 0.469734 0.746426
0.988113 0.482155 0.734798
0.980667 0.495064 0.722774
0.971374 0.508675 0.710201
0.95993 0.523171 0.69691
0.947188 0.538247 0.68336
0.933806 0.553613 0.669932
0.922499 0.567819 0.657252
0.913634 0.581155 0.645029
0.907362 0.593484 0.632944
0.905699 0.603998 0.619654
0.912734 0.6121 0.602396
0.925353 0.618891 0.581094
0.936812 0.62623 0.558068
0.983154 0.272251 0.760616
0.987411 0.283955 0.762921
0.991058 0.295689 0.76524
0.995117 0.307469 0.767483
0.999695 0.319265 0.769711
0.999649 0.330907 0.771908
0.999603 0.342596 0.774075
0.999741 0.354223 0.776165
1 0.36553 0.778332
1 0.376318 0.780545
0.999969 0.386923 0.782666
1 0.397543 0.784772
1 0.408118 0.786877
1 0.418616 0.788952
1 0.429038 0.790982
1 0.439445 0.792996
1 0.449805 0.79501
0.999985 0.460166 0.796063
0.999832 0.470527 0.794858
0.998749 0.482002 0.783597
0.995621 0.493721 0.772412
0.990463 0.505684 0.761166
0.984192 0.518013 0.749798
0.976486 0.531029 0.738094
0.967208 0.544488 0.72604
0.956268 0.558511 0.713603
0.943633 0.573297 0.700771
0.931319 0.587991 0.688228
0.920836 0.60177 0.676173
0.913115 0.614374 0.664439
0.908797 0.625864 0.652445
0.91107 0.635157 0.637888
0.920775 0.642481 0.61941
1 0.293202 0.763882
0.999969 0.304784 0.766171
0.999939 0.316442 0.768368
1 0.328145 0.770581
1 0.338964 0.772885
1 0.349783 0.775113
1 0.360571 0.777325
1 0.371344 0.779522
1 0.38204 0.781689
1 0.392599 0.783795
1 0.403006 0.785855
1 0.413458 0.787945
1 0.423835 0.78996
1 0.434195 0.791974
1 0.444556 0.793988
1 0.454902 0.795987
1 0.465248 0.79794
1 0.475578 0.799908
1 0.485908 0.801862
0.999161 0.496208 0.803815
0.997772 0.506706 0.803082
0.995499 0.517586 0.797833
0.991485 0.52929 0.786648
0.986053 0.541238 0.775418
0.979675 0.553567 0.764126
0.972213 0.566369 0.752773
0.962844 0.579614 0.741115
0.951812 0.593439 0.72932
0.940032 0.607599 0.717586
0.928359 0.621759 0.705959
0.919554 0.634577 0.694575
0.913558 0.646448 0.683162
0.910979 0.657008 0.671046
1 0.312444 0.767208
1 0.323095 0.769497
1 0.333913 0.771801
1 0.344701 0.774075
1 0.355459 0.776272
1 0.366217 0.77847
1 0.376928 0.780667
1 0.387411 0.782757
1 0.397864 0.784833
1 0.408301 0.786923
1 0.418723 0.788968
1 0.429084 0.790982
1 0.439445 0.792996
1 0.449668 0.79498
1 0.459998 0.796948
1 0.470344 0.798917
1 0.480674 0.80087
0.99968 0.49099 0.802823
0.998642 0.501274 0.804761
0.997604 0.511559 0.806699
0.996567 0.521843 0.808637
0.995056 0.532082 0.81059
0.993408 0.542351 0.812512
0.990738 0.553185 0.808972
0.986786 0.564416 0.800458
0.981674 0.576196 0.789273
0.975418 0.588342 0.778134
0.967605 0.601068 0.766873
0.958251 0.614099 0.755611
0.947585 0.627482 0.744503
0.936263 0.641169 0.7337
0.926146 0.654322 0.723064
0.918639 0.666377 0.712535
1 0.328939 0.770748
1 0.339727 0.773037
1 0.350393 0.775235
1 0.361028 0.777417
1 0.371679 0.779583
1 0.382116 0.781704
1 0.392569 0.78378
1 0.403006 0.785855
1 0.413458 0.787945
1 0.423835 0.78996
1 0.434195 0.791974
1 0.444556 0.793988
1 0.454902 0.795987
1 0.465248 0.79794
1 0.475578 0.799908
1 0.485908 0.801862
0.999176 0.496071 0.803784
0.998138 0.506355 0.805722
0.997101 0.51664 0.80766
0.99588 0.526909 0.809598
0.994247 0.537118 0.811566
0.992615 0.547326 0.813519
0.990982 0.557534 0.815488
0.989364 0.567605 0.817426
0.987747 0.577676 0.819364
0.985702 0.587991 0.819272
0.982452 0.598871 0.813565
0.977386 0.610422 0.802899
0.971115 0.622461 0.791821
0.963546 0.634882 0.780774
0.953902 0.647745 0.769833
0.943343 0.660822 0.75935
0.932952 0.673793 0.74934
1 0.344991 0.774136
1 0.355642 0.776303
1 0.366293 0.778485
1 0.376928 0.780667
1 0.387411 0.782757
1 0.397864 0.784833
1 0.408301 0.786923
1 0.418723 0.788968
1 0.428946 0.790951
1 0.439307 0.792966
1 0.449668 0.79498
1 0.459998 0.796948
1 0.470344 0.798917
1 0.480674 0.80087
0.99968 0.49099 0.802823
0.998642 0.501274 0.804761
0.997604 0.511559 0.806699
0.996567 0.521843 0.808637
0.995056 0.532082 0.81059
0.993423 0.54229 0.812558
0.991821 0.552361 0.814496
0.990188 0.562524 0.816449
0.988571 0.572549 0.818372
0.986954 0.582559 0.820294
0.985351 0.592584 0.822232
0.983795 0.602472 0.82417
0.982254 0.612314 0.826108
0.980697 0.622248 0.828077
0.97792 0.632807 0.824872
0.973632 0.643977 0.816541
0.967376 0.655802 0.805478
0.959381 0.667979 0.794507
0.949935 0.680537 0.783948
1 0.361028 0.777417
1 0.371542 0.779553
1 0.382116 0.781704
1 0.392569 0.78378
1 0.403006 0.785855
1 0.413458 0.787945
1 0.423835 0.78996
1 0.434195 0.791974
1 0.444556 0.793988
