src/luts/crop/13.cube
TITLE "Generated by Resolve"
LUT_3D_SIZE 5
0 0 0
0.231937 0 0.231937
0.46389 0 0.46389
0.695842 0 0.695842
0.927794 0 0.927794
0 0.249989 0
0.231937 0.231937 0.231937
0.46389 0.213886 0.46389
0.695842 0.195834 0.695842
0.927794 0.177783 0.927794
0 0.499992 0
0.231937 0.481941 0.231937
0.46389 0.46389 0.46389
0.695842 0.445838 0.695842
0.927794 0.427787 0.927794
0 0.749996 0
0.231937 0.731945 0.231937
0.46389 0.713893 0.46389
0.695842 0.695842 0.695842
0.927794 0.677791 0.927794
0 1 0
0.231937 0.981949 0.231937
0.46389 0.963897 0.46389
0.695842 0.945846 0.695842
0.927794 0.927794 0.927794
0.0180514 0.0180514 0.0180514
0.249989 0 0.249989
0.481941 0 0.481941
0.713893 0 0.713893
0.945846 0 0.945846
0.0180514 0.26804 0.0180514
0.249989 0.249989 0.249989
0.481941 0.231937 0.481941
0.713893 0.213886 0.713893
0.945846 0.195834 0.945846
0.0180514 0.518044 0.0180514
0.249989 0.499992 0.249989
0.481941 0.481941 0.481941
0.713893 0.46389 0.713893
0.945846 0.445838 0.945846
0.0180514 0.768048 0.0180514
0.249989 0.749996 0.249989
0.481941 0.731945 0.481941
0.713893 0.713893 0.713893
0.945846 0.695842 0.945846
0.0180514 1 0.0180514
0.249989 1 0.249989
0.481941 0.981949 0.481941
0.713893 0.963897 0.713893
0.945846 0.945846 0.945846
0.0361028 0.0361028 0.0361028
0.26804 0.0180514 0.26804
0.499992 0 0.499992
0.731945 0 0.731945
0.963897 0 0.963897
0.0361028 0.286091 0.0361028
0.26804 0.26804 0.26804
0.499992 0.249989 0.499992
0.731945 0.231937 0.731945
0.963897 0.213886 0.963897
0.0361028 0.536095 0.0361028
0.26804 0.518044 0.26804
0.499992 0.499992 0.499992
0.731945 0.481941 0.731945
0.963897 0.46389 0.963897
0.0361028 0.786099 0.0361028
0.26804 0.768048 0.26804
0.499992 0.749996 0.499992
0.731945 0.731945 0.731945
0.963897 0.713893 0.963897
0.0361028 1 0.0361028
0.26804 1 0.26804
0.499992 1 0.499992
0.731945 0.981949 0.731945
0.963897 0.963897 0.963897
0.0541543 0.0541543 0.0541543
0.286091 0.0361028 0.286091
0.518044 0.0180514 0.518044
0.749996 0 0.749996
0.981949 0 0.981949
0.0541543 0.304143 0.0541543
0.286091 0.286091 0.286091
0.518044 0.26804 0.518044
0.749996 0.249989 0.749996
0.981949 0.231937 0.981949
0.0541543 0.554147 0.0541543
0.286091 0.536095 0.286091
0.518044 0.518044 0.518044
0.749996 0.499992 0.749996
0.981949 0.481941 0.981949
0.0541543 0.80415 0.0541543
0.286091 0.786099 0.286091
0.518044 0.768048 0.518044
0.749996 0.749996 0.749996
0.981949 0.731945 0.981949
0.0541543 1 0.0541543
0.286091 1 0.286091
0.518044 1 0.518044
0.749996 1 0.749996
0.981949 0.981949 0.981949
0.0722057 0.0722057 0.0722057
0.304143 0.0541543 0.304143
0.536095 0.0361028 0.536095
0.768048 0.0180514 0.768048
1 0 1
0.0722057 0.322194 0.0722057
0.304143 0.304143 0.304143
0.536095 0.286091 0.536095
0.768048 0.26804 0.768048
1 0.249989 1
0.0722057 0.572198 0.0722057
0.304143 0.554147 0.304143
0.536095 0.536095 0.536095
0.768048 0.518044 0.768048
1 0.499992 1
0.0722057 0.822202 0.0722057
0.304143 0.80415 0.304143
0.536095 0.786099 0.536095
0.768048 0.768048 0.768048
1 0.749996 1
0.0722057 1 0.0722057
0.304143 1 0.304143
0.536095 1 0.536095
0.768048 1 0.768048
1 1 1
