src/luts/crop/13.cube
TITLE "Generated by Resolve"
LUT_3D_SIZE 33
0 0 0
0.0289769 0 0.0289769
0.057969 0 0.057969
0.0869612 0 0.0869612
0.115969 0 0.115969
0.144961 0 0.144961
0.173953 0 0.173953
0.202945 0 0.202945
0.231937 0 0.231937
0.260929 0 0.260929
0.289921 0 0.289921
0.318929 0 0.318929
0.347921 0 0.347921
0.376913 0 0.376913
0.405905 0 0.405905
0.434897 0 0.434897
0.46389 0 0.46389
0.492882 0 0.492882
0.521874 0 0.521874
0.550881 0 0.550881
0.579873 0 0.579873
0.608865 0 0.608865
0.637858 0 0.637858
0.66685 0 0.66685
0.695842 0 0.695842
0.724834 0 0.724834
0.753841 0 0.753841
0.782834 0 0.782834
0.811826 0 0.811826
0.840818 0 0.840818
0.86981 0 0.86981
0.898802 0 0.898802
0.927794 0 0.927794
0 0.0312352 0
0.0289769 0.0289769 0.0289769
0.057969 0.0267185 0.057969
0.0869612 0.0244602 0.0869612
0.115969 0.0222171 0.115969
0.144961 0.0199588 0.144961
0.173953 0.0177005 0.173953
0.202945 0.0154421 0.202945
0.231937 0.0131838 0.231937
0.260929 0.0109255 0.260929
0.289921 0.00866712 0.289921
0.318929 0.00642405 0.318929
0.347921 0.00416571 0.347921
0.376913 0.00190738 0.376913
0.405905 0 0.405905
0.434897 0 0.434897
0.46389 0 0.46389
0.492882 0 0.492882
0.521874 0 0.521874
0.550881 0 0.550881
0.579873 0 0.579873
0.608865 0 0.608865
0.637858 0 0.637858
0.66685 0 0.66685
0.695842 0 0.695842
0.724834 0 0.724834
0.753841 0 0.753841
0.782834 0 0.782834
0.811826 0 0.811826
0.840818 0 0.840818
0.86981 0 0.86981
0.898802 0 0.898802
0.927794 0 0.927794
0 0.0624857 0
0.0289769 0.0602274 0.0289769
0.057969 0.057969 0.057969
0.0869612 0.0557107 0.0869612
0.115969 0.0534676 0.115969
0.144961 0.0512093 0.144961
0.173953 0.0489509 0.173953
0.202945 0.0466926 0.202945
0.231937 0.0444343 0.231937
0.260929 0.0421759 0.260929
0.289921 0.0399176 0.289921
0.318929 0.0376745 0.318929
0.347921 0.0354162 0.347921
0.376913 0.0331579 0.376913
0.405905 0.0308995 0.405905
0.434897 0.0286412 0.434897
0.46389 0.0263828 0.46389
0.492882 0.0241245 0.492882
0.521874 0.0218662 0.521874
0.550881 0.0196231 0.550881
0.579873 0.0173648 0.579873
0.608865 0.0151064 0.608865
0.637858 0.0128481 0.637858
0.66685 0.0105898 0.66685
0.695842 0.00833143 0.695842
0.724834 0.00607309 0.724834
0.753841 0.00383001 0.753841
0.782834 0.00157168 0.782834
0.811826 0 0.811826
0.840818 0 0.840818
0.86981 0 0.86981
0.898802 0 0.898802
0.927794 0 0.927794
0 0.0937362 0
0.0289769 0.0914778 0.0289769
0.057969 0.0892195 0.057969
0.0869612 0.0869612 0.0869612
0.115969 0.0847181 0.115969
0.144961 0.0824598 0.144961
0.173953 0.0802014 0.173953
0.202945 0.0779431 0.202945
0.231937 0.0756847 0.231937
0.260929 0.0734264 0.260929
0.289921 0.0711681 0.289921
0.318929 0.068925 0.318929
0.347921 0.0666667 0.347921
0.376913 0.0644083 0.376913
0.405905 0.06215 0.405905
0.434897 0.0598917 0.434897
0.46389 0.0576333 0.46389
0.492882 0.055375 0.492882
0.521874 0.0531167 0.521874
0.550881 0.0508736 0.550881
0.579873 0.0486152 0.579873
0.608865 0.0463569 0.608865
0.637858 0.0440986 0.637858
0.66685 0.0418402 0.66685
0.695842 0.0395819 0.695842
0.724834 0.0373236 0.724834
0.753841 0.0350805 0.753841
0.782834 0.0328222 0.782834
0.811826 0.0305638 0.811826
0.840818 0.0283055 0.840818
0.86981 0.0260471 0.86981
0.898802 0.0237888 0.898802
0.927794 0.0215305 0.927794
0 0.124987 0
0.0289769 0.122728 0.0289769
0.057969 0.12047 0.057969
0.0869612 0.118212 0.0869612
0.115969 0.115969 0.115969
0.144961 0.11371 0.144961
0.173953 0.111452 0.173953
0.202945 0.109194 0.202945
0.231937 0.106935 0.231937
0.260929 0.104677 0.260929
0.289921 0.102419 0.289921
0.318929 0.100175 0.318929
0.347921 0.0979171 0.347921
0.376913 0.0956588 0.376913
0.405905 0.0934005 0.405905
0.434897 0.0911421 0.434897
0.46389 0.0888838 0.46389
0.492882 0.0866255 0.492882
0.521874 0.0843671 0.521874
0.550881 0.0821241 0.550881
0.579873 0.0798657 0.579873
0.608865 0.0776074 0.608865
0.637858 0.075349 0.637858
0.66685 0.0730907 0.66685
0.695842 0.0708324 0.695842
0.724834 0.068574 0.724834
0.753841 0.066331 0.753841
0.782834 0.0640726 0.782834
0.811826 0.0618143 0.811826
0.840818 0.059556 0.840818
0.86981 0.0572976 0.86981
0.898802 0.0550393 0.898802
0.927794 0.052781 0.927794
0 0.156237 0
0.0289769 0.153979 0.0289769
0.057969 0.15172 0.057969
0.0869612 0.149462 0.0869612
0.115969 0.147219 0.115969
0.144961 0.144961 0.144961
0.173953 0.142702 0.173953
0.202945 0.140444 0.202945
0.231937 0.138186 0.231937
0.260929 0.135927 0.260929
0.289921 0.133669 0.289921
0.318929 0.131426 0.318929
0.347921 0.129168 0.347921
0.376913 0.126909 0.376913
0.405905 0.124651 0.405905
0.434897 0.122393 0.434897
0.46389 0.120134 0.46389
0.492882 0.117876 0.492882
0.521874 0.115618 0.521874
0.550881 0.113375 0.550881
0.579873 0.111116 0.579873
0.608865 0.108858 0.608865
0.637858 0.1066 0.637858
0.66685 0.104341 0.66685
0.695842 0.102083 0.695842
0.724834 0.0998245 0.724834
0.753841 0.0975814 0.753841
0.782834 0.0953231 0.782834
0.811826 0.0930648 0.811826
0.840818 0.0908064 0.840818
0.86981 0.0885481 0.86981
0.898802 0.0862898 0.898802
0.927794 0.0840314 0.927794
0 0.187488 0
0.0289769 0.185229 0.0289769
0.057969 0.182971 0.057969
0.0869612 0.180713 0.0869612
0.115969 0.17847 0.115969
0.144961 0.176211 0.144961
0.173953 0.173953 0.173953
0.202945 0.171695 0.202945
0.231937 0.169436 0.231937
0.260929 0.167178 0.260929
0.289921 0.16492 0.289921
0.318929 0.162676 0.318929
0.347921 0.160418 0.347921
0.376913 0.15816 0.376913
0.405905 0.155901 0.405905
0.434897 0.153643 0.434897
0.46389 0.151385 0.46389
0.492882 0.149126 0.492882
0.521874 0.146868 0.521874
0.550881 0.144625 0.550881
0.579873 0.142367 0.579873
0.608865 0.140108 0.608865
0.637858 0.13785 0.637858
0.66685 0.135592 0.66685
0.695842 0.133333 0.695842
0.724834 0.131075 0.724834
0.753841 0.128832 0.753841
0.782834 0.126574 0.782834
0.811826 0.124315 0.811826
0.840818 0.122057 0.840818
0.86981 0.119799 0.86981
0.898802 0.11754 0.898802
0.927794 0.115282 0.927794
0 0.218738 0
0.0289769 0.21648 0.0289769
0.057969 0.214221 0.057969
0.0869612 0.211963 0.0869612
0.115969 0.20972 0.115969
0.144961 0.207462 0.144961
0.173953 0.205203 0.173953
0.202945 0.202945 0.202945
0.231937 0.200687 0.231937
0.260929 0.198428 0.260929
0.289921 0.19617 0.289921
0.318929 0.193927 0.318929
0.347921 0.191669 0.347921
0.376913 0.18941 0.376913
0.405905 0.187152 0.405905
0.434897 0.184894 0.434897
0.46389 0.182635 0.46389
0.492882 0.180377 0.492882
0.521874 0.178119 0.521874
0.550881 0.175875 0.550881
0.579873 0.173617 0.579873
0.608865 0.171359 0.608865
0.637858 0.1691 0.637858
0.66685 0.166842 0.66685
0.695842 0.164584 0.695842
0.724834 0.162325 0.724834
0.753841 0.160082 0.753841
0.782834 0.157824 0.782834
0.811826 0.155566 0.811826
0.840818 0.153307 0.840818
0.86981 0.151049 0.86981
0.898802 0.148791 0.898802
0.927794 0.146532 0.927794
0 0.249989 0
0.0289769 0.24773 0.0289769
0.057969 0.245472 0.057969
0.0869612 0.243214 0.0869612
0.115969 0.24097 0.115969
0.144961 0.238712 0.144961
0.173953 0.236454 0.173953
0.202945 0.234195 0.202945
0.231937 0.231937 0.231937
0.260929 0.229679 0.260929
0.289921 0.22742 0.289921
0.318929 0.225177 0.318929
0.347921 0.222919 0.347921
0.376913 0.220661 0.376913
0.405905 0.218402 0.405905
0.434897 0.216144 0.434897
0.46389 0.213886 0.46389
0.492882 0.211627 0.492882
0.521874 0.209369 0.521874
0.550881 0.207126 0.550881
0.579873 0.204868 0.579873
0.608865 0.202609 0.608865
0.637858 0.200351 0.637858
0.66685 0.198093 0.66685
0.695842 0.195834 0.695842
0.724834 0.193576 0.724834
0.753841 0.191333 0.753841
0.782834 0.189075 0.782834
0.811826 0.186816 0.811826
0.840818 0.184558 0.840818
0.86981 0.1823 0.86981
0.898802 0.180041 0.898802
0.927794 0.177783 0.927794
0 0.281239 0
0.0289769 0.278981 0.0289769
0.057969 0.276722 0.057969
0.0869612 0.274464 0.0869612
0.115969 0.272221 0.115969
0.144961 0.269963 0.144961
0.173953 0.267704 0.173953
0.202945 0.265446 0.202945
0.231937 0.263188 0.231937
0.260929 0.260929 0.260929
0.289921 0.258671 0.289921
0.318929 0.256428 0.318929
0.347921 0.25417 0.347921
0.376913 0.251911 0.376913
0.405905 0.249653 0.405905
0.434897 0.247395 0.434897
0.46389 0.245136 0.46389
0.492882 0.242878 0.492882
0.521874 0.24062 0.521874
0.550881 0.238376 0.550881
0.579873 0.236118 0.579873
0.608865 0.23386 0.608865
0.637858 0.231601 0.637858
0.66685 0.229343 0.66685
0.695842 0.227085 0.695842
0.724834 0.224826 0.724834
0.753841 0.222583 0.753841
0.782834 0.220325 0.782834
0.811826 0.218067 0.811826
0.840818 0.215808 0.840818
0.86981 0.21355 0.86981
0.898802 0.211292 0.898802
0.927794 0.209033 0.927794
0 0.31249 0
0.0289769 0.310231 0.0289769
0.057969 0.307973 0.057969
0.0869612 0.305715 0.0869612
0.115969 0.303471 0.115969
0.144961 0.301213 0.144961
0.173953 0.298955 0.173953
0.202945 0.296696 0.202945
0.231937 0.294438 0.231937
0.260929 0.29218 0.260929
0.289921 0.289921 0.289921
0.318929 0.287678 0.318929
0.347921 0.28542 0.347921
0.376913 0.283162 0.376913
0.405905 0.280903 0.405905
0.434897 0.278645 0.434897
0.46389 0.276387 0.46389
0.492882 0.274128 0.492882
0.521874 0.27187 0.521874
0.550881 0.269627 0.550881
0.579873 0.267369 0.579873
0.608865 0.26511 0.608865
0.637858 0.262852 0.637858
0.66685 0.260594 0.66685
0.695842 0.258335 0.695842
0.724834 0.256077 0.724834
0.753841 0.253834 0.753841
0.782834 0.251575 0.782834
0.811826 0.249317 0.811826
0.840818 0.247059 0.840818
0.86981 0.2448 0.86981
0.898802 0.242542 0.898802
0.927794 0.240284 0.927794
0 0.34374 0
0.0289769 0.341482 0.0289769
0.057969 0.339223 0.057969
0.0869612 0.336965 0.0869612
0.115969 0.334722 0.115969
0.144961 0.332464 0.144961
0.173953 0.330205 0.173953
0.202945 0.327947 0.202945
0.231937 0.325689 0.231937
0.260929 0.32343 0.260929
0.289921 0.321172 0.289921
0.318929 0.318929 0.318929
0.347921 0.31667 0.347921
0.376913 0.314412 0.376913
0.405905 0.312154 0.405905
0.434897 0.309895 0.434897
0.46389 0.307637 0.46389
0.492882 0.305379 0.492882
0.521874 0.30312 0.521874
0.550881 0.300877 0.550881
0.579873 0.298619 0.579873
0.608865 0.296361 0.608865
0.637858 0.294102 0.637858
0.66685 0.291844 0.66685
0.695842 0.289586 0.695842
0.724834 0.287327 0.724834
0.753841 0.285084 0.753841
0.782834 0.282826 0.782834
0.811826 0.280568 0.811826
0.840818 0.278309 0.840818
0.86981 0.276051 0.86981
0.898802 0.273793 0.898802
0.927794 0.271534 0.927794
0 0.37499 0
0.0289769 0.372732 0.0289769
0.057969 0.370474 0.057969
0.0869612 0.368215 0.0869612
0.115969 0.365972 0.115969
0.144961 0.363714 0.144961
0.173953 0.361456 0.173953
0.202945 0.359197 0.202945
0.231937 0.356939 0.231937
0.260929 0.354681 0.260929
0.289921 0.352422 0.289921
0.318929 0.350179 0.318929
0.347921 0.347921 0.347921
0.376913 0.345663 0.376913
0.405905 0.343404 0.405905
0.434897 0.341146 0.434897
0.46389 0.338888 0.46389
0.492882 0.336629 0.492882
0.521874 0.334371 0.521874
0.550881 0.332128 0.550881
0.579873 0.32987 0.579873
0.608865 0.327611 0.608865
0.637858 0.325353 0.637858
0.66685 0.323095 0.66685
0.695842 0.320836 0.695842
0.724834 0.318578 0.724834
0.753841 0.316335 0.753841
0.782834 0.314076 0.782834
0.811826 0.311818 0.811826
0.840818 0.30956 0.840818
0.86981 0.307301 0.86981
0.898802 0.305043 0.898802
0.927794 0.302785 0.927794
0 0.406241 0
0.0289769 0.403983 0.0289769
0.057969 0.401724 0.057969
0.0869612 0.399466 0.0869612
0.115969 0.397223 0.115969
0.144961 0.394965 0.144961
0.173953 0.392706 0.173953
0.202945 0.390448 0.202945
0.231937 0.38819 0.231937
0.260929 0.385931 0.260929
0.289921 0.383673 0.289921
0.318929 0.38143 0.318929
0.347921 0.379171 0.347921
0.376913 0.376913 0.376913
0.405905 0.374655 0.405905
0.434897 0.372396 0.434897
0.46389 0.370138 0.46389
0.492882 0.36788 0.492882
0.521874 0.365621 0.521874
0.550881 0.363378 0.550881
0.579873 0.36112 0.579873
0.608865 0.358862 0.608865
0.637858 0.356603 0.637858
0.66685 0.354345 0.66685
0.695842 0.352087 0.695842
0.724834 0.349828 0.724834
0.753841 0.347585 0.753841
0.782834 0.345327 0.782834
0.811826 0.343069 0.811826
0.840818 0.34081 0.840818
0.86981 0.338552 0.86981
0.898802 0.336294 0.898802
0.927794 0.334035 0.927794
0 0.437491 0
0.0289769 0.435233 0.0289769
0.057969 0.432975 0.057969
0.0869612 0.430716 0.0869612
0.115969 0.428473 0.115969
0.144961 0.426215 0.144961
0.173953 0.423957 0.173953
0.202945 0.421698 0.202945
0.231937 0.41944 0.231937
0.260929 0.417182 0.260929
0.289921 0.414923 0.289921
0.318929 0.41268 0.318929
0.347921 0.410422 0.347921
0.376913 0.408164 0.376913
0.405905 0.405905 0.405905
0.434897 0.403647 0.434897
0.46389 0.401389 0.46389
0.492882 0.39913 0.492882
0.521874 0.396872 0.521874
0.550881 0.394629 0.550881
0.579873 0.39237 0.579873
0.608865 0.390112 0.608865
0.637858 0.387854 0.637858
0.66685 0.385595 0.66685
0.695842 0.383337 0.695842
0.724834 0.381079 0.724834
0.753841 0.378836 0.753841
0.782834 0.376577 0.782834
0.811826 0.374319 0.811826
0.840818 0.372061 0.840818
0.86981 0.369802 0.86981
0.898802 0.367544 0.898802
0.927794 0.365286 0.927794
0 0.468742 0
0.0289769 0.466484 0.0289769
0.057969 0.464225 0.057969
0.0869612 0.461967 0.0869612
0.115969 0.459724 0.115969
0.144961 0.457465 0.144961
0.173953 0.455207 0.173953
0.202945 0.452949 0.202945
0.231937 0.45069 0.231937
0.260929 0.448432 0.260929
0.289921 0.446174 0.289921
0.318929 0.443931 0.318929
0.347921 0.441672 0.347921
0.376913 0.439414 0.376913
0.405905 0.437156 0.405905
0.434897 0.434897 0.434897
0.46389 0.432639 0.46389
0.492882 0.430381 0.492882
0.521874 0.428122 0.521874
0.550881 0.425879 0.550881
0.579873 0.423621 0.579873
0.608865 0.421363 0.608865
0.637858 0.419104 0.637858
0.66685 0.416846 0.66685
0.695842 0.414588 0.695842
0.724834 0.412329 0.724834
0.753841 0.410086 0.753841
0.782834 0.407828 0.782834
0.811826 0.40557 0.811826
0.840818 0.403311 0.840818
0.86981 0.401053 0.86981
0.898802 0.398795 0.898802
0.927794 0.396536 0.927794
0 0.499992 0
0.0289769 0.497734 0.0289769
0.057969 0.495476 0.057969
0.0869612 0.493217 0.0869612
0.115969 0.490974 0.115969
0.144961 0.488716 0.144961
0.173953 0.486458 0.173953
0.202945 0.484199 0.202945
0.231937 0.481941 0.231937
0.260929 0.479683 0.260929
0.289921 0.477424 0.289921
0.318929 0.475181 0.318929
0.347921 0.472923 0.347921
0.376913 0.470665 0.376913
0.405905 0.468406 0.405905
0.434897 0.466148 0.434897
0.46389 0.46389 0.46389
0.492882 0.461631 0.492882
0.521874 0.459373 0.521874
0.550881 0.45713 0.550881
0.579873 0.454871 0.579873
0.608865 0.452613 0.608865
0.637858 0.450355 0.637858
0.66685 0.448096 0.66685
0.695842 0.445838 0.695842
0.724834 0.44358 0.724834
0.753841 0.441337 0.753841
0.782834 0.439078 0.782834
0.811826 0.43682 0.811826
0.840818 0.434562 0.840818
0.86981 0.432303 0.86981
0.898802 0.430045 0.898802
0.927794 0.427787 0.927794
0 0.531243 0
0.0289769 0.528984 0.0289769
0.057969 0.526726 0.057969
0.0869612 0.524468 0.0869612
0.115969 0.522225 0.115969
0.144961 0.519966 0.144961
0.173953 0.517708 0.173953
0.202945 0.51545 0.202945
0.231937 0.513191 0.231937
0.260929 0.510933 0.260929
0.289921 0.508675 0.289921
0.318929 0.506432 0.318929
0.347921 0.504173 0.347921
0.376913 0.501915 0.376913
0.405905 0.499657 0.405905
0.434897 0.497398 0.434897
0.46389 0.49514 0.46389
0.492882 0.492882 0.492882
0.521874 0.490623 0.521874
0.550881 0.48838 0.550881
0.579873 0.486122 0.579873
0.608865 0.483864 0.608865
0.637858 0.481605 0.637858
0.66685 0.479347 0.66685
0.695842 0.477089 0.695842
0.724834 0.47483 0.724834
0.753841 0.472587 0.753841
0.782834 0.470329 0.782834
0.811826 0.468071 0.811826
0.840818 0.465812 0.840818
0.86981 0.463554 0.86981
0.898802 0.461295 0.898802
0.927794 0.459037 0.927794
0 0.562493 0
0.0289769 0.560235 0.0289769
0.057969 0.557977 0.057969
0.0869612 0.555718 0.0869612
0.115969 0.553475 0.115969
0.144961 0.551217 0.144961
0.173953 0.548959 0.173953
0.202945 0.5467 0.202945
0.231937 0.544442 0.231937
0.260929 0.542184 0.260929
0.289921 0.539925 0.289921
0.318929 0.537682 0.318929
0.347921 0.535424 0.347921
0.376913 0.533165 0.376913
0.405905 0.530907 0.405905
0.434897 0.528649 0.434897
0.46389 0.52639 0.46389
0.492882 0.524132 0.492882
0.521874 0.521874 0.521874
0.550881 0.519631 0.550881
0.579873 0.517372 0.579873
0.608865 0.515114 0.608865
0.637858 0.512856 0.637858
0.66685 0.510597 0.66685
0.695842 0.508339 0.695842
0.724834 0.506081 0.724834
0.753841 0.503838 0.753841
0.782834 0.501579 0.782834
0.811826 0.499321 0.811826
0.840818 0.497063 0.840818
0.86981 0.494804 0.86981
0.898802 0.492546 0.898802
0.927794 0.490288 0.927794
0 0.593744 0
0.0289769 0.591485 0.0289769
0.057969 0.589227 0.057969
0.0869612 0.586969 0.0869612
0.115969 0.584726 0.115969
0.144961 0.582467 0.144961
0.173953 0.580209 0.173953
0.202945 0.577951 0.202945
0.231937 0.575692 0.231937
0.260929 0.573434 0.260929
0.289921 0.571176 0.289921
0.318929 0.568933 0.318929
0.347921 0.566674 0.347921
0.376913 0.564416 0.376913
0.405905 0.562158 0.405905
0.434897 0.559899 0.434897
0.46389 0.557641 0.46389
0.492882 0.555383 0.492882
0.521874 0.553124 0.521874
0.550881 0.550881 0.550881
0.579873 0.548623 0.579873
0.608865 0.546365 0.608865
0.637858 0.544106 0.637858
0.66685 0.541848 0.66685
0.695842 0.53959 0.695842
0.724834 0.537331 0.724834
0.753841 0.535088 0.753841
0.782834 0.53283 0.782834
0.811826 0.530571 0.811826
0.840818 0.528313 0.840818
0.86981 0.526055 0.86981
0.898802 0.523796 0.898802
0.927794 0.521538 0.927794
0 0.624994 0
0.0289769 0.622736 0.0289769
0.057969 0.620478 0.057969
0.0869612 0.618219 0.0869612
0.115969 0.615976 0.115969
0.144961 0.613718 0.144961
0.173953 0.61146 0.173953
0.202945 0.609201 0.202945
0.231937 0.606943 0.231937
0.260929 0.604685 0.260929
0.289921 0.602426 0.289921
0.318929 0.600183 0.318929
0.347921 0.597925 0.347921
0.376913 0.595666 0.376913
0.405905 0.593408 0.405905
0.434897 0.59115 0.434897
0.46389 0.588891 0.46389
0.492882 0.586633 0.492882
0.521874 0.584375 0.521874
0.550881 0.582132 0.550881
0.579873 0.579873 0.579873
0.608865 0.577615 0.608865
0.637858 0.575357 0.637858
0.66685 0.573098 0.66685
0.695842 0.57084 0.695842
0.724834 0.568582 0.724834
0.753841 0.566339 0.753841
0.782834 0.56408 0.782834
0.811826 0.561822 0.811826
0.840818 0.559564 0.840818
0.86981 0.557305 0.86981
0.898802 0.555047 0.898802
0.927794 0.552789 0.927794
0 0.656245 0
0.0289769 0.653986 0.0289769
0.057969 0.651728 0.057969
0.0869612 0.64947 0.0869612
0.115969 0.647227 0.115969
0.144961 0.644968 0.144961
0.173953 0.64271 0.173953
0.202945 0.640452 0.202945
0.231937 0.638193 0.231937
0.260929 0.635935 0.260929
0.289921 0.633677 0.289921
0.318929 0.631434 0.318929
0.347921 0.629175 0.347921
0.376913 0.626917 0.376913
0.405905 0.624659 0.405905
0.434897 0.6224 0.434897
0.46389 0.620142 0.46389
0.492882 0.617884 0.492882
0.521874 0.615625 0.521874
0.550881 0.613382 0.550881
0.579873 0.611124 0.579873
0.608865 0.608865 0.608865
0.637858 0.606607 0.637858
0.66685 0.604349 0.66685
0.695842 0.60209 0.695842
0.724834 0.599832 0.724834
0.753841 0.597589 0.753841
0.782834 0.595331 0.782834
0.811826 0.593072 0.811826
0.840818 0.590814 0.840818
0.86981 0.588556 0.86981
0.898802 0.586297 0.898802
0.927794 0.584039 0.927794
0 0.687495 0
0.0289769 0.685237 0.0289769
0.057969 0.682979 0.057969
0.0869612 0.68072 0.0869612
0.115969 0.678477 0.115969
0.144961 0.676219 0.144961
0.173953 0.673961 0.173953
0.202945 0.671702 0.202945
0.231937 0.669444 0.231937
0.260929 0.667185 0.260929
0.289921 0.664927 0.289921
0.318929 0.662684 0.318929
0.347921 0.660426 0.347921
0.376913 0.658167 0.376913
0.405905 0.655909 0.405905
0.434897 0.653651 0.434897
0.46389 0.651392 0.46389
0.492882 0.649134 0.492882
0.521874 0.646876 0.521874
0.550881 0.644633 0.550881
0.579873 0.642374 0.579873
0.608865 0.640116 0.608865
0.637858 0.637858 0.637858
0.66685 0.635599 0.66685
0.695842 0.633341 0.695842
0.724834 0.631083 0.724834
0.753841 0.62884 0.753841
0.782834 0.626581 0.782834
0.811826 0.624323 0.811826
0.840818 0.622065 0.840818
0.86981 0.619806 0.86981
0.898802 0.617548 0.898802
0.927794 0.61529 0.927794
0 0.718746 0
0.0289769 0.716487 0.0289769
0.057969 0.714229 0.057969
0.0869612 0.711971 0.0869612
0.115969 0.709728 0.115969
0.144961 0.707469 0.144961
0.173953 0.705211 0.173953
0.202945 0.702953 0.202945
0.231937 0.700694 0.231937
0.260929 0.698436 0.260929
0.289921 0.696178 0.289921
0.318929 0.693935 0.318929
0.347921 0.691676 0.347921
0.376913 0.689418 0.376913
0.405905 0.68716 0.405905
0.434897 0.684901 0.434897
0.46389 0.682643 0.46389
0.492882 0.680385 0.492882
0.521874 0.678126 0.521874
0.550881 0.675883 0.550881
0.579873 0.673625 0.579873
0.608865 0.671366 0.608865
0.637858 0.669108 0.637858
0.66685 0.66685 0.66685
0.695842 0.664591 0.695842
0.724834 0.662333 0.724834
0.753841 0.66009 0.753841
0.782834 0.657832 0.782834
0.811826 0.655573 0.811826
0.840818 0.653315 0.840818
0.86981 0.651057 0.86981
0.898802 0.648798 0.898802
0.927794 0.64654 0.927794
0 0.749996 0
0.0289769 0.747738 0.0289769
0.057969 0.74548 0.057969
0.0869612 0.743221 0.0869612
0.115969 0.740978 0.115969
0.144961 0.73872 0.144961
0.173953 0.736461 0.173953
0.202945 0.734203 0.202945
0.231937 0.731945 0.231937
0.260929 0.729686 0.260929
0.289921 0.727428 0.289921
0.318929 0.725185 0.318929
0.347921 0.722927 0.347921
0.376913 0.720668 0.376913
0.405905 0.71841 0.405905
0.434897 0.716152 0.434897
0.46389 0.713893 0.46389
0.492882 0.711635 0.492882
0.521874 0.709377 0.521874
0.550881 0.707134 0.550881
0.579873 0.704875 0.579873
0.608865 0.702617 0.608865
0.637858 0.700359 0.637858
0.66685 0.6981 0.66685
0.695842 0.695842 0.695842
0.724834 0.693584 0.724834
0.753841 0.691341 0.753841
0.782834 0.689082 0.782834
0.811826 0.686824 0.811826
0.840818 0.684565 0.840818
0.86981 0.682307 0.86981
0.898802 0.680049 0.898802
0.927794 0.677791 0.927794
0 0.781247 0
0.0289769 0.778988 0.0289769
0.057969 0.77673 0.057969
0.0869612 0.774472 0.0869612
0.115969 0.772229 0.115969
0.144961 0.76997 0.144961
0.173953 0.767712 0.173953
0.202945 0.765454 0.202945
0.231937 0.763195 0.231937
0.260929 0.760937 0.260929
0.289921 0.758679 0.289921
0.318929 0.756436 0.318929
0.347921 0.754177 0.347921
0.376913 0.751919 0.376913
0.405905 0.74966 0.405905
0.434897 0.747402 0.434897
0.46389 0.745144 0.46389
0.492882 0.742885 0.492882
0.521874 0.740627 0.521874
0.550881 0.738384 0.550881
0.579873 0.736126 0.579873
0.608865 0.733867 0.608865
0.637858 0.731609 0.637858
0.66685 0.729351 0.66685
0.695842 0.727092 0.695842
0.724834 0.724834 0.724834
0.753841 0.722591 0.753841
0.782834 0.720333 0.782834
0.811826 0.718074 0.811826
0.840818 0.715816 0.840818
0.86981 0.713558 0.86981
0.898802 0.711299 0.898802
0.927794 0.709041 0.927794
0 0.812497 0
0.0289769 0.810239 0.0289769
0.057969 0.80798 0.057969
0.0869612 0.805722 0.0869612
0.115969 0.803479 0.115969
0.144961 0.801221 0.144961
0.173953 0.798962 0.173953
0.202945 0.796704 0.202945
0.231937 0.794446 0.231937
0.260929 0.792187 0.260929
0.289921 0.789929 0.289921
0.318929 0.787686 0.318929
0.347921 0.785428 0.347921
0.376913 0.783169 0.376913
0.405905 0.780911 0.405905
0.434897 0.778653 0.434897
0.46389 0.776394 0.46389
0.492882 0.774136 0.492882
0.521874 0.771878 0.521874
0.550881 0.769635 0.550881
0.579873 0.767376 0.579873
0.608865 0.765118 0.608865
0.637858 0.76286 0.637858
0.66685 0.760601 0.66685
0.695842 0.758343 0.695842
0.724834 0.756085 0.724834
0.753841 0.753841 0.753841
0.782834 0.751583 0.782834
0.811826 0.749325 0.811826
0.840818 0.747066 0.840818
0.86981 0.744808 0.86981
0.898802 0.74255 0.898802
0.927794 0.740291 0.927794
0 0.843748 0
0.0289769 0.841489 0.0289769
0.057969 0.839231 0.057969
0.0869612 0.836973 0.0869612
0.115969 0.83473 0.115969
0.144961 0.832471 0.144961
0.173953 0.830213 0.173953
0.202945 0.827955 0.202945
0.231937 0.825696 0.231937
