src/luts/crop/13.cube
TITLE "Generated by Resolve"
LUT_3D_SIZE 9
0 0 0
0.115969 0 0.115969
0.231937 0 0.231937
0.347921 0 0.347921
0.46389 0 0.46389
0.579873 0 0.579873
0.695842 0 0.695842
0.811826 0 0.811826
0.927794 0 0.927794
0 0.124987 0
0.115969 0.115969 0.115969
0.231937 0.106935 0.231937
0.347921 0.0979171 0.347921
0.46389 0.0888838 0.46389
0.579873 0.0798657 0.579873
0.695842 0.0708324 0.695842
0.811826 0.0618143 0.811826
0.927794 0.052781 0.927794
0 0.249989 0
0.115969 0.24097 0.115969
0.231937 0.231937 0.231937
0.347921 0.222919 0.347921
0.46389 0.213886 0.46389
0.579873 0.204868 0.579873
0.695842 0.195834 0.695842
0.811826 0.186816 0.811826
0.927794 0.177783 0.927794
0 0.37499 0
0.115969 0.365972 0.115969
0.231937 0.356939 0.231937
0.347921 0.347921 0.347921
0.46389 0.338888 0.46389
0.579873 0.32987 0.579873
0.695842 0.320836 0.695842
0.811826 0.311818 0.811826
0.927794 0.302785 0.927794
0 0.499992 0
0.115969 0.490974 0.115969
0.231937 0.481941 0.231937
0.347921 0.472923 0.347921
0.46389 0.46389 0.46389
0.579873 0.454871 0.579873
0.695842 0.445838 0.695842
0.811826 0.43682 0.811826
0.927794 0.427787 0.927794
0 0.624994 0
0.115969 0.615976 0.115969
0.231937 0.606943 0.231937
0.347921 0.597925 0.347921
0.46389 0.588891 0.46389
0.579873 0.579873 0.579873
0.695842 0.57084 0.695842
0.811826 0.561822 0.811826
0.927794 0.552789 0.927794
0 0.749996 0
0.115969 0.740978 0.115969
0.231937 0.731945 0.231937
0.347921 0.722927 0.347921
0.46389 0.713893 0.46389
0.579873 0.704875 0.579873
0.695842 0.695842 0.695842
0.811826 0.686824 0.811826
0.927794 0.677791 0.927794
0 0.874998 0
0.115969 0.86598 0.115969
0.231937 0.856947 0.231937
0.347921 0.847929 0.347921
0.46389 0.838895 0.46389
0.579873 0.829877 0.579873
0.695842 0.820844 0.695842
0.811826 0.811826 0.811826
0.927794 0.802792 0.927794
0 1 0
0.115969 0.990982 0.115969
0.231937 0.981949 0.231937
0.347921 0.97293 0.347921
0.46389 0.963897 0.46389
0.579873 0.954879 0.579873
0.695842 0.945846 0.695842
0.811826 0.936828 0.811826
0.927794 0.927794 0.927794
0.00901808 0.00901808 0.00901808
0.124987 0 0.124987
0.24097 0 0.24097
0.356939 0 0.356939
0.472923 0 0.472923
0.588891 0 0.588891
0.704875 0 0.704875
0.820844 0 0.820844
0.936828 0 0.936828
0.00901808 0.134005 0.00901808
0.124987 0.124987 0.124987
0.24097 0.115969 0.24097
0.356939 0.106935 0.356939
0.472923 0.0979171 0.472923
0.588891 0.0888838 0.588891
0.704875 0.0798657 0.704875
0.820844 0.0708324 0.820844
0.936828 0.0618143 0.936828
0.00901808 0.259007 0.00901808
0.124987 0.249989 0.124987
0.24097 0.24097 0.24097
0.356939 0.231937 0.356939
0.472923 0.222919 0.472923
0.588891 0.213886 0.588891
0.704875 0.204868 0.704875
0.820844 0.195834 0.820844
0.936828 0.186816 0.936828
0.00901808 0.384009 0.00901808
0.124987 0.37499 0.124987
0.24097 0.365972 0.24097
0.356939 0.356939 0.356939
0.472923 0.347921 0.472923
0.588891 0.338888 0.588891
0.704875 0.32987 0.704875
0.820844 0.320836 0.820844
0.936828 0.311818 0.936828
0.00901808 0.50901 0.00901808
0.124987 0.499992 0.124987
0.24097 0.490974 0.24097
0.356939 0.481941 0.356939
0.472923 0.472923 0.472923
0.588891 0.46389 0.588891
0.704875 0.454871 0.704875
0.820844 0.445838 0.820844
0.936828 0.43682 0.936828
0.00901808 0.634012 0.00901808
0.124987 0.624994 0.124987
0.24097 0.615976 0.24097
0.356939 0.606943 0.356939
0.472923 0.597925 0.472923
0.588891 0.588891 0.588891
0.704875 0.579873 0.704875
0.820844 0.57084 0.820844
0.936828 0.561822 0.936828
0.00901808 0.759014 0.00901808
0.124987 0.749996 0.124987
0.24097 0.740978 0.24097
0.356939 0.731945 0.356939
0.472923 0.722927 0.472923
0.588891 0.713893 0.588891
0.704875 0.704875 0.704875
0.820844 0.695842 0.820844
0.936828 0.686824 0.936828
0.00901808 0.884016 0.00901808
0.124987 0.874998 0.124987
0.24097 0.86598 0.24097
0.356939 0.856947 0.356939
0.472923 0.847929 0.472923
0.588891 0.838895 0.588891
0.704875 0.829877 0.704875
0.820844 0.820844 0.820844
0.936828 0.811826 0.936828
0.00901808 1 0.00901808
0.124987 1 0.124987
0.24097 0.990982 0.24097
0.356939 0.981949 0.356939
0.472923 0.97293 0.472923
0.588891 0.963897 0.588891
0.704875 0.954879 0.704875
0.820844 0.945846 0.820844
0.936828 0.936828 0.936828
0.0180514 0.0180514 0.0180514
0.134005 0.00901808 0.134005
0.249989 0 0.249989
0.365972 0 0.365972
0.481941 0 0.481941
0.597925 0 0.597925
0.713893 0 0.713893
0.829877 0 0.829877
0.945846 0 0.945846
0.0180514 0.143038 0.0180514
0.134005 0.134005 0.134005
0.249989 0.124987 0.249989
0.365972 0.115969 0.365972
0.481941 0.106935 0.481941
0.597925 0.0979171 0.597925
0.713893 0.0888838 0.713893
0.829877 0.0798657 0.829877
0.945846 0.0708324 0.945846
0.0180514 0.26804 0.0180514
0.134005 0.259007 0.134005
0.249989 0.249989 0.249989
0.365972 0.24097 0.365972
0.481941 0.231937 0.481941
0.597925 0.222919 0.597925
0.713893 0.213886 0.713893
0.829877 0.204868 0.829877
0.945846 0.195834 0.945846
0.0180514 0.393042 0.0180514
0.134005 0.384009 0.134005
0.249989 0.37499 0.249989
0.365972 0.365972 0.365972
0.481941 0.356939 0.481941
0.597925 0.347921 0.597925
0.713893 0.338888 0.713893
0.829877 0.32987 0.829877
0.945846 0.320836 0.945846
0.0180514 0.518044 0.0180514
0.134005 0.50901 0.134005
0.249989 0.499992 0.249989
0.365972 0.490974 0.365972
0.481941 0.481941 0.481941
0.597925 0.472923 0.597925
0.713893 0.46389 0.713893
0.829877 0.454871 0.829877
0.945846 0.445838 0.945846
0.0180514 0.643046 0.0180514
0.134005 0.634012 0.134005
0.249989 0.624994 0.249989
0.365972 0.615976 0.365972
0.481941 0.606943 0.481941
0.597925 0.597925 0.597925
0.713893 0.588891 0.713893
0.829877 0.579873 0.829877
0.945846 0.57084 0.945846
0.0180514 0.768048 0.0180514
0.134005 0.759014 0.134005
0.249989 0.749996 0.249989
0.365972 0.740978 0.365972
0.481941 0.731945 0.481941
0.597925 0.722927 0.597925
0.713893 0.713893 0.713893
0.829877 0.704875 0.829877
0.945846 0.695842 0.945846
0.0180514 0.89305 0.0180514
0.134005 0.884016 0.134005
0.249989 0.874998 0.249989
0.365972 0.86598 0.365972
0.481941 0.856947 0.481941
0.597925 0.847929 0.597925
0.713893 0.838895 0.713893
0.829877 0.829877 0.829877
0.945846 0.820844 0.945846
0.0180514 1 0.0180514
0.134005 1 0.134005
0.249989 1 0.249989
0.365972 0.990982 0.365972
0.481941 0.981949 0.481941
0.597925 0.97293 0.597925
0.713893 0.963897 0.713893
0.829877 0.954879 0.829877
0.945846 0.945846 0.945846
0.0270695 0.0270695 0.0270695
0.143038 0.0180514 0.143038
0.259007 0.00901808 0.259007
0.37499 0 0.37499
0.490974 0 0.490974
0.606943 0 0.606943
0.722927 0 0.722927
0.838895 0 0.838895
0.954879 0 0.954879
0.0270695 0.152056 0.0270695
0.143038 0.143038 0.143038
0.259007 0.134005 0.259007
0.37499 0.124987 0.37499
0.490974 0.115969 0.490974
0.606943 0.106935 0.606943
0.722927 0.0979171 0.722927
0.838895 0.0888838 0.838895
0.954879 0.0798657 0.954879
0.0270695 0.277058 0.0270695
0.143038 0.26804 0.143038
0.259007 0.259007 0.259007
0.37499 0.249989 0.37499
0.490974 0.24097 0.490974
0.606943 0.231937 0.606943
0.722927 0.222919 0.722927
0.838895 0.213886 0.838895
0.954879 0.204868 0.954879
0.0270695 0.40206 0.0270695
0.143038 0.393042 0.143038
0.259007 0.384009 0.259007
0.37499 0.37499 0.37499
0.490974 0.365972 0.490974
0.606943 0.356939 0.606943
0.722927 0.347921 0.722927
0.838895 0.338888 0.838895
0.954879 0.32987 0.954879
0.0270695 0.527062 0.0270695
0.143038 0.518044 0.143038
0.259007 0.50901 0.259007
0.37499 0.499992 0.37499
0.490974 0.490974 0.490974
0.606943 0.481941 0.606943
0.722927 0.472923 0.722927
0.838895 0.46389 0.838895
0.954879 0.454871 0.954879
0.0270695 0.652064 0.0270695
0.143038 0.643046 0.143038
0.259007 0.634012 0.259007
0.37499 0.624994 0.37499
0.490974 0.615976 0.490974
0.606943 0.606943 0.606943
0.722927 0.597925 0.722927
0.838895 0.588891 0.838895
0.954879 0.579873 0.954879
0.0270695 0.777066 0.0270695
0.143038 0.768048 0.143038
0.259007 0.759014 0.259007
0.37499 0.749996 0.37499
0.490974 0.740978 0.490974
0.606943 0.731945 0.606943
0.722927 0.722927 0.722927
0.838895 0.713893 0.838895
0.954879 0.704875 0.954879
0.0270695 0.902068 0.0270695
0.143038 0.89305 0.143038
0.259007 0.884016 0.259007
0.37499 0.874998 0.37499
0.490974 0.86598 0.490974
0.606943 0.856947 0.606943
0.722927 0.847929 0.722927
0.838895 0.838895 0.838895
0.954879 0.829877 0.954879
0.0270695 1 0.0270695
0.143038 1 0.143038
0.259007 1 0.259007
0.37499 1 0.37499
0.490974 0.990982 0.490974
0.606943 0.981949 0.606943
0.722927 0.97293 0.722927
0.838895 0.963897 0.838895
0.954879 0.954879 0.954879
0.0361028 0.0361028 0.0361028
0.152056 0.0270695 0.152056
0.26804 0.0180514 0.26804
0.384009 0.00901808 0.384009
0.499992 0 0.499992
0.615976 0 0.615976
0.731945 0 0.731945
0.847929 0 0.847929
0.963897 0 0.963897
0.0361028 0.161089 0.0361028
0.152056 0.152056 0.152056
0.26804 0.143038 0.26804
0.384009 0.134005 0.384009
0.499992 0.124987 0.499992
0.615976 0.115969 0.615976
0.731945 0.106935 0.731945
0.847929 0.0979171 0.847929
0.963897 0.0888838 0.963897
0.0361028 0.286091 0.0361028
0.152056 0.277058 0.152056
0.26804 0.26804 0.26804
0.384009 0.259007 0.384009
0.499992 0.249989 0.499992
0.615976 0.24097 0.615976
0.731945 0.231937 0.731945
0.847929 0.222919 0.847929
0.963897 0.213886 0.963897
0.0361028 0.411093 0.0361028
0.152056 0.40206 0.152056
0.26804 0.393042 0.26804
0.384009 0.384009 0.384009
0.499992 0.37499 0.499992
0.615976 0.365972 0.615976
0.731945 0.356939 0.731945
0.847929 0.347921 0.847929
0.963897 0.338888 0.963897
0.0361028 0.536095 0.0361028
0.152056 0.527062 0.152056
0.26804 0.518044 0.26804
0.384009 0.50901 0.384009
0.499992 0.499992 0.499992
0.615976 0.490974 0.615976
0.731945 0.481941 0.731945
0.847929 0.472923 0.847929
0.963897 0.46389 0.963897
0.0361028 0.661097 0.0361028
0.152056 0.652064 0.152056
0.26804 0.643046 0.26804
0.384009 0.634012 0.384009
0.499992 0.624994 0.499992
0.615976 0.615976 0.615976
0.731945 0.606943 0.731945
0.847929 0.597925 0.847929
0.963897 0.588891 0.963897
0.0361028 0.786099 0.0361028
0.152056 0.777066 0.152056
0.26804 0.768048 0.26804
0.384009 0.759014 0.384009
0.499992 0.749996 0.499992
0.615976 0.740978 0.615976
0.731945 0.731945 0.731945
0.847929 0.722927 0.847929
0.963897 0.713893 0.963897
0.0361028 0.911101 0.0361028
0.152056 0.902068 0.152056
0.26804 0.89305 0.26804
0.384009 0.884016 0.384009
0.499992 0.874998 0.499992
0.615976 0.86598 0.615976
0.731945 0.856947 0.731945
0.847929 0.847929 0.847929
0.963897 0.838895 0.963897
0.0361028 1 0.0361028
0.152056 1 0.152056
0.26804 1 0.26804
0.384009 1 0.384009
0.499992 1 0.499992
0.615976 0.990982 0.615976
0.731945 0.981949 0.731945
0.847929 0.97293 0.847929
0.963897 0.963897 0.963897
0.0451209 0.0451209 0.0451209
0.161089 0.0361028 0.161089
0.277058 0.0270695 0.277058
0.393042 0.0180514 0.393042
0.50901 0.00901808 0.50901
0.624994 0 0.624994
0.740978 0 0.740978
0.856947 0 0.856947
0.97293 0 0.97293
0.0451209 0.170108 0.0451209
0.161089 0.161089 0.161089
0.277058 0.152056 0.277058
0.393042 0.143038 0.393042
0.50901 0.134005 0.50901
0.624994 0.124987 0.624994
0.740978 0.115969 0.740978
0.856947 0.106935 0.856947
0.97293 0.0979171 0.97293
0.0451209 0.295109 0.0451209
0.161089 0.286091 0.161089
0.277058 0.277058 0.277058
0.393042 0.26804 0.393042
0.50901 0.259007 0.50901
0.624994 0.249989 0.624994
0.740978 0.24097 0.740978
0.856947 0.231937 0.856947
0.97293 0.222919 0.97293
0.0451209 0.420111 0.0451209
0.161089 0.411093 0.161089
0.277058 0.40206 0.277058
0.393042 0.393042 0.393042
0.50901 0.384009 0.50901
0.624994 0.37499 0.624994
0.740978 0.365972 0.740978
0.856947 0.356939 0.856947
0.97293 0.347921 0.97293
0.0451209 0.545113 0.0451209
0.161089 0.536095 0.161089
0.277058 0.527062 0.277058
0.393042 0.518044 0.393042
0.50901 0.50901 0.50901
0.624994 0.499992 0.624994
0.740978 0.490974 0.740978
0.856947 0.481941 0.856947
0.97293 0.472923 0.97293
0.0451209 0.670115 0.0451209
0.161089 0.661097 0.161089
0.277058 0.652064 0.277058
0.393042 0.643046 0.393042
0.50901 0.634012 0.50901
0.624994 0.624994 0.624994
0.740978 0.615976 0.740978
0.856947 0.606943 0.856947
0.97293 0.597925 0.97293
0.0451209 0.795117 0.0451209
0.161089 0.786099 0.161089
0.277058 0.777066 0.277058
0.393042 0.768048 0.393042
0.50901 0.759014 0.50901
0.624994 0.749996 0.624994
0.740978 0.740978 0.740978
0.856947 0.731945 0.856947
0.97293 0.722927 0.97293
0.0451209 0.920119 0.0451209
0.161089 0.911101 0.161089
0.277058 0.902068 0.277058
0.393042 0.89305 0.393042
0.50901 0.884016 0.50901
0.624994 0.874998 0.624994
0.740978 0.86598 0.740978
0.856947 0.856947 0.856947
0.97293 0.847929 0.97293
0.0451209 1 0.0451209
0.161089 1 0.161089
0.277058 1 0.277058
0.393042 1 0.393042
0.50901 1 0.50901
0.624994 1 0.624994
0.740978 0.990982 0.740978
0.856947 0.981949 0.856947
0.97293 0.97293 0.97293
0.0541543 0.0541543 0.0541543
0.170108 0.0451209 0.170108
0.286091 0.0361028 0.286091
0.40206 0.0270695 0.40206
0.518044 0.0180514 0.518044
0.634012 0.00901808 0.634012
0.749996 0 0.749996
0.86598 0 0.86598
0.981949 0 0.981949
0.0541543 0.179141 0.0541543
0.170108 0.170108 0.170108
0.286091 0.161089 0.286091
0.40206 0.152056 0.40206
0.518044 0.143038 0.518044
0.634012 0.134005 0.634012
0.749996 0.124987 0.749996
0.86598 0.115969 0.86598
0.981949 0.106935 0.981949
0.0541543 0.304143 0.0541543
0.170108 0.295109 0.170108
0.286091 0.286091 0.286091
0.40206 0.277058 0.40206
0.518044 0.26804 0.518044
0.634012 0.259007 0.634012
0.749996 0.249989 0.749996
0.86598 0.24097 0.86598
0.981949 0.231937 0.981949
0.0541543 0.429145 0.0541543
0.170108 0.420111 0.170108
0.286091 0.411093 0.286091
0.40206 0.40206 0.40206
0.518044 0.393042 0.518044
0.634012 0.384009 0.634012
0.749996 0.37499 0.749996
0.86598 0.365972 0.86598
0.981949 0.356939 0.981949
0.0541543 0.554147 0.0541543
0.170108 0.545113 0.170108
0.286091 0.536095 0.286091
0.40206 0.527062 0.40206
0.518044 0.518044 0.518044
0.634012 0.50901 0.634012
0.749996 0.499992 0.749996
0.86598 0.490974 0.86598
0.981949 0.481941 0.981949
0.0541543 0.679149 0.0541543
0.170108 0.670115 0.170108
0.286091 0.661097 0.286091
0.40206 0.652064 0.40206
0.518044 0.643046 0.518044
0.634012 0.634012 0.634012
0.749996 0.624994 0.749996
0.86598 0.615976 0.86598
0.981949 0.606943 0.981949
0.0541543 0.80415 0.0541543
0.170108 0.795117 0.170108
0.286091 0.786099 0.286091
0.40206 0.777066 0.40206
0.518044 0.768048 0.518044
0.634012 0.759014 0.634012
0.749996 0.749996 0.749996
0.86598 0.740978 0.86598
0.981949 0.731945 0.981949
0.0541543 0.929152 0.0541543
0.170108 0.920119 0.170108
0.286091 0.911101 0.286091
0.40206 0.902068 0.40206
0.518044 0.89305 0.518044
0.634012 0.884016 0.634012
0.749996 0.874998 0.749996
0.86598 0.86598 0.86598
0.981949 0.856947 0.981949
0.0541543 1 0.0541543
0.170108 1 0.170108
0.286091 1 0.286091
0.40206 1 0.40206
0.518044 1 0.518044
0.634012 1 0.634012
0.749996 1 0.749996
0.86598 0.990982 0.86598
0.981949 0.981949 0.981949
0.0631723 0.0631723 0.0631723
0.179141 0.0541543 0.179141
0.295109 0.0451209 0.295109
0.411093 0.0361028 0.411093
0.527062 0.0270695 0.527062
0.643046 0.0180514 0.643046
0.759014 0.00901808 0.759014
0.874998 0 0.874998
0.990982 0 0.990982
0.0631723 0.188159 0.0631723
0.179141 0.179141 0.179141
0.295109 0.170108 0.295109
0.411093 0.161089 0.411093
0.527062 0.152056 0.527062
0.643046 0.143038 0.643046
0.759014 0.134005 0.759014
0.874998 0.124987 0.874998
0.990982 0.115969 0.990982
0.0631723 0.313161 0.0631723
0.179141 0.304143 0.179141
0.295109 0.295109 0.295109
0.411093 0.286091 0.411093
0.527062 0.277058 0.527062
0.643046 0.26804 0.643046
0.759014 0.259007 0.759014
0.874998 0.249989 0.874998
0.990982 0.24097 0.990982
0.0631723 0.438163 0.0631723
0.179141 0.429145 0.179141
0.295109 0.420111 0.295109
0.411093 0.411093 0.411093
0.527062 0.40206 0.527062
0.643046 0.393042 0.643046
0.759014 0.384009 0.759014
0.874998 0.37499 0.874998
0.990982 0.365972 0.990982
0.0631723 0.563165 0.0631723
0.179141 0.554147 0.179141
0.295109 0.545113 0.295109
0.411093 0.536095 0.411093
0.527062 0.527062 0.527062
0.643046 0.518044 0.643046
0.759014 0.50901 0.759014
0.874998 0.499992 0.874998
0.990982 0.490974 0.990982
0.0631723 0.688167 0.0631723
0.179141 0.679149 0.179141
0.295109 0.670115 0.295109
0.411093 0.661097 0.411093
0.527062 0.652064 0.527062
0.643046 0.643046 0.643046
0.759014 0.634012 0.759014
0.874998 0.624994 0.874998
0.990982 0.615976 0.990982
0.0631723 0.813169 0.0631723
0.179141 0.80415 0.179141
0.295109 0.795117 0.295109
0.411093 0.786099 0.411093
0.527062 0.777066 0.527062
0.643046 0.768048 0.643046
0.759014 0.759014 0.759014
0.874998 0.749996 0.874998
0.990982 0.740978 0.990982
0.0631723 0.93817 0.0631723
0.179141 0.929152 0.179141
0.295109 0.920119 0.295109
0.411093 0.911101 0.411093
0.527062 0.902068 0.527062
0.643046 0.89305 0.643046
0.759014 0.884016 0.759014
0.874998 0.874998 0.874998
0.990982 0.86598 0.990982
0.0631723 1 0.0631723
0.179141 1 0.179141
0.295109 1 0.295109
0.411093 1 0.411093
0.527062 1 0.527062
0.643046 1 0.643046
0.759014 1 0.759014
0.874998 1 0.874998
0.990982 0.990982 0.990982
0.0722057 0.0722057 0.0722057
0.188159 0.0631723 0.188159
0.304143 0.0541543 0.304143
0.420111 0.0451209 0.420111
0.536095 0.0361028 0.536095
0.652064 0.0270695 0.652064
0.768048 0.0180514 0.768048
0.884016 0.00901808 0.884016
1 0 1
0.0722057 0.197192 0.0722057
0.188159 0.188159 0.188159
0.304143 0.179141 0.304143
0.420111 0.170108 0.420111
0.536095 0.161089 0.536095
0.652064 0.152056 0.652064
0.768048 0.143038 0.768048
0.884016 0.134005 0.884016
1 0.124987 1
0.0722057 0.322194 0.0722057
0.188159 0.313161 0.188159
0.304143 0.304143 0.304143
0.420111 0.295109 0.420111
0.536095 0.286091 0.536095
0.652064 0.277058 0.652064
0.768048 0.26804 0.768048
0.884016 0.259007 0.884016
1 0.249989 1
0.0722057 0.447196 0.0722057
0.188159 0.438163 0.188159
0.304143 0.429145 0.304143
0.420111 0.420111 0.420111
0.536095 0.411093 0.536095
0.652064 0.40206 0.652064
0.768048 0.393042 0.768048
0.884016 0.384009 0.884016
1 0.37499 1
0.0722057 0.572198 0.0722057
0.188159 0.563165 0.188159
0.304143 0.554147 0.304143
0.420111 0.545113 0.420111
0.536095 0.536095 0.536095
0.652064 0.527062 0.652064
0.768048 0.518044 0.768048
0.884016 0.50901 0.884016
1 0.499992 1
0.0722057 0.6972 0.0722057
0.188159 0.688167 0.188159
0.304143 0.679149 0.304143
0.420111 0.670115 0.420111
0.536095 0.661097 0.536095
0.652064 0.652064 0.652064
0.768048 0.643046 0.768048
0.884016 0.634012 0.884016
1 0.624994 1
0.0722057 0.822202 0.0722057
0.188159 0.813169 0.188159
0.304143 0.80415 0.304143
0.420111 0.795117 0.420111
0.536095 0.786099 0.536095
0.652064 0.777066 0.652064
0.768048 0.768048 0.768048
0.884016 0.759014 0.884016
1 0.749996 1
0.0722057 0.947204 0.0722057
0.188159 0.93817 0.188159
0.304143 0.929152 0.304143
0.420111 0.920119 0.420111
0.536095 0.911101 0.536095
0.652064 0.902068 0.652064
0.768048 0.89305 0.768048
0.884016 0.884016 0.884016
1 0.874998 1
0.0722057 1 0.0722057
0.188159 1 0.188159
0.304143 1 0.304143
0.420111 1 0.420111
0.536095 1 0.536095
0.652064 1 0.652064
0.768048 1 0.768048
0.884016 1 0.884016
1 1 1
