src/luts/crop/14.cube
TITLE "Generated by Resolve"
LUT_3D_SIZE 5
0 0 0.202335
0.271595 0 0.193393
0.63975 0 0.161486
1 0 0.119417
1 0 0.0703899
0 0.23473 0.175692
0.244968 0.225788 0.166766
0.613123 0.193881 0.134859
1 0.151812 0.0927901
1 0.102785 0.0437629
0 0.482521 0.181247
0.250507 0.473579 0.172305
0.618662 0.441688 0.140398
1 0.399603 0.0983291
1 0.350591 0.0493019
0 0.726589 0.19617
0.265431 0.717647 0.187228
0.633585 0.68574 0.155322
1 0.643671 0.113252
1 0.594644 0.0642252
0.00282292 0.968429 0.216648
0.285924 0.959487 0.207706
0.654078 0.927596 0.175814
1 0.885512 0.13373
1 0.8365 0.0847028
0 0 0.306249
0.282963 0 0.297307
0.651118 0 0.265415
1 0 0.223331
1 0 0.174304
0 0.246098 0.279622
0.256336 0.237156 0.27068
0.624491 0.205249 0.238773
1 0.16318 0.196704
1 0.114153 0.147677
0 0.493889 0.285161
0.261875 0.484947 0.276219
0.63003 0.453056 0.244327
1 0.410971 0.202243
1 0.361944 0.153216
0 0.737957 0.300084
0.276799 0.729015 0.291142
0.644953 0.697108 0.259236
1 0.655039 0.217166
1 0.606012 0.168139
0.0141909 0.979797 0.320562
0.297292 0.970855 0.311635
0.665446 0.938964 0.279728
1 0.89688 0.237659
1 0.847852 0.188632
0.0102998 0 0.422385
0.293385 0 0.413443
0.66154 0 0.381537
1 0 0.339467
1 0 0.29044
0 0.256504 0.395743
0.266758 0.247578 0.386816
0.634913 0.215671 0.35491
1 0.173602 0.31284
1 0.124575 0.263813
0 0.504311 0.401297
0.272297 0.495369 0.392355
0.640452 0.463462 0.360449
1 0.421393 0.318379
1 0.372366 0.269352
0.0041352 0.748363 0.41622
0.287221 0.739437 0.407279
0.655375 0.70753 0.375372
1 0.665461 0.333303
1 0.616434 0.284276
0.0246128 0.990219 0.436698
0.307698 0.981277 0.427756
0.675853 0.949386 0.395865
1 0.907301 0.35378
1 0.858274 0.304753
0.019852 0.00547799 0.549493
0.302953 0 0.540551
0.671107 0 0.508644
1 0 0.466575
1 0 0.417548
0 0.266072 0.52285
0.276326 0.257145 0.513924
0.64448 0.225238 0.482017
1 0.183154 0.439948
1 0.134142 0.390921
0 0.513878 0.528405
0.281865 0.504936 0.519463
0.650019 0.47303 0.487556
1 0.430961 0.445487
1 0.381933 0.39646
0.0136873 0.757931 0.543313
0.296788 0.749004 0.534386
0.664942 0.717098 0.50248
1 0.675013 0.46041
1 0.626001 0.411383
0.0341802 0.999786 0.563806
0.317266 0.990845 0.554864
0.68542 0.958938 0.522972
1 0.916869 0.480888
1 0.867842 0.431861
0.0286412 0.0142672 0.686656
0.311727 0.0053254 0.677714
0.679881 0 0.645823
1 0 0.603738
1 0 0.554711
0.00201419 0.274861 0.660029
0.2851 0.265919 0.651087
0.653254 0.234012 0.619181
1 0.191943 0.577111
1 0.142916 0.528084
0.00755322 0.522652 0.665568
0.290639 0.51371 0.656626
0.658793 0.481819 0.624735
1 0.439734 0.58265
1 0.390707 0.533623
0.0224765 0.76672 0.680491
0.305562 0.757778 0.67155
0.673716 0.725872 0.639643
1 0.683803 0.597574
1 0.634775 0.548547
0.0429541 1 0.700969
0.326055 0.999619 0.692042
0.694209 0.967727 0.660136
1 0.925643 0.618067
1 0.876616 0.569039
