src/luts/crop/14.cube
TITLE "Generated by Resolve"
LUT_3D_SIZE 9
0 0 0.202335
0.111833 0 0.202777
0.271595 0 0.193393
0.449699 0 0.179065
0.63975 0 0.161486
0.838941 0 0.141466
1 0 0.119417
1 0 0.0956588
1 0 0.0703899
0 0.107897 0.180301
0.0897993 0.108339 0.180743
0.249561 0.0989548 0.171359
0.427665 0.0846265 0.157015
0.617716 0.0670634 0.139452
0.816907 0.0470283 0.119432
1 0.024979 0.0973831
1 0.00122072 0.0736248
1 0 0.0483558
0 0.23473 0.175692
0.0852064 0.235172 0.17615
0.244968 0.225788 0.166766
0.423056 0.21146 0.152422
0.613123 0.193881 0.134859
0.812314 0.173861 0.114824
1 0.151812 0.0927901
1 0.128054 0.0690166
1 0.102785 0.0437629
0 0.359274 0.176867
0.0863661 0.359716 0.17731
0.246128 0.350332 0.167926
0.424231 0.335988 0.153582
0.614282 0.318425 0.136019
0.813474 0.29839 0.115999
1 0.276356 0.0939498
1 0.252598 0.0701915
1 0.227329 0.0449226
0 0.482521 0.181247
0.0907454 0.482979 0.181689
0.250507 0.473579 0.172305
0.428611 0.459251 0.157977
0.618662 0.441688 0.140398
0.817853 0.421653 0.120378
1 0.399603 0.0983291
1 0.375845 0.0745708
1 0.350591 0.0493019
0 0.604898 0.187854
0.0973526 0.605341 0.188296
0.25713 0.595956 0.178912
0.435218 0.581628 0.164584
0.625284 0.56405 0.147021
0.824475 0.54403 0.126986
1 0.521981 0.104936
1 0.498222 0.081178
1 0.472953 0.0559091
0 0.726589 0.19617
0.105669 0.727031 0.196612
0.265431 0.717647 0.187228
0.443519 0.703319 0.172885
0.633585 0.68574 0.155322
0.832776 0.665721 0.135286
1 0.643671 0.113252
1 0.619913 0.0894942
1 0.594644 0.0642252
0 0.84773 0.205829
0.115343 0.848188 0.206287
0.275105 0.838804 0.196902
0.453193 0.82446 0.182559
0.643259 0.806897 0.164996
0.842451 0.786862 0.144961
1 0.764828 0.122927
1 0.741054 0.0991531
1 0.715801 0.0738994
0.00282292 0.968429 0.216648
0.126146 0.968887 0.217105
0.285924 0.959487 0.207706
0.464012 0.945159 0.193378
0.654078 0.927596 0.175814
0.853269 0.907561 0.155779
1 0.885512 0.13373
1 0.861753 0.109972
1 0.8365 0.0847028
0 0 0.252659
0.117647 0 0.253117
0.277409 0 0.243732
0.455497 0 0.229389
0.645563 0 0.211826
0.844755 0 0.191791
1 0 0.169757
1 0 0.145983
1 0 0.120729
0 0.11371 0.230625
0.095613 0.114153 0.231083
0.255375 0.104768 0.221683
0.433463 0.0904402 0.207355
0.623529 0.0728618 0.189792
0.822721 0.052842 0.169757
1 0.0307927 0.147707
1 0.00703441 0.123949
1 0 0.0986954
0 0.240543 0.226032
0.0910201 0.240986 0.22649
0.250782 0.231601 0.21709
0.42887 0.217258 0.202762
0.618936 0.199695 0.185199
0.818128 0.179675 0.165164
1 0.157626 0.143114
1 0.133867 0.119356
1 0.108598 0.0940871
0 0.365072 0.227192
0.0921798 0.36553 0.227649
0.251942 0.356146 0.21825
0.43003 0.341802 0.203922
0.620096 0.324239 0.186358
0.819287 0.304204 0.166323
1 0.282155 0.144274
1 0.258396 0.120516
1 0.233143 0.0952621
0 0.488334 0.231571
0.0965591 0.488777 0.232029
0.256321 0.479393 0.222644
0.434409 0.465064 0.208301
0.624475 0.447501 0.190738
0.823667 0.427466 0.170703
1 0.405417 0.148669
1 0.381659 0.124895
1 0.35639 0.0996414
0 0.610697 0.238193
0.103166 0.611154 0.238636
0.262928 0.60177 0.229252
0.441032 0.587427 0.214923
0.631083 0.569863 0.197345
0.830274 0.549828 0.177325
1 0.527794 0.155276
1 0.504021 0.131518
1 0.478767 0.106249
0 0.732403 0.246494
0.111482 0.732845 0.246952
0.271244 0.723461 0.237552
0.449332 0.709117 0.223224
0.639399 0.691554 0.205661
0.83859 0.671519 0.185626
1 0.649485 0.163577
1 0.625727 0.139818
1 0.600458 0.114549
0 0.853544 0.256168
0.121157 0.854002 0.256626
0.280919 0.844602 0.247227
0.459007 0.830274 0.232898
0.649073 0.812711 0.215335
0.848264 0.792676 0.1953
1 0.770626 0.173251
1 0.746868 0.149493
1 0.721599 0.124224
0.00863661 0.974243 0.266987
0.13196 0.974685 0.26743
0.291737 0.965301 0.258045
0.469825 0.950973 0.243717
0.659892 0.93341 0.226139
0.859068 0.913375 0.206119
1 0.891325 0.18407
1 0.867567 0.160311
1 0.842298 0.135042
0 0 0.306249
0.123201 0 0.306691
0.282963 0 0.297307
0.461067 0 0.282979
0.651118 0 0.265415
0.850309 0 0.24538
1 0 0.223331
1 0 0.199573
1 0 0.174304
0 0.119265 0.284215
0.101167 0.119707 0.284657
0.260929 0.110323 0.275273
0.439017 0.0959945 0.260945
0.629084 0.0784314 0.243366
0.828275 0.0583963 0.223346
1 0.036347 0.201297
1 0.0125887 0.177539
1 0 0.15227
0 0.246098 0.279622
0.0965744 0.24654 0.280064
0.256336 0.237156 0.27068
0.434424 0.222827 0.256352
0.624491 0.205249 0.238773
0.823682 0.185229 0.218753
1 0.16318 0.196704
1 0.139422 0.172946
1 0.114153 0.147677
0 0.370626 0.280781
0.097734 0.371084 0.281224
0.257496 0.3617 0.271839
0.435599 0.347356 0.257511
0.62565 0.329793 0.239933
0.824842 0.309758 0.219913
1 0.287724 0.197864
1 0.263951 0.174105
1 0.238697 0.148836
0 0.493889 0.285161
0.102113 0.494347 0.285603
0.261875 0.484947 0.276219
0.439979 0.470619 0.261891
0.63003 0.453056 0.244327
0.829221 0.433021 0.224292
1 0.410971 0.202243
1 0.387213 0.178485
1 0.361944 0.153216
0 0.616266 0.291768
0.108721 0.616709 0.292226
0.268498 0.607324 0.282841
0.446586 0.592981 0.268498
0.636652 0.575418 0.250935
0.835828 0.555398 0.2309
1 0.533349 0.20885
1 0.50959 0.185092
1 0.484321 0.159838
0 0.737957 0.300084
0.117037 0.738399 0.300526
0.276799 0.729015 0.291142
0.454887 0.714687 0.276814
0.644953 0.697108 0.259236
0.844144 0.677089 0.239216
1 0.655039 0.217166
1 0.631281 0.193408
1 0.606012 0.168139
0.0033875 0.859098 0.309758
0.126711 0.859556 0.310201
0.286473 0.850172 0.300816
0.464561 0.835828 0.286488
0.654627 0.818265 0.26891
0.853819 0.79823 0.24889
1 0.776196 0.226841
1 0.752422 0.203082
1 0.727169 0.177813
0.0141909 0.979797 0.320562
0.137514 0.980255 0.321019
0.297292 0.970855 0.311635
0.47538 0.956527 0.297292
0.665446 0.938964 0.279728
0.864637 0.918929 0.259693
1 0.89688 0.237659
1 0.873121 0.213886
1 0.847852 0.188632
0.00520333 0 0.362875
0.128527 0 0.363317
0.288289 0 0.353933
0.466377 0 0.339605
0.656443 0 0.322042
0.855634 0 0.302007
1 0 0.279957
1 0 0.256199
1 0 0.23093
0 0.12459 0.340841
0.106493 0.125032 0.341283
0.266255 0.115648 0.331899
0.444343 0.101305 0.317571
0.634409 0.0837415 0.299992
0.8336 0.0637217 0.279973
1 0.0416724 0.257923
1 0.0179141 0.234165
1 0 0.208896
0 0.251408 0.336248
0.101884 0.251865 0.33669
0.261662 0.242481 0.327306
0.43975 0.228138 0.312978
0.629816 0.210575 0.295399
0.829007 0.190539 0.27538
1 0.168505 0.25333
1 0.144732 0.229572
1 0.119478 0.204303
0 0.375952 0.337407
0.103059 0.37641 0.33785
0.262821 0.36701 0.328466
0.440909 0.352682 0.314137
0.630976 0.335119 0.296574
0.830167 0.315084 0.276539
1 0.293034 0.25449
1 0.269276 0.230732
1 0.244022 0.205463
0 0.499214 0.341787
0.107439 0.499657 0.342229
0.267201 0.490272 0.332845
0.445289 0.475944 0.318517
0.635355 0.458366 0.300954
0.834546 0.438346 0.280919
1 0.416297 0.258869
1 0.392538 0.235111
1 0.367269 0.209842
0 0.621576 0.348394
0.114046 0.622034 0.348852
0.273808 0.61265 0.339467
0.451911 0.598306 0.325124
0.641962 0.580743 0.307561
0.841154 0.560708 0.287526
1 0.538659 0.265492
1 0.5149 0.241718
1 0.489647 0.216464
0 0.743267 0.35671
0.122347 0.743725 0.357153
0.282124 0.73434 0.347768
0.460212 0.719997 0.33344
0.650278 0.702434 0.315862
0.84947 0.682399 0.295842
1 0.660365 0.273793
1 0.636591 0.250034
1 0.611337 0.224765
0.0087129 0.864424 0.366384
0.132021 0.864866 0.366827
0.291798 0.855482 0.357443
0.469886 0.841154 0.343114
0.659953 0.82359 0.325536
0.859144 0.803555 0.305516
1 0.781506 0.283467
1 0.757748 0.259709
1 0.732479 0.23444
0.0195163 0.985122 0.377188
0.14284 0.985565 0.377646
0.302602 0.976181 0.368261
0.480705 0.961852 0.353918
0.670756 0.944274 0.336355
0.869947 0.924254 0.31632
1 0.902205 0.294286
1 0.878447 0.270512
1 0.853178 0.245258
0.0102998 0 0.422385
0.133623 0 0.422827
0.293385 0 0.413443
0.471473 0 0.399115
0.66154 0 0.381537
0.860731 0 0.361517
1 0 0.339467
1 0 0.315709
1 0 0.29044
0 0.129686 0.400351
0.111589 0.130129 0.400793
0.271351 0.120745 0.391409
0.449439 0.106401 0.377066
0.639506 0.088838 0.359503
0.838697 0.0688182 0.339483
1 0.0467689 0.317433
1 0.0230106 0.293675
1 0 0.268406
0 0.256504 0.395743
0.106981 0.256962 0.396201
0.266758 0.247578 0.386816
0.444846 0.233234 0.372473
0.634913 0.215671 0.35491
0.834104 0.195636 0.334874
1 0.173602 0.31284
1 0.149828 0.289067
1 0.124575 0.263813
0 0.381048 0.396918
0.108156 0.381506 0.39736
0.267918 0.372107 0.387976
0.446006 0.357778 0.373632
0.636072 0.340215 0.356069
0.835264 0.32018 0.336049
1 0.298131 0.314
1 0.274372 0.290242
1 0.249119 0.264973
0 0.504311 0.401297
0.112535 0.504753 0.40174
0.272297 0.495369 0.392355
0.450385 0.481041 0.378027
0.640452 0.463462 0.360449
0.839643 0.443442 0.340429
1 0.421393 0.318379
1 0.397635 0.294621
1 0.372366 0.269352
0 0.626673 0.407904
0.119142 0.627131 0.408347
0.278904 0.617746 0.398962
0.457008 0.603403 0.384634
0.647059 0.58584 0.367071
0.84625 0.565805 0.347036
1 0.54377 0.324987
1 0.519997 0.301228
1 0.494743 0.275959
0.0041352 0.748363 0.41622
0.127459 0.748821 0.416663
0.287221 0.739437 0.407279
0.465309 0.725093 0.392935
0.655375 0.70753 0.375372
0.854566 0.687495 0.355337
1 0.665461 0.333303
1 0.641688 0.309545
1 0.616434 0.284276
0.0138094 0.86952 0.425879
0.137118 0.869963 0.426337
0.296895 0.860578 0.416953
0.474983 0.84625 0.402609
0.665049 0.828687 0.385046
0.86424 0.808652 0.365011
1 0.786603 0.342977
1 0.762844 0.319203
1 0.737575 0.29395
0.0246128 0.990219 0.436698
0.147936 0.990662 0.437156
0.307698 0.981277 0.427756
0.485801 0.966949 0.413428
0.675853 0.949386 0.395865
0.875044 0.929351 0.37583
1 0.907301 0.35378
1 0.883543 0.330022
1 0.858274 0.304753
0.0151827 0.000808728 0.484627
0.138506 0.00125124 0.485069
0.298268 0 0.475685
0.476356 0 0.461357
0.666423 0 0.443793
0.865614 0 0.423758
1 0 0.401709
1 0 0.377951
1 0 0.352682
0 0.134569 0.462593
0.116472 0.135012 0.463035
0.276234 0.125628 0.453651
0.454322 0.111299 0.439323
0.644388 0.0937209 0.421744
0.84358 0.0737011 0.401724
1 0.0516518 0.379675
1 0.0278935 0.355917
1 0.00262455 0.330648
0 0.261402 0.458
0.111879 0.261845 0.458442
0.271641 0.252461 0.449058
0.449729 0.238117 0.43473
0.639796 0.220554 0.417151
0.838987 0.200534 0.397131
1 0.178485 0.375082
1 0.154726 0.351324
1 0.129458 0.326055
0 0.385931 0.459159
0.113039 0.386389 0.459602
0.272801 0.377005 0.450217
0.450889 0.362661 0.435889
0.640955 0.345098 0.418311
0.840146 0.325063 0.398291
1 0.303014 0.376242
1 0.279255 0.352483
1 0.254002 0.327214
0 0.509194 0.463539
0.117418 0.509636 0.463981
0.27718 0.500252 0.454597
0.455268 0.485924 0.440269
0.645335 0.46836 0.422705
0.844526 0.448325 0.40267
1 0.426276 0.380621
1 0.402518 0.356863
1 0.377249 0.331594
0.000701915 0.631556 0.470146
0.124025 0.632013 0.470603
0.283787 0.622629 0.461219
0.461891 0.608286 0.446876
0.651942 0.590723 0.429313
0.851133 0.570687 0.409277
1 0.548653 0.387228
1 0.52488 0.36347
1 0.499626 0.338216
0.00901808 0.753262 0.478462
0.132342 0.753704 0.478904
0.292103 0.74432 0.46952
0.470192 0.729976 0.455192
0.660258 0.712413 0.437613
0.859449 0.692378 0.417594
1 0.670344 0.395544
1 0.646586 0.371786
1 0.621317 0.346517
0.0186923 0.874403 0.488136
0.142016 0.874861 0.488579
0.301778 0.865461 0.479194
0.479866 0.851133 0.464866
0.669932 0.83357 0.447288
0.869123 0.813535 0.427268
1 0.791485 0.405219
1 0.767727 0.38146
1 0.742458 0.356191
0.0294957 0.995102 0.498939
0.152819 0.995544 0.499397
0.312596 0.98616 0.490013
0.490684 0.971832 0.47567
0.680751 0.954269 0.458106
0.879927 0.934234 0.438071
1 0.912184 0.416037
1 0.888426 0.392264
1 0.863157 0.36701
0.019852 0.00547799 0.549493
0.143175 0.00593576 0.549935
0.302953 0 0.540551
0.481041 0 0.526223
0.671107 0 0.508644
0.870298 0 0.488624
1 0 0.466575
1 0 0.442817
1 0 0.417548
0 0.139239 0.527459
0.121141 0.139696 0.527901
0.280919 0.130312 0.518517
0.459007 0.115969 0.504173
0.649073 0.0984054 0.48661
0.848249 0.0783703 0.466575
1 0.0563363 0.444541
1 0.0325628 0.420783
1 0.00730907 0.395514
0 0.266072 0.52285
0.116548 0.266529 0.523308
0.276326 0.257145 0.513924
0.454414 0.242802 0.49958
0.64448 0.225238 0.482017
0.843656 0.205203 0.461982
1 0.183154 0.439948
1 0.159396 0.416175
1 0.134142 0.390921
0 0.390616 0.524025
0.117708 0.391058 0.524468
0.277485 0.381674 0.515084
0.455573 0.367346 0.50074
0.64564 0.349783 0.483177
0.844816 0.329747 0.463157
1 0.307698 0.441108
1 0.28394 0.41735
1 0.258671 0.392081
0 0.513878 0.528405
0.122103 0.514321 0.528847
0.281865 0.504936 0.519463
0.459953 0.490593 0.505135
0.650019 0.47303 0.487556
0.84921 0.45301 0.467536
1 0.430961 0.445487
1 0.407202 0.421729
1 0.381933 0.39646
0.00538643 0.63624 0.535012
0.12871 0.636698 0.535454
0.288472 0.627298 0.52607
0.46656 0.61297 0.511742
0.656626 0.595407 0.494179
0.855817 0.575372 0.474144
1 0.553323 0.452094
1 0.529564 0.428336
1 0.504295 0.403067
0.0136873 0.757931 0.543313
0.137011 0.758389 0.54377
0.296788 0.749004 0.534386
0.474876 0.734661 0.520043
0.664942 0.717098 0.50248
0.864118 0.697063 0.482444
1 0.675013 0.46041
1 0.651255 0.436637
1 0.626001 0.411383
0.0233616 0.879088 0.552987
0.146685 0.87953 0.553445
0.306462 0.870146 0.54406
0.48455 0.855817 0.529717
0.674617 0.838239 0.512154
0.873793 0.818219 0.492119
1 0.79617 0.470085
1 0.772412 0.446311
1 0.747143 0.421057
0.0341802 0.999786 0.563806
0.157504 1 0.564263
0.317266 0.990845 0.554864
0.495354 0.976501 0.540536
0.68542 0.958938 0.522972
0.884611 0.938918 0.502937
1 0.916869 0.480888
1 0.893111 0.45713
1 0.867842 0.431861
0.0243381 0.00996414 0.616861
0.147662 0.0104219 0.617304
0.307439 0.00102235 0.607919
0.485527 0 0.593591
0.675593 0 0.576028
0.874769 0 0.555993
1 0 0.533944
1 0 0.510185
1 0 0.484916
0.00230411 0.143725 0.594827
0.125628 0.144183 0.59527
0.285405 0.134798 0.585885
0.463493 0.120455 0.571557
0.653559 0.102892 0.553994
0.852735 0.0828565 0.533959
1 0.0608072 0.51191
1 0.0370489 0.488151
1 0.0117952 0.462882
0 0.270558 0.590234
0.121035 0.271015 0.590677
0.280812 0.261616 0.581292
0.4589 0.247288 0.566964
0.648951 0.229725 0.549386
0.848142 0.209689 0.529366
1 0.18764 0.507317
1 0.163882 0.483558
1 0.138613 0.458289
0 0.395102 0.591394
0.122194 0.395544 0.591836
0.281971 0.38616 0.582452
0.46006 0.371832 0.568124
0.650126 0.354253 0.550561
0.849302 0.334234 0.530526
1 0.312184 0.508476
1 0.288426 0.484718
1 0.263157 0.459449
0.00325017 0.518349 0.595773
0.126574 0.518807 0.596231
0.286351 0.509422 0.586831
0.464439 0.495079 0.572503
0.654505 0.477516 0.55494
0.853697 0.457481 0.534905
1 0.435447 0.512856
1 0.411673 0.489097
1 0.386419 0.463828
0.00987259 0.640726 0.60238
0.133196 0.641169 0.602838
0.292958 0.631785 0.593454
0.471046 0.617456 0.57911
0.661112 0.599893 0.561547
0.860304 0.579858 0.541512
1 0.557809 0.519478
1 0.534051 0.495705
1 0.508782 0.470451
0.0181735 0.762417 0.610697
0.141497 0.762875 0.611139
0.301274 0.753475 0.601755
0.479362 0.739147 0.587427
0.669429 0.721584 0.569863
0.868605 0.701549 0.549828
1 0.6795 0.527779
1 0.655741 0.504021
1 0.630472 0.478752
0.0278477 0.883574 0.620371
0.151171 0.884016 0.620813
0.310948 0.874632 0.611429
0.489036 0.860304 0.597101
0.679088 0.842725 0.579522
0.878279 0.822705 0.559503
1 0.800656 0.537453
1 0.776898 0.513695
1 0.751629 0.488426
0.0386664 1 0.631174
0.16199 1 0.631632
0.321752 0.995331 0.622248
0.49984 0.980987 0.607904
0.689906 0.963424 0.590341
0.889097 0.943389 0.570306
1 0.921355 0.548272
1 0.897581 0.524498
1 0.872328 0.499245
0.0286412 0.0142672 0.686656
0.151965 0.0147097 0.687099
0.311727 0.0053254 0.677714
0.48983 0 0.663386
0.679881 0 0.645823
0.879072 0 0.625788
1 0 0.603738
1 0 0.57998
1 0 0.554711
0.00660716 0.148028 0.664622
0.129931 0.14847 0.665064
0.289693 0.139086 0.65568
0.467781 0.124758 0.641352
0.657847 0.107179 0.623774
0.857038 0.0871595 0.603754
1 0.0651102 0.581704
1 0.0413519 0.557946
1 0.016083 0.532677
0.00201419 0.274861 0.660029
0.125338 0.275303 0.660471
0.2851 0.265919 0.651087
0.463188 0.251591 0.636759
0.653254 0.234012 0.619181
0.852445 0.213993 0.599161
1 0.191943 0.577111
1 0.168185 0.553353
1 0.142916 0.528084
0.00317388 0.39939 0.661189
0.126497 0.399847 0.661631
0.286259 0.390463 0.652247
0.464347 0.37612 0.637919
0.654414 0.358557 0.62034
0.853605 0.338521 0.60032
1 0.316487 0.578271
1 0.292714 0.554513
1 0.26746 0.529244
0.00755322 0.522652 0.665568
0.130877 0.523095 0.66601
0.290639 0.51371 0.656626
0.468742 0.499382 0.642298
0.658793 0.481819 0.624735
0.857984 0.461784 0.6047
1 0.439734 0.58265
1 0.415976 0.558892
1 0.390707 0.533623
0.0141604 0.645029 0.672175
0.137484 0.645472 0.672633
0.297261 0.636088 0.663249
0.475349 0.621744 0.648905
0.665415 0.604181 0.631342
0.864591 0.584146 0.611307
1 0.562112 0.589258
1 0.538338 0.565499
1 0.513085 0.540246
0.0224765 0.76672 0.680491
0.1458 0.767163 0.680934
0.305562 0.757778 0.67155
0.48365 0.74345 0.657221
0.673716 0.725872 0.639643
0.872908 0.705852 0.619623
1 0.683803 0.597574
1 0.660044 0.573816
1 0.634775 0.548547
0.0321508 0.887861 0.690166
0.155474 0.888319 0.690608
0.315236 0.878935 0.681224
0.493324 0.864591 0.666896
0.683391 0.847028 0.649317
0.882582 0.826993 0.629297
1 0.804944 0.607248
1 0.781186 0.58349
1 0.755932 0.558221
0.0429541 1 0.700969
0.166278 1 0.701427
0.326055 0.999619 0.692042
0.504143 0.98529 0.677699
0.694209 0.967727 0.660136
0.893385 0.947692 0.640101
1 0.925643 0.618067
1 0.901884 0.594293
1 0.876616 0.569039
