src/luts/crop/14.cube
TITLE "Generated by Resolve"
LUT_3D_SIZE 33
0 0 0.202335
0.0204929 0 0.202121
0.045594 0 0.203784
0.0767529 0 0.203815
0.111833 0 0.202777
0.149355 0 0.201083
0.188708 0 0.198901
0.229526 0 0.196307
0.271595 0 0.193393
0.314763 0 0.190173
0.358892 0 0.186694
0.403891 0 0.182986
0.449699 0 0.179065
0.496223 0 0.174929
0.54345 0 0.170626
0.591302 0 0.16614
0.63975 0 0.161486
0.688777 0 0.156695
0.738323 0 0.151751
0.788388 0 0.14667
0.838941 0 0.141466
0.889952 0 0.136126
0.941421 0 0.130663
0.993301 0 0.125093
1 0 0.119417
1 0 0.113634
1 0 0.107729
1 0 0.101747
1 0 0.0956588
1 0 0.0894789
1 0 0.0831922
1 0 0.0768444
1 0 0.0703899
0 0.00726329 0.197589
0.0157473 0.00704967 0.197375
0.0408484 0.0087129 0.199039
0.0720073 0.00874342 0.199069
0.107088 0.00770581 0.198032
0.14461 0.00601205 0.196338
0.183963 0.00383001 0.194156
0.224781 0.00123598 0.191562
0.26685 0 0.188647
0.310018 0 0.185428
0.354147 0 0.181949
0.399145 0 0.178241
0.444953 0 0.174319
0.491478 0 0.170184
0.538705 0 0.165881
0.586557 0 0.161395
0.635004 0 0.156741
0.684031 0 0.151949
0.733577 0 0.147005
0.783642 0 0.141924
0.834195 0 0.136721
0.885206 0 0.13138
0.936675 0 0.125917
0.988556 0 0.120348
1 0 0.114672
1 0 0.108888
1 0 0.102983
1 0 0.0970016
1 0 0.0909133
1 0 0.0847334
1 0 0.0784466
1 0 0.0720989
1 0 0.0656443
0 0.042298 0.188067
0.00624094 0.0420996 0.187869
0.031342 0.0437476 0.189532
0.0624857 0.0437781 0.189563
0.0975814 0.0427405 0.188525
0.135103 0.0410468 0.186831
0.174441 0.0388647 0.184649
0.215274 0.036286 0.182055
0.257343 0.0333562 0.179141
0.300511 0.0301366 0.175921
0.34464 0.0266728 0.172442
0.389639 0.0229496 0.168734
0.435431 0.019028 0.164797
0.481971 0.0148928 0.160678
0.529183 0.0105898 0.156359
0.57705 0.00610361 0.151873
0.625498 0.00146487 0.147234
0.674525 0 0.142443
0.724071 0 0.137499
0.774136 0 0.132418
0.824689 0 0.127199
0.8757 0 0.121874
0.927153 0 0.116411
0.979049 0 0.110842
1 0 0.105165
1 0 0.0993668
1 0 0.0934768
1 0 0.08748
1 0 0.0813916
1 0 0.0752117
1 0 0.0689403
1 0 0.0625772
1 0 0.0561379
0 0.0754559 0.183261
0.00143435 0.0752575 0.183062
0.0265354 0.0769207 0.184726
0.0576791 0.0769513 0.184756
0.0927749 0.0759136 0.183719
0.130297 0.0742199 0.182025
0.169635 0.0720378 0.179828
0.210468 0.0694438 0.177249
0.252537 0.0665293 0.174334
0.295705 0.0633097 0.171115
0.339834 0.0598306 0.167636
0.384833 0.0561227 0.163928
0.430625 0.0521859 0.159991
0.477165 0.0480659 0.155871
0.524376 0.0437476 0.151553
0.572244 0.0392615 0.147066
0.620691 0.0346227 0.142428
0.669703 0.0298314 0.137636
0.719265 0.0248875 0.132692
0.769329 0.0198062 0.127611
0.819883 0.0145876 0.122393
0.870893 0.00926223 0.117067
0.922347 0.0037995 0.111604
0.974227 0 0.106035
1 0 0.100343
1 0 0.0945602
1 0 0.0886702
1 0 0.0826734
1 0 0.076585
1 0 0.0704051
1 0 0.0641337
1 0 0.0577707
1 0 0.0513313
0 0.107897 0.180301
0 0.107698 0.180087
0.0235599 0.109346 0.18175
0.0547036 0.109377 0.181781
0.0897993 0.108339 0.180743
0.127321 0.106645 0.179049
0.166674 0.104463 0.176867
0.207492 0.101884 0.174273
0.249561 0.0989548 0.171359
0.292729 0.0957351 0.168139
0.336858 0.0922713 0.16466
0.381857 0.0885481 0.160952
0.427665 0.0846265 0.157015
0.474189 0.0804913 0.152895
0.521416 0.0761883 0.148577
0.569268 0.0717021 0.144106
0.617716 0.0670634 0.139452
0.666743 0.0622568 0.134661
0.716289 0.0573129 0.129717
0.766354 0.0522316 0.124636
0.816907 0.0470283 0.119432
0.867918 0.0416876 0.114092
0.919371 0.0362402 0.108629
0.971267 0.0306706 0.103059
1 0.024979 0.0973831
1 0.0191958 0.0915847
1 0.0133059 0.0856947
1 0.00730907 0.0797131
1 0.00122072 0.0736248
1 0 0.0674296
1 0 0.0611582
1 0 0.0547951
1 0 0.0483558
0 0.13994 0.178302
0 0.139742 0.178103
0.0215763 0.14139 0.179751
0.0527199 0.141421 0.179782
0.0878004 0.140383 0.178744
0.125322 0.138689 0.17705
0.164675 0.136507 0.174868
0.205493 0.133928 0.17229
0.247562 0.130999 0.16936
0.29073 0.127794 0.16614
0.334859 0.124315 0.162661
0.379858 0.120592 0.158953
0.425666 0.11667 0.155032
0.47219 0.112535 0.150896
0.519417 0.108232 0.146593
0.567269 0.103746 0.142107
0.615717 0.0991073 0.137453
0.664744 0.0943008 0.132662
0.714305 0.0893568 0.127718
0.764355 0.0842756 0.122637
0.814908 0.0790723 0.117433
0.865919 0.0737316 0.112093
0.917388 0.0682841 0.10663
0.969268 0.0627146 0.101061
1 0.057023 0.0953841
1 0.0512398 0.089601
1 0.0453498 0.0836957
1 0.039353 0.0777142
1 0.0332647 0.0716259
1 0.0270848 0.0654459
1 0.0208133 0.0591745
1 0.0144503 0.0528115
1 0.00799573 0.0463569
0 0.171725 0.176959
0 0.171527 0.176761
0.0202335 0.173175 0.178424
0.0513771 0.173205 0.178454
0.0864729 0.172168 0.177417
0.123995 0.170474 0.175723
0.163348 0.168292 0.173541
0.204166 0.165713 0.170947
0.246235 0.162783 0.168032
0.289403 0.159564 0.164813
0.333532 0.156085 0.161334
0.378531 0.152377 0.157626
0.424323 0.148455 0.153689
0.470863 0.14432 0.149569
0.518074 0.140017 0.145251
0.565942 0.135531 0.14078
0.614389 0.130877 0.136126
0.663417 0.126085 0.131334
0.712963 0.121141 0.12639
0.763027 0.11606 0.121309
0.813581 0.110857 0.116091
0.864591 0.105516 0.110765
0.916045 0.100069 0.105303
0.967941 0.0944839 0.099733
1 0.0888075 0.0940566
1 0.0830243 0.0882582
1 0.0771191 0.0823682
1 0.0711376 0.0763714
1 0.0650492 0.0702831
1 0.0588693 0.0641031
1 0.0525978 0.0578317
1 0.0462348 0.0514687
1 0.0397803 0.0450294
0 0.203311 0.176135
0 0.203098 0.175937
0.0194095 0.204761 0.177584
0.0505531 0.204791 0.177615
0.0856336 0.203754 0.176577
0.123156 0.20206 0.174884
0.162509 0.199878 0.172702
0.203326 0.197284 0.170123
0.245411 0.194369 0.167193
0.288563 0.19115 0.163973
0.332692 0.187671 0.16051
0.377691 0.183963 0.156786
0.423499 0.180026 0.152865
0.470039 0.175906 0.14873
0.51725 0.171588 0.144427
0.565103 0.167117 0.13994
0.613565 0.162463 0.135302
0.662577 0.157671 0.130495
0.712139 0.152728 0.125551
0.762203 0.147646 0.12047
0.812741 0.142428 0.115267
0.863752 0.137102 0.109926
0.915221 0.13164 0.104479
0.967102 0.12607 0.0988937
1 0.120394 0.0932174
1 0.114595 0.0874342
1 0.108705 0.0815442
1 0.102724 0.0755474
1 0.0966354 0.0694591
1 0.0904402 0.0632792
1 0.0841688 0.0570077
1 0.0778058 0.0506447
1 0.0713664 0.0441901
0 0.23473 0.175692
0 0.234531 0.175494
0.018967 0.236179 0.177157
0.0501106 0.23621 0.177188
0.0852064 0.235172 0.17615
0.122728 0.233478 0.174456
0.162081 0.231296 0.172274
0.202899 0.228717 0.16968
0.244968 0.225788 0.166766
0.288136 0.222568 0.163546
0.332265 0.219089 0.160067
0.377264 0.215381 0.156359
0.423056 0.21146 0.152422
0.469596 0.207324 0.148302
0.516823 0.203021 0.143984
0.564675 0.198535 0.139513
0.613123 0.193881 0.134859
0.66215 0.18909 0.130068
0.711696 0.184146 0.125124
0.761761 0.179065 0.120043
0.812314 0.173861 0.114824
0.863325 0.168521 0.109499
0.914778 0.163073 0.104036
0.966674 0.157488 0.0984665
1 0.151812 0.0927901
1 0.146029 0.0869917
1 0.140139 0.0811017
1 0.134142 0.0751049
1 0.128054 0.0690166
1 0.121874 0.0628367
1 0.115602 0.0565652
1 0.109239 0.0502022
1 0.102785 0.0437629
0 0.266011 0.175601
0 0.265812 0.175402
0.0188754 0.267475 0.17705
0.0500191 0.267506 0.177081
0.0850996 0.266468 0.176043
0.122621 0.264775 0.17435
0.161975 0.262592 0.172168
0.202792 0.259998 0.169589
0.244877 0.257084 0.166659
0.288029 0.253864 0.163439
0.332158 0.250385 0.159976
0.377157 0.246677 0.156252
0.422965 0.242741 0.152331
0.469505 0.238621 0.148196
0.516716 0.234302 0.143893
0.564569 0.229831 0.139406
0.613031 0.225177 0.134768
0.662043 0.220386 0.129961
0.711604 0.215442 0.125017
0.761669 0.210361 0.119936
0.812207 0.205142 0.114733
0.863233 0.199817 0.109392
0.914687 0.194354 0.103944
0.966567 0.188785 0.0983597
1 0.183108 0.0926833
1 0.17731 0.0869001
1 0.17142 0.0810101
1 0.165423 0.0750134
1 0.159335 0.068925
1 0.153155 0.0627451
1 0.146883 0.0564736
1 0.14052 0.0501106
1 0.134081 0.0436561
0 0.2972 0.175784
0 0.296986 0.175586
0.0190585 0.29865 0.177234
0.0502022 0.29868 0.177264
0.0852827 0.297642 0.176226
0.122805 0.295949 0.174533
0.162158 0.293767 0.172351
0.202976 0.291173 0.169772
0.24506 0.288258 0.166842
0.288212 0.285039 0.163622
0.332341 0.281559 0.160159
0.37734 0.277852 0.156435
0.423148 0.27393 0.152514
0.469688 0.269795 0.148379
0.516899 0.265492 0.144076
0.564752 0.261006 0.13959
0.613214 0.256352 0.134951
0.662226 0.25156 0.130144
0.711788 0.246616 0.1252
0.761852 0.241535 0.120119
0.81239 0.236332 0.114916
0.863416 0.230991 0.109575
0.91487 0.225528 0.104128
0.966751 0.219959 0.0985428
1 0.214282 0.0928664
1 0.208499 0.0870832
1 0.202594 0.0811933
1 0.196612 0.0751965
1 0.190524 0.0691081
1 0.184344 0.0629282
1 0.178058 0.0566567
1 0.17171 0.0502937
1 0.165255 0.0438392
0 0.328267 0.176211
0 0.328069 0.176013
0.0194858 0.329732 0.177676
0.0506294 0.329763 0.177691
0.0857099 0.328725 0.176669
0.123247 0.327031 0.174975
0.162585 0.324849 0.172778
0.203418 0.322255 0.170199
0.245487 0.319341 0.167269
0.28864 0.316121 0.164065
0.332769 0.312642 0.160586
0.377783 0.308934 0.156863
0.423575 0.304997 0.152941
0.470115 0.300877 0.148806
0.517327 0.296559 0.144503
0.565179 0.292088 0.140017
0.613642 0.287434 0.135378
0.662654 0.282643 0.130571
0.712215 0.277699 0.125628
0.76228 0.272618 0.120562
0.812833 0.267399 0.115343
0.863844 0.262074 0.110002
0.915297 0.256611 0.104555
0.967178 0.251041 0.0989853
1 0.245365 0.0932937
1 0.239567 0.0875105
1 0.233677 0.0816205
1 0.22768 0.0756237
1 0.221592 0.0695354
1 0.215412 0.0633555
1 0.20914 0.057084
1 0.202777 0.050721
1 0.196338 0.0442664
0 0.359274 0.176867
0 0.35906 0.176654
0.0201267 0.360723 0.178317
0.0512703 0.360754 0.178347
0.0863661 0.359716 0.17731
0.123888 0.358022 0.175616
0.163241 0.35584 0.173434
0.204059 0.353246 0.17084
0.246128 0.350332 0.167926
0.289296 0.347112 0.164706
0.333425 0.343633 0.161227
0.378424 0.339925 0.157519
0.424231 0.335988 0.153582
0.470756 0.331868 0.149462
0.517983 0.32755 0.145144
0.565835 0.323079 0.140673
0.614282 0.318425 0.136019
0.66331 0.313634 0.131228
0.712856 0.30869 0.126284
0.762921 0.303609 0.121202
0.813474 0.29839 0.115999
0.864485 0.293065 0.110658
0.915938 0.287602 0.105196
0.967834 0.282032 0.0996262
1 0.276356 0.0939498
1 0.270558 0.0881514
1 0.264668 0.0822614
1 0.258686 0.0762798
1 0.252598 0.0701915
1 0.246403 0.0639963
1 0.240131 0.0577249
1 0.233768 0.0513619
1 0.227329 0.0449226
0 0.390173 0.177707
0 0.389975 0.177508
0.0209812 0.391638 0.179156
0.0521248 0.391669 0.179187
0.0872053 0.390631 0.178149
0.124727 0.388937 0.176455
0.16408 0.386755 0.174273
0.204898 0.384161 0.171695
0.246983 0.381247 0.168765
0.290135 0.378027 0.165545
0.334264 0.374548 0.162081
0.379263 0.37084 0.158358
0.425071 0.366903 0.154437
0.471611 0.362783 0.150301
0.518822 0.358465 0.145998
0.566674 0.353994 0.141512
0.615137 0.34934 0.136873
0.664149 0.344549 0.132067
0.71371 0.339605 0.127123
0.763775 0.334524 0.122042
0.814313 0.329305 0.116838
0.865339 0.32398 0.111498
0.916793 0.318517 0.10605
0.968673 0.312947 0.100481
1 0.307271 0.094789
1 0.301472 0.0890059
1 0.295583 0.0831159
1 0.289586 0.0771191
1 0.283497 0.0710307
1 0.277317 0.0648508
1 0.271046 0.0585794
1 0.264683 0.0522164
1 0.258244 0.0457618
0 0.421027 0.178729
0 0.420829 0.178531
0.0220035 0.422477 0.180179
0.0531472 0.422507 0.180209
0.0882277 0.421469 0.179171
0.12575 0.419776 0.177478
0.165103 0.417594 0.175296
0.205921 0.415015 0.172717
0.248005 0.412085 0.169787
0.291157 0.408865 0.166567
0.335286 0.405386 0.163104
0.380285 0.401679 0.15938
0.426093 0.397757 0.155459
0.472633 0.393622 0.151324
0.519844 0.389319 0.147021
0.567697 0.384833 0.142535
0.616159 0.380179 0.137896
0.665171 0.375387 0.133089
0.714733 0.370443 0.128145
0.764797 0.365362 0.123064
0.815335 0.360159 0.117861
0.866361 0.354818 0.11252
0.917815 0.349371 0.107073
0.969696 0.343786 0.101503
1 0.338109 0.0958114
1 0.332326 0.0900282
1 0.326436 0.0841382
1 0.320439 0.0781415
1 0.314351 0.0720531
1 0.308171 0.0658732
1 0.3019 0.0596017
1 0.295537 0.0532387
1 0.289082 0.0467842
0 0.451804 0.179904
0 0.451606 0.179706
0.0231785 0.453254 0.181369
0.0543221 0.453285 0.181399
0.0894179 0.452247 0.180362
0.12694 0.450553 0.178668
0.166293 0.448371 0.176486
0.207111 0.445792 0.173892
0.24918 0.442863 0.170977
0.292348 0.439643 0.167758
0.336477 0.436179 0.164279
0.381476 0.432456 0.160571
0.427268 0.428534 0.156634
0.473808 0.424399 0.152514
0.521035 0.420096 0.148196
0.568887 0.41561 0.143725
0.617334 0.410971 0.139071
0.666362 0.406165 0.134279
0.715908 0.401221 0.129335
0.765972 0.396139 0.124254
0.816526 0.390936 0.119036
0.867536 0.385595 0.11371
0.91899 0.380148 0.108248
0.970886 0.374578 0.102678
1 0.368887 0.0970016
1 0.363104 0.0912032
1 0.357214 0.0853132
1 0.351217 0.0793164
1 0.345129 0.073228
1 0.338949 0.0670481
1 0.332677 0.0607767
1 0.326314 0.0544137
1 0.31986 0.0479744
0 0.482521 0.181247
0 0.482322 0.181048
0.0245212 0.483986 0.182696
0.0556649 0.484016 0.182727
0.0907454 0.482979 0.181689
0.128267 0.481285 0.179995
0.16762 0.479088 0.177813
0.208438 0.476509 0.175235
0.250507 0.473579 0.172305
0.293675 0.470375 0.169085
0.337804 0.466896 0.165606
0.382803 0.463172 0.161898
0.428611 0.459251 0.157977
0.475135 0.455131 0.153841
0.522362 0.450813 0.149538
0.570214 0.446326 0.145052
0.618662 0.441688 0.140398
0.667689 0.436881 0.135607
0.71725 0.431952 0.130663
0.7673 0.426871 0.125582
0.817853 0.421653 0.120378
0.868864 0.416312 0.115038
0.920333 0.410864 0.109575
0.972213 0.405295 0.104005
1 0.399603 0.0983291
1 0.39382 0.092546
1 0.38793 0.0866407
1 0.381933 0.0806592
1 0.375845 0.0745708
1 0.369665 0.0683909
1 0.363394 0.0621195
1 0.357031 0.0557565
1 0.350591 0.0493019
0 0.513191 0.182712
0.000869764 0.512993 0.182513
0.0259861 0.514641 0.184176
0.0571298 0.514672 0.184192
0.0922103 0.513634 0.183169
0.129747 0.51194 0.181476
0.169085 0.509758 0.179278
0.209918 0.507179 0.176699
0.251987 0.50425 0.17377
0.29514 0.50103 0.170565
0.339269 0.497551 0.167086
0.384283 0.493843 0.163363
0.430076 0.489921 0.159442
0.476616 0.485786 0.155306
0.523827 0.481483 0.151003
0.571679 0.476997 0.146517
0.620142 0.472343 0.141878
0.669154 0.467552 0.137072
0.718715 0.462608 0.132128
0.76878 0.457527 0.127062
0.819333 0.452323 0.121843
0.870344 0.446983 0.116503
0.921798 0.441535 0.111055
0.973678 0.43595 0.105486
1 0.430274 0.099794
1 0.424491 0.0940108
1 0.418601 0.0881208
1 0.412604 0.0821241
1 0.406516 0.0760357
1 0.400336 0.0698558
1 0.394064 0.0635843
1 0.387701 0.0572213
1 0.381247 0.0507668
0 0.543801 0.184314
0.00247196 0.543603 0.184115
0.0275883 0.545266 0.185763
0.058732 0.545281 0.185794
0.0938125 0.544259 0.184756
0.131334 0.542565 0.183062
0.170687 0.540368 0.18088
0.211505 0.537789 0.178302
0.253574 0.534859 0.175372
0.296742 0.531655 0.172152
0.340871 0.528176 0.168673
0.38587 0.524453 0.164965
0.431678 0.520531 0.161044
0.478202 0.516411 0.156909
0.525429 0.512093 0.152605
0.573281 0.507607 0.148119
0.621729 0.502968 0.143465
0.670756 0.498161 0.138674
0.720317 0.493217 0.13373
0.770367 0.488151 0.128649
0.82092 0.482933 0.123445
0.871931 0.477592 0.118105
0.9234 0.472145 0.112642
0.97528 0.466575 0.107073
1 0.460883 0.101396
1 0.4551 0.095613
1 0.44921 0.0897078
1 0.443214 0.0837262
1 0.437125 0.0776379
1 0.430945 0.071458
1 0.424674 0.0651713
1 0.418311 0.0588235
1 0.411856 0.052369
0 0.574365 0.186023
0.00419623 0.574166 0.185824
0.0292973 0.57583 0.187488
0.060441 0.57586 0.187518
0.0955367 0.574823 0.186481
0.133059 0.573129 0.184787
0.172396 0.570947 0.182589
0.21323 0.568353 0.180011
0.255299 0.565438 0.177096
0.298466 0.562219 0.173877
0.34258 0.55874 0.170397
0.387594 0.555032 0.16669
0.433387 0.551095 0.162753
0.479927 0.546975 0.158633
0.527138 0.542657 0.154314
0.57499 0.53817 0.149828
0.623453 0.533532 0.14519
0.672465 0.52874 0.140383
0.722026 0.523796 0.135454
0.772091 0.518715 0.130373
0.822644 0.513497 0.125154
0.873655 0.508171 0.119829
0.925109 0.502708 0.114366
0.976989 0.497139 0.108797
1 0.491463 0.103105
1 0.485664 0.097322
1 0.479774 0.0914321
1 0.473777 0.0854353
1 0.467689 0.0793469
1 0.461509 0.073167
1 0.455238 0.0668956
1 0.448875 0.0605325
1 0.442435 0.0540932
0 0.604898 0.187854
0.00601205 0.604685 0.187655
0.0311284 0.606348 0.189319
0.0622721 0.606378 0.189334
0.0973526 0.605341 0.188296
0.13489 0.603647 0.186603
0.174228 0.601465 0.184421
0.215061 0.598871 0.181842
0.25713 0.595956 0.178912
0.300282 0.592737 0.175708
0.344411 0.589258 0.172229
0.389425 0.58555 0.168505
0.435218 0.581628 0.164584
0.481758 0.577493 0.160449
0.528969 0.57319 0.156146
0.576822 0.568704 0.151659
0.625284 0.56405 0.147021
0.674296 0.559258 0.142214
0.723857 0.554314 0.13727
0.773922 0.549233 0.132189
0.824475 0.54403 0.126986
0.875486 0.538689 0.121645
0.92694 0.533227 0.116197
0.978821 0.527657 0.110628
1 0.521981 0.104936
1 0.516182 0.0991531
1 0.510292 0.0932631
1 0.504311 0.0872663
1 0.498222 0.081178
1 0.492027 0.0749981
1 0.485756 0.0687266
1 0.479393 0.0623636
1 0.472953 0.0559091
0 0.63537 0.189792
0.00794995 0.635172 0.189593
0.0330663 0.636835 0.191241
0.06421 0.636866 0.191272
0.0992905 0.635828 0.190234
0.136812 0.634134 0.18854
0.176165 0.631937 0.186358
0.216983 0.629358 0.18378
0.259052 0.626429 0.18085
0.30222 0.623224 0.17763
0.346349 0.619745 0.174151
0.391348 0.616037 0.170443
0.437156 0.6121 0.166522
0.48368 0.60798 0.162387
0.530907 0.603662 0.158083
0.578759 0.599176 0.153597
0.627207 0.594537 0.148943
0.676234 0.589731 0.144152
0.725795 0.584802 0.139208
0.775845 0.579721 0.134127
0.826398 0.574502 0.128923
0.877409 0.569162 0.123583
0.928878 0.563714 0.11812
0.980758 0.558145 0.112551
1 0.552453 0.106874
1 0.54667 0.101091
1 0.54078 0.0951858
1 0.534783 0.0892042
1 0.528695 0.0831159
1 0.522515 0.076936
1 0.516243 0.0706493
1 0.50988 0.0643015
1 0.503441 0.057847
0 0.665812 0.191821
0.0099794 0.665614 0.191623
0.0350958 0.667277 0.193271
0.0662394 0.667292 0.193301
0.10132 0.66627 0.192264
0.138842 0.664576 0.19057
0.178195 0.662379 0.188388
0.219013 0.6598 0.185809
0.261097 0.65687 0.182879
0.30425 0.653666 0.17966
0.348379 0.650187 0.176196
0.393378 0.646464 0.172473
0.439185 0.642542 0.168551
0.485725 0.638422 0.164416
0.532937 0.634104 0.160113
0.580789 0.629618 0.155627
0.629252 0.624979 0.150988
0.678264 0.620172 0.146181
0.727825 0.615228 0.141238
0.77789 0.610162 0.136156
0.828428 0.604944 0.130953
0.879454 0.599603 0.125612
0.930907 0.594156 0.120165
0.982788 0.588586 0.114595
1 0.582895 0.108904
1 0.577111 0.10312
1 0.571221 0.0972305
1 0.565225 0.0912337
1 0.559136 0.0851453
1 0.552956 0.0789654
1 0.546685 0.072694
1 0.540322 0.066331
1 0.533867 0.0598764
0 0.696223 0.193942
0.0121157 0.69601 0.193744
0.0372168 0.697673 0.195407
0.0683604 0.697704 0.195438
0.103456 0.696666 0.1944
0.140978 0.694972 0.192706
0.180316 0.69279 0.190509
0.221149 0.690196 0.18793
0.263218 0.687282 0.185016
0.306386 0.684062 0.181796
0.350515 0.680583 0.178317
0.395514 0.676875 0.174609
0.441306 0.672953 0.170672
0.487846 0.668818 0.166552
0.535058 0.664515 0.162234
0.582925 0.660029 0.157748
0.631373 0.655375 0.153109
0.680385 0.650584 0.148318
0.729946 0.64564 0.143374
0.780011 0.640558 0.138293
0.830564 0.635355 0.133074
0.881575 0.630014 0.127749
0.933028 0.624552 0.122286
0.984909 0.618982 0.116716
1 0.613306 0.11104
1 0.607507 0.105241
1 0.601617 0.0993515
1 0.595636 0.0933547
1 0.589548 0.0872663
1 0.583352 0.0810864
1 0.577081 0.074815
1 0.570718 0.068452
1 0.564279 0.0620127
0 0.726589 0.19617
0.0143282 0.72639 0.195956
0.0394293 0.728038 0.19762
0.070573 0.728069 0.19765
0.105669 0.727031 0.196612
0.143191 0.725338 0.194919
0.182544 0.723156 0.192737
0.223362 0.720577 0.190143
0.265431 0.717647 0.187228
0.308598 0.714427 0.184009
0.352728 0.710948 0.180529
0.397726 0.70724 0.176822
0.443519 0.703319 0.172885
0.490059 0.699184 0.168765
0.537285 0.694881 0.164446
0.585138 0.690394 0.159976
0.633585 0.68574 0.155322
0.682612 0.680949 0.15053
0.732158 0.676005 0.145586
0.782223 0.670924 0.140505
0.832776 0.665721 0.135286
0.883787 0.66038 0.129961
0.935241 0.654932 0.124498
0.987137 0.649348 0.118929
1 0.643671 0.113252
1 0.637888 0.107454
1 0.631998 0.101564
1 0.626001 0.0955825
1 0.619913 0.0894942
1 0.613733 0.083299
1 0.607462 0.0770275
1 0.601099 0.0706645
1 0.594644 0.0642252
0 0.756924 0.198459
0.0166323 0.756725 0.19826
0.0417334 0.758373 0.199924
0.0728771 0.758404 0.199954
0.107973 0.757366 0.198917
0.145495 0.755673 0.197223
0.184833 0.753491 0.195026
0.225666 0.750912 0.192447
0.267735 0.747982 0.189532
0.310903 0.744762 0.186313
0.355032 0.741283 0.182834
0.400031 0.737575 0.179126
0.445823 0.733654 0.175189
0.492363 0.729519 0.171069
0.539574 0.725216 0.166751
0.587442 0.720729 0.162264
0.635889 0.716075 0.157626
0.684901 0.711284 0.152834
0.734462 0.70634 0.14789
0.784527 0.701259 0.142809
0.835081 0.696056 0.137591
0.886091 0.690715 0.132265
0.937545 0.685252 0.126802
0.989425 0.679683 0.121233
1 0.674006 0.115557
1 0.668223 0.109758
1 0.662318 0.103868
1 0.656336 0.0978714
1 0.650248 0.091783
1 0.644068 0.0856031
1 0.637797 0.0793317
1 0.631434 0.0729686
1 0.624979 0.0665293
0 0.787228 0.200839
0.0190127 0.787015 0.200641
0.0441138 0.788678 0.202304
0.0752575 0.788708 0.202335
0.110353 0.787671 0.201297
0.147875 0.785977 0.199603
0.187213 0.783795 0.197421
0.228046 0.781201 0.194827
0.270115 0.778286 0.191913
0.313283 0.775067 0.188693
0.357412 0.771588 0.185214
0.402411 0.76788 0.181506
0.448203 0.763958 0.177569
0.494743 0.759823 0.173449
0.541955 0.75552 0.169131
0.589822 0.751034 0.164645
0.63827 0.74638 0.160006
0.687297 0.741588 0.155215
0.736843 0.736645 0.150271
0.786908 0.731563 0.14519
0.837461 0.72636 0.139971
0.888472 0.721019 0.134646
0.939925 0.715557 0.129183
0.991821 0.709987 0.123613
1 0.704311 0.117937
1 0.698512 0.112139
1 0.692622 0.106249
1 0.686641 0.100252
1 0.680552 0.0941634
1 0.674357 0.0879835
1 0.668086 0.0817121
1 0.661723 0.075349
1 0.655283 0.0689097
0 0.817487 0.203311
0.0214694 0.817288 0.203098
0.0465705 0.818952 0.204761
0.0777142 0.818982 0.204791
0.11281 0.817945 0.203754
0.150332 0.816251 0.20206
0.189685 0.814069 0.199878
0.230503 0.811475 0.197284
0.272572 0.80856 0.194369
