src/luts/crop/15.cube
TITLE "Generated by Resolve"
LUT_3D_SIZE 33
0.0148623 0 0
0.0357061 0 0
0.0684062 0 0
0.101961 0 0
0.135775 0 0
0.169726 0 0
0.203845 0 0
0.238132 0 0
0.272618 0 0
0.307179 0 0
0.340932 0 0
0.374014 0 0
0.406592 0 0
0.438804 0 0
0.470741 0 0
0.502434 0 0
0.533974 0 0
0.565347 0 0
0.596613 0 0
0.627771 0 0
0.658854 0 0
0.689845 0 0
0.72079 0 0
0.751675 0 0
0.782498 0 0
0.813336 0 0
0.844221 0 0
0.875135 0 0
0.906096 0 0
0.937072 0 0
0.968078 0 0
0.9991 0 0
1 0 0
0.0287785 0.0303197 0
0.0419776 0.0300908 0
0.0711833 0.0290227 0
0.103593 0.0266575 0
0.136889 0.022034 0
0.170565 0.0102693 0
0.204517 0 0
0.238682 0 0
0.273106 0 0
0.307561 0 0
0.341222 0 0
0.374228 0 0
0.40676 0 0
0.438941 0 0
0.470832 0 0
0.502525 0 0
0.534035 0 0
0.565408 0 0
0.596658 0 0
0.627802 0 0
0.658869 0 0
0.689876 0 0
0.720806 0 0
0.751675 0 0
0.782513 0 0
0.813352 0 0
0.844236 0 0
0.875151 0 0
0.906096 0 0
0.937072 0 0
0.968078 0 0
0.999115 0 0
1 0 0
0.0535592 0.0609598 0
0.0603799 0.0608682 0
0.0817578 0.0604715 0
0.110292 0.0596628 0
0.141588 0.0582895 0
0.174151 0.0562295 0
0.207385 0.0532387 0
0.241093 0.0489357 0
0.275196 0.0425574 0
0.309163 0.0328679 0
0.342412 0.0137026 0
0.375128 0 0
0.407462 0 0
0.439475 0 0
0.47126 0 0
0.502861 0 0
0.534295 0 0
0.565621 0 0
0.596826 0 0
0.627939 0 0
0.658976 0 0
0.689952 0 0
0.720867 0 0
0.751736 0 0
0.782544 0 0
0.813382 0 0
0.844266 0 0
0.875181 0 0
0.906126 0 0
0.937102 0 0
0.968109 0 0
0.999146 0 0
1 0 0
0.0799573 0.0914778 0
0.0840772 0.0914168 0
0.0991684 0.0911879 0
0.122652 0.0907149 0
0.150744 0.0899367 0
0.181277 0.0888075 0
0.213199 0.0872206 0
0.246006 0.0850843 0
0.279286 0.0823377 0
0.312184 0.0792554 0
0.344686 0.0758831 0
0.376867 0.0721904 0
0.408804 0.0681468 0
0.440543 0.0637064 0
0.472099 0.0587472 0
0.503532 0.0531624 0
0.534829 0.0466316 0
0.566049 0.0385748 0
0.597162 0.0272068 0
0.628214 0 0
0.65919 0 0
0.69012 0 0
0.720989 0 0
0.751827 0 0
0.78262 0 0
0.813458 0 0
0.844327 0 0
0.875242 0 0
0.906188 0 0
0.937163 0 0
0.96817 0 0
0.999191 0 0
1 0 0
0.107424 0.12192 0
0.110216 0.121874 0
0.121202 0.121721 0
0.140078 0.121386 0
0.164477 0.120836 0
0.19234 0.120058 0
0.222385 0.118975 0
0.253544 0.117617 0
0.284962 0.116091 0
0.316472 0.114412 0
0.347982 0.112612 0
0.379431 0.110704 0
0.410819 0.108675 0
0.44213 0.106569 0
0.473365 0.104387 0
0.50454 0.102129 0
0.535637 0.099794 0
0.56669 0.0973983 0
0.597681 0.0949569 0
0.628626 0.0924544 0
0.65951 0.0899214 0
0.690364 0.0873426 0
0.721172 0.0847334 0
0.751965 0.0820935 0
0.782742 0.0793774 0
0.813565 0.076463 0
0.844434 0.0733196 0
0.875349 0.0699016 0
0.906294 0.0661631 0
0.937255 0.0620279 0
0.968261 0.0573739 0
0.999283 0.0520027 0
1 0.045594 0
0.136156 0.15227 0
0.138201 0.152239 0
0.146532 0.152117 0
0.1617 0.151858 0
0.182376 0.151446 0
0.206851 0.150896 0
0.233783 0.15021 0
0.262257 0.149386 0
0.291676 0.148455 0
0.321691 0.147433 0
0.352071 0.146304 0
0.382666 0.145113 0
0.413397 0.143862 0
0.44419 0.142565 0
0.475029 0.141207 0
0.505867 0.139834 0
0.536721 0.13843 0
0.567544 0.137011 0
0.598367 0.135576 0
0.62916 0.134157 0
0.659937 0.132723 0
0.6907 0.131304 0
0.721431 0.129915 0
0.752148 0.128527 0
0.782925 0.127092 0
0.813733 0.125612 0
0.844602 0.124086 0
0.875502 0.122484 0
0.906432 0.120836 0
0.937392 0.119112 0
0.968399 0.117311 0
0.999405 0.11545 0
1 0.113512 0
0.162936 0.182757 0
0.164477 0.182742 0
0.170855 0.18265 0
0.182849 0.182498 0
0.199939 0.182254 0
0.221073 0.181903 0
0.245167 0.181476 0
0.271321 0.180941 0
0.298909 0.180346 0
0.327474 0.17966 0
0.35671 0.178927 0
0.386389 0.178119 0
0.416403 0.177279 0
0.446616 0.176394 0
0.476997 0.175479 0
0.507454 0.174548 0
0.538003 0.173602 0
0.568582 0.172641 0
0.599191 0.171664 0
0.629816 0.170703 0
0.660456 0.169741 0
0.691096 0.168795 0
0.721736 0.167865 0
0.752422 0.166903 0
0.783169 0.165911 0
0.813977 0.164904 0
0.844831 0.163867 0
0.875715 0.162783 0
0.90663 0.161685 0
0.937591 0.16054 0
0.968582 0.159365 0
0.999588 0.15816 0
1 0.156924 0
0.184085 0.213626 0
0.185351 0.213626 0
0.1906 0.213565 0
0.200671 0.213474 0
0.215412 0.213306 0
0.23415 0.213077 0
0.256016 0.212787 0
0.280262 0.212436 0
0.306233 0.212024 0
0.333455 0.211566 0
0.361593 0.211048 0
0.390387 0.210498 0
0.419654 0.209903 0
0.449287 0.209277 0
0.479164 0.208621 0
0.509239 0.207965 0
0.539437 0.207279 0
0.569741 0.206592 0
0.600122 0.20589 0
0.630564 0.205188 0
0.661036 0.204501 0
0.691539 0.203815 0
0.722133 0.203113 0
0.752804 0.20238 0
0.78352 0.201633 0
0.814298 0.20087 0
0.845121 0.200076 0
0.87599 0.199268 0
0.906905 0.198444 0
0.93785 0.197589 0
0.968811 0.196719 0
0.999817 0.195819 0
1 0.194903 0
0.201465 0.244739 0
0.202548 0.244724 0
0.207095 0.244694 0
0.2159 0.244633 0
0.229007 0.244511 0
0.245945 0.244358 0
0.266087 0.24416 0
0.288731 0.243915 0
0.313313 0.243626 0
0.339361 0.243305 0
0.366491 0.242939 0
0.394446 0.242542 0
0.423011 0.242115 0
0.452049 0.241657 0
0.481437 0.241184 0
0.511086 0.240696 0
0.540948 0.240192 0
0.570962 0.239673 0
0.601099 0.23917 0
0.631327 0.238651 0
0.661677 0.238117 0
0.692119 0.237568 0
0.722667 0.237003 0
0.753277 0.236423 0
0.783963 0.235828 0
0.81471 0.235218 0
0.845518 0.234592 0
0.876356 0.233951 0
0.90724 0.23328 0
0.93817 0.232609 0
0.969116 0.231922 0
1 0.231205 0
1 0.230488 0
0.215991 0.27599 0
0.216953 0.275975 0
0.221012 0.275959 0
0.228931 0.275914 0
0.240833 0.275837 0
0.256428 0.275715 0
0.275196 0.275578 0
0.296544 0.27541 0
0.319951 0.275196 0
0.344961 0.274968 0
0.371191 0.274693 0
0.398383 0.274403 0
0.426291 0.274098 0
0.454765 0.273762 0
0.48368 0.273411 0
0.512932 0.273045 0
0.542458 0.272663 0
0.572183 0.272267 0
0.602121 0.27187 0
0.632227 0.271458 0
0.662486 0.271015 0
0.692851 0.270573 0
0.723323 0.270115 0
0.753887 0.269627 0
0.784527 0.269139 0
0.815244 0.268635 0
0.846006 0.268132 0
0.876814 0.267597 0
0.907668 0.267048 0
0.938567 0.266499 0
0.969497 0.265919 0
1 0.265339 0
1 0.264744 0
0.228168 0.307332 0
0.229038 0.307332 0
0.232746 0.307301 0
0.240009 0.307271 0
0.251026 0.30721 0
0.265583 0.307134 0
0.283253 0.307042 0
0.303563 0.306905 0
0.325978 0.306752 0
0.350103 0.306584 0
0.375555 0.306386 0
0.402045 0.306172 0
0.429374 0.305943 0
0.457343 0.305684 0
0.485817 0.305425 0
0.514733 0.305135 0
0.543999 0.304829 0
0.573556 0.304524 0
0.603342 0.304189 0
0.633326 0.303838 0
0.663478 0.303471 0
0.693751 0.303105 0
0.724147 0.302724 0
0.75465 0.302312 0
0.785229 0.3019 0
0.815885 0.301488 0
0.846601 0.301045 0
0.877363 0.300603 0
0.908186 0.300145 0
0.939055 0.299672 0
0.969955 0.299199 0
1 0.298711 0
1 0.298207 0
0.2383 0.338735 0
0.239109 0.338735 0
0.242557 0.33872 0
0.249332 0.338689 0
0.259663 0.338659 0
0.273411 0.338598 0
0.290227 0.338521 0
0.309667 0.33843 0
0.331289 0.338308 0
0.354681 0.338186 0
0.379492 0.338033 0
0.405447 0.337865 0
0.432319 0.337682 0
0.459907 0.337484 0
0.48809 0.337255 0
0.516747 0.337026 0
0.5458 0.336767 0
0.575158 0.336507 0
0.604776 0.336233 0
0.634623 0.335943 0
0.664652 0.335637 0
0.69482 0.335317 0
0.725124 0.334981 0
0.755535 0.334646 0
0.786053 0.334295 0
0.816648 0.333944 0
0.847303 0.333562 0
0.878019 0.333181 0
0.908797 0.332799 0
0.939635 0.332387 0
0.970489 0.331975 0
1 0.331563 0
1 0.331121 0
0.247135 0.370153 0
0.247898 0.370153 0
0.251148 0.370153 0
0.257572 0.370123 0
0.267399 0.370092 0
0.280537 0.370047 0
0.296696 0.369985 0
0.31548 0.369909 0
0.336492 0.369818 0
0.359304 0.369711 0
0.383597 0.369589 0
0.409094 0.369451 0
0.435554 0.369299 0
0.462791 0.369131 0
0.490654 0.368948 0
0.519036 0.36875 0
0.547845 0.368536 0
0.577005 0.368322 0
0.606439 0.368078 0
0.636133 0.367834 0
0.66601 0.367575 0
0.696071 0.3673 0
0.726268 0.367025 0
0.756588 0.366735 0
0.787015 0.36643 0
0.817533 0.36611 0
0.848127 0.365789 0
0.878798 0.365469 0
0.909529 0.365118 0
0.940307 0.364782 0
0.97113 0.364416 0
1 0.36405 0
1 0.363684 0
0.255985 0.401541 0
0.256718 0.401541 0
0.2598 0.401541 0
0.265904 0.401526 0
0.275273 0.401495 0
0.287846 0.40145 0
0.303395 0.401404 0
0.321569 0.401343 0
0.341955 0.401266 0
0.364218 0.401175 0
0.387991 0.401083 0
0.413016 0.400961 0
0.439063 0.400839 0
0.465934 0.400687 0
0.493477 0.400534 0
0.521584 0.400366 0
0.550134 0.400198 0
0.579065 0.4 0
0.608316 0.399802 0
0.637827 0.399588 0
0.667567 0.399359 0
0.69749 0.39913 0
0.727565 0.398886 0
0.757794 0.398627 0
0.788128 0.398367 0
0.81857 0.398093 0
0.849088 0.397818 0
0.879683 0.397528 0
0.910353 0.397223 0
0.941085 0.396918 0
0.971862 0.396612 0
1 0.396292 0
1 0.395956 0
0.264912 0.432898 0
0.265599 0.432898 0
0.268528 0.432898 0
0.274327 0.432883 0
0.283268 0.432853 0
0.295338 0.432822 0
0.310307 0.432776 0
0.327886 0.432731 0
0.347692 0.43267 0
0.36939 0.432593 0
0.39266 0.432502 0
0.417212 0.43241 0
0.442847 0.432303 0
0.469337 0.432181 0
0.496559 0.432044 0
0.524361 0.431907 0
0.552651 0.431754 0
0.581353 0.431586 0
0.610407 0.431418 0
0.639735 0.431235 0
0.669306 0.431037 0
0.699092 0.430838 0
0.729046 0.430625 0
0.759152 0.430396 0
0.78938 0.430167 0
0.81973 0.429923 0
0.850172 0.429679 0
0.880705 0.429419 0
0.911299 0.42916 0
0.94197 0.428885 0
0.972686 0.428611 0
1 0.428336 0
1 0.428031 0
0.273884 0.464225 0
0.27454 0.464225 0
0.277333 0.464225 0
0.282856 0.46421 0
0.291417 0.464195 0
0.302983 0.464164 0
0.317403 0.464134 0
0.334401 0.464088 0
0.353643 0.464027 0
0.374807 0.463966 0
0.397574 0.46389 0
0.421668 0.463813 0
0.446876 0.463722 0
0.472984 0.463615 0
0.499855 0.463508 0
0.527367 0.463386 0
0.555398 0.463249 0
0.583856 0.463096 0
0.61268 0.462959 0
0.641825 0.462791 0
0.671229 0.462623 0
0.700862 0.46244 0
0.730678 0.462257 0
0.760662 0.462058 0
0.790784 0.46186 0
0.821027 0.461646 0
0.851377 0.461433 0
0.881834 0.461204 0
0.912352 0.46096 0
0.942962 0.460731 0
0.973632 0.460472 0
1 0.460227 0
1 0.459968 0
0.282918 0.495537 0
0.283543 0.495537 0
0.286198 0.495537 0
0.291478 0.495521 0
0.299657 0.495506 0
0.31078 0.495476 0
0.324681 0.495445 0
0.341131 0.495415 0
0.359823 0.495369 0
0.380453 0.495308 0
0.402716 0.495247 0
0.426352 0.495186 0
0.451133 0.495094 0
0.47686 0.495003 0
0.503395 0.494911 0
0.530587 0.494804 0
0.558343 0.494682 0
0.586557 0.49456 0
0.615167 0.494423 0
0.644099 0.494285 0
0.67332 0.494133 0
0.702785 0.49398 0
0.732464 0.493812 0
0.76231 0.493645 0
0.792325 0.493462 0
0.822461 0.493278 0
0.85272 0.49308 0
0.883085 0.492882 0
0.913527 0.492668 0
0.94406 0.492454 0
0.97467 0.492226 0
1 0.491997 0
1 0.491768 0
0.291981 0.526833 0
0.292576 0.526833 0
0.295109 0.526833 0
0.300175 0.526818 0
0.308019 0.526802 0
0.3187 0.526787 0
0.332113 0.526757 0
0.348028 0.526726 0
0.366186 0.52668 0
0.386297 0.526635 0
0.408072 0.526589 0
0.43125 0.526513 0
0.455604 0.526452 0
0.480964 0.526375 0
0.507149 0.526284 0
0.53402 0.526192 0
0.561486 0.526085 0
0.589441 0.525979 0
0.617823 0.525856 0
0.646555 0.525734 0
0.675593 0.525597 0
0.70489 0.52546 0
0.734417 0.525322 0
0.764126 0.525154 0
0.794003 0.525002 0
0.824033 0.524834 0
0.8542 0.524666 0
0.884459 0.524483 0
0.914824 0.524285 0
0.945281 0.524102 0
0.975814 0.523903 0
1 0.52369 0
1 0.523476 0
0.301106 0.558114 0
0.301671 0.558114 0
0.304097 0.558099 0
0.308934 0.558099 0
0.316457 0.558083 0
0.326726 0.558068 0
0.339681 0.558053 0
0.355093 0.558022 0
0.372747 0.557977 0
0.39234 0.557946 0
0.413626 0.557885 0
0.436347 0.557839 0
0.460288 0.557778 0
0.485267 0.557702 0
0.511086 0.557626 0
0.537652 0.557549 0
0.564828 0.557458 0
0.592523 0.557366 0
0.620661 0.55726 0
0.64918 0.557137 0
0.678035 0.557031 0
0.707149 0.556909 0
0.736507 0.556771 0
0.766079 0.556634 0
0.795834 0.556481 0
0.825742 0.556329 0
0.855787 0.556176 0
0.885954 0.556023 0
0.916228 0.55584 0
0.946609 0.555673 0
0.977066 0.555489 0
1 0.555306 0
1 0.555108 0
0.310262 0.58938 0
0.310811 0.58938 0
0.313115 0.58938 0
0.317754 0.589364 0
0.324987 0.589364 0
0.334874 0.589349 0
0.347372 0.589319 0
0.36231 0.589303 0
0.379461 0.589273 0
0.398566 0.589227 0
0.419379 0.589181 0
0.441657 0.589136 0
0.465171 0.58909 0
0.489754 0.589029 0
0.515236 0.588952 0
0.541466 0.588876 0
0.568353 0.5888 0
0.595789 0.588708 0
0.623682 0.588617 0
0.651987 0.588525 0
0.680629 0.588418 0
0.709575 0.588296 0
0.738766 0.58819 0
0.768185 0.588067 0
0.797803 0.58793 0
0.827588 0.587793 0
0.857511 0.587655 0
0.887587 0.587503 0
0.917754 0.58735 0
0.948043 0.587198 0
0.978408 0.58703 0
1 0.586862 0
1 0.586679 0
0.319448 0.620645 0
0.319966 0.62063 0
0.322194 0.62063 0
0.32665 0.62063 0
0.333593 0.620615 0
0.34313 0.6206 0
0.3552 0.620584 0
0.369665 0.620569 0
0.386343 0.620539 0
0.404974 0.620508 0
0.425315 0.620462 0
0.447135 0.620417 0
0.470237 0.620371 0
0.494438 0.620325 0
0.519554 0.620264 0
0.545464 0.620188 0
0.572061 0.620127 0
0.599222 0.62005 0
0.626871 0.619959 0
0.654948 0.619867 0
0.683391 0.619776 0
0.712139 0.619669 0
0.741161 0.619562 0
0.770428 0.619455 0
0.799893 0.619333 0
0.829557 0.619211 0
0.859373 0.619089 0
0.889326 0.618952 0
0.919402 0.618814 0
0.949584 0.618662 0
0.979873 0.618524 0
1 0.618357 0
1 0.618204 0
0.328679 0.651896 0
0.329183 0.651896 0
0.331304 0.651881 0
0.335592 0.651881 0
0.342275 0.651865 0
0.351461 0.651865 0
0.363134 0.65185 0
0.377157 0.65182 0
0.393362 0.651804 0
0.411521 0.651774 0
0.431403 0.651743 0
0.452796 0.651698 0
0.475486 0.651652 0
0.499306 0.651606 0
0.524071 0.651545 0
0.549645 0.651484 0
0.575936 0.651423 0
0.602823 0.651362 0
0.630213 0.651286 0
0.658061 0.651194 0
0.68629 0.651118 0
0.714855 0.651026 0
0.743709 0.650919 0
0.772808 0.650828 0
0.802136 0.650721 0
0.831647 0.650599 0
0.861341 0.650492 0
0.891173 0.65037 0
0.921157 0.650233 0
0.951247 0.650111 0
0.981445 0.649973 0
1 0.649821 0
1 0.649683 0
0.337926 0.683131 0
0.338415 0.683131 0
0.340459 0.683131 0
0.344579 0.683131 0
0.351003 0.683116 0
0.359869 0.683101 0
0.37116 0.683101 0
0.384771 0.68307 0
0.400519 0.683055 0
0.418235 0.683024 0
0.437659 0.682994 0
0.458625 0.682963 0
0.480903 0.682918 0
0.504326 0.682872 0
0.52874 0.682826 0
0.553994 0.68278 0
0.579965 0.682719 0
0.606577 0.682658 0
0.633722 0.682582 0
0.661326 0.682506 0
0.689342 0.682429 0
0.717708 0.682353 0
0.74638 0.682261 0
0.775326 0.68217 0
0.804501 0.682078 0
0.833875 0.681971 0
0.863432 0.681865 0
0.893156 0.681743 0
0.923018 0.681636 0
0.953017 0.681514 0
0.983124 0.681392 0
1 0.681254 0
1 0.681117 0
0.347219 0.714366 0
0.347677 0.714366 0
0.349645 0.714366 0
0.353597 0.714366 0
0.359808 0.714366 0
0.368368 0.714351 0
0.379294 0.714336 0
0.392493 0.714321 0
0.407813 0.714305 0
0.425071 0.714275 0
0.444068 0.714244 0
0.464607 0.714214 0
0.486488 0.714183 0
0.509529 0.714137 0
0.533578 0.714092 0
0.558495 0.714046 0
0.584176 0.714 0
0.610498 0.713939 0
0.637385 0.713878 0
0.664759 0.713802 0
0.692546 0.713741 0
0.720714 0.713664 0
0.749203 0.713573 0
0.777966 0.713497 0
0.806989 0.713405 0
0.836225 0.713314 0
0.865644 0.713207 0
0.895247 0.713115 0
0.925002 0.713008 0
0.954879 0.712886 0
0.984894 0.712779 0
1 0.712657 0
1 0.712535 0
0.356527 0.745602 0
0.35697 0.745602 0
0.358862 0.745602 0
0.362676 0.745602 0
0.368658 0.745602 0
0.376928 0.745586 0
0.387503 0.745571 0
0.40032 0.745556 0
0.415213 0.745541 0
0.432059 0.745525 0
0.450629 0.745495 0
0.470741 0.745464 0
0.49221 0.745434 0
0.51487 0.745403 0
0.538567 0.745357 0
0.563165 0.745312 0
0.588525 0.745266 0
0.614572 0.745205 0
0.641184 0.745159 0
0.668315 0.745098 0
0.695888 0.745022 0
0.723857 0.744961 0
0.752148 0.744884 0
0.780743 0.744808 0
0.809598 0.744717 0
0.838682 0.74464 0
0.867979 0.744549 0
0.897459 0.744457 0
0.927092 0.74435 0
0.956863 0.744244 0
0.98677 0.744137 0
1 0.74403 0
1 0.743923 0
0.36585 0.776837 0
0.366278 0.776837 0
0.368109 0.776837 0
0.371786 0.776837 0
0.377569 0.776822 0
0.385565 0.776822 0
0.395804 0.776806 0
0.40824 0.776791 0
0.422736 0.776776 0
0.439155 0.776761 0
0.457313 0.77673 0
0.477012 0.776715 0
0.498085 0.776684 0
0.520378 0.776638 0
0.543709 0.776608 0
0.567971 0.776562 0
0.593027 0.776516 0
0.618784 0.776471 0
0.645136 0.776425 0
0.672023 0.776364 0
0.699382 0.776303 0
0.727123 0.776242 0
0.75523 0.776181 0
0.783658 0.776104 0
0.812345 0.776028 0
0.841276 0.775952 0
0.87042 0.77586 0
0.899763 0.775769 0
0.929274 0.775692 0
0.958953 0.775586 0
0.988754 0.775494 0
1 0.775387 0
1 0.77528 0
0.375204 0.808057 0
0.375616 0.808057 0
0.377386 0.808057 0
0.380926 0.808057 0
0.386511 0.808057 0
0.394247 0.808042 0
0.404181 0.808042 0
0.416251 0.808026 0
0.430365 0.808011 0
0.446372 0.807996 0
0.464118 0.807965 0
0.483421 0.80795 0
0.504112 0.807919 0
0.526024 0.807889 0
0.549004 0.807858 0
0.572931 0.807813 0
0.597681 0.807767 0
0.623148 0.807736 0
0.649241 0.807675 0
0.675883 0.80763 0
0.702998 0.807568 0
0.730541 0.807523 0
0.75845 0.807446 0
0.786679 0.807385 0
0.815198 0.807309 0
0.843976 0.807248 0
0.872984 0.807172 0
0.90219 0.80708 0
0.931579 0.807004 0
0.961135 0.806912 0
0.990829 0.806821 0
1 0.806729 0
1 0.806622 0
0.384573 0.839292 0
0.38497 0.839292 0
0.386679 0.839277 0
0.390112 0.839277 0
0.395499 0.839277 0
0.402991 0.839277 0
0.412619 0.839261 0
0.424353 0.839246 0
0.438087 0.839231 0
