src/luts/crop/15.cube
TITLE "Generated by Resolve"
LUT_3D_SIZE 5
0.0148623 0 0
0.272618 0 0
0.533974 0 0
0.782498 0 0
1 0 0
0.201465 0.244739 0
0.313313 0.243626 0
0.540948 0.240192 0
0.783963 0.235828 0
1 0.230488 0
0.282918 0.495537 0
0.359823 0.495369 0
0.558343 0.494682 0
0.792325 0.493462 0
1 0.491768 0
0.356527 0.745602 0
0.415213 0.745541 0
0.588525 0.745266 0
0.809598 0.744717 0
1 0.743923 0
0.431693 0.995361 0
0.478004 0.995331 0
0.628412 0.995178 0
0.834791 0.994873 0
1 0.994415 0
0 0.114473 0.484825
0 0.0950942 0.421317
0.508034 0 0.196841
0.768826 0 0
1 0 0
0 0.252079 0.297185
0.250294 0.249958 0.249348
0.519417 0.245548 0
0.772656 0.240772 0
1 0.234653 0
0.252247 0.49662 0
0.338781 0.496437 0
0.547555 0.495735 0
0.786236 0.494438 0
1 0.492622 0
0.349599 0.745815 0
0.409689 0.745739 0
0.585275 0.745449 0
0.807706 0.7449 0
1 0.744076 0
0.43328 0.995315 0
0.479408 0.995285 0
0.629404 0.995132 0
0.835538 0.994827 0
1 0.994369 0
0 0.171115 0.783627
0 0.17818 0.805203
0.189883 0.170092 0.780529
0.704616 0.117082 0.635859
1 0 0.391073
0 0.291188 0.804364
0 0.289586 0.794568
0.29984 0.27985 0.732265
0.725429 0.259068 0.580499
1 0.236103 0.335012
0 0.504051 0.591791
0.0470436 0.503212 0.574273
0.500343 0.499962 0.49926
0.782101 0.495094 0.343542
1 0.490929 0
0.383734 0.744762 0
0.43888 0.74464 0
0.605829 0.744198 0
0.821195 0.743618 0
1 0.74284 0
0.469413 0.994324 0
0.511086 0.994293 0
0.651377 0.994141 0
0.85034 0.993851 0
1 0.993393 0
0 0.189166 0.986938
0 0.188586 0.985473
0 0.203861 1
0.473823 0.225101 1
0.884443 0.201022 1
0 0.299748 0.999908
0 0.30219 1
0 0.314183 1
0.481865 0.316503 1
0.897841 0.29839 0.993484
0 0.529183 1
0 0.528847 1
0 0.526741 1
0.578424 0.520699 0.99765
0.953918 0.509667 0.876249
0 0.755886 0.883711
0 0.755444 0.874418
0.414496 0.753552 0.834028
0.750378 0.749966 0.749203
1 0.745083 0.606867
0.484199 0.993881 0.426703
0.52781 0.993729 0.413489
0.673487 0.993103 0.352789
0.877424 0.991989 0.175296
1 0.990662 0
0 0.264485 1
0 0.256718 1
0 0.23473 1
0.473152 0.225254 1
0.77351 0.256962 1
0 0.329091 1
0 0.326162 1
0 0.318807 1
0.453971 0.320485 1
0.760113 0.341878 1
0 0.530999 1
0 0.531594 1
0 0.535119 1
0.181613 0.541924 1
0.750851 0.542947 1
0 0.775479 1
0 0.775357 1
0 0.774609 1
0.31284 0.772381 1
0.839338 0.767529 1
0 1 1
0 1 1
0.159335 1 1
0.678553 1 1
1 0.999969 0.999146
