src/luts/crop/15.cube
TITLE "Generated by Resolve"
LUT_3D_SIZE 9
0.0148623 0 0
0.135775 0 0
0.272618 0 0
0.406592 0 0
0.533974 0 0
0.658854 0 0
0.782498 0 0
0.906096 0 0
1 0 0
0.107424 0.12192 0
0.164477 0.120836 0
0.284962 0.116091 0
0.410819 0.108675 0
0.535637 0.099794 0
0.65951 0.0899214 0
0.782742 0.0793774 0
0.906294 0.0661631 0
1 0.045594 0
0.201465 0.244739 0
0.229007 0.244511 0
0.313313 0.243626 0
0.423011 0.242115 0
0.540948 0.240192 0
0.661677 0.238117 0
0.783963 0.235828 0
0.90724 0.23328 0
1 0.230488 0
0.247135 0.370153 0
0.267399 0.370092 0
0.336492 0.369818 0
0.435554 0.369299 0
0.547845 0.368536 0
0.66601 0.367575 0
0.787015 0.36643 0
0.909529 0.365118 0
1 0.363684 0
0.282918 0.495537 0
0.299657 0.495506 0
0.359823 0.495369 0
0.451133 0.495094 0
0.558343 0.494682 0
0.67332 0.494133 0
0.792325 0.493462 0
0.913527 0.492668 0
1 0.491768 0
0.319448 0.620645 0
0.333593 0.620615 0
0.386343 0.620539 0
0.470237 0.620371 0
0.572061 0.620127 0
0.683391 0.619776 0
0.799893 0.619333 0
0.919402 0.618814 0
1 0.618204 0
0.356527 0.745602 0
0.368658 0.745602 0
0.415213 0.745541 0
0.49221 0.745434 0
0.588525 0.745266 0
0.695888 0.745022 0
0.809598 0.744717 0
0.927092 0.74435 0
1 0.743923 0
0.393973 0.870512 0
0.404532 0.870497 0
0.445914 0.870451 0
0.516548 0.870375 0
0.607401 0.870253 0
0.710628 0.870085 0
0.821286 0.869871 0
0.936507 0.869596 0
1 0.869276 0
0.431693 0.995361 0
0.440986 0.995361 0
0.478004 0.995331 0
0.54287 0.99527 0
0.628412 0.995178 0
0.727382 0.995041 0
0.834791 0.994873 0
0.94757 0.994675 0
1 0.994415 0
0 0.0434119 0.197818
0.0775464 0.0378424 0.18143
0.254994 0 0.0900587
0.394308 0 0
0.524315 0 0
0.651316 0 0
0.777173 0 0
0.902571 0 0
1 0 0
0 0.125856 0.144839
0.125307 0.124956 0.124315
0.266575 0.12108 0
0.398184 0.115038 0
0.525948 0.107729 0
0.652171 0.0991226 0
0.777691 0.0888838 0
0.902907 0.0760662 0
1 0.0582437 0
0.164279 0.246784 0
0.19881 0.246586 0
0.294163 0.245792 0
0.410239 0.244373 0
0.532036 0.242466 0
0.655619 0.240192 0
0.779858 0.237659 0
0.904387 0.234867 0
1 0.231846 0
0.225727 0.371115 0
0.248524 0.371038 0
0.323339 0.370748 0
0.426825 0.370199 0
0.541909 0.36939 0
0.66186 0.368368 0
0.784054 0.367147 0
0.907378 0.365759 0
1 0.364233 0
0.272465 0.495918 0
0.290074 0.495888 0
0.352544 0.49575 0
0.445991 0.495476 0
0.554681 0.495048 0
0.670665 0.494484 0
0.790356 0.493782 0
0.912062 0.492958 0
1 0.492027 0
0.314229 0.620813 0
0.328695 0.620783 0
0.382406 0.620706 0
0.467323 0.620539 0
0.569894 0.620279 0
0.681773 0.619928 0
0.798672 0.619486 0
0.918471 0.618952 0
1 0.618326 0
0.35404 0.745678 0
0.366308 0.745663 0
0.413245 0.745617 0
0.490684 0.74551 0
0.587366 0.745327 0
0.695018 0.745098 0
0.808927 0.744793 0
0.926558 0.744411 0
1 0.743969 0
0.393011 0.870527 0
0.403616 0.870527 0
0.445121 0.870481 0
0.515923 0.870405 0
0.606912 0.870283 0
0.710262 0.870115 0
0.820996 0.869886 0
0.936294 0.869612 0
1 0.869291 0
0.431617 0.995361 0
0.440925 0.995361 0
0.477958 0.995331 0
0.54284 0.99527 0
0.628382 0.995178 0
0.727367 0.995041 0
0.834806 0.994873 0
0.947585 0.994675 0
1 0.994415 0
0 0.114473 0.484825
0 0.111498 0.47483
0 0.0950942 0.421317
0.350759 0.06009 0.321645
0.508034 0 0.196841
0.640345 0 0
0.768826 0 0
0.896208 0 0
1 0 0
0 0.153582 0.449226
0 0.151247 0.435904
0.11902 0.142321 0.381781
0.362371 0.129641 0.291203
0.510994 0.118242 0.170611
0.64152 0.110475 0
0.769574 0.101579 0
0.896727 0.090486 0
1 0.076051 0
0 0.252079 0.297185
0 0.251637 0.287846
0.250294 0.249958 0.249348
0.390631 0.247608 0.174502
0.519417 0.245548 0
0.646159 0.243351 0
0.772656 0.240772 0
0.898878 0.237858 0
1 0.234653 0
0.189105 0.372457 0
0.217273 0.372396 0
0.302403 0.372122 0
0.412726 0.371603 0
0.531823 0.370809 0
0.654337 0.369772 0
0.778302 0.368521 0
0.902937 0.367071 0
1 0.365454 0
0.252247 0.49662 0
0.271702 0.49659 0
0.338781 0.496437 0
0.436194 0.496162 0
0.547555 0.495735 0
0.665309 0.495155 0
0.786236 0.494438 0
0.908873 0.493584 0
1 0.492622 0
0.303761 0.621134 0
0.318898 0.621118 0
0.374548 0.621027 0
0.461448 0.620859 0
0.56553 0.6206 0
0.678447 0.620249 0
0.796109 0.619791 0
0.916472 0.619242 0
1 0.618601 0
0.349599 0.745815 0
0.362066 0.7458 0
0.409689 0.745739 0
0.487922 0.745632 0
0.585275 0.745449 0
0.693416 0.74522 0
0.807706 0.7449 0
0.925628 0.744518 0
1 0.744076 0
0.392325 0.870558 0
0.40296 0.870542 0
0.444556 0.870497 0
0.51548 0.87042 0
0.606607 0.870298 0
0.710033 0.87013 0
0.820859 0.869902 0
0.936233 0.869627 0
1 0.869291 0
0.43328 0.995315 0
0.442542 0.995315 0
0.479408 0.995285 0
0.544076 0.995224 0
0.629404 0.995132 0
0.728237 0.994995 0
0.835538 0.994827 0
0.948241 0.994614 0
1 0.994369 0
0 0.154299 0.66949
0 0.154025 0.668574
0 0.149523 0.653986
0 0.135012 0.608164
0.429709 0.108232 0.529488
0.612528 0.0621958 0.423758
0.762173 0 0.294301
0.89604 0 0.107225
1 0 0
0 0.186236 0.662593
0 0.185321 0.658686
0 0.180606 0.63827
0.124483 0.16965 0.590173
0.440269 0.152453 0.512108
0.616861 0.131167 0.407858
0.764004 0.109056 0.279057
0.896727 0.0904707 0.0695048
1 0.0764019 0
0 0.270451 0.592416
0 0.26978 0.586801
0 0.267048 0.562783
0.272099 0.261921 0.514672
0.475822 0.255055 0.440787
0.632166 0.247807 0.341588
0.770535 0.241672 0.21062
0.899245 0.237659 0
1 0.234653 0
0 0.378088 0.444831
0 0.377829 0.439704
0.206134 0.376806 0.417884
0.375311 0.37496 0.374289
0.518639 0.372595 0.305501
0.652003 0.370199 0.202472
0.779232 0.368307 0
0.903502 0.366918 0
1 0.365377 0
0.237888 0.497063 0.223514
0.260029 0.496986 0.217746
0.333577 0.496696 0.191867
0.436088 0.496178 0.127123
0.549783 0.495521 0
0.667399 0.494896 0
0.78761 0.494224 0
0.909773 0.493416 0
1 0.49247 0
0.312947 0.620844 0
0.327459 0.620829 0
0.381292 0.620752 0
0.466316 0.6206 0
0.568994 0.620356 0
0.680964 0.620005 0
0.797986 0.619562 0
0.917906 0.619028 0
1 0.618402 0
0.358526 0.745541 0
0.370565 0.745541 0
0.416815 0.74548 0
0.493446 0.745373 0
0.589487 0.745205 0
0.696666 0.744976 0
0.810269 0.744656 0
0.927703 0.744289 0
1 0.743832 0
0.401801 0.870283 0
0.412085 0.870283 0
0.452522 0.870237 0
0.52195 0.870161 0
0.611734 0.870039 0
0.714137 0.869871 0
0.824186 0.869642 0
0.938979 0.869368 0
1 0.869032 0
0.443412 0.995056 0
0.452384 0.995041 0
0.488212 0.99501 0
0.551461 0.994965 0
0.635447 0.994858 0
0.73315 0.994736 0
0.839597 0.994568 0
0.951644 0.994354 0
1 0.994095 0
0 0.171115 0.783627
0 0.17319 0.789929
0 0.17818 0.805203
0 0.178851 0.807263
0.189883 0.170092 0.780529
0.508095 0.150179 0.722377
0.704616 0.117082 0.635859
0.869398 0.0544442 0.524987
1 0 0.391073
0 0.205341 0.800305
0 0.206119 0.803235
0 0.207721 0.809308
0 0.206134 0.803326
0.215641 0.197925 0.772198
0.515755 0.18204 0.712245
0.708843 0.158877 0.625345
0.871763 0.128985 0.514626
1 0.0915541 0.380621
0 0.291188 0.804364
0 0.290913 0.802762
0 0.289586 0.794568
0 0.286183 0.773266
0.29984 0.27985 0.732265
0.545846 0.270512 0.66807
0.725429 0.259068 0.580499
0.881071 0.247028 0.470436
1 0.236103 0.335012
0 0.392905 0.733837
0 0.392615 0.730724
0 0.391363 0.717235
0 0.388846 0.689174
0.406394 0.384985 0.643275
0.594278 0.379995 0.577386
0.752529 0.374426 0.490333
0.8963 0.369009 0.379919
1 0.364446 0.231083
0 0.504051 0.591791
0 0.503883 0.588464
0.0470436 0.503212 0.574273
0.338415 0.501884 0.545419
0.500343 0.499962 0.49926
0.645426 0.497612 0.433356
0.782101 0.495094 0.343542
0.913008 0.492775 0.212039
1 0.490929 0
0.265309 0.622217 0.385809
0.285191 0.622141 0.382315
0.353887 0.621851 0.367224
0.45359 0.621286 0.335851
0.566934 0.620508 0.282445
0.685618 0.619562 0.190692
0.806012 0.618601 0
0.926558 0.617761 0
1 0.617121 0
0.383734 0.744762 0
0.395041 0.744732 0
0.43888 0.74464 0
0.512566 0.744457 0
0.605829 0.744198 0
0.710292 0.743923 0
0.821195 0.743618 0
0.936568 0.743267 0
1 0.74284 0
0.431113 0.869413 0
0.440436 0.869413 0
0.477562 0.869368 0
0.542565 0.869291 0
0.62826 0.869184 0
0.727382 0.869017 0
0.834928 0.868803 0
0.947845 0.868544 0
1 0.868223 0
0.469413 0.994324 0
0.477699 0.994324 0
0.511086 0.994293 0
0.570855 0.994232 0
0.651377 0.994141 0
0.746181 0.994018 0
0.85034 0.993851 0
0.960601 0.993637 0
1 0.993393 0
0 0.173388 0.863462
0 0.174624 0.866804
0 0.181125 0.884535
0 0.194995 0.923735
0 0.202625 0.945922
0.332052 0.200198 0.938827
0.59443 0.186938 0.900755
0.793271 0.162066 0.833707
0.967147 0.122026 0.740948
0 0.206455 0.875883
0 0.207752 0.880217
0 0.21416 0.901915
0 0.223148 0.932601
0 0.227359 0.947127
0.338628 0.223987 0.935515
0.599222 0.212131 0.895018
0.796735 0.191699 0.82681
0.969528 0.162493 0.733562
0 0.302007 0.933532
0 0.302403 0.935622
0 0.3037 0.942382
0 0.304753 0.94786
0 0.303655 0.942092
0.371954 0.298878 0.917052
0.619989 0.289906 0.868757
0.811154 0.277089 0.796628
0.979309 0.261448 0.701762
0 0.408179 0.943191
0 0.408072 0.94229
0 0.407507 0.937911
0 0.406119 0.926787
0 0.403357 0.904448
0.443244 0.39884 0.866514
0.660533 0.392477 0.809934
0.838026 0.384619 0.733394
0.997131 0.375937 0.636545
0 0.516945 0.874739
0 0.516793 0.87274
0 0.516075 0.864027
0 0.514626 0.845792
0.294224 0.512276 0.815427
0.536171 0.50901 0.770504
0.715206 0.504906 0.709056
0.87364 0.500237 0.629602
1 0.495415 0.530449
0 0.629984 0.738064
0 0.629877 0.735729
0 0.629389 0.725658
0.271427 0.628412 0.705104
0.466575 0.626932 0.671931
0.62536 0.624964 0.624216
0.771588 0.622614 0.560052
0.910643 0.620081 0.476692
1 0.617563 0.367529
0.273747 0.747677 0.541131
0.293217 0.747616 0.538613
0.361181 0.747341 0.52781
0.460914 0.746822 0.505669
0.575265 0.746044 0.469596
0.695796 0.745037 0.416403
0.818631 0.743877 0.340017
0.941894 0.742657 0.218814
1 0.741497 0
0.440375 0.869123 0.223865
0.450034 0.869093 0.219028
0.48835 0.868971 0.196841
0.555154 0.868742 0.138766
0.642634 0.868406 0
0.743084 0.867979 0
0.851179 0.867506 0
0.963638 0.867033 0
1 0.866606 0
0.511193 0.993027 0
0.518654 0.993011 0
0.548989 0.992981 0
0.604181 0.992905 0
0.679835 0.992782 0
0.770077 0.992645 0
0.870237 0.992493 0
0.977295 0.992294 0
1 0.992065 0
0 0.189166 0.986938
0 0.188876 0.986191
0 0.188586 0.985473
0 0.19176 0.993484
0 0.203861 1
0.114168 0.220371 1
0.473823 0.225101 1
0.692226 0.218631 1
0.884443 0.201022 1
0 0.215167 0.985428
0 0.215167 0.985397
0 0.215793 0.987305
0 0.219715 0.999222
0 0.231449 1
0.0456703 0.24358 1
0.474357 0.246387 1
0.694713 0.239918 1
0.886961 0.224231 1
0 0.299748 0.999908
0 0.30016 1
0 0.30219 1
0 0.307546 1
0 0.314183 1
0 0.317662 1
0.481865 0.316503 1
0.706538 0.310048 1
0.897841 0.29839 0.993484
0 0.415366 1
0 0.415564 1
0 0.416312 1
0 0.417304 1
0 0.417731 1
0 0.416632 1
0.513466 0.41326 1
0.733928 0.407279 1
0.920089 0.398764 0.950561
0 0.529183 1
0 0.529122 1
0 0.528847 1
0 0.52813 1
0 0.526741 1
0.284398 0.52433 1
0.578424 0.520699 0.99765
0.779431 0.51577 0.945556
0.953918 0.509667 0.876249
0 0.641611 1
0 0.64152 1
0 0.641062 1
0 0.640116 0.994812
0 0.638575 0.973449
0.456092 0.636362 0.941527
0.664057 0.633433 0.897078
0.837461 0.629831 0.838392
0.995499 0.625711 0.764019
0 0.755886 0.883711
0 0.75581 0.881956
0 0.755444 0.874418
0.0994583 0.754711 0.859007
0.414496 0.753552 0.834028
0.593378 0.751965 0.79794
0.750378 0.749966 0.749203
0.897429 0.747631 0.686183
1 0.745083 0.606867
0.261845 0.87332 0.694102
0.282719 0.873259 0.69218
0.354284 0.87303 0.683879
0.457435 0.872557 0.666941
0.574655 0.871839 0.639567
0.697871 0.870878 0.599954
0.823514 0.869688 0.545953
0.949767 0.86836 0.474067
1 0.866941 0.376425
0.484199 0.993881 0.426703
0.492882 0.993851 0.424231
0.52781 0.993729 0.413489
0.590066 0.993484 0.391028
0.673487 0.993103 0.352789
0.771054 0.992599 0.290929
0.877424 0.991989 0.175296
0.989059 0.991333 0
1 0.990662 0
0 0.219928 1
0 0.218799 1
0 0.214649 1
0 0.209247 1
0 0.206912 1
0.236271 0.212711 1
0.44741 0.230991 1
0.620645 0.244297 1
0.802213 0.245106 1
0 0.238926 1
0 0.238117 1
0 0.235233 1
0 0.231708 1
0 0.230991 1
0.21677 0.237217 1
0.436728 0.253666 1
0.618769 0.264118 1
0.803021 0.263996 1
0 0.307561 1
0 0.307408 1
0 0.306981 1
0 0.307134 1
0 0.309636 1
0 0.317052 1
0.399039 0.327214 1
0.61416 0.331228 1
0.807736 0.328847 1
0 0.412253 1
0 0.412436 1
0 0.413321 1
0 0.415549 1
0 0.420111 1
0 0.424521 1
0.359472 0.426841 1
0.618463 0.42623 1
0.822034 0.422202 1
0 0.534401 1
0 0.534508 1
0 0.534981 1
0 0.535698 1
0 0.536355 1
0 0.536385 1
0.378393 0.535286 1
0.648615 0.532586 1
0.85243 0.528054 1
0 0.651911 1
0 0.651865 1
0 0.651698 1
0 0.651286 1
0 0.650492 1
0 0.649104 1
0.473381 0.646937 1
0.709895 0.643809 1
0.900465 0.639673 1
0 0.766583 1
0 0.766506 1
0 0.766201 1
0 0.765545 1
0 0.764462 1
0.334737 0.76289 1
0.598703 0.760769 1
0.790997 0.758053 1
0.960464 0.754772 0.966461
0 0.881758 1
0 0.881697 1
0 0.881422 1
0 0.880842 1
0.332769 0.879927 0.990036
0.548272 0.878645 0.961852
0.719539 0.876982 0.923659
0.87538 0.874968 0.874174
1 0.872633 0.812009
0.221546 0.999069 0.845716
0.247501 0.999023 0.844175
0.33022 0.99881 0.837552
0.441932 0.998398 0.824063
0.564782 0.997757 0.802289
0.692058 0.996872 0.770947
0.821088 0.995758 0.728664
0.950515 0.994446 0.673777
1 0.992966 0.603906
0 0.264485 1
0 0.262913 1
0 0.256718 1
0 0.246342 1
0 0.23473 1
0 0.226169 1
0.473152 0.225254 1
0.646479 0.23592 1
0.77351 0.256962 1
0 0.277348 1
0 0.276066 1
0 0.27097 1
0 0.262516 1
0 0.253254 1
0 0.24686 1
0.470741 0.247135 1
0.641611 0.257572 1
0.77055 0.276097 1
0 0.329091 1
0 0.328496 1
0 0.326162 1
0 0.322438 1
0 0.318807 1
0 0.317372 1
0.453971 0.320485 1
0.615991 0.330861 1
0.760113 0.341878 1
0 0.418235 1
0 0.418128 1
0 0.417746 1
0 0.41735 1
0 0.41767 1
0 0.419821 1
0.381476 0.425345 1
0.567575 0.432898 1
0.748653 0.436439 1
0 0.530999 1
0 0.531106 1
0 0.531594 1
0 0.532753 1
0 0.535119 1
0 0.538888 1
0.181613 0.541924 1
0.534417 0.543465 1
0.750851 0.542947 1
0 0.655833 1
0 0.655909 1
0 0.656229 1
0 0.656764 1
0 0.657374 1
0 0.65774 1
0 0.657557 1
0.551995 0.656443 1
0.780407 0.654108 1
0 0.775479 1
0 0.775464 1
0 0.775357 1
0 0.775097 1
0 0.774609 1
0 0.773754 1
0.31284 0.772381 1
0.62742 0.770336 1
0.839338 0.767529 1
0 0.891707 1
0 0.891646 1
0 0.891417 1
0 0.890944 1
0 0.890166 1
0 0.889006 1
0.513298 0.887419 1
0.734295 0.885344 1
0.917372 0.88278 1
0 1 1
0 1 1
0 1 1
0 1 1
0.159335 1 1
0.48574 1 1
0.678553 1 1
0.84535 1 1
1 0.999969 0.999146
