src/luts/crop/16.cube
TITLE "Generated by Resolve"
LUT_3D_SIZE 9
0 0 0.17644
0.0664378 0 0.174929
0.187335 0 0.18143
0.365087 0 0.213748
0.600595 0 0.259113
0.881148 0 0.307057
1 0.172152 0.348226
1 0.285039 0.383078
1 0.397314 0.4262
0 0 0.157488
0.0165866 0 0.152743
0.144762 0 0.161013
0.302098 0 0.185534
0.517372 0 0.225345
0.779232 0 0.270527
1 0.18703 0.317769
1 0.285649 0.348547
1 0.394751 0.391211
0 0.17998 0.205051
0 0.16582 0.196033
0.170871 0.17145 0.201221
0.291066 0.173556 0.216907
0.456062 0.169207 0.237201
0.676051 0.179263 0.263401
0.943206 0.222416 0.292622
1 0.285801 0.317479
1 0.375753 0.354879
0 0.338827 0.242008
0 0.319921 0.237613
0.183429 0.309407 0.247181
0.314855 0.31519 0.262974
0.452766 0.326223 0.272908
0.636774 0.337148 0.28275
0.872328 0.354314 0.294881
1 0.384558 0.308751
1 0.43621 0.332967
0 0.533669 0.273671
0.0259251 0.504524 0.282063
0.192905 0.482048 0.292042
0.348272 0.476265 0.31043
0.486671 0.486641 0.323812
0.650538 0.503975 0.328435
0.857832 0.52285 0.33022
1 0.54165 0.330343
1 0.560967 0.328298
0 0.762005 0.30135
0.265263 0.717113 0.359426
0.298802 0.697322 0.355917
0.393469 0.681163 0.363592
0.533303 0.675242 0.377325
0.679103 0.6766 0.379477
0.846281 0.678508 0.369329
1 0.676234 0.352132
1 0.66949 0.332128
0 1 0.358999
0.376257 0.947936 0.424079
0.411551 0.914611 0.416251
0.431876 0.876509 0.403296
0.532036 0.838575 0.40209
0.653712 0.80592 0.397391
0.784146 0.779293 0.381033
0.93666 0.756115 0.355901
1 0.735103 0.328908
0 1 0.418921
0.403815 1 0.454917
0.479652 1 0.446555
0.461051 1 0.419104
0.487968 0.952575 0.399359
0.581613 0.899077 0.391165
0.700938 0.858671 0.382834
0.837339 0.830884 0.367895
1 0.81326 0.349004
0 1 0.450004
0.194995 1 0.428977
0.473823 1 0.454734
0.509255 1 0.43975
0.491066 1 0.416098
0.537926 1 0.405829
0.64831 0.975402 0.406897
0.783505 0.946014 0.406577
0.936355 0.92752 0.398352
0 0 0.240528
0.0298466 0 0.23003
0.196094 0 0.242573
0.376379 0 0.278813
0.608072 0 0.329488
0.882078 0 0.382925
1 0.184085 0.426612
1 0.291096 0.464149
1 0.402457 0.50544
0 0 0.224186
0 0 0.213275
0.150469 0 0.218845
0.312627 0 0.246845
0.525307 0 0.292012
0.779934 0 0.342641
1 0.195407 0.393194
1 0.29099 0.429297
1 0.398428 0.469276
0 0.187503 0.264683
0 0.172137 0.253101
0.173434 0.176593 0.249226
0.297917 0.178576 0.265507
0.460304 0.17554 0.29308
0.674876 0.187411 0.327977
0.937835 0.230915 0.36556
1 0.294286 0.397986
1 0.379614 0.432273
0 0.346441 0.305058
0 0.326772 0.29604
0.187457 0.316075 0.297093
0.321477 0.321492 0.310613
0.454994 0.332784 0.326955
0.634714 0.344579 0.345464
0.867308 0.363195 0.366323
1 0.394461 0.387686
1 0.442069 0.409827
0 0.539803 0.343832
0.0338293 0.510155 0.3458
0.203082 0.487755 0.350607
0.358785 0.482094 0.36733
0.493553 0.493507 0.385275
0.651438 0.512306 0.395331
0.853284 0.531044 0.401892
1 0.549111 0.406043
1 0.567315 0.406683
0 0.76849 0.376226
0.276936 0.722225 0.423957
0.307683 0.702052 0.419272
0.40441 0.684672 0.426307
0.541482 0.677089 0.441215
0.680064 0.678248 0.445624
0.839368 0.679698 0.436454
1 0.675944 0.419562
1 0.667369 0.398962
0 1 0.426123
0.383017 0.948882 0.484138
0.416876 0.91313 0.47454
0.43595 0.872389 0.459876
0.53434 0.832242 0.457664
0.651759 0.798459 0.453285
0.775753 0.771893 0.436927
0.922484 0.749264 0.410666
1 0.729122 0.381491
0 1 0.469337
0.397345 1 0.50161
0.479271 1 0.492164
0.461082 1 0.462989
0.486 0.942382 0.441291
0.578729 0.889128 0.432135
0.696315 0.850111 0.423407
0.830457 0.824781 0.407218
0.993591 0.808835 0.385061
0 1 0.482704
0.122957 1 0.456474
0.467491 1 0.485237
0.508125 1 0.469078
0.490578 1 0.443702
0.536904 1 0.431434
0.646738 0.969894 0.430503
0.780743 0.94136 0.42797
0.931975 0.923598 0.416709
0 0 0.316213
0 0 0.303838
0.205264 0 0.310338
0.389776 0 0.348791
0.619104 0 0.403128
0.8851 0 0.459861
1 0.196353 0.504616
1 0.297917 0.547417
1 0.408286 0.588357
0 0.042237 0.309957
0 0 0.288945
0.155596 0 0.283223
0.325017 0 0.313497
0.536339 0 0.362219
0.783093 0 0.41593
1 0.20415 0.46833
1 0.299489 0.512016
1 0.402884 0.551492
0 0.195315 0.331044
0 0.178912 0.317723
0.173495 0.181506 0.30399
0.306722 0.183169 0.318029
0.467277 0.18146 0.350149
0.677485 0.195636 0.392157
0.93402 0.239643 0.437446
1 0.303181 0.478019
1 0.384436 0.513832
0 0.354849 0.372045
0 0.334813 0.35874
0.187213 0.323522 0.349859
0.328328 0.32842 0.356329
0.459754 0.339803 0.378439
0.636057 0.352346 0.405447
0.863966 0.372488 0.435706
1 0.4047 0.46598
1 0.448951 0.491737
0 0.546944 0.415793
0.0429999 0.517006 0.410574
0.211368 0.495201 0.409018
0.368246 0.48954 0.42092
0.50164 0.50161 0.441871
0.653834 0.521279 0.457694
0.849241 0.539605 0.471199
1 0.556207 0.481468
1 0.573571 0.487892
0 0.775876 0.454749
0.287602 0.728603 0.489021
0.315602 0.708003 0.482444
0.413764 0.689082 0.487068
0.549966 0.679896 0.50219
0.681208 0.680079 0.509621
0.83125 0.680583 0.503426
1 0.675578 0.489693
1 0.665843 0.472328
0 1 0.501167
0.389059 0.949874 0.548898
0.421714 0.911818 0.537331
0.439506 0.868162 0.520455
0.536553 0.825391 0.516609
0.650507 0.790661 0.513588
0.767605 0.764843 0.499565
0.907713 0.743374 0.474891
1 0.7243 0.447379
0 1 0.531899
0.389548 1 0.558602
0.479072 1 0.548287
0.461677 0.993835 0.518074
0.485359 0.932189 0.495369
0.577996 0.879393 0.486564
0.693401 0.841733 0.479545
0.823865 0.819287 0.46511
0.983032 0.805508 0.443076
0 1 0.531106
0 1 0.503944
0.462196 1 0.532448
0.508995 1 0.516381
0.492073 1 0.490181
0.538201 1 0.477104
0.64773 0.963928 0.476005
0.77966 0.936507 0.473472
0.927291 0.919875 0.460899
0 0 0.401511
0 0 0.387991
0.21503 0 0.385168
0.405127 0 0.424231
0.633219 0 0.480613
0.88986 0 0.537652
1 0.208835 0.582208
1 0.305577 0.631434
1 0.414755 0.672572
0 0.0483253 0.388434
0 0 0.36994
0.160296 0 0.354925
0.338811 0 0.385809
0.549645 0 0.43624
0.787045 0 0.48983
1 0.213321 0.54287
1 0.30837 0.593515
1 0.408133 0.63534
0 0.203357 0.404288
0 0.185977 0.389578
0.171328 0.186297 0.365484
0.316487 0.187564 0.375998
0.476982 0.187396 0.409857
0.683497 0.203952 0.457023
0.933684 0.248676 0.508614
1 0.312276 0.556954
1 0.390112 0.597482
0 0.36408 0.443732
0 0.343511 0.426459
0.184085 0.331395 0.407843
0.334813 0.335378 0.407889
0.467369 0.346716 0.430228
0.640803 0.360571 0.464591
0.8645 0.382162 0.503624
1 0.415305 0.542916
1 0.459861 0.577493
0 0.555413 0.490806
0.0618448 0.524636 0.477394
0.218219 0.50399 0.469184
0.375799 0.498405 0.474052
0.510491 0.510475 0.493843
0.657618 0.530449 0.516075
0.847547 0.548257 0.537057
1 0.563836 0.555108
1 0.579675 0.56875
0 0.78497 0.536431
0.29752 0.736355 0.554513
0.32253 0.714855 0.545571
0.421317 0.694392 0.546273
0.55787 0.683314 0.559243
0.683024 0.682445 0.56939
0.823789 0.681544 0.566491
0.999649 0.674922 0.557687
1 0.664393 0.545968
0 1 0.580667
0.393484 0.950896 0.615045
0.425467 0.910719 0.600885
0.441932 0.865156 0.58114
0.53782 0.819684 0.574014
0.649531 0.783475 0.571466
0.760021 0.758267 0.560784
0.893019 0.738399 0.540108
1 0.720668 0.516686
0 1 0.601755
0.379232 1 0.620508
0.47837 1 0.608988
0.461936 0.984131 0.577646
0.484947 0.922621 0.553643
0.578592 0.870512 0.545235
0.692622 0.834516 0.541192
0.817975 0.814618 0.530266
0.971847 0.803143 0.510613
0 1 0.590799
0 1 0.563333
0.456596 1 0.589654
0.510781 1 0.574411
0.494591 1 0.547921
0.541024 0.998474 0.534554
0.650721 0.958022 0.534295
0.779995 0.931701 0.533486
0.922637 0.916533 0.522103
0 0 0.496818
0 0 0.481773
0.225864 0 0.467903
0.422644 0 0.50605
0.650034 0 0.5626
0.889433 0 0.61294
1 0.221408 0.659907
1 0.316304 0.714549
1 0.422095 0.757671
0 0.038468 0.474113
0 0 0.459037
0.16527 0 0.434653
0.354025 0 0.464271
0.565469 0 0.514809
0.780758 0.081117 0.559655
1 0.223102 0.617868
1 0.317342 0.674006
1 0.414115 0.720012
0 0.211444 0.484703
0 0.193362 0.468894
0.167514 0.191089 0.433845
0.326696 0.19202 0.439887
0.488975 0.19353 0.473381
0.69247 0.212345 0.523598
0.937255 0.257923 0.579965
1 0.321508 0.634791
1 0.396811 0.682246
0 0.373999 0.521004
0 0.352834 0.500023
0.179644 0.339559 0.471626
0.340841 0.342184 0.465415
0.477378 0.353368 0.485191
0.648859 0.368917 0.5243
0.868864 0.392172 0.570779
1 0.426108 0.618173
1 0.470771 0.661433
0 0.565057 0.569635
0.148455 0.532845 0.545144
0.224537 0.513695 0.532204
0.382025 0.50837 0.529809
0.520073 0.520058 0.542947
0.663264 0.539437 0.571069
0.847837 0.55639 0.599557
1 0.571206 0.625422
1 0.58587 0.647059
0 0.79501 0.620615
0.307256 0.745327 0.620798
0.328984 0.722622 0.609262
0.426917 0.700389 0.60473
0.563958 0.687144 0.612055
0.684947 0.684749 0.623377
0.817563 0.68278 0.624445
0.985855 0.674403 0.621332
1 0.663066 0.616953
0 1 0.66247
0.396857 0.952758 0.681147
0.428061 0.909895 0.663432
0.442344 0.862394 0.640482
0.537575 0.814954 0.628962
0.648783 0.777295 0.625147
0.753506 0.752575 0.6177
0.879759 0.734249 0.601663
1 0.718151 0.585031
0 1 0.675837
0.365774 1 0.684413
0.476768 1 0.670939
0.461799 0.975738 0.638361
0.48368 0.914626 0.612329
0.578744 0.863142 0.602747
0.693172 0.82887 0.60145
0.813413 0.8112 0.595026
0.960784 0.801846 0.579889
0 1 0.658457
0 1 0.63122
0.450462 1 0.652186
0.512444 1 0.637247
0.497108 1 0.610498
0.54432 0.992584 0.596475
0.654994 0.952682 0.596963
0.78175 0.92726 0.598886
0.918196 0.913588 0.590463
0 0 0.60267
0 0 0.586267
0.23859 0 0.559487
0.442588 0 0.595026
0.669551 0 0.649714
0.87985 0.0988022 0.681956
1 0.233967 0.738445
1 0.327276 0.797467
1 0.430137 0.843275
0 0.0229953 0.570657
0 0 0.558846
0.171267 0 0.522881
0.370733 0 0.549462
0.583627 0 0.59855
0.790814 0.110109 0.634958
1 0.233387 0.69424
1 0.326604 0.754452
1 0.420844 0.805234
0 0.220233 0.573343
0 0.201114 0.555901
0.163043 0.196078 0.509483
0.337163 0.196246 0.510018
0.502998 0.199725 0.541726
0.704265 0.220798 0.592935
0.944259 0.267094 0.652476
1 0.331136 0.712657
1 0.404456 0.767742
0 0.384802 0.604715
0 0.362737 0.579782
0.175189 0.348104 0.54168
0.347143 0.349432 0.529244
0.489143 0.360067 0.545281
0.65977 0.377172 0.586053
0.876097 0.401816 0.638025
1 0.436881 0.692638
1 0.481331 0.743496
0 0.575479 0.65275
0.173068 0.543099 0.614374
0.231296 0.524407 0.5991
0.387808 0.519036 0.590005
0.529854 0.529747 0.597101
0.671397 0.548104 0.625238
0.850141 0.563714 0.659693
1 0.577691 0.692988
1 0.591348 0.722286
0 0.803067 0.70602
0.316762 0.755154 0.688609
0.335073 0.730846 0.674357
0.431235 0.707225 0.664164
0.567941 0.691646 0.663386
0.686793 0.686778 0.671336
0.812268 0.683436 0.677119
0.974365 0.673793 0.680766
1 0.661845 0.684108
0 1 0.745327
0.399847 0.955673 0.747768
0.430167 0.910063 0.725963
0.441169 0.859968 0.699092
0.535271 0.810971 0.681895
0.647379 0.772183 0.674144
0.748165 0.747814 0.669169
0.868269 0.730892 0.658183
1 0.716304 0.649104
0 1 0.752468
0.350484 1 0.749447
0.474174 1 0.732631
0.461189 0.968994 0.69868
0.481651 0.908476 0.670329
0.578195 0.857481 0.65803
0.694316 0.824491 0.657893
0.810178 0.808927 0.656062
0.951232 0.801526 0.646036
0 1 0.730724
0 1 0.704036
0.444266 1 0.717296
0.513726 1 0.701686
0.499107 1 0.674296
0.547021 0.988418 0.65893
0.659098 0.948745 0.65893
0.784329 0.923735 0.663447
0.914595 0.911421 0.659022
0 0 0.717739
0 0 0.699763
0.252445 0 0.659236
0.463401 0 0.690669
0.689647 0 0.741268
0.890211 0.128099 0.761242
1 0.246448 0.818845
1 0.338323 0.881056
1 0.438895 0.929595
0 0 0.679194
0 0 0.66891
0.179278 0 0.620844
0.389715 0 0.642969
0.604288 0 0.688426
0.80499 0.131762 0.714015
1 0.243732 0.772686
1 0.335973 0.835599
1 0.428321 0.891096
0 0.229114 0.669322
0 0.209277 0.651514
0.159167 0.201343 0.593332
0.348653 0.201022 0.587533
0.518914 0.206043 0.615976
0.719066 0.229267 0.6663
0.95523 0.276539 0.727413
1 0.3411 0.791455
1 0.414908 0.852537
0 0.395804 0.69456
0 0.373251 0.66659
0.172015 0.356832 0.618235
0.353689 0.356832 0.599619
0.50251 0.367132 0.611658
0.673671 0.385443 0.65153
0.8869 0.411658 0.70695
1 0.447501 0.767163
1 0.491676 0.824521
0 0.58613 0.740017
0.191501 0.554452 0.687648
0.238712 0.535653 0.670466
0.393393 0.530022 0.655543
0.539574 0.539193 0.656931
0.681834 0.555978 0.681407
0.855451 0.570825 0.719615
1 0.583474 0.758785
1 0.595651 0.794858
0 0.810681 0.791836
0.326345 0.765423 0.758709
0.34139 0.739681 0.741909
0.434363 0.714473 0.725887
0.570245 0.696864 0.716518
0.68893 0.688884 0.715618
0.808484 0.683314 0.725826
0.965179 0.672602 0.73666
1 0.660441 0.748028
0 1 0.828458
0.402289 0.958556 0.814862
0.432135 0.911162 0.789349
0.439353 0.858503 0.75845
0.531243 0.807935 0.7346
0.644419 0.7682 0.720195
0.744076 0.744015 0.715053
0.859098 0.728374 0.709957
1 0.714931 0.709102
0 1 0.830427
0.334829 1 0.815854
0.470939 1 0.794385
0.460319 0.96376 0.758953
0.479072 0.904082 0.728161
0.577035 0.854002 0.71194
0.695613 0.821622 0.710002
0.808164 0.807614 0.712077
0.943282 0.801968 0.707515
0 1 0.805798
0 1 0.779751
0.438315 1 0.783658
0.514717 1 0.766323
0.500755 1 0.737972
0.548821 0.98584 0.720455
0.662516 0.946197 0.718364
0.787594 0.921263 0.7243
0.912032 0.910094 0.72401
0 0 0.834836
0 0 0.821195
0.267857 0 0.76614
0.48481 0 0.792111
0.71017 0 0.836561
0.904402 0.150683 0.844175
1 0.258488 0.901335
1 0.349325 0.965667
1 0.448371 1
0 0 0.795834
0 0 0.78648
0.189471 0 0.725978
0.409567 0 0.742901
0.625162 0 0.782498
0.821057 0.149813 0.796384
1 0.253941 0.853452
1 0.345357 0.917998
1 0.436545 0.977432
0 0.238193 0.771984
0 0.217716 0.753719
0.158175 0.207141 0.684779
0.361181 0.206134 0.672862
0.536889 0.212512 0.697169
0.736996 0.237812 0.745144
0.969573 0.286076 0.805982
1 0.35137 0.872175
1 0.425589 0.937835
0 0.406851 0.790066
0 0.383841 0.759136
0.172274 0.366064 0.702296
0.360769 0.364401 0.677378
0.517113 0.374456 0.685008
0.690272 0.393622 0.722316
0.901076 0.421134 0.778973
1 0.457649 0.843122
1 0.501793 0.90576
0 0.597223 0.831983
0.20853 0.566033 0.765301
0.247822 0.548012 0.747921
0.399268 0.541283 0.72726
0.549187 0.548226 0.722927
0.693996 0.562936 0.742351
0.8636 0.577081 0.780972
1 0.588739 0.824598
1 0.599207 0.866255
0 0.818601 0.878538
0.336507 0.775616 0.831693
0.348013 0.748821 0.813107
0.436164 0.721584 0.791257
0.570703 0.701778 0.773693
0.691127 0.690806 0.765408
0.807752 0.682689 0.773953
0.958862 0.670939 0.790677
1 0.658656 0.809659
0 1 0.912261
0.404425 0.960769 0.88307
0.433753 0.912093 0.854109
0.437064 0.85774 0.819684
0.525887 0.805905 0.789136
0.639689 0.765469 0.766827
0.741192 0.741176 0.755779
0.85275 0.726589 0.758175
1 0.714473 0.766293
0 1 0.90898
0.320424 1 0.884199
0.467567 1 0.856962
0.459586 0.960052 0.820111
0.475944 0.900999 0.786679
0.575082 0.852445 0.765911
0.696422 0.820584 0.759136
0.807553 0.807416 0.762936
0.937346 0.80325 0.764309
0 1 0.882811
0 1 0.857435
0.432761 1 0.850919
0.515435 1 0.831159
0.502068 1 0.801663
0.549828 0.984787 0.781415
0.664958 0.945083 0.775555
0.790875 0.919692 0.780468
0.910628 0.909651 0.784222
0 0 0.921523
0 0 0.916167
0.285435 0 0.880385
0.507622 0 0.899886
0.730388 0 0.934386
0.921431 0.170092 0.931182
1 0.270665 0.986923
1 0.36022 1
1 0.458549 1
0 0.00946059 0.90013
0 0 0.892592
0.202579 0 0.838041
0.430198 0 0.848615
0.645121 0 0.878721
0.839017 0.166018 0.882734
1 0.264271 0.93756
1 0.354726 1
1 0.445533 1
0 0.247623 0.881346
0 0.226551 0.862379
0.162097 0.213535 0.781888
0.374334 0.211948 0.76434
0.55555 0.219562 0.784192
0.755962 0.246174 0.828428
0.985687 0.295552 0.887541
1 0.361639 0.954742
1 0.436423 1
0 0.418082 0.891234
0 0.394446 0.856229
0.178592 0.375631 0.791287
0.369024 0.372412 0.762249
0.53283 0.381918 0.765682
0.709484 0.401633 0.79942
0.918914 0.430259 0.855314
1 0.467109 0.92108
1 0.511086 0.98706
0 0.607706 0.924392
0.22565 0.577966 0.847272
0.258991 0.560433 0.830106
0.405707 0.552743 0.805737
0.559075 0.557122 0.79559
0.707027 0.569024 0.809094
0.874144 0.581949 0.845335
1 0.592691 0.89134
1 0.602045 0.937743
0 0.82652 0.965545
0.347555 0.785977 0.907927
0.355612 0.758022 0.887999
0.437476 0.728847 0.861616
0.569787 0.705837 0.836027
0.692485 0.691524 0.821149
0.809873 0.681056 0.825605
0.956222 0.668757 0.845365
1 0.65658 0.870741
0 1 0.996399
0.407736 0.963561 0.953643
0.435401 0.912566 0.920806
0.434546 0.85742 0.884321
0.519554 0.804608 0.847456
0.633692 0.763592 0.8177
0.738857 0.738613 0.800626
0.849882 0.724773 0.805325
1 0.71458 0.821912
0 1 0.988403
0.308629 1 0.955016
0.464637 1 0.921279
0.459419 0.957809 0.883467
0.472862 0.899535 0.847425
0.572 0.852232 0.8215
0.695811 0.821118 0.808042
0.80824 0.80824 0.808118
0.933669 0.805203 0.816983
0 1 0.961288
0 1 0.93669
0.428595 1 0.919615
0.515953 1 0.896559
0.50338 1 0.866239
0.550134 0.985138 0.842741
0.666178 0.945373 0.831662
0.794034 0.919554 0.83267
0.910414 0.910063 0.8392
