src/luts/crop/16.cube
TITLE "Generated by Resolve"
LUT_3D_SIZE 33
0 0 0.17644
0 0 0.174853
0 0 0.174823
0.0383001 0 0.175845
0.0664378 0 0.174929
0.0915389 0 0.172351
0.119799 0 0.173312
0.15172 0 0.176593
0.187335 0 0.18143
0.226688 0 0.187716
0.269245 0 0.195315
0.315358 0 0.204044
0.365087 0 0.213748
0.418509 0 0.224247
0.475624 0 0.235401
0.536507 0 0.247135
0.600595 0 0.259113
0.667704 0 0.271275
0.737362 0 0.283436
0.808927 0 0.295415
0.881148 0 0.307057
0.950378 0 0.317632
0.992279 0.0891432 0.328511
1 0.138338 0.33901
1 0.172152 0.348226
1 0.200961 0.356588
1 0.227085 0.364111
1 0.256413 0.373388
1 0.285039 0.383078
1 0.313252 0.393179
1 0.341253 0.403693
1 0.369375 0.414786
1 0.397314 0.4262
0 0 0.171695
0 0 0.170214
0 0 0.168902
0.0284428 0 0.170886
0.0585031 0 0.170626
0.083299 0 0.167865
0.110491 0 0.168383
0.14168 0 0.171527
0.176226 0 0.17615
0.214267 0 0.181949
0.255619 0 0.189136
0.300481 0 0.197498
0.348928 0 0.206851
0.401236 0 0.217136
0.456825 0 0.227924
0.515923 0 0.239216
0.578393 0 0.250858
0.643854 0 0.262715
0.711803 0 0.274647
0.781399 0 0.286473
0.85008 0 0.297749
0.896819 0.0730297 0.310842
0.962539 0.128252 0.322683
1 0.162371 0.332723
1 0.190921 0.341802
1 0.216648 0.349996
1 0.240574 0.357321
1 0.266041 0.365377
1 0.293553 0.375021
1 0.320867 0.385092
1 0.348318 0.395712
1 0.375631 0.406699
1 0.40296 0.418067
0 0 0.167239
0 0 0.165652
0 0 0.164279
0.0175326 0 0.165896
0.0505989 0 0.166445
0.0763256 0 0.164202
0.101869 0 0.163622
0.131319 0 0.165972
0.164569 0 0.170245
0.20145 0 0.175631
0.241672 0 0.182361
0.285435 0 0.190372
0.333013 0 0.199527
0.383886 0 0.209369
0.438315 0 0.219913
0.496132 0 0.23093
0.557336 0 0.242344
0.621607 0 0.254032
0.688472 0 0.265873
0.75639 0 0.277485
0.822904 0 0.288884
0.870741 0.095613 0.304051
0.938094 0.138857 0.315496
1 0.170397 0.325612
1 0.197375 0.334569
1 0.222126 0.342657
1 0.245518 0.349966
1 0.268574 0.356909
1 0.295781 0.366583
1 0.322881 0.376715
1 0.349828 0.387182
1 0.376837 0.398093
1 0.403937 0.409445
0 0 0.162829
0 0 0.160906
0 0 0.159564
0 0 0.158556
0.0393225 0 0.160983
0.0678416 0 0.159548
0.0932326 0 0.158953
0.121706 0 0.160952
0.15375 0 0.164843
0.189258 0 0.169757
0.228458 0 0.175998
0.270954 0 0.183459
0.317067 0 0.192004
0.366796 0 0.20145
0.420111 0 0.211643
0.476875 0 0.222385
0.537392 0 0.233707
0.600671 0 0.245167
0.666484 0 0.256764
0.733883 0 0.268315
0.80061 0 0.279744
0.84918 0.0886854 0.295323
0.915953 0.135454 0.307286
0.986404 0.16759 0.317403
1 0.195056 0.326467
1 0.220157 0.334646
1 0.243824 0.342061
1 0.26659 0.348791
1 0.292805 0.357763
1 0.319814 0.367758
1 0.346792 0.378195
1 0.373816 0.389075
1 0.400916 0.400412
0 0 0.157488
0 0 0.154803
0 0 0.153399
0 0 0.152041
0.0165866 0 0.152743
0.0557259 0 0.153567
0.0843519 0 0.154635
0.113283 0 0.157153
0.144762 0 0.161013
0.179065 0 0.165515
0.216495 0 0.170886
0.257435 0 0.177615
0.302098 0 0.185534
0.350439 0 0.194415
0.402441 0 0.204089
0.458335 0 0.214542
0.517372 0 0.225345
0.57966 0 0.236469
0.644724 0 0.247807
0.711772 0 0.25919
0.779232 0 0.270527
0.830274 0.064744 0.28542
0.894408 0.124086 0.298177
0.964034 0.158465 0.308537
1 0.18703 0.317769
1 0.212879 0.326101
1 0.237308 0.333791
1 0.260533 0.340566
1 0.285649 0.348547
1 0.312917 0.35848
1 0.340108 0.368872
1 0.367376 0.379782
1 0.394751 0.391211
0 0.0674449 0.182361
0 0.0607767 0.178592
0 0.0513008 0.174792
0 0.0375067 0.170047
0 0.0110628 0.161334
0.0465553 0 0.154467
0.0822003 0 0.156756
0.115434 0.00950637 0.162539
0.147433 0.0202487 0.167712
0.173373 0 0.165545
0.207477 0 0.168765
0.246098 0 0.174182
0.288746 0 0.181048
0.335561 0 0.189212
0.385962 0 0.198169
0.440009 0 0.207843
0.497551 0 0.218067
0.558465 0 0.228717
0.622324 0 0.239658
0.688701 0 0.250935
0.755291 0 0.262119
0.807202 0.0699931 0.277638
0.872099 0.122072 0.290028
0.94136 0.154513 0.300282
1 0.181979 0.309453
1 0.207263 0.317891
1 0.231006 0.325429
1 0.253864 0.332235
1 0.277409 0.339284
1 0.304479 0.349111
1 0.331624 0.359457
1 0.358907 0.370352
1 0.386191 0.381613
0 0.114672 0.190829
0 0.111254 0.188296
0 0.106996 0.185718
0 0.101991 0.183078
0 0.0974899 0.180423
0.00849927 0.0960708 0.17821
0.10277 0.104402 0.180804
0.133562 0.106661 0.182574
0.161578 0.106249 0.184802
0.189685 0.101396 0.187167
0.219409 0.0929885 0.189685
0.251301 0.0783246 0.191745
0.281346 0.0120394 0.185275
0.323156 0 0.188571
0.370764 0 0.19556
0.422492 0 0.203906
0.478004 0 0.213153
0.536889 0 0.223026
0.599023 0 0.233585
0.662669 0 0.244434
0.718547 0.057145 0.260243
0.781643 0.10724 0.273304
0.848707 0.136843 0.283879
0.918029 0.162234 0.293446
0.990097 0.186069 0.302373
1 0.208591 0.310414
1 0.230503 0.317769
1 0.252003 0.324483
1 0.273198 0.330541
1 0.29929 0.340215
1 0.325612 0.350378
1 0.352132 0.361044
1 0.378882 0.372198
0 0.14696 0.197269
0 0.14406 0.195132
0 0.140703 0.192798
0 0.136828 0.190295
0 0.133196 0.187884
0 0.130907 0.186007
0.100984 0.138033 0.188785
0.137102 0.139574 0.190219
0.165743 0.140139 0.192294
0.193591 0.139742 0.195392
0.222965 0.138201 0.1991
0.255024 0.135714 0.203326
0.289662 0.131701 0.207599
0.327489 0.126558 0.212177
0.368811 0.120623 0.217136
0.413855 0.114611 0.222599
0.46302 0.110338 0.228992
0.515923 0.108995 0.236164
0.572305 0.1122 0.244205
0.63183 0.120424 0.252949
0.694011 0.132616 0.262028
0.758709 0.147448 0.271092
0.826078 0.16434 0.28011
0.895079 0.181842 0.288609
0.966308 0.2 0.296635
1 0.218616 0.304158
1 0.237568 0.311147
1 0.256733 0.317586
1 0.276295 0.323613
1 0.298848 0.331594
1 0.323827 0.341619
1 0.349233 0.352148
1 0.375006 0.36318
0 0.17998 0.205051
0 0.177188 0.203265
0 0.17377 0.201083
0 0.169772 0.198535
0 0.16582 0.196033
0 0.162661 0.193988
0.0959487 0.167544 0.197055
0.140642 0.169909 0.199176
0.170871 0.17145 0.201221
0.19852 0.172946 0.204349
0.227115 0.173907 0.208362
0.257771 0.174044 0.212543
0.291066 0.173556 0.216907
0.327306 0.172549 0.221469
0.36672 0.171206 0.226307
0.409689 0.170062 0.231601
0.456062 0.169207 0.237201
0.505867 0.169131 0.243153
0.559258 0.170489 0.249531
0.616053 0.17377 0.256306
0.676051 0.179263 0.263401
0.739269 0.187427 0.270878
0.805005 0.197391 0.278248
0.872892 0.20914 0.285542
0.943206 0.222416 0.292622
1 0.236912 0.299413
1 0.252415 0.305821
1 0.268956 0.311971
1 0.285801 0.317479
1 0.304234 0.323522
1 0.327352 0.33341
1 0.351141 0.343786
1 0.375753 0.354879
0 0.2159 0.213947
0 0.212833 0.212482
0 0.209293 0.210605
0 0.205341 0.208286
0 0.200793 0.205478
0 0.196887 0.20322
0.038056 0.195438 0.203021
0.142596 0.201541 0.209613
0.176532 0.203189 0.212146
0.205188 0.205234 0.215122
0.232685 0.207187 0.21886
0.26215 0.208743 0.222782
0.294072 0.209903 0.226795
0.32874 0.210727 0.23093
0.366674 0.211612 0.235431
0.407431 0.212055 0.239933
0.451469 0.212558 0.244648
0.498878 0.213397 0.249622
0.549737 0.214862 0.254856
0.604242 0.217487 0.260471
0.661982 0.221241 0.266285
0.722759 0.226276 0.272206
0.78645 0.232898 0.278248
0.852735 0.241062 0.284367
0.92163 0.250721 0.290425
0.993393 0.262028 0.296468
1 0.274327 0.302159
1 0.287633 0.30753
1 0.301839 0.312566
1 0.316838 0.317235
1 0.336599 0.325841
1 0.358663 0.336263
1 0.381338 0.347066
0 0.254353 0.223301
0 0.251209 0.222385
0 0.247364 0.220844
0 0.243015 0.218631
0 0.238209 0.215778
0 0.233677 0.213275
0.019852 0.230442 0.212238
0.141314 0.235401 0.220737
0.181048 0.236622 0.224033
0.212222 0.238117 0.227375
0.240253 0.240269 0.231083
0.268559 0.242603 0.234516
0.299214 0.244816 0.23801
0.33257 0.246891 0.241672
0.36849 0.248554 0.245289
0.407385 0.250095 0.249027
0.449393 0.251575 0.252934
0.494636 0.253162 0.256977
0.543359 0.255192 0.261326
0.595483 0.257679 0.265812
0.650706 0.26067 0.27039
0.709163 0.264546 0.27512
0.770718 0.269444 0.279988
0.835065 0.275502 0.284962
0.90248 0.283024 0.29012
0.972442 0.291569 0.295109
1 0.301198 0.299947
1 0.311925 0.304601
1 0.323659 0.309041
1 0.3364 0.313237
1 0.352163 0.319432
1 0.372229 0.329824
1 0.393362 0.340795
0 0.295598 0.232868
0 0.291646 0.232181
0 0.287434 0.231052
0 0.282872 0.229221
0 0.277882 0.226535
0 0.272892 0.223789
0.0116121 0.26894 0.222461
0.133013 0.271 0.231174
0.183352 0.271931 0.235782
0.21796 0.272862 0.239567
0.248157 0.27451 0.243503
0.276753 0.276921 0.247181
0.306477 0.279728 0.250401
0.338201 0.2822 0.253315
0.372519 0.28455 0.256229
0.409659 0.286793 0.25922
0.44976 0.28896 0.262303
0.493324 0.291463 0.265675
0.539742 0.293721 0.268956
0.589395 0.296223 0.272358
0.642344 0.299077 0.275883
0.698497 0.30248 0.279545
0.758068 0.306691 0.283421
0.820493 0.311757 0.287465
0.885649 0.31751 0.291463
0.953719 0.324239 0.295476
1 0.332113 0.299519
1 0.341161 0.303593
1 0.351598 0.307759
1 0.362829 0.311681
1 0.374807 0.315328
1 0.392355 0.325017
1 0.411749 0.336065
0 0.338827 0.242008
0 0.334325 0.241779
0 0.329656 0.241138
0 0.324788 0.239796
0 0.319921 0.237613
0 0.314595 0.234699
0.00708019 0.309697 0.232807
0.073579 0.306874 0.236011
0.183429 0.309407 0.247181
0.222248 0.309682 0.251438
0.255268 0.310964 0.255787
0.285344 0.312764 0.259709
0.314855 0.31519 0.262974
0.345617 0.317876 0.265644
0.378546 0.320592 0.26804
0.414145 0.323323 0.270405
0.452766 0.326223 0.272908
0.494087 0.328817 0.275257
0.538476 0.331456 0.277668
0.586038 0.334203 0.280156
0.636774 0.337148 0.28275
0.690883 0.340536 0.285527
0.748318 0.344488 0.288472
0.808698 0.348974 0.291569
0.872328 0.354314 0.294881
0.939132 0.36051 0.298283
1 0.367498 0.301717
1 0.375601 0.305257
1 0.384558 0.308751
1 0.394354 0.312139
1 0.40499 0.315404
1 0.418708 0.32195
1 0.43621 0.332967
0 0.384298 0.25069
0 0.379126 0.25098
0 0.373922 0.250904
0 0.368963 0.25034
0 0.363607 0.248524
0 0.358038 0.245594
0.00619516 0.352651 0.24332
0.044892 0.348074 0.244068
0.181781 0.349126 0.258152
0.225635 0.348943 0.263142
0.26096 0.349126 0.26746
0.292943 0.350195 0.271565
0.323476 0.352087 0.275166
0.354116 0.354543 0.278019
0.386206 0.357336 0.280308
0.420737 0.360494 0.282414
0.457527 0.363394 0.284153
0.497093 0.366293 0.285801
0.539635 0.369223 0.287465
0.585321 0.37232 0.289219
0.63476 0.376104 0.291402
0.687205 0.379934 0.293538
0.742916 0.384146 0.295811
0.801678 0.388724 0.298222
0.863569 0.393866 0.300801
0.928908 0.399847 0.303593
0.997589 0.406668 0.306538
1 0.413901 0.309377
1 0.421775 0.312154
1 0.430289 0.314824
1 0.439414 0.317388
1 0.449516 0.320104
1 0.465187 0.331014
0 0.431891 0.258854
0 0.426001 0.259693
0 0.420493 0.260471
0 0.41474 0.260502
0.00138857 0.409033 0.259388
0.00590524 0.403281 0.256764
0.010071 0.397543 0.254108
0.0401923 0.392477 0.254322
0.180652 0.391424 0.269123
0.228046 0.390021 0.274281
0.265766 0.389364 0.278737
0.299672 0.389609 0.282979
0.331609 0.390768 0.286839
0.363256 0.393057 0.290257
0.395117 0.395544 0.292699
0.42855 0.398367 0.294545
0.464286 0.401541 0.296086
0.502815 0.405005 0.297536
0.54432 0.408728 0.298985
0.589166 0.412894 0.300618
0.636683 0.416861 0.302068
0.68748 0.421073 0.303593
0.741588 0.42565 0.305287
0.798825 0.43061 0.307179
0.859297 0.436011 0.309209
0.923033 0.441932 0.31136
0.989425 0.447929 0.313329
1 0.454337 0.315282
1 0.461204 0.317189
1 0.468589 0.319066
1 0.476616 0.320912
1 0.484947 0.322545
1 0.496284 0.329274
0 0.481788 0.266545
0 0.475212 0.268116
0 0.46862 0.269429
0 0.462226 0.27039
0.0100404 0.456077 0.27042
0.0214237 0.450065 0.268544
0.0222171 0.444389 0.265675
0.0477913 0.438621 0.265476
0.182879 0.435645 0.28011
0.231037 0.433234 0.285252
0.270237 0.431678 0.289738
0.305745 0.431067 0.294057
0.339559 0.431861 0.29836
0.372183 0.433387 0.302052
0.404959 0.435874 0.30515
0.438727 0.439002 0.307576
0.474189 0.442512 0.309407
0.51191 0.446311 0.310826
0.552728 0.450797 0.312322
0.596078 0.455161 0.313512
0.642374 0.459709 0.314672
0.691722 0.464363 0.31574
0.74403 0.469108 0.316808
0.799695 0.474388 0.318181
0.857908 0.479423 0.319295
0.919127 0.484657 0.320409
0.983337 0.49015 0.321523
1 0.495811 0.32256
1 0.501671 0.323491
1 0.507897 0.324407
1 0.514168 0.325093
1 0.520851 0.325704
1 0.528405 0.32755
0 0.533669 0.273671
0 0.525994 0.275853
0 0.518532 0.278035
0 0.51136 0.280186
0.0259251 0.504524 0.282063
0.0565805 0.498451 0.282704
0.0553902 0.492363 0.279484
0.122759 0.486336 0.284825
0.192905 0.482048 0.292042
0.236469 0.478721 0.296468
0.276051 0.476875 0.301152
0.313054 0.476066 0.305867
0.348272 0.476265 0.31043
0.382406 0.477424 0.314611
0.416251 0.479561 0.318242
0.450629 0.482567 0.321218
0.486671 0.486641 0.323812
0.524163 0.490745 0.325582
0.563775 0.495064 0.326863
0.605844 0.499489 0.327779
0.650538 0.503975 0.328435
0.698024 0.508522 0.328923
0.748806 0.513573 0.329625
0.801938 0.518257 0.330007
0.857832 0.52285 0.33022
0.916365 0.527337 0.330312
0.977646 0.531823 0.330282
1 0.536553 0.330282
1 0.54165 0.330343
1 0.546395 0.330053
1 0.551049 0.329564
1 0.55584 0.328954
1 0.560967 0.328298
0 0.587243 0.280293
0 0.578592 0.283207
0 0.570169 0.286381
0 0.562142 0.290227
0.0685435 0.554238 0.297093
0.180697 0.547692 0.309255
0.18323 0.541863 0.306752
0.187076 0.536339 0.30457
0.212696 0.53167 0.305989
0.247929 0.528252 0.309483
0.285054 0.52575 0.313756
0.32192 0.524285 0.318379
0.358129 0.524041 0.323186
0.393668 0.524895 0.32784
0.428763 0.526711 0.332021
0.46424 0.529671 0.335729
0.500069 0.532921 0.33843
0.537057 0.536553 0.340337
0.575784 0.54049 0.341604
0.616632 0.544656 0.342351
0.659785 0.548867 0.342657
0.705699 0.553353 0.342794
0.753567 0.55726 0.342412
0.804074 0.561135 0.341848
0.857389 0.565042 0.341161
0.913329 0.568856 0.340337
0.972122 0.572747 0.339452
1 0.576043 0.338155
1 0.579355 0.336782
1 0.582818 0.335409
1 0.586252 0.333913
1 0.589548 0.33225
1 0.592966 0.33048
0 0.642634 0.286625
0 0.632929 0.290394
0 0.623636 0.294865
0 0.614679 0.301274
0.189258 0.605142 0.32398
0.222538 0.599954 0.326589
0.227558 0.594568 0.324773
0.226246 0.589166 0.321965
0.239124 0.584787 0.321828
0.265034 0.58088 0.323949
0.297887 0.577981 0.327596
0.333379 0.576043 0.332021
0.369497 0.575067 0.336751
0.405692 0.575311 0.341573
0.441535 0.576379 0.345983
0.477165 0.578119 0.349691
0.51313 0.580545 0.352667
0.549798 0.583398 0.354742
0.587533 0.586435 0.355917
0.627146 0.589899 0.356512
0.668498 0.593256 0.35639
0.712016 0.596628 0.35584
0.757687 0.599817 0.354818
0.805493 0.60267 0.353353
0.855665 0.605295 0.351553
0.908843 0.60824 0.349813
0.964309 0.610803 0.347768
1 0.613092 0.34548
1 0.61503 0.342947
1 0.6168 0.340291
1 0.618677 0.337652
1 0.620844 0.335103
1 0.622477 0.332235
0 0.70045 0.293248
0 0.690562 0.298589
0 0.680369 0.30486
0.0309453 0.669245 0.31632
0.229786 0.659709 0.341588
0.257404 0.65481 0.343725
0.264317 0.650004 0.342596
0.262669 0.645258 0.340093
0.268574 0.640467 0.338766
0.286671 0.636118 0.33962
0.314015 0.632456 0.342229
0.346502 0.629633 0.345983
0.381567 0.627955 0.350454
0.417441 0.627146 0.355047
0.453147 0.626841 0.359228
0.488685 0.627161 0.362799
0.5243 0.628092 0.365652
0.560464 0.629664 0.367712
0.597742 0.631937 0.3691
0.635843 0.634043 0.36939
0.675135 0.635966 0.368795
0.716197 0.637873 0.367529
0.759441 0.639887 0.365835
0.804837 0.64181 0.363729
0.852628 0.643687 0.361318
0.90219 0.644862 0.358267
0.954101 0.645884 0.355077
1 0.646922 0.351781
1 0.64773 0.348302
1 0.648295 0.344686
1 0.648188 0.340688
1 0.64802 0.336675
1 0.647974 0.332753
0 0.762005 0.30135
0 0.75079 0.307759
0 0.739315 0.316426
0.191943 0.722622 0.349935
0.265263 0.717113 0.359426
0.290486 0.712383 0.361471
0.298482 0.707698 0.360662
0.297002 0.702464 0.358007
0.298802 0.697322 0.355917
0.310826 0.6925 0.355657
0.332494 0.68809 0.357153
0.361273 0.68455 0.360143
0.393469 0.681163 0.363592
0.427649 0.678553 0.367391
0.462684 0.676829 0.371176
0.497963 0.675746 0.374578
0.533303 0.675242 0.377325
0.568719 0.67512 0.379187
0.604501 0.675288 0.380087
0.641276 0.675898 0.380194
0.679103 0.6766 0.379477
0.718135 0.677119 0.377798
0.758907 0.677684 0.375479
0.801541 0.678141 0.372625
0.846281 0.678508 0.369329
0.892973 0.678523 0.365545
0.941451 0.677989 0.361303
0.992004 0.677043 0.35671
1 0.676234 0.352132
1 0.675181 0.347417
1 0.673701 0.342489
1 0.671733 0.337331
1 0.66949 0.332128
0 0.82623 0.310475
0 0.813642 0.318608
0 0.799634 0.330907
0.241779 0.781231 0.370062
0.298146 0.776211 0.377325
0.321828 0.771115 0.37911
0.33048 0.765881 0.378241
0.329946 0.760266 0.375616
0.328893 0.754391 0.372763
0.33579 0.748608 0.371298
0.352071 0.743389 0.371633
0.375814 0.738293 0.373236
0.404669 0.733577 0.375708
0.436439 0.729229 0.378561
0.469734 0.725414 0.381506
0.504021 0.722545 0.384405
0.538781 0.720439 0.386938
0.573373 0.718502 0.38854
0.608057 0.716747 0.389197
0.643183 0.715282 0.388907
0.679316 0.714244 0.387839
0.716777 0.713558 0.386038
0.75523 0.71252 0.383261
0.794812 0.710994 0.379553
0.836072 0.70927 0.375235
0.879499 0.707622 0.370596
0.924926 0.705776 0.365621
0.97232 0.703578 0.360281
1 0.700664 0.354452
1 0.697505 0.348486
1 0.694423 0.34258
1 0.69131 0.336736
1 0.688106 0.330953
0 0.887663 0.324376
0 0.877317 0.33022
0.00843824 0.857359 0.351766
0.280156 0.841047 0.3888
0.328054 0.835111 0.394507
0.350805 0.829252 0.395865
0.360082 0.823148 0.394766
0.360678 0.816861 0.392065
0.358022 0.810361 0.388678
0.360967 0.803845 0.386282
0.371557 0.796857 0.38497
0.389868 0.790036 0.385
0.414481 0.783749 0.386221
0.443305 0.77789 0.388144
0.474784 0.772671 0.390463
0.507149 0.767468 0.392447
0.540261 0.76289 0.394171
0.573877 0.75903 0.395468
0.60766 0.755566 0.395972
0.641535 0.752209 0.395453
0.675715 0.748928 0.393896
0.710597 0.745754 0.391394
0.746731 0.74287 0.388174
0.784009 0.739849 0.384131
0.822431 0.7364 0.379232
0.862348 0.732677 0.373678
0.904173 0.728878 0.367742
0.948119 0.725093 0.361654
0.994171 0.721157 0.355322
1 0.716976 0.348806
1 0.712657 0.342245
1 0.708461 0.335805
1 0.704341 0.329534
0 0.946883 0.341573
0 0.940963 0.342657
0.202533 0.908644 0.390478
0.309636 0.899397 0.405203
0.354299 0.892668 0.410254
0.377218 0.886046 0.41146
0.38735 0.878965 0.410163
0.389075 0.871763 0.407279
0.385595 0.863905 0.403235
0.384909 0.856031 0.399649
0.390814 0.847974 0.397131
0.403891 0.839689 0.395727
0.423423 0.831449 0.395377
0.448402 0.823911 0.396139
0.476753 0.816617 0.397314
0.507073 0.809583 0.398535
0.538262 0.802686 0.39942
0.569909 0.796139 0.399802
0.602121 0.790295 0.399725
0.634791 0.785046 0.399008
0.667399 0.779751 0.397192
0.700206 0.774319 0.394278
0.733639 0.768948 0.390402
0.768292 0.763882 0.38587
0.80444 0.759075 0.380774
0.842039 0.754208 0.375051
0.881163 0.749142 0.368765
0.922164 0.74406 0.362219
0.965377 0.739101 0.355505
1 0.734218 0.348745
1 0.729412 0.342016
1 0.724529 0.335271
1 0.719722 0.328695
0 1 0.358999
0 0.999847 0.357519
0.243702 0.966155 0.407919
0.333227 0.956191 0.41976
0.376257 0.947936 0.424079
0.399832 0.940032 0.424994
0.411643 0.932372 0.423865
0.414588 0.923796 0.420737
0.411551 0.914611 0.416251
0.407828 0.905104 0.411505
0.409293 0.895628 0.407691
0.417273 0.886091 0.404913
0.431876 0.876509 0.403296
0.451652 0.866438 0.402243
0.4757 0.856611 0.401846
0.502937 0.847395 0.401938
0.532036 0.838575 0.40209
0.562051 0.830045 0.401923
0.592187 0.821469 0.401022
0.622675 0.813367 0.399512
0.653712 0.80592 0.397391
0.685237 0.798932 0.394522
0.717296 0.792172 0.390799
0.750164 0.785626 0.386267
0.784146 0.779293 0.381033
0.819654 0.773281 0.375311
0.856825 0.767468 0.369131
0.895735 0.76173 0.362646
0.93666 0.756115 0.355901
0.979736 0.750622 0.349065
1 0.745281 0.342229
1 0.740093 0.3355
1 0.735103 0.328908
0 1 0.375906
0 1 0.373663
0.264759 1 0.42089
0.350134 1 0.431907
0.394171 1 0.436179
0.418906 0.991577 0.43682
0.431876 0.981949 0.435203
0.436576 0.972213 0.431998
0.434958 0.961959 0.427436
0.429709 0.950988 0.421897
0.427085 0.939696 0.416678
0.429786 0.92813 0.412268
0.438727 0.916625 0.408957
0.453407 0.904982 0.406485
0.472786 0.89308 0.404639
0.495796 0.881209 0.403189
0.521691 0.869993 0.402182
0.549386 0.859281 0.401221
0.578134 0.849058 0.400046
0.607431 0.839261 0.398383
0.637156 0.829953 0.396139
0.66746 0.821302 0.393317
0.698497 0.813336 0.389883
0.730236 0.805737 0.385718
0.762921 0.798489 0.380865
0.796826 0.791562 0.375418
0.832258 0.785 0.369497
0.869474 0.778775 0.363256
0.908629 0.772839 0.356863
0.949844 0.767086 0.350256
0.99324 0.761547 0.343618
1 0.756207 0.337026
1 0.751125 0.330571
0 1 0.391913
0 1 0.389044
0.272007 1 0.430304
0.359274 1 0.441291
0.405921 1 0.445624
0.433082 1 0.446296
0.44799 1 0.444465
0.454307 1 0.440848
0.454322 1 0.435996
0.449729 0.992233 0.430243
0.443961 0.979355 0.423926
0.44184 0.96585 0.41799
0.444907 0.952071 0.412833
0.453819 0.93846 0.408728
0.468254 0.925063 0.405585
0.487312 0.911925 0.403159
0.509789 0.898878 0.401175
0.534844 0.88632 0.399481
0.561776 0.874495 0.397925
0.58996 0.863371 0.396246
0.618967 0.852979 0.394263
0.648478 0.843107 0.391714
0.678599 0.833875 0.388617
0.709484 0.825315 0.384939
0.741299 0.817349 0.380667
0.774273 0.809918 0.375845
0.808637 0.803006 0.370565
0.844495 0.796414 0.364828
0.882124 0.790158 0.358846
0.921798 0.784314 0.352682
0.963745 0.778912 0.346502
1 0.773892 0.340383
1 0.769162 0.334356
0 1 0.406332
0 1 0.402991
0.265507 1 0.436255
0.358862 1 0.447501
0.40943 1 0.451774
0.440269 1 0.452628
0.458442 1 0.451026
0.467475 1 0.447501
0.469474 1 0.442374
