src/luts/crop/16.cube
TITLE "Generated by Resolve"
LUT_3D_SIZE 5
0 0 0.17644
0.187335 0 0.18143
0.600595 0 0.259113
1 0.172152 0.348226
1 0.397314 0.4262
0 0.17998 0.205051
0.170871 0.17145 0.201221
0.456062 0.169207 0.237201
0.943206 0.222416 0.292622
1 0.375753 0.354879
0 0.533669 0.273671
0.192905 0.482048 0.292042
0.486671 0.486641 0.323812
0.857832 0.52285 0.33022
1 0.560967 0.328298
0 1 0.358999
0.411551 0.914611 0.416251
0.532036 0.838575 0.40209
0.784146 0.779293 0.381033
1 0.735103 0.328908
0 1 0.450004
0.473823 1 0.454734
0.491066 1 0.416098
0.64831 0.975402 0.406897
0.936355 0.92752 0.398352
0 0 0.316213
0.205264 0 0.310338
0.619104 0 0.403128
1 0.196353 0.504616
1 0.408286 0.588357
0 0.195315 0.331044
0.173495 0.181506 0.30399
0.467277 0.18146 0.350149
0.93402 0.239643 0.437446
1 0.384436 0.513832
0 0.546944 0.415793
0.211368 0.495201 0.409018
0.50164 0.50161 0.441871
0.849241 0.539605 0.471199
1 0.573571 0.487892
0 1 0.501167
0.421714 0.911818 0.537331
0.536553 0.825391 0.516609
0.767605 0.764843 0.499565
1 0.7243 0.447379
0 1 0.531106
0.462196 1 0.532448
0.492073 1 0.490181
0.64773 0.963928 0.476005
0.927291 0.919875 0.460899
0 0 0.496818
0.225864 0 0.467903
0.650034 0 0.5626
1 0.221408 0.659907
1 0.422095 0.757671
0 0.211444 0.484703
0.167514 0.191089 0.433845
0.488975 0.19353 0.473381
0.937255 0.257923 0.579965
1 0.396811 0.682246
0 0.565057 0.569635
0.224537 0.513695 0.532204
0.520073 0.520058 0.542947
0.847837 0.55639 0.599557
1 0.58587 0.647059
0 1 0.66247
0.428061 0.909895 0.663432
0.537575 0.814954 0.628962
0.753506 0.752575 0.6177
1 0.718151 0.585031
0 1 0.658457
0.450462 1 0.652186
0.497108 1 0.610498
0.654994 0.952682 0.596963
0.918196 0.913588 0.590463
0 0 0.717739
0.252445 0 0.659236
0.689647 0 0.741268
1 0.246448 0.818845
1 0.438895 0.929595
0 0.229114 0.669322
0.159167 0.201343 0.593332
0.518914 0.206043 0.615976
0.95523 0.276539 0.727413
1 0.414908 0.852537
0 0.58613 0.740017
0.238712 0.535653 0.670466
0.539574 0.539193 0.656931
0.855451 0.570825 0.719615
1 0.595651 0.794858
0 1 0.828458
0.432135 0.911162 0.789349
0.531243 0.807935 0.7346
0.744076 0.744015 0.715053
1 0.714931 0.709102
0 1 0.805798
0.438315 1 0.783658
0.500755 1 0.737972
0.662516 0.946197 0.718364
0.912032 0.910094 0.72401
0 0 0.921523
0.285435 0 0.880385
0.730388 0 0.934386
1 0.270665 0.986923
1 0.458549 1
0 0.247623 0.881346
0.162097 0.213535 0.781888
0.55555 0.219562 0.784192
0.985687 0.295552 0.887541
1 0.436423 1
0 0.607706 0.924392
0.258991 0.560433 0.830106
0.559075 0.557122 0.79559
0.874144 0.581949 0.845335
1 0.602045 0.937743
0 1 0.996399
0.435401 0.912566 0.920806
0.519554 0.804608 0.847456
0.738857 0.738613 0.800626
1 0.71458 0.821912
0 1 0.961288
0.428595 1 0.919615
0.50338 1 0.866239
0.666178 0.945373 0.831662
0.910414 0.910063 0.8392
