src/luts/crop/17.cube
TITLE "Generated by Resolve"
LUT_3D_SIZE 9
0 0 0
0.124987 0 0
0.249989 0 0
0.37499 0 0
0.499992 0 0
0.624994 0 0
0.749996 0 0
0.874998 0 0
1 0 0
0.156344 0.0772717 0.012253
0.175525 0.106813 0.0312505
0.256458 0.122393 0.00668345
0.377203 0.124025 0.00303655
0.501488 0.1243 0.00236515
0.626322 0.124361 0.00231937
0.751339 0.124331 0.00248722
0.876417 0.124285 0.00274662
1 0.124224 0.00303655
0.312718 0.154559 0.0245212
0.393286 0.146456 0.235599
0.351064 0.213626 0.0625162
0.406058 0.238224 0.0250858
0.512932 0.244785 0.0133822
0.631739 0.24715 0.00823987
0.754437 0.248051 0.00607309
0.878447 0.248447 0.00514229
1 0.248631 0.0047303
0.469093 0.23183 0.0367742
0.566293 0.217899 0.256672
0.606073 0.225025 0.437049
0.526604 0.320455 0.0937667
0.562951 0.35169 0.0454414
0.659327 0.3617 0.0304875
0.76939 0.367193 0.0200809
0.887205 0.369924 0.0142061
1 0.371328 0.010956
0.625467 0.309117 0.0490272
0.732219 0.292058 0.271702
0.786603 0.292912 0.471214
0.818158 0.304372 0.632883
0.702159 0.427283 0.125032
0.721935 0.464561 0.065568
0.812146 0.476448 0.0501717
0.914397 0.484596 0.0364996
1 0.489601 0.0267643
0.781826 0.386404 0.0612955
0.89456 0.367468 0.284962
0.961975 0.363394 0.494926
1 0.371038 0.67512
1 0.384558 0.794049
0.877699 0.534096 0.156283
0.881712 0.577218 0.0853895
0.968185 0.590173 0.0705272
1 0.600198 0.0553445
0.938201 0.463676 0.0735485
1 0.443519 0.297581
1 0.435813 0.513359
1 0.439368 0.706844
1 0.45005 0.874128
1 0.46746 0.898405
1 0.640925 0.187549
1 0.689784 0.104982
1 0.703395 0.0908827
1 0.540963 0.0858167
1 0.519936 0.309941
1 0.509529 0.529122
1 0.509468 0.731701
1 0.517266 0.911849
1 0.529351 1
1 0.554757 0.967391
1 0.747738 0.218799
1 0.802304 0.124437
1 0.61825 0.0980697
1 0.596567 0.322194
1 0.584115 0.54345
1 0.581033 0.752239
1 0.585824 0.942458
1 0.595972 1
1 0.608743 1
1 0.647639 1
1 0.854566 0.250065
0.107256 0 0.0839551
0.124483 7.62951e-05 0.125658
0.249851 0 0.126726
0.37525 0 0.127825
0.500664 0 0.128908
0.626093 0 0.130007
0.751507 0 0.131106
0.876936 0 0.132189
1 0 0.133288
0 0.125414 0.123018
0.124987 0.124987 0.124987
0.249989 0.124987 0.124987
0.37499 0.124987 0.124987
0.499992 0.124987 0.124987
0.624994 0.124987 0.124987
0.749996 0.124987 0.124987
0.874998 0.124987 0.124987
1 0.124987 0.124987
0.0905623 0.236881 0
0.281361 0.202274 0.13724
0.300526 0.231815 0.156252
0.38146 0.247395 0.131685
0.502205 0.249027 0.128023
0.62649 0.249302 0.127352
0.751324 0.249363 0.127306
0.876341 0.249332 0.127474
1 0.249287 0.127718
0.25977 0.314443 0
0.43772 0.279545 0.149508
0.518303 0.271443 0.360601
0.476081 0.338628 0.187503
0.53106 0.363226 0.150072
0.637934 0.369787 0.138369
0.756741 0.372152 0.133227
0.879438 0.373053 0.131075
1 0.373449 0.130114
0.4262 0.390097 0
0.594095 0.356832 0.161761
0.691295 0.342901 0.381674
0.73109 0.350011 0.562066
0.651621 0.445457 0.218769
0.687953 0.476692 0.170428
0.784329 0.486702 0.155474
0.894408 0.492195 0.145068
1 0.494926 0.139208
0.589014 0.466087 0
0.750469 0.434119 0.174029
0.857237 0.417044 0.396719
0.91162 0.417899 0.596231
0.943175 0.429358 0.7579
0.827161 0.55227 0.250019
0.846937 0.589563 0.19057
0.937148 0.60145 0.175158
1 0.609598 0.161486
0.749737 0.542412 0
0.906844 0.511391 0.186282
1 0.492454 0.409979
1 0.48838 0.619928
1 0.496025 0.800137
1 0.50956 0.919051
1 0.659098 0.281285
1 0.70222 0.210376
1 0.715175 0.195514
0.909209 0.618967 0
1 0.588678 0.198535
1 0.568505 0.422614
1 0.5608 0.638361
1 0.56437 0.831846
1 0.575036 0.999161
1 0.592462 1
1 0.765927 0.312535
1 0.814786 0.229984
1 0.695705 0
1 0.665965 0.210803
1 0.644923 0.434974
1 0.634516 0.654139
1 0.63447 0.856703
1 0.642252 1
1 0.654337 1
1 0.679759 1
1 0.87274 0.343801
0.214527 0 0.16791
0.168963 0 0.229282
0.248981 0.000167849 0.251316
0.374319 0 0.252399
0.499702 0 0.253468
0.625116 0 0.254566
0.750515 0 0.255665
0.875929 0 0.256748
1 0 0.257847
0.276051 0.0439002 0.240284
0.232258 0.0972457 0.208942
0.249485 0.125063 0.25066
0.374853 0.124849 0.251728
0.500252 0.12462 0.252827
0.625666 0.124392 0.25391
0.751095 0.124147 0.255009
0.876509 0.123919 0.256107
1 0.12369 0.257191
0 0.250828 0.246052
0.124239 0.250416 0.24802
0.249989 0.249989 0.249989
0.375418 0.24976 0.251087
0.500832 0.249516 0.252171
0.626261 0.249287 0.253269
0.75169 0.249042 0.254353
0.877119 0.248814 0.255451
1 0.248569 0.25655
0.0347753 0.382605 0.0721904
0.215534 0.361883 0.113176
0.406363 0.327276 0.262242
0.425528 0.356817 0.281254
0.506462 0.372396 0.256687
0.627207 0.374029 0.253025
0.751492 0.374304 0.252354
0.876326 0.374365 0.252308
1 0.374334 0.252476
0.181125 0.473777 0
0.384741 0.43946 0.0847944
0.562722 0.404547 0.27451
0.643305 0.396445 0.485603
0.601083 0.46363 0.312505
0.656062 0.488228 0.275074
0.762936 0.494789 0.263371
0.881743 0.497154 0.258228
1 0.498054 0.256077
0.349737 0.552773 0
0.551186 0.515114 0.0835279
0.719097 0.481834 0.286763
0.816297 0.467903 0.506676
0.856092 0.475013 0.687068
0.776623 0.570459 0.343771
0.812955 0.601694 0.29543
0.909331 0.611704 0.280476
1 0.617197 0.270069
0.519509 0.628916 0
0.714 0.591089 0.0896925
0.875471 0.559121 0.299031
0.982238 0.542046 0.521721
1 0.542901 0.721233
1 0.55436 0.882902
0.952163 0.677272 0.375021
0.971939 0.714565 0.315572
1 0.726452 0.30016
0.687083 0.70454 0
0.874708 0.667414 0.0986343
1 0.636393 0.311284
1 0.617456 0.534981
1 0.613382 0.74493
1 0.621027 0.925139
1 0.634562 1
1 0.7841 0.406287
1 0.827222 0.335378
0.852384 0.780224 0
1 0.743984 0.108858
1 0.71368 0.323537
1 0.693507 0.547616
1 0.685802 0.763363
1 0.689372 0.956847
1 0.700038 1
1 0.717464 1
1 0.890929 0.437537
0.321798 0 0.251865
0.264164 0 0.318975
0.272114 0 0.360876
0.373465 0.000244144 0.376989
0.498802 4.57771e-05 0.378058
0.62417 0 0.379141
0.749569 0 0.380224
0.874968 0 0.381323
1 0 0.382406
0.384939 0.018616 0.295201
0.339529 0.0695048 0.292912
0.293965 0.114 0.354284
0.373968 0.125154 0.376318
0.499321 0.124941 0.377401
0.624704 0.124712 0.378485
0.750118 0.124498 0.379568
0.875517 0.124254 0.380652
1 0.124025 0.38175
0.437583 0.11249 0.448539
0.401068 0.168902 0.365301
0.357259 0.222248 0.333944
0.374487 0.250065 0.375662
0.499855 0.249851 0.37673
0.625254 0.249622 0.377829
0.750668 0.249393 0.378912
0.876097 0.249149 0.380011
1 0.24892 0.381109
0 0.376257 0.3691
0.123476 0.37583 0.371054
0.249241 0.375418 0.373022
0.37499 0.37499 0.37499
0.499992 0.37499 0.37499
0.624994 0.37499 0.37499
0.749996 0.37499 0.37499
0.874998 0.37499 0.37499
1 0.37499 0.37499
0.00480659 0.517723 0.185153
0.159747 0.507607 0.197208
0.340536 0.486885 0.238178
0.531365 0.452277 0.387243
0.55053 0.481819 0.406256
0.631464 0.497398 0.381689
0.752209 0.499031 0.378027
0.876493 0.499306 0.377356
1 0.499367 0.37731
0.116701 0.623407 0.0470741
0.306096 0.598779 0.101366
0.509743 0.564462 0.209796
0.687724 0.529549 0.399512
0.768307 0.521447 0.610605
0.726085 0.588632 0.437507
0.781064 0.61323 0.400076
0.887938 0.619791 0.388373
1 0.622156 0.38323
0.271656 0.710674 0
0.474723 0.677775 0.0605325
0.676188 0.640116 0.20853
0.844099 0.606836 0.411765
0.941299 0.592905 0.631678
0.981094 0.600015 0.81207
0.901625 0.69546 0.468772
0.937957 0.726696 0.420432
1 0.736706 0.405478
0.439475 0.790494 0
0.644511 0.753918 0.0445869
0.839002 0.716091 0.214694
1 0.684123 0.424033
1 0.667048 0.646723
1 0.667903 0.846235
1 0.679362 1
1 0.802274 0.500023
1 0.839567 0.440574
0.609735 0.86746 0
0.812039 0.829557 0.0403143
0.99971 0.792416 0.223636
1 0.761395 0.436286
1 0.742458 0.659983
1 0.738384 0.869932
1 0.746029 1
1 0.759564 1
1 0.909102 0.531289
0.429068 0 0.335836
0.370352 0 0.402975
0.337942 0 0.458564
0.388464 0 0.489738
0.497963 0.000335698 0.502663
0.623285 0.000122072 0.503731
0.748653 0 0.504799
0.874037 0 0.505882
0.99942 0 0.506981
0.493095 0 0.364508
0.446799 0.0417487 0.376867
0.389151 0.0892653 0.443992
0.397116 0.119829 0.485878
0.498466 0.125231 0.501991
0.623804 0.125032 0.503059
0.749172 0.124804 0.504143
0.874571 0.12459 0.505226
0.999969 0.124361 0.50631
0.552132 0.0878157 0.480598
0.509941 0.143618 0.420203
0.46453 0.194507 0.417914
0.418967 0.239002 0.479286
0.498985 0.250156 0.50132
0.624323 0.249943 0.502403
0.749706 0.249714 0.503487
0.87512 0.2495 0.50457
1 0.249256 0.505653
0.532479 0.195743 0.707729
0.562585 0.237476 0.573556
0.52607 0.293904 0.490303
0.482261 0.34725 0.458946
0.499489 0.375067 0.500664
0.624857 0.374853 0.501732
0.750256 0.374624 0.502831
0.875669 0.374395 0.503914
1 0.374151 0.505013
0 0.501686 0.492134
0.122728 0.501259 0.494102
0.248478 0.500832 0.496056
0.374243 0.50042 0.498024
0.499992 0.499992 0.499992
0.624994 0.499992 0.499992
0.749996 0.499992 0.499992
0.874998 0.499992 0.499992
1 0.499992 0.499992
0 0.648432 0.305699
0.129778 0.642741 0.31017
0.284749 0.632609 0.32221
0.465537 0.611887 0.36318
0.656367 0.577279 0.512245
0.675532 0.606821 0.531258
0.756466 0.6224 0.506691
0.877211 0.624033 0.503029
1 0.624308 0.502358
0.0695506 0.765225 0.144396
0.241672 0.748409 0.172091
0.431098 0.723781 0.226368
0.634745 0.689464 0.334798
0.812726 0.654551 0.524514
0.893309 0.646448 0.735607
0.851087 0.713634 0.562509
0.906065 0.738231 0.525078
1 0.744793 0.513375
0.204135 0.86183 0.0293126
0.396643 0.835676 0.0895399
0.599725 0.802777 0.185534
0.80119 0.765118 0.333532
0.9691 0.731838 0.536767
1 0.717906 0.75668
1 0.725017 0.937072
1 0.820462 0.593774
1 0.851698 0.545434
0.362203 0.94757 0
0.564462 0.915496 0.0430304
0.769512 0.87892 0.169589
0.964004 0.841093 0.339696
1 0.809125 0.549035
1 0.79205 0.771725
1 0.792905 0.971237
1 0.804364 1
1 0.927275 0.625025
0.536355 0 0.419791
0.478172 0 0.485573
0.427878 0 0.550317
0.435294 0 0.591318
0.508858 0 0.617472
0.622461 0.000411994 0.628321
0.747784 0.000213626 0.629389
0.873137 0 0.630472
0.998505 0 0.631556
0.601083 0 0.44004
0.55407 0.0140078 0.460822
0.495354 0.0618448 0.527977
0.462943 0.103029 0.583566
0.513466 0.122011 0.61474
0.622965 0.125322 0.627665
0.748287 0.125109 0.628717
0.873655 0.124895 0.629801
0.999039 0.124681 0.630884
0.661448 0.0629435 0.530144
0.618112 0.117082 0.489509
0.571801 0.166751 0.501869
0.514153 0.214267 0.568994
0.522118 0.244831 0.61088
0.623468 0.250233 0.626993
0.748806 0.250034 0.628061
0.874174 0.249805 0.629145
0.999573 0.249592 0.630228
0.716182 0.1561 0.684352
0.67715 0.212818 0.605615
0.634943 0.26862 0.545205
0.589532 0.319509 0.542916
0.543969 0.364004 0.604288
0.623987 0.375158 0.626322
0.749325 0.374945 0.627405
0.874708 0.374716 0.628489
1 0.374502 0.629572
0.543587 0.304753 0.958343
0.657435 0.320745 0.832761
0.687587 0.362478 0.698558
0.651072 0.418906 0.615305
0.607263 0.472251 0.583947
0.624491 0.500069 0.625666
0.749859 0.499855 0.626734
0.875257 0.499626 0.627832
1 0.499397 0.628916
0 0.6271 0.615167
0.121965 0.626688 0.617136
0.24773 0.626261 0.619104
0.37348 0.625834 0.621057
0.499245 0.625422 0.623026
0.624994 0.624994 0.624994
0.749996 0.624994 0.624994
0.874998 0.624994 0.624994
1 0.624994 0.624994
0 0.777066 0.428382
0.112139 0.773434 0.430686
0.25478 0.767742 0.435172
0.409751 0.75761 0.447211
0.590539 0.736889 0.488182
0.781369 0.702281 0.637247
0.800534 0.731823 0.65626
0.881468 0.747402 0.631693
1 0.749035 0.628031
0.0353399 0.901946 0.25391
0.194507 0.890227 0.269413
0.366674 0.873411 0.297093
0.5561 0.848783 0.35137
0.759747 0.814466 0.4598
0.937728 0.779553 0.649516
1 0.77145 0.860609
0.976089 0.838636 0.68751
1 0.863233 0.65008
0.148882 1 0.116243
0.329122 0.986831 0.154299
0.521645 0.960678 0.214542
0.724727 0.927779 0.310536
0.926192 0.89012 0.458534
1 0.85684 0.661768
1 0.842908 0.881682
1 0.850019 1
1 0.945464 0.718776
0.643626 0 0.503746
0.586145 0 0.568017
0.528328 0 0.63798
0.50692 0 0.687861
0.544259 0 0.721767
0.630961 0 0.744549
0.74696 0.000503548 0.753994
0.872267 0.00030518 0.755062
0.99762 9.15541e-05 0.756146
0.708919 0 0.518654
0.661341 0 0.544793
0.603159 0.0340734 0.610574
0.55288 0.0796521 0.675319
0.560296 0.11046 0.71632
0.63386 0.12311 0.742473
0.747463 0.125399 0.753323
0.872786 0.1252 0.754391
0.998138 0.124987 0.755459
0.769894 0.0372473 0.590417
0.726085 0.0899825 0.565042
0.679072 0.13901 0.585824
0.620356 0.186847 0.652979
0.587945 0.228031 0.708568
0.638468 0.247013 0.739742
0.747967 0.250324 0.752667
0.873289 0.250111 0.753719
0.998657 0.249897 0.754803
0.828214 0.131731 0.720913
0.786465 0.18793 0.655161
0.743114 0.242084 0.614511
0.696803 0.291752 0.626871
0.639155 0.339269 0.693996
0.64712 0.369833 0.735882
0.74847 0.375235 0.751995
0.873808 0.375036 0.753063
0.999176 0.374807 0.754147
0.875196 0.224979 0.897093
0.841184 0.281102 0.809369
0.802152 0.337819 0.730617
0.759945 0.393622 0.670207
0.714534 0.444511 0.667918
0.668971 0.489006 0.72929
0.748989 0.50016 0.751324
0.874327 0.499947 0.752407
0.99971 0.499718 0.753491
0.51017 0.431601 1
0.668589 0.429755 1
0.782437 0.445747 0.957763
0.812589 0.48748 0.82356
0.776074 0.543908 0.740307
0.732265 0.597253 0.708949
0.749493 0.625071 0.750668
0.874861 0.624857 0.751736
1 0.624628 0.752834
0 0.752529 0.738201
0.121218 0.752102 0.740169
0.246967 0.75169 0.742138
0.372732 0.751263 0.744106
0.498482 0.750835 0.746059
0.624247 0.750423 0.748028
0.749996 0.749996 0.749996
0.875425 0.749767 0.751095
1 0.749523 0.752178
0 0.904631 0.551751
0.100679 0.902083 0.553368
0.23714 0.898436 0.555688
0.379782 0.892744 0.560174
0.534752 0.882612 0.572213
0.715541 0.861891 0.613184
0.906371 0.827283 0.762249
0.925536 0.856825 0.781262
1 0.872404 0.756695
0.00958267 1 0.370352
0.160327 1 0.378897
0.319509 1 0.394415
0.491676 0.998413 0.422095
0.681102 0.973785 0.476371
0.884749 0.939467 0.584802
1 0.904555 0.774517
1 0.896452 0.985611
1 0.963638 0.812512
0.750896 0 0.587716
0.694041 0 0.650599
0.633677 0 0.722622
0.594339 0 0.780468
0.601678 0 0.821149
0.659007 0 0.851026
0.753887 0 0.87126
0.871443 0.000579843 0.879667
0.996765 0.000381476 0.880735
0.816648 0 0.598978
0.768627 0 0.628748
0.711131 0.00627146 0.693019
0.653315 0.0535592 0.762982
0.631907 0.0920424 0.812863
0.669261 0.114672 0.846769
0.755962 0.123766 0.869551
0.871946 0.12549 0.878996
0.997269 0.125292 0.880064
0.878111 0.0109255 0.657511
0.833936 0.0626078 0.643656
0.786343 0.111269 0.669795
0.728161 0.159075 0.735576
0.677882 0.204654 0.80032
0.685298 0.235462 0.841321
0.758862 0.248112 0.867475
0.872465 0.250401 0.878325
0.997787 0.250202 0.879393
0.937774 0.106996 0.768307
0.894896 0.162234 0.715419
0.851087 0.214984 0.690044
0.804074 0.264012 0.710826
0.745357 0.311849 0.777981
0.712947 0.353033 0.83357
0.76347 0.372015 0.864744
0.872969 0.375326 0.877668
0.998291 0.375113 0.878721
0.992813 0.200015 0.923095
0.953216 0.256733 0.84593
0.911467 0.312932 0.780163
0.868116 0.367086 0.739513
0.821805 0.416754 0.751873
0.764157 0.464271 0.818998
0.772122 0.494835 0.860883
0.873472 0.500237 0.876997
0.99881 0.500038 0.878065
0.994934 0.301747 1
1 0.349981 1
0.966186 0.406104 0.934371
0.927153 0.462821 0.855619
0.884947 0.518624 0.795209
0.839536 0.569512 0.79292
0.793973 0.614008 0.854292
0.873976 0.625162 0.876326
0.999329 0.624949 0.877409
0.462104 0.566796 1
0.635172 0.556588 1
0.793591 0.554757 1
0.907439 0.570748 1
0.937591 0.612482 0.948562
0.901076 0.66891 0.865309
0.857267 0.722255 0.833951
0.874495 0.750072 0.875669
0.999863 0.749859 0.876738
0 0.877958 0.86125
0.120455 0.877531 0.863203
0.24622 0.877104 0.865171
0.371969 0.876692 0.86714
0.497734 0.876265 0.869108
0.623484 0.875837 0.871061
0.749249 0.875425 0.87303
0.874998 0.874998 0.874998
1 0.874998 0.874998
0 1 0.675334
0.092607 1 0.676753
0.225681 1 0.67837
0.362142 1 0.68069
0.504784 1 0.685176
0.659754 1 0.697215
0.840543 0.986893 0.738186
1 0.952285 0.887251
1 0.981826 0.906264
0.858167 0 0.671672
0.801816 0 0.733379
0.740703 0 0.805966
0.69102 0 0.86978
0.675883 0 0.917144
0.706081 0 0.952483
0.776928 0 0.979492
0.877287 0 0.997711
0.995941 0.000671397 1
0.924269 0 0.680339
0.875898 0 0.712703
0.819028 0 0.775601
0.758663 0.0263218 0.847623
0.719341 0.0693217 0.90547
0.72668 0.100191 0.946151
0.784009 0.117296 0.976028
0.878889 0.124208 0.996262
0.996445 0.125566 1
0.986221 0 0.729015
0.941649 0.0350958 0.72398
0.893629 0.0835279 0.75375
0.836133 0.131273 0.818021
0.778317 0.178561 0.887984
0.756909 0.217044 0.937865
0.794263 0.239673 0.971771
0.880964 0.248768 0.994553
0.996948 0.250492 1
1 0.0816968 0.823941
1 0.135912 0.782513
0.958938 0.18761 0.768658
0.911345 0.236271 0.794797
0.853162 0.284077 0.860578
0.802884 0.329656 0.925322
0.8103 0.360464 0.966323
0.883864 0.373114 0.992477
0.997467 0.375402 1
1 0.175647 0.961227
1 0.231998 0.893309
1 0.287236 0.840421
0.976089 0.339986 0.815045
0.929076 0.389013 0.835828
0.870359 0.436851 0.902983
0.837949 0.478035 0.958572
0.888472 0.497017 0.989746
0.997971 0.500328 1
1 0.26836 1
1 0.325002 1
1 0.381735 0.970932
1 0.437934 0.905165
0.993118 0.492088 0.864515
0.946807 0.541756 0.876875
0.889158 0.589273 0.943999
0.897124 0.619837 0.985885
0.998474 0.625238 1
1 0.391501 1
1 0.426749 1
1 0.474983 1
1 0.531106 1
1 0.587823 0.980621
1 0.643626 0.920211
0.964538 0.694514 0.917922
0.918975 0.73901 0.979294
0.998993 0.750164 1
0.417411 0.703365 1
0.587091 0.691783 1
0.760174 0.68159 1
0.918593 0.679759 1
1 0.69575 1
1 0.737484 1
1 0.793912 0.990311
0.982269 0.847257 0.958953
0.999496 0.875074 1
0 1 0.984283
0.119707 1 0.986252
0.245457 1 0.988205
0.371221 1 0.990173
0.496971 1 0.992142
0.622736 1 0.99411
0.748486 1 0.996063
0.87425 1 0.998032
1 1 1
