src/luts/crop/17.cube
TITLE "Generated by Resolve"
LUT_3D_SIZE 33
0 0 0
0.0312352 0 0
0.0624857 0 0
0.0937362 0 0
0.124987 0 0
0.156237 0 0
0.187488 0 0
0.218738 0 0
0.249989 0 0
0.281239 0 0
0.31249 0 0
0.34374 0 0
0.37499 0 0
0.406241 0 0
0.437491 0 0
0.468742 0 0
0.499992 0 0
0.531243 0 0
0.562493 0 0
0.593744 0 0
0.624994 0 0
0.656245 0 0
0.687495 0 0
0.718746 0 0
0.749996 0 0
0.781247 0 0
0.812497 0 0
0.843748 0 0
0.874998 0 0
0.906249 0 0
0.937499 0 0
0.96875 0 0
1 0 0
0.0390784 0.0193179 0.00306706
0.0438697 0.026688 0.00781262
0.0641031 0.0305791 0.00167849
0.0942855 0.0309911 0.000762951
0.125353 0.0310674 0.000595102
0.156573 0.0310826 0.000579843
0.187823 0.0310674 0.00062562
0.219089 0.0310674 0.000686656
0.25037 0.0310521 0.000762951
0.281651 0.0310369 0.000839246
0.312932 0.0310063 0.000915541
0.344213 0.0309911 0.0010071
0.375494 0.0309758 0.00109865
0.406775 0.0309606 0.00117494
0.438056 0.0309453 0.0012665
0.469352 0.0309148 0.00135805
0.500633 0.0308995 0.00144961
0.531914 0.0308843 0.0015259
0.563195 0.030869 0.00161746
0.594476 0.0308385 0.00170901
0.625772 0.0308232 0.00180056
0.657053 0.030808 0.00189212
0.688334 0.0307774 0.00198367
0.719631 0.0307622 0.00205997
0.750912 0.0307469 0.00215152
0.782193 0.0307317 0.00224308
0.813489 0.0307012 0.00234989
0.84477 0.0306859 0.00242618
0.876051 0.0306706 0.00251774
0.907332 0.0306554 0.00259403
0.938628 0.0306249 0.00270085
0.969909 0.0306096 0.00277714
1 0.0305943 0.00288396
0.078172 0.0386358 0.00613413
0.0982986 0.0366064 0.0588846
0.0877546 0.0533913 0.0156252
0.101503 0.0595407 0.00627146
0.128222 0.0611887 0.00334173
0.157916 0.0617838 0.00205997
0.188602 0.0619974 0.0015259
0.219593 0.0621042 0.00128176
0.250736 0.06215 0.0011902
0.281926 0.0621653 0.00115969
0.313161 0.0621653 0.00115969
0.344411 0.0621653 0.0011902
0.375662 0.0621653 0.00125124
0.406928 0.06215 0.00129702
0.438193 0.0621347 0.00137331
0.469474 0.0621195 0.00144961
0.50074 0.0621042 0.00151064
0.532021 0.062089 0.00158694
0.563302 0.0620737 0.00167849
0.594583 0.0620584 0.00175479
0.625864 0.0620432 0.00184634
0.657145 0.0620279 0.00192264
0.688426 0.0619974 0.00201419
0.719707 0.0619821 0.00209049
0.751003 0.0619669 0.00218204
0.782284 0.0619516 0.00225834
0.813565 0.0619364 0.00236515
0.844846 0.0619059 0.00244144
0.876127 0.0618906 0.00251774
0.907423 0.0618753 0.00262455
0.938704 0.0618601 0.00270085
0.969985 0.0618296 0.0027924
1 0.0618143 0.0028687
0.117266 0.0579538 0.00918593
0.141558 0.0544747 0.0641489
0.151507 0.0562448 0.109239
0.13164 0.0801099 0.0234379
0.140719 0.0879072 0.0113527
0.164813 0.0904097 0.00761425
0.19234 0.091783 0.00502022
0.22179 0.0924697 0.00355535
0.25214 0.0928206 0.00274662
0.282902 0.093019 0.00227359
0.313878 0.0931258 0.00201419
0.344961 0.0931868 0.0018616
0.376104 0.0932326 0.00177005
0.407294 0.0932479 0.00173953
0.438514 0.0932631 0.00173953
0.469749 0.0932631 0.00175479
0.500984 0.0932631 0.00177005
0.53225 0.0932479 0.00181582
0.5635 0.0932479 0.0018616
0.594766 0.0932326 0.00192264
0.626032 0.0932326 0.00198367
0.657298 0.0932174 0.00205997
0.688579 0.0932021 0.002121
0.719844 0.0931868 0.0021973
0.751125 0.0931716 0.00227359
0.782406 0.0931563 0.00234989
0.813687 0.0931411 0.00242618
0.844968 0.0931258 0.00251774
0.876249 0.0931106 0.00259403
0.90753 0.0930953 0.00267033
0.938811 0.0930648 0.00274662
0.970092 0.0930495 0.00283818
1 0.0930343 0.00292973
0.156344 0.0772717 0.012253
0.183032 0.0730144 0.0679026
0.196628 0.073228 0.117784
0.204517 0.0760815 0.158206
0.175525 0.106813 0.0312505
0.180468 0.116136 0.0163882
0.203021 0.119097 0.0125429
0.22858 0.121141 0.0091249
0.256458 0.122393 0.00668345
0.28574 0.123125 0.00509651
0.315862 0.123568 0.00411994
0.34641 0.123842 0.0034638
0.377203 0.124025 0.00303655
0.408164 0.124132 0.00276188
0.439216 0.124224 0.00256352
0.470329 0.124269 0.00244144
0.501488 0.1243 0.00236515
0.532662 0.124331 0.00231937
0.563882 0.124346 0.00230411
0.595102 0.124346 0.00230411
0.626322 0.124361 0.00231937
0.657572 0.124361 0.00234989
0.688823 0.124346 0.00239567
0.720088 0.124346 0.00244144
0.751339 0.124331 0.00248722
0.782605 0.124331 0.00254826
0.81387 0.124315 0.00260929
0.845136 0.1243 0.00268559
0.876417 0.124285 0.00274662
0.907683 0.124269 0.00280766
0.938964 0.124254 0.00288396
0.97023 0.124254 0.00296025
1 0.124224 0.00303655
0.195438 0.0965896 0.0153201
0.223621 0.0918593 0.0712139
0.240467 0.090837 0.123705
0.250004 0.0927443 0.168765
0.25977 0.0961318 0.198505
0.219409 0.133516 0.0390631
0.220417 0.144289 0.0213474
0.242039 0.147539 0.0176242
0.266148 0.150042 0.0138399
0.292515 0.151812 0.0106966
0.320577 0.152987 0.00836194
0.349767 0.153765 0.00671397
0.37969 0.154269 0.0055848
0.410056 0.15462 0.00477607
0.440696 0.154864 0.00421149
0.471519 0.155032 0.0037995
0.502449 0.155154 0.00350958
0.533486 0.155245 0.00329595
0.564569 0.155306 0.00314336
0.595697 0.155352 0.00303655
0.626856 0.155383 0.00296025
0.65803 0.155413 0.00291447
0.689235 0.155428 0.00289921
0.720455 0.155444 0.00288396
0.751675 0.155444 0.00289921
0.78291 0.155444 0.00291447
0.81416 0.155444 0.00294499
0.845411 0.155444 0.00297551
0.876661 0.155444 0.00302129
0.907927 0.155428 0.00306706
0.939178 0.155428 0.00311284
0.970443 0.155413 0.00317388
1 0.155398 0.00323491
0.234531 0.115908 0.0183871
0.263722 0.110872 0.0743725
0.283131 0.108949 0.128313
0.294957 0.109834 0.176684
0.303029 0.112505 0.218509
0.317571 0.116854 0.224582
0.263294 0.16022 0.046891
0.260456 0.172442 0.0262455
0.281468 0.17583 0.0227207
0.30454 0.178668 0.0188144
0.329656 0.18085 0.0152438
0.356512 0.182452 0.0122988
0.384695 0.183597 0.0100404
0.413809 0.18439 0.00833143
0.443595 0.184955 0.0071107
0.473808 0.185367 0.0061799
0.504295 0.185657 0.00547799
0.534981 0.18587 0.00495918
0.56582 0.186038 0.00456245
0.59675 0.18616 0.00425727
0.627771 0.186252 0.00402838
0.658824 0.186328 0.00384527
0.689937 0.186389 0.0037232
0.721065 0.186435 0.00361639
0.752224 0.186465 0.00354009
0.783413 0.186496 0.00350958
0.814618 0.186511 0.00347906
0.845823 0.186526 0.00347906
0.877043 0.186526 0.0034638
0.908263 0.186542 0.00347906
0.939498 0.186542 0.00349432
0.970748 0.186542 0.00352483
1 0.186542 0.00355535
0.273625 0.135241 0.0214542
0.303517 0.129976 0.0774701
0.324926 0.127382 0.13225
0.339025 0.127367 0.18291
0.348424 0.129305 0.227939
0.356023 0.132326 0.267643
0.37467 0.138689 0.24184
0.307179 0.186923 0.0547036
0.300557 0.200565 0.0311131
0.321141 0.204074 0.0277714
0.343465 0.207126 0.0238956
0.367575 0.209628 0.0200809
0.393362 0.211582 0.0167239
0.420539 0.213077 0.0139315
0.448814 0.214191 0.0117189
0.477867 0.215015 0.0099794
0.507546 0.21561 0.00866712
0.537621 0.216068 0.00762951
0.567971 0.216419 0.00682078
0.59855 0.216678 0.00619516
0.629282 0.216892 0.00570687
0.660121 0.217044 0.00531014
0.691051 0.217182 0.00500496
0.722057 0.217273 0.00477607
0.753094 0.21735 0.00457771
0.784192 0.217411 0.00442512
0.815305 0.217472 0.00430304
0.846448 0.217517 0.00421149
0.877607 0.217548 0.0041352
0.908782 0.217578 0.00408942
0.939986 0.217594 0.00407416
0.971191 0.217609 0.00404364
1 0.217609 0.00404364
0.312718 0.154559 0.0245212
0.34316 0.149142 0.0805219
0.366094 0.146029 0.135836
0.382223 0.145251 0.188037
0.393286 0.146456 0.235599
0.401541 0.148989 0.278172
0.409064 0.152178 0.316426
0.429557 0.161898 0.251804
0.351064 0.213626 0.0625162
0.340688 0.228687 0.035935
0.360952 0.232273 0.0327916
0.382727 0.235477 0.0289921
0.406058 0.238224 0.0250858
0.43093 0.240482 0.0214389
0.457191 0.242283 0.0182498
0.484596 0.243702 0.0155642
0.512932 0.244785 0.0133822
0.541955 0.245624 0.0116274
0.571496 0.246281 0.0102083
0.601495 0.246769 0.00914015
0.631739 0.24715 0.00823987
0.662211 0.247456 0.0075227
0.692836 0.2477 0.0069276
0.723583 0.247898 0.00646983
0.754437 0.248051 0.00607309
0.785351 0.248188 0.00576791
0.816342 0.248295 0.00550851
0.847379 0.248371 0.00531014
0.878447 0.248447 0.00514229
0.909545 0.248508 0.0049897
0.940673 0.248554 0.00488289
0.971817 0.2486 0.00480659
1 0.248631 0.0047303
0.351812 0.173877 0.0275731
0.382666 0.168338 0.0835737
0.406836 0.164828 0.139208
0.424704 0.163424 0.192493
0.437461 0.163928 0.241962
0.446815 0.165881 0.287007
0.454551 0.168765 0.327794
0.46331 0.172137 0.360616
0.481773 0.186313 0.257801
0.394949 0.24033 0.0703288
0.380835 0.256809 0.0407568
0.40087 0.260441 0.0377508
0.422217 0.263767 0.0340887
0.444938 0.266697 0.0301671
0.469017 0.269215 0.0263218
0.494499 0.271275 0.022858
0.521096 0.272969 0.0198062
0.548684 0.274311 0.0172274
0.57705 0.275395 0.0150607
0.606043 0.276249 0.0132753
0.635508 0.276921 0.0117952
0.665415 0.27744 0.0106661
0.695552 0.277867 0.00968948
0.725917 0.278218 0.00889601
0.756451 0.278492 0.00822461
0.787121 0.278721 0.00767529
0.817884 0.278904 0.00723278
0.848737 0.279072 0.00683604
0.879652 0.279194 0.0065156
0.910643 0.279301 0.00627146
0.941649 0.279393 0.00602731
0.972717 0.279469 0.00585946
1 0.27953 0.00570687
0.390906 0.193194 0.0306401
0.422095 0.187564 0.0866255
0.447257 0.183734 0.142473
0.466621 0.181811 0.196521
0.48098 0.181689 0.24744
0.491615 0.183062 0.294499
0.500023 0.185504 0.337545
0.507546 0.188586 0.376989
0.519554 0.192279 0.397009
0.53164 0.211627 0.26183
0.438834 0.267048 0.0781415
0.421012 0.284916 0.0455634
0.440848 0.288609 0.0426947
0.461845 0.292012 0.0391394
0.484077 0.295079 0.0352636
0.507576 0.29778 0.0313573
0.532311 0.300084 0.0276646
0.558175 0.302022 0.0243381
0.585046 0.303624 0.0213931
0.612757 0.304936 0.0188754
0.641169 0.305989 0.0167391
0.67013 0.306859 0.0149233
0.699535 0.307561 0.0134127
0.729351 0.30811 0.0122072
0.759411 0.308568 0.0111696
0.78967 0.308949 0.0102998
0.820127 0.309255 0.00955215
0.850706 0.309514 0.00894179
0.881407 0.309728 0.00842298
0.912184 0.309926 0.00796521
0.943038 0.310079 0.00759899
0.973968 0.310201 0.00727855
1 0.310323 0.00700389
0.429999 0.212512 0.0337072
0.461448 0.206806 0.089662
0.487449 0.202716 0.145647
0.508064 0.200366 0.200229
0.523888 0.199695 0.252277
0.535866 0.200504 0.300969
0.54519 0.202487 0.346014
0.553079 0.205234 0.387503
0.560571 0.208423 0.425925
0.577234 0.212757 0.425849
0.579644 0.237583 0.264958
0.482719 0.293751 0.0859541
0.461189 0.313039 0.0503395
0.480873 0.316747 0.0476081
0.50161 0.320226 0.0441749
0.523445 0.3234 0.0403601
0.546426 0.326268 0.0364233
0.57055 0.328771 0.0326085
0.595758 0.330922 0.0290532
0.621958 0.332738 0.0258335
0.649027 0.334279 0.0229953
0.676844 0.335546 0.0205234
0.705287 0.336599 0.0184024
0.734234 0.337469 0.0165866
0.763577 0.338186 0.0150301
0.793301 0.338766 0.0137636
0.823301 0.339254 0.0126802
0.853483 0.339666 0.0117494
0.883848 0.340002 0.0109407
0.914351 0.340291 0.0102541
0.944976 0.340536 0.00967422
0.975692 0.340749 0.00917067
1 0.340932 0.00874342
0.469093 0.23183 0.0367742
0.500771 0.226062 0.0927138
0.527459 0.221759 0.148775
0.549157 0.219043 0.203769
0.566293 0.217899 0.256672
0.579568 0.218189 0.306676
0.589944 0.219684 0.353399
0.598459 0.222065 0.39678
0.606073 0.225025 0.437049
0.613611 0.228275 0.474647
0.635172 0.233722 0.449195
0.626291 0.263951 0.267887
0.526604 0.320455 0.0937667
0.501381 0.341146 0.0551308
0.520928 0.344884 0.052491
0.541436 0.348409 0.0491798
0.562951 0.35169 0.0454414
0.585504 0.354665 0.0415198
0.60911 0.357336 0.0376287
0.633738 0.359686 0.0339208
0.659327 0.3617 0.0304875
0.685802 0.363439 0.0273747
0.713039 0.364904 0.0246128
0.740932 0.366155 0.0221866
0.76939 0.367193 0.0200809
0.798321 0.368078 0.0182498
0.827634 0.368811 0.0166629
0.857267 0.369421 0.0153201
0.887205 0.369924 0.0142061
0.917327 0.370367 0.0132143
0.947616 0.370733 0.0123598
0.978058 0.371054 0.0116121
1 0.371328 0.010956
0.508186 0.251164 0.0398413
0.540063 0.245319 0.0957656
0.56733 0.240833 0.151888
0.58996 0.237812 0.207172
0.608255 0.236271 0.260731
0.622766 0.236088 0.311803
0.634241 0.23711 0.359945
0.643549 0.239078 0.40499
0.651576 0.241749 0.446998
0.659068 0.244831 0.48629
0.66746 0.248203 0.520272
0.692714 0.255283 0.467704
0.671946 0.290623 0.270909
0.570504 0.347158 0.101579
0.54168 0.369223 0.0599832
0.561013 0.373022 0.0573587
0.581338 0.376593 0.0541543
0.602579 0.379934 0.0505074
0.624765 0.383017 0.0466316
0.647913 0.385824 0.0426947
0.672038 0.388327 0.03888
0.697093 0.390539 0.0352636
0.723003 0.392462 0.0319524
0.749691 0.394125 0.0289311
0.777066 0.395544 0.0262455
0.805035 0.396765 0.0238499
0.833509 0.397803 0.0217441
0.862425 0.398672 0.019913
0.891691 0.399435 0.0182956
0.921263 0.400076 0.016907
0.951156 0.400595 0.0157778
0.981201 0.401053 0.014725
1 0.40145 0.0137942
0.54728 0.270481 0.0429084
0.579309 0.264591 0.0988174
0.60708 0.259953 0.154971
0.630533 0.256672 0.210468
0.649866 0.254765 0.264546
0.665507 0.254154 0.316503
0.678065 0.254734 0.365835
0.688273 0.256291 0.412314
0.69688 0.258625 0.455909
0.704601 0.261494 0.496834
0.712077 0.264668 0.535317
0.72282 0.268238 0.560311
0.749371 0.277378 0.48368
0.716915 0.317464 0.27422
0.614389 0.373861 0.109407
0.582147 0.397223 0.0649424
0.601129 0.401144 0.062211
0.621286 0.404761 0.0591135
0.642298 0.408164 0.0555428
0.664164 0.411337 0.0517128
0.686946 0.414252 0.0477913
0.710628 0.416892 0.0439002
0.735164 0.419272 0.0401617
0.760571 0.421363 0.0366674
0.786755 0.423194 0.0334478
0.813611 0.424796 0.0305028
0.841108 0.426169 0.027863
0.869139 0.427375 0.0255131
0.897627 0.428397 0.0234226
0.926528 0.429282 0.0215763
0.955764 0.430045 0.0199435
0.98529 0.430701 0.0185092
1 0.43125 0.017319
0.586374 0.289799 0.0459754
0.61854 0.283879 0.101854
0.646738 0.279118 0.158022
0.670909 0.275593 0.213703
0.691173 0.273365 0.268193
0.707866 0.272374 0.320836
0.721477 0.272541 0.371176
0.732601 0.273701 0.418921
0.741909 0.275685 0.463935
0.750042 0.278279 0.50634
0.75761 0.28127 0.546319
0.765103 0.28452 0.584176
0.779355 0.288426 0.595529
0.804929 0.300252 0.495064
0.76141 0.344396 0.277913
0.658274 0.400565 0.11722
0.622797 0.425162 0.0700542
0.64126 0.429267 0.0670481
0.66128 0.432914 0.0640421
0.682078 0.436362 0.0605783
0.7037 0.439612 0.0568093
0.726131 0.442634 0.0528878
0.749432 0.445396 0.0489662
0.773541 0.447898 0.0451514
0.798474 0.450141 0.0415045
0.82417 0.45214 0.0381018
0.850553 0.453895 0.0349584
0.877577 0.455451 0.0320897
0.905165 0.456794 0.0294957
0.933242 0.457969 0.0271763
0.961746 0.459007 0.0251011
0.990646 0.459892 0.0232548
1 0.46067 0.0215915
0.625467 0.309117 0.0490272
0.657755 0.303166 0.104891
0.686351 0.298283 0.161089
0.711131 0.294575 0.216907
0.732219 0.292058 0.271702
0.749874 0.29073 0.324926
0.764477 0.290517 0.376104
0.776532 0.291295 0.424918
0.786603 0.292912 0.471214
0.79527 0.295201 0.514992
0.803113 0.297978 0.556374
0.810605 0.301091 0.59559
0.818158 0.304372 0.632883
0.836957 0.308843 0.625177
0.859144 0.323812 0.503624
0.805478 0.37145 0.281788
0.702159 0.427283 0.125032
0.664012 0.452903 0.0755779
0.681392 0.457389 0.0718853
0.701289 0.461067 0.0689555
0.721935 0.464561 0.065568
0.743313 0.467857 0.0618753
0.765469 0.470954 0.0579843
0.788403 0.473823 0.0540627
0.812146 0.476448 0.0501717
0.836576 0.478859 0.0463722
0.861891 0.48098 0.0428779
0.887831 0.482887 0.0395666
0.914397 0.484596 0.0364996
0.941558 0.486091 0.0336919
0.969223 0.487419 0.0311437
0.997345 0.488579 0.0288396
1 0.489601 0.0267643
0.664546 0.328435 0.0520943
0.696971 0.322454 0.107958
0.725887 0.317464 0.164157
0.751217 0.313588 0.22005
0.773068 0.310826 0.27512
0.791592 0.309178 0.328817
0.807126 0.308614 0.380682
0.820081 0.309041 0.430442
0.830945 0.310307 0.477852
0.840253 0.312291 0.522881
0.848493 0.314824 0.565576
0.856138 0.317739 0.606119
0.8636 0.320912 0.644678
0.871809 0.324269 0.679255
0.894835 0.329534 0.651392
0.912001 0.347967 0.510338
0.849439 0.398474 0.286229
0.746044 0.453986 0.132845
0.705333 0.480583 0.0811933
0.721538 0.485512 0.0767071
0.741344 0.489204 0.0738537
0.761822 0.492729 0.0705577
0.783001 0.496101 0.0669261
0.804913 0.49926 0.0630808
0.827543 0.50222 0.0591592
0.850935 0.504952 0.0552377
0.875059 0.507454 0.0514229
0.899886 0.509728 0.0477455
0.925414 0.511788 0.0442969
0.951553 0.513634 0.0410468
0.978286 0.515282 0.038056
1 0.516732 0.0353094
1 0.518029 0.0327916
0.703639 0.347753 0.0551614
0.736156 0.341741 0.111009
0.765362 0.336675 0.167193
0.791211 0.332631 0.223194
0.813703 0.329656 0.278447
0.833036 0.327733 0.33254
0.849439 0.326848 0.385016
0.863279 0.326925 0.435569
0.874952 0.327855 0.48397
0.884932 0.329519 0.530114
0.89366 0.331792 0.574029
0.901595 0.334493 0.615793
0.909133 0.33753 0.655589
0.916609 0.340764 0.693614
0.926635 0.344274 0.721248
0.952773 0.350591 0.673793
0.963561 0.372641 0.515618
0.893111 0.425574 0.290761
0.789929 0.48069 0.140658
0.747143 0.508095 0.0871595
0.7617 0.513634 0.0815137
0.781415 0.517342 0.0787366
0.801755 0.520897 0.0755169
0.822766 0.524315 0.0719463
0.844434 0.527535 0.0681621
0.866804 0.530571 0.0642557
0.889891 0.533394 0.0603342
0.913664 0.536019 0.0564584
0.938064 0.53843 0.0526436
0.963256 0.540597 0.0491035
0.988998 0.542565 0.0457313
1 0.54435 0.0425574
1 0.545953 0.0396277
0.742733 0.367086 0.0582284
0.775341 0.361044 0.114061
0.804807 0.355901 0.17023
0.831083 0.35172 0.226276
0.8542 0.348531 0.281727
0.874266 0.346365 0.336126
0.891478 0.34519 0.38912
0.906157 0.344945 0.44036
0.918624 0.345556 0.489632
0.92929 0.346914 0.536797
0.938598 0.348898 0.581827
0.946914 0.35137 0.62475
0.95465 0.354238 0.665705
0.962127 0.357351 0.704875
0.96965 0.360601 0.742443
0.982467 0.36437 0.759426
1 0.37203 0.693187
1 0.397757 0.520027
0.936782 0.452628 0.295781
0.833814 0.507393 0.14847
0.789014 0.535576 0.0931868
0.801877 0.541741 0.0863203
0.8215 0.545464 0.0836194
0.841718 0.549065 0.0804608
0.862562 0.552514 0.0769665
0.884047 0.555795 0.073228
0.906188 0.558892 0.0693523
0.928985 0.561807 0.0654154
0.952438 0.564508 0.0615091
0.976562 0.567025 0.0576944
1 0.569314 0.0540017
1 0.57142 0.0504921
1 0.573327 0.0471809
0.781826 0.386404 0.0612955
0.814496 0.380346 0.117113
0.844205 0.375128 0.173281
0.870909 0.370825 0.229389
0.89456 0.367468 0.284962
0.915282 0.365072 0.339635
0.933257 0.363622 0.393042
0.94873 0.363088 0.444892
0.961975 0.363394 0.494926
0.973358 0.364446 0.542992
0.983261 0.36614 0.589014
0.992035 0.368383 0.633036
1 0.371038 0.67512
1 0.373999 0.715404
1 0.377172 0.754009
1 0.380453 0.791104
1 0.384558 0.794049
1 0.393881 0.710079
1 0.42327 0.523659
0.980301 0.479713 0.300908
0.877699 0.534096 0.156283
0.831067 0.562997 0.0993362
0.842039 0.569848 0.0911116
0.861585 0.573602 0.0884718
0.881712 0.577218 0.0853895
0.902419 0.580697 0.0819715
0.92372 0.584024 0.078294
0.945647 0.587198 0.0744488
0.968185 0.590173 0.0705272
0.991363 0.592966 0.0665904
1 0.595575 0.0627298
1 0.597986 0.0589456
1 0.600198 0.0553445
0.82092 0.405722 0.0643626
0.853666 0.399634 0.120165
0.883589 0.394354 0.176333
0.910643 0.389944 0.232456
0.934798 0.386435 0.288151
0.956146 0.383825 0.343069
0.974823 0.382147 0.396841
0.991028 0.381323 0.449195
1 0.381338 0.49987
1 0.382101 0.54876
1 0.38352 0.595728
1 0.385504 0.640742
1 0.387945 0.683879
1 0.390738 0.7252
1 0.39379 0.764858
1 0.397009 0.802991
1 0.400366 0.837842
1 0.404974 0.823957
1 0.416068 0.725536
1 0.449073 0.527001
1 0.506783 0.306294
0.921584 0.5608 0.164111
0.873426 0.590295 0.105745
0.882231 0.597971 0.0959029
0.901701 0.601724 0.0933242
0.921721 0.605371 0.0903029
0.942306 0.608881 0.0869459
0.963455 0.612253 0.0833295
0.985183 0.615457 0.07953
1 0.618509 0.0756237
1 0.621378 0.0716869
1 0.624079 0.0677806
1 0.626581 0.0639658
0.860014 0.42504 0.0674144
0.892821 0.418936 0.123217
0.922942 0.413611 0.17937
0.950332 0.409094 0.235538
0.974945 0.405432 0.291325
0.996841 0.40264 0.34641
1 0.400732 0.400504
1 0.399664 0.453315
1 0.399405 0.504601
1 0.399878 0.554192
1 0.401022 0.601984
1 0.402762 0.647929
1 0.404974 0.692042
1 0.407568 0.734371
1 0.410483 0.775036
1 0.413596 0.81416
1 0.416846 0.851881
1 0.42034 0.881132
1 0.425544 0.851728
1 0.438849 0.737285
1 0.475166 0.529931
1 0.533822 0.311955
0.965469 0.587503 0.171923
0.915785 0.617609 0.112154
0.922408 0.626078 0.100694
0.941833 0.629847 0.0981613
0.961761 0.633509 0.0952163
0.982223 0.637049 0.0919203
1 0.640452 0.0883497
1 0.643717 0.084596
1 0.64683 0.0807202
1 0.64976 0.0767834
1 0.652537 0.0728618
0.899107 0.444358 0.0704814
0.931975 0.438239 0.126284
0.96228 0.432853 0.182422
0.98996 0.428244 0.23859
1 0.42446 0.294453
1 0.4215 0.349722
1 0.419379 0.404074
1 0.418082 0.457267
1 0.417563 0.509056
1 0.417777 0.559304
1 0.418662 0.607843
1 0.420127 0.654643
1 0.42211 0.699687
1 0.424521 0.742962
1 0.427253 0.784588
1 0.430243 0.824704
1 0.433417 0.863325
1 0.436698 0.900679
1 0.440375 0.921279
1 0.446357 0.87631
1 0.462074 0.747143
1 0.501442 0.532921
1 0.560861 0.317769
1 0.614221 0.179736
0.95816 0.644892 0.118578
0.9626 0.654185 0.105486
0.981964 0.657969 0.102998
1 0.661646 0.100099
1 0.665217 0.0968643
1 0.66865 0.09337
1 0.671962 0.0896468
1 0.67512 0.0858015
1 0.678126 0.0818952
0.938201 0.463676 0.0735485
0.97113 0.457542 0.129335
1 0.452125 0.185458
1 0.447425 0.241642
1 0.443519 0.297581
1 0.440406 0.352987
1 0.438087 0.407584
1 0.436576 0.461097
1 0.435813 0.513359
1 0.435767 0.564172
1 0.436393 0.613397
1 0.437613 0.660975
1 0.439368 0.706844
1 0.441566 0.751019
1 0.444129 0.793576
1 0.446983 0.834562
1 0.45005 0.874128
1 0.453254 0.912352
1 0.45655 0.94934
1 0.460502 0.958251
1 0.46746 0.898405
1 0.485725 0.755444
1 0.527916 0.53579
1 0.587961 0.323507
1 0.640925 0.187549
1 0.672038 0.125322
1 0.682292 0.110262
1 0.686091 0.10782
1 0.689784 0.104982
1 0.69337 0.101808
1 0.696849 0.0983597
1 0.700191 0.0946975
1 0.703395 0.0908827
0.977295 0.483009 0.0766155
1 0.47686 0.132387
1 0.471382 0.18851
1 0.466621 0.244709
1 0.462593 0.300679
1 0.459327 0.356207
1 0.45684 0.411002
1 0.455116 0.46482
1 0.454139 0.517494
1 0.453864 0.568811
1 0.454231 0.618662
1 0.455222 0.666911
1 0.456733 0.713573
1 0.458717 0.758602
1 0.461097 0.802029
1 0.463798 0.8439
1 0.466728 0.884382
1 0.469856 0.92343
1 0.473091 0.961288
1 0.476448 0.996399
1 0.480705 0.992569
1 0.488853 0.918029
1 0.509758 0.762585
1 0.554528 0.538796
1 0.614923 0.329763
1 0.667628 0.195361
1 0.699168 0.132082
1 0.710384 0.115084
1 0.714214 0.112642
1 0.717922 0.109865
1 0.721523 0.106737
1 0.725017 0.103349
1 0.728405 0.099733
1 0.502327 0.0796826
1 0.496162 0.135439
1 0.490654 0.191546
1 0.485817 0.247761
1 0.481697 0.303777
1 0.478294 0.359396
1 0.475654 0.414359
1 0.473732 0.468467
1 0.472526 0.521492
1 0.472038 0.573251
1 0.472175 0.623652
1 0.472923 0.672557
1 0.47422 0.719936
1 0.47599 0.765743
1 0.478172 0.809979
1 0.48069 0.85272
1 0.483497 0.893996
1 0.486503 0.933974
1 0.489677 0.97261
1 0.492943 1
1 0.496406 1
1 0.501106 1
1 0.510582 0.935424
1 0.534188 0.768444
1 0.581247 0.541833
1 0.641917 0.335973
1 0.694331 0.203174
1 0.726314 0.138827
1 0.738445 0.119951
1 0.742336 0.117464
1 0.746059 0.114717
1 0.749676 0.111666
1 0.753201 0.108309
1 0.521645 0.0827497
1 0.51548 0.138491
1 0.509926 0.194598
1 0.505028 0.250797
1 0.500801 0.306859
1 0.497292 0.362585
1 0.494484 0.417685
1 0.492393 0.472007
1 0.491005 0.525338
