src/luts/crop/17.cube
TITLE "Generated by Resolve"
LUT_3D_SIZE 5
0 0 0
0.249989 0 0
0.499992 0 0
0.749996 0 0
1 0 0
0.312718 0.154559 0.0245212
0.351064 0.213626 0.0625162
0.512932 0.244785 0.0133822
0.754437 0.248051 0.00607309
1 0.248631 0.0047303
0.625467 0.309117 0.0490272
0.786603 0.292912 0.471214
0.702159 0.427283 0.125032
0.812146 0.476448 0.0501717
1 0.489601 0.0267643
0.938201 0.463676 0.0735485
1 0.435813 0.513359
1 0.45005 0.874128
1 0.640925 0.187549
1 0.703395 0.0908827
1 0.61825 0.0980697
1 0.584115 0.54345
1 0.585824 0.942458
1 0.608743 1
1 0.854566 0.250065
0.214527 0 0.16791
0.248981 0.000167849 0.251316
0.499702 0 0.253468
0.750515 0 0.255665
1 0 0.257847
0 0.250828 0.246052
0.249989 0.249989 0.249989
0.500832 0.249516 0.252171
0.75169 0.249042 0.254353
1 0.248569 0.25655
0.181125 0.473777 0
0.562722 0.404547 0.27451
0.601083 0.46363 0.312505
0.762936 0.494789 0.263371
1 0.498054 0.256077
0.519509 0.628916 0
0.875471 0.559121 0.299031
1 0.542901 0.721233
0.952163 0.677272 0.375021
1 0.726452 0.30016
0.852384 0.780224 0
1 0.71368 0.323537
1 0.685802 0.763363
1 0.700038 1
1 0.890929 0.437537
0.429068 0 0.335836
0.337942 0 0.458564
0.497963 0.000335698 0.502663
0.748653 0 0.504799
0.99942 0 0.506981
0.552132 0.0878157 0.480598
0.46453 0.194507 0.417914
0.498985 0.250156 0.50132
0.749706 0.249714 0.503487
1 0.249256 0.505653
0 0.501686 0.492134
0.248478 0.500832 0.496056
0.499992 0.499992 0.499992
0.749996 0.499992 0.499992
1 0.499992 0.499992
0.0695506 0.765225 0.144396
0.431098 0.723781 0.226368
0.812726 0.654551 0.524514
0.851087 0.713634 0.562509
1 0.744793 0.513375
0.362203 0.94757 0
0.769512 0.87892 0.169589
1 0.809125 0.549035
1 0.792905 0.971237
1 0.927275 0.625025
0.643626 0 0.503746
0.528328 0 0.63798
0.544259 0 0.721767
0.74696 0.000503548 0.753994
0.99762 9.15541e-05 0.756146
0.769894 0.0372473 0.590417
0.679072 0.13901 0.585824
0.587945 0.228031 0.708568
0.747967 0.250324 0.752667
0.998657 0.249897 0.754803
0.875196 0.224979 0.897093
0.802152 0.337819 0.730617
0.714534 0.444511 0.667918
0.748989 0.50016 0.751324
0.99971 0.499718 0.753491
0 0.752529 0.738201
0.246967 0.75169 0.742138
0.498482 0.750835 0.746059
0.749996 0.749996 0.749996
1 0.749523 0.752178
0.00958267 1 0.370352
0.319509 1 0.394415
0.681102 0.973785 0.476371
1 0.904555 0.774517
1 0.963638 0.812512
0.858167 0 0.671672
0.740703 0 0.805966
0.675883 0 0.917144
0.776928 0 0.979492
0.995941 0.000671397 1
0.986221 0 0.729015
0.893629 0.0835279 0.75375
0.778317 0.178561 0.887984
0.794263 0.239673 0.971771
0.996948 0.250492 1
1 0.175647 0.961227
1 0.287236 0.840421
0.929076 0.389013 0.835828
0.837949 0.478035 0.958572
0.997971 0.500328 1
1 0.391501 1
1 0.474983 1
1 0.587823 0.980621
0.964538 0.694514 0.917922
0.998993 0.750164 1
0 1 0.984283
0.245457 1 0.988205
0.496971 1 0.992142
0.748486 1 0.996063
1 1 1
