src/luts/crop/2.cube
TITLE "Generated by Resolve"
LUT_3D_SIZE 9
0.0388647 0.0457008 0.0556191
0.0848859 0.0453193 0.0529183
0.161807 0.0368658 0.0363775
0.289723 0.0153964 0.00570687
0.428473 0.00161746 0
0.559747 0 0
0.654414 0 0
0.722683 3.0518e-05 0
0.77145 0.00714122 0.00062562
0.0428016 0.0970779 0.0602274
0.0971084 0.100359 0.0666056
0.180072 0.0960861 0.0591745
0.324788 0.0773175 0.0316472
0.483375 0.0590066 0.00646983
0.624994 0.0509041 0.00221256
0.727245 0.0614939 0.00596628
0.800626 0.0864271 0.0181277
0.862272 0.119203 0.0369879
0.0372473 0.176257 0.0546731
0.0962234 0.1906 0.0678721
0.200229 0.197574 0.0800946
0.356054 0.194354 0.0704662
0.538994 0.188266 0.0563973
0.69456 0.192859 0.0525063
0.79881 0.215625 0.0684062
0.870573 0.249424 0.0948348
0.926619 0.287709 0.123827
0.0234073 0.306081 0.0413977
0.087129 0.335744 0.0627146
0.197803 0.355825 0.0810101
0.383429 0.361685 0.0960861
0.558953 0.36997 0.094377
0.715358 0.378515 0.0972915
0.817334 0.401968 0.113252
0.886259 0.436103 0.138735
0.940963 0.473884 0.167041
0.0272221 0.476356 0.0483558
0.0911421 0.509743 0.0715343
0.199069 0.530266 0.0897383
0.401587 0.530098 0.100221
0.594766 0.538048 0.118303
0.72781 0.557214 0.118563
0.82916 0.581094 0.139315
0.895842 0.610895 0.164065
0.947875 0.640864 0.189578
0.0469978 0.647593 0.0760052
0.116548 0.679408 0.101656
0.229664 0.69836 0.120668
0.427985 0.695674 0.125292
0.6383 0.694255 0.140032
0.781826 0.702602 0.154025
0.849515 0.725978 0.158145
0.9066 0.746548 0.17644
0.954726 0.765209 0.198779
0.107225 0.800687 0.146304
0.181689 0.825086 0.170977
0.308339 0.831098 0.181399
0.501991 0.82002 0.176364
0.698695 0.809476 0.180987
0.826307 0.811521 0.189975
0.90695 0.817716 0.201999
0.947997 0.831876 0.210803
0.977829 0.846906 0.221286
0.179843 0.916625 0.230549
0.260182 0.928008 0.244205
0.397498 0.920195 0.24065
0.582956 0.901595 0.225742
0.755428 0.887312 0.223301
0.863752 0.884886 0.22591
0.936568 0.886519 0.235019
0.979049 0.891218 0.24593
0.999039 0.899535 0.257008
0.240009 0.996094 0.300755
0.331441 0.995621 0.301839
0.472724 0.979309 0.286412
0.64918 0.956924 0.265187
0.799786 0.942016 0.25864
0.893278 0.937713 0.258061
0.957198 0.937667 0.264927
0.988235 0.940459 0.276371
1 0.944961 0.291707
0.0262455 0.0479133 0.0972
0.0870069 0.0442359 0.105364
0.165972 0.0359503 0.0867933
0.287434 0.0175326 0.0510414
0.426947 0.00276188 0.0183871
0.559731 0.000457771 0.0071107
0.654566 9.15541e-05 0.00419623
0.722316 0.0028687 0.00917067
0.773587 0.010956 0.0193484
0.0381628 0.0995193 0.109834
0.0920882 0.105089 0.117113
0.18143 0.100771 0.107713
0.328893 0.0832227 0.0745251
0.489418 0.0665141 0.0402838
0.631586 0.0600595 0.0302892
0.732158 0.0732433 0.0375067
0.804974 0.100069 0.0542763
0.865827 0.133883 0.0813458
0.0330053 0.183124 0.104158
0.0942245 0.199619 0.120195
0.203784 0.207691 0.13402
0.368444 0.203372 0.122835
0.55584 0.197971 0.107607
0.710628 0.203647 0.104631
0.812055 0.227604 0.12314
0.882261 0.261738 0.152255
0.937636 0.299107 0.184115
0.0224155 0.318196 0.0919051
0.0870527 0.349615 0.115175
0.197742 0.371344 0.135821
0.390951 0.375479 0.14966
0.57203 0.382269 0.147997
0.728725 0.390478 0.15082
0.828702 0.414496 0.169619
0.896895 0.448753 0.198337
0.951492 0.486061 0.23061
0.0265049 0.489998 0.0988937
0.0900587 0.523934 0.12282
0.197452 0.544823 0.142245
0.399893 0.54435 0.151461
0.601053 0.551232 0.170077
0.738048 0.569818 0.173281
0.837736 0.593454 0.196323
0.903746 0.622324 0.224247
0.955352 0.651102 0.254093
0.0468605 0.660761 0.128771
0.115648 0.693202 0.155428
0.228336 0.712444 0.175509
0.423194 0.709255 0.179385
0.640467 0.705318 0.191959
0.785473 0.712932 0.206744
0.852903 0.735058 0.212711
0.910826 0.753674 0.234318
0.958648 0.771405 0.261631
0.105928 0.81146 0.2038
0.179141 0.835554 0.22974
0.302556 0.842359 0.241733
0.491127 0.830411 0.234531
0.694301 0.8177 0.23505
0.824094 0.818723 0.243229
0.905333 0.824002 0.255985
0.945266 0.837629 0.267048
0.97528 0.851713 0.282246
0.172763 0.924117 0.297826
0.250324 0.935729 0.311879
0.384054 0.928908 0.308904
0.563058 0.910048 0.289921
0.744671 0.893446 0.282094
0.857008 0.890028 0.283253
0.930968 0.891066 0.293019
0.976165 0.895232 0.306294
0.998734 0.90367 0.32105
0.225147 0.998962 0.379141
0.312825 0.999146 0.379828
0.450584 0.986465 0.364889
0.620386 0.964233 0.338094
0.784466 0.946654 0.325383
0.882826 0.941817 0.322927
0.948318 0.941405 0.330404
0.98529 0.944045 0.34548
1 0.948333 0.365713
0.0142977 0.0497292 0.168597
0.0530098 0.0475776 0.184436
0.16791 0.0307012 0.181857
0.296864 0.0131991 0.135042
0.428626 0.002533 0.0916152
0.555261 0.00102235 0.0592966
0.650324 0.00169375 0.0513313
0.716945 0.0056611 0.0574502
0.770535 0.0147707 0.0736858
0.018204 0.101884 0.180346
0.063386 0.108034 0.195422
0.185641 0.0967727 0.209628
0.332967 0.082475 0.169406
0.486778 0.0707256 0.135653
0.627115 0.067277 0.116701
0.728222 0.0820325 0.125246
0.801312 0.109895 0.153964
0.86215 0.143847 0.192386
0.0261845 0.18645 0.197223
0.0854353 0.204929 0.217731
0.193256 0.218204 0.233555
0.369818 0.213123 0.217166
0.557992 0.210391 0.194949
0.710857 0.217838 0.190829
0.808911 0.243229 0.210788
0.876768 0.277928 0.240894
0.932662 0.314382 0.278889
0.0155642 0.330632 0.182239
0.0784619 0.362814 0.209522
0.191653 0.38645 0.235752
0.391989 0.389242 0.250782
0.580224 0.393515 0.247089
0.738842 0.400687 0.249088
0.837781 0.42504 0.27155
0.905516 0.458808 0.305806
0.959976 0.495781 0.345342
0.0197604 0.502007 0.187686
0.0817426 0.535531 0.214466
0.189136 0.557839 0.237491
0.385809 0.55967 0.248844
0.598764 0.564752 0.266011
0.744137 0.581872 0.274693
0.843091 0.605112 0.30135
0.908339 0.632731 0.334615
0.95935 0.660639 0.371756
0.0398108 0.671946 0.220645
0.106813 0.704463 0.250721
0.218494 0.724559 0.274006
0.406302 0.721599 0.279515
0.631952 0.715343 0.286778
0.781308 0.722408 0.303304
0.850675 0.743008 0.313146
0.910521 0.759777 0.342077
0.957458 0.776486 0.375265
0.0943923 0.82089 0.308278
0.165423 0.843946 0.335058
0.286168 0.85182 0.348592
0.46714 0.839796 0.341726
0.675212 0.825452 0.333791
0.812543 0.825223 0.34081
0.895537 0.829755 0.355642
0.933776 0.843259 0.369482
0.966476 0.85568 0.391028
0.153216 0.931243 0.41323
0.227497 0.942077 0.426291
0.359091 0.936065 0.424475
0.529946 0.917327 0.406241
0.717403 0.899016 0.387991
0.84065 0.894347 0.387045
0.916152 0.895018 0.396307
0.964782 0.898924 0.412955
0.990951 0.907759 0.429892
0.198642 1 0.498711
0.282582 1 0.497688
0.419013 0.992294 0.484916
0.580896 0.970214 0.46009
0.751934 0.951049 0.437781
0.862852 0.944945 0.433951
0.930373 0.944564 0.440314
0.976257 0.947356 0.457221
0.998672 0.951705 0.480018
0.00521859 0.0502022 0.277073
0.0314488 0.0492714 0.294453
0.104128 0.0332036 0.31313
0.302022 0.00437934 0.287312
0.449348 0.000411994 0.229847
0.568048 6.10361e-05 0.186511
0.661173 0.000732433 0.171038
0.728237 0.00491341 0.17821
0.783352 0.014023 0.199878
0.00758373 0.102327 0.290211
0.0359045 0.107851 0.31165
0.115145 0.100832 0.339605
0.345968 0.0699321 0.334737
0.511711 0.0582437 0.287922
0.644938 0.0611887 0.264118
0.74435 0.0785992 0.272923
0.818372 0.107469 0.303136
0.880995 0.141329 0.341878
0.00880446 0.186389 0.306264
0.0410468 0.205921 0.329397
0.136156 0.220249 0.357748
0.388556 0.203677 0.393408
0.57261 0.20528 0.364034
0.715633 0.218555 0.357351
0.810498 0.245457 0.376776
0.877577 0.279896 0.407645
0.931716 0.317281 0.442329
0.00981155 0.336858 0.341848
0.0633097 0.370764 0.376959
0.171939 0.396384 0.406531
0.371466 0.403906 0.421698
0.577127 0.401022 0.403952
0.736584 0.411276 0.398337
0.833906 0.437064 0.418799
0.901335 0.470848 0.45034
0.955917 0.507637 0.486763
0.00708019 0.517067 0.344915
0.0567941 0.550759 0.37554
0.163241 0.573541 0.399084
0.364584 0.577585 0.418616
0.586603 0.579995 0.432883
0.745068 0.594293 0.442237
0.845548 0.616403 0.466011
0.911025 0.642741 0.496956
0.962203 0.669276 0.529854
0.0200809 0.686198 0.372351
0.0817884 0.718349 0.405631
0.191913 0.736812 0.428656
0.380041 0.732723 0.438544
0.600412 0.726665 0.442039
0.763684 0.732586 0.457832
0.844175 0.749554 0.471107
0.905638 0.765759 0.499275
0.952987 0.782162 0.52903
0.0682078 0.833631 0.460899
0.136995 0.855833 0.488365
0.254673 0.861372 0.499367
0.435599 0.847562 0.495735
0.630625 0.833448 0.48397
0.789761 0.830655 0.487724
0.876356 0.835233 0.500786
0.917113 0.848203 0.513176
0.95697 0.858366 0.536049
0.12314 0.942367 0.562707
0.193866 0.952636 0.574456
0.322362 0.943587 0.568048
0.494224 0.922805 0.554086
0.668849 0.904631 0.53344
0.815534 0.897322 0.527916
0.893935 0.89865 0.534752
0.945357 0.902586 0.549889
0.973953 0.911665 0.564095
0.165881 1 0.641062
0.244877 1 0.638041
0.379339 0.996017 0.620951
0.543236 0.974411 0.601968
0.702342 0.955306 0.578576
0.835889 0.94667 0.569436
0.90724 0.947097 0.573617
0.956786 0.950362 0.588388
0.991379 0.955245 0.609522
0.000167849 0.0520333 0.388464
0.0222629 0.0519112 0.408011
0.0660258 0.0400092 0.427604
0.250126 0.00196841 0.44239
0.452552 0 0.396277
0.59852 0 0.346716
0.691478 0 0.32491
0.757046 0.00112917 0.32961
0.81326 0.0103151 0.351919
0.000991836 0.104662 0.405264
0.0273442 0.110506 0.430549
0.0767224 0.105928 0.458824
0.291875 0.0679484 0.495659
0.524926 0.0469062 0.46598
0.680919 0.0452888 0.438315
0.781003 0.0651865 0.442832
0.854063 0.0953689 0.469718
0.916747 0.130495 0.50573
0.00166323 0.190539 0.417166
0.0311589 0.209766 0.44741
0.0880446 0.221805 0.482567
0.320562 0.202533 0.551049
0.596109 0.193042 0.54902
0.752926 0.204059 0.537163
0.845853 0.232807 0.550881
0.91043 0.268101 0.575372
0.962997 0.307256 0.604273
0.00454719 0.336507 0.469261
0.0379339 0.369848 0.50486
0.125902 0.393622 0.527489
0.303792 0.401068 0.544839
0.593973 0.390768 0.590478
0.747295 0.405081 0.58146
0.839933 0.43444 0.597787
0.904738 0.469871 0.624414
0.957031 0.507607 0.653788
0.00645457 0.523369 0.51838
0.047364 0.557748 0.553994
0.150591 0.582635 0.582757
0.340444 0.591455 0.60087
0.568063 0.594858 0.613993
0.740627 0.600519 0.60885
0.840513 0.621988 0.62359
0.905623 0.648112 0.646937
0.956649 0.674311 0.671427
0.0108339 0.699413 0.548669
0.061387 0.732174 0.584726
0.166674 0.752682 0.608484
0.349355 0.749905 0.609842
0.573037 0.743465 0.622232
0.747707 0.744503 0.629465
0.838972 0.757015 0.641459
0.902007 0.772824 0.662669
0.950774 0.788464 0.684596
0.0467384 0.845914 0.628519
0.11313 0.868162 0.656062
0.223529 0.8757 0.665537
0.401053 0.859678 0.651743
0.601022 0.844938 0.651682
0.766781 0.838758 0.647013
0.855863 0.842878 0.655604
0.904891 0.852964 0.667185
0.949142 0.861997 0.686595
0.10248 0.950973 0.713985
0.169024 0.962127 0.726055
0.28748 0.956374 0.718944
0.457801 0.931914 0.69601
0.638117 0.912947 0.688533
0.786374 0.90367 0.676905
0.872084 0.903761 0.680049
0.924941 0.907866 0.691325
0.958343 0.91574 0.703258
0.145953 1 0.775555
0.218357 1 0.775113
0.343252 0.999878 0.757916
0.506981 0.981826 0.731517
0.67245 0.962158 0.722362
0.80354 0.952575 0.709392
0.885801 0.951339 0.710567
0.936782 0.954787 0.722286
0.977081 0.960235 0.739223
0 0.0547646 0.487419
0.015259 0.055436 0.508644
0.0570993 0.0460975 0.529335
0.168658 0.00860609 0.56144
0.424414 0 0.543664
0.600778 0 0.504509
0.71284 0 0.484474
0.785855 0 0.488518
0.84477 0.00572213 0.509987
0 0.108751 0.507347
0.0219577 0.115572 0.533516
0.0701915 0.113527 0.563104
0.217456 0.0810559 0.612451
0.506691 0.0455329 0.613092
0.689357 0.0415351 0.595605
0.80235 0.0585031 0.601923
0.879683 0.0882429 0.626093
0.943954 0.123598 0.656931
0.00015259 0.198566 0.522423
0.0278782 0.218967 0.554635
0.0819867 0.23209 0.591852
0.256413 0.215213 0.657237
0.581842 0.192905 0.692439
0.764584 0.20119 0.68893
0.866865 0.226429 0.701198
0.93547 0.260975 0.721035
0.986633 0.300404 0.74345
0.00120546 0.344488 0.565118
0.030869 0.3776 0.59855
0.0883955 0.399725 0.62005
0.253269 0.39852 0.644388
0.557549 0.386206 0.728176
0.767452 0.396689 0.731823
0.866835 0.423972 0.744259
0.932052 0.460578 0.763836
0.982345 0.499504 0.784085
0.00712596 0.525277 0.643427
0.0419623 0.559823 0.677714
0.138842 0.584497 0.704097
0.3131 0.590051 0.709758
0.516014 0.59646 0.721096
0.749966 0.595438 0.760113
0.844068 0.617792 0.770138
0.906203 0.64509 0.786236
0.955383 0.671824 0.802411
0.0126802 0.705303 0.691981
0.0602731 0.737575 0.726116
0.164462 0.757488 0.750393
0.34107 0.758144 0.759915
0.551629 0.756313 0.768353
0.73109 0.754986 0.774716
0.835492 0.760937 0.779324
0.897642 0.774639 0.789425
0.945312 0.789242 0.800778
0.0437476 0.85156 0.760632
0.108888 0.872999 0.786252
0.216068 0.880949 0.798321
0.383688 0.870985 0.79353
0.576471 0.857801 0.784955
0.746151 0.848951 0.789395
0.843839 0.850248 0.792477
0.898497 0.857389 0.799847
0.94461 0.86566 0.811215
0.0974899 0.954223 0.827146
0.162432 0.964996 0.839567
0.275685 0.960998 0.838331
0.435294 0.943313 0.823987
0.613809 0.923339 0.808057
0.764736 0.912459 0.809216
0.856504 0.910887 0.806882
0.912749 0.913588 0.814496
0.950057 0.919753 0.82179
0.140063 1 0.872038
0.209583 1 0.874678
0.328603 1 0.865095
0.48249 0.992859 0.845212
0.649805 0.970596 0.829114
0.784802 0.96022 0.83003
0.869184 0.958343 0.82739
0.923644 0.961059 0.833616
0.967254 0.965789 0.846006
0 0.0576638 0.557946
0.0113375 0.0590524 0.578256
0.0519112 0.0515602 0.599115
0.12755 0.0198978 0.633417
0.385428 0 0.645518
0.590921 0 0.613291
0.714397 0 0.598825
0.794278 0 0.606104
0.857374 0.00601205 0.627955
0 0.113207 0.577295
0.0200046 0.12105 0.602243
0.0677958 0.120897 0.632105
0.179339 0.0937057 0.682719
0.482231 0.052018 0.70898
0.689204 0.047715 0.696986
0.808484 0.0637217 0.705303
0.88925 0.0932326 0.728069
0.95462 0.128664 0.755169
0 0.20705 0.594766
0.0283665 0.228794 0.625467
0.0826886 0.243 0.661936
0.233021 0.229084 0.725048
0.563455 0.201007 0.779553
0.766049 0.209644 0.779995
0.872587 0.233249 0.792966
0.943771 0.266987 0.811765
0.992584 0.306096 0.8318
0.000244144 0.356039 0.632715
0.0311284 0.389166 0.663539
0.0841993 0.41059 0.684764
0.237003 0.407462 0.712169
0.517906 0.392996 0.798535
0.76733 0.403113 0.819425
0.873991 0.429175 0.833326
0.942855 0.464179 0.851392
0.992401 0.50164 0.86894
0.00808728 0.532906 0.717021
0.0419928 0.56759 0.748455
0.131411 0.591516 0.770352
0.293202 0.593713 0.765393
0.488991 0.596506 0.782162
0.743725 0.598474 0.848386
0.85742 0.617334 0.857603
0.920775 0.643244 0.870848
0.968292 0.669795 0.883391
0.0166781 0.711391 0.777813
0.0643168 0.74313 0.808484
0.16968 0.761883 0.830488
0.344411 0.761273 0.838331
0.545113 0.759411 0.842344
0.708965 0.761517 0.847929
0.832135 0.761807 0.869184
0.894102 0.77496 0.877821
0.941924 0.788846 0.886152
0.0474556 0.856794 0.842237
0.113207 0.877104 0.865263
0.221057 0.883741 0.877028
0.386374 0.873487 0.87538
0.57171 0.862684 0.873854
0.733562 0.855497 0.872969
0.832074 0.855985 0.877745
0.897292 0.859693 0.88452
0.943069 0.866453 0.88835
0.100008 0.957229 0.898177
0.164813 0.966918 0.91017
0.277684 0.962615 0.910842
0.433677 0.946014 0.90135
0.603616 0.930251 0.892241
0.753765 0.918379 0.886778
0.84802 0.915434 0.891371
0.905226 0.918288 0.895659
0.947463 0.922438 0.899794
0.140581 1 0.936202
0.209598 1 0.939773
0.327306 1 0.932631
0.477653 0.995193 0.917891
0.637049 0.978012 0.904982
0.77525 0.965423 0.900664
0.86041 0.963027 0.905562
0.916732 0.96614 0.909468
0.962051 0.970642 0.917266
0 0.0606851 0.608331
0.00991836 0.0628672 0.622156
0.0495308 0.0567941 0.643122
0.120089 0.0287785 0.677775
0.353719 0 0.706416
0.580301 0 0.680873
0.713512 0 0.669963
0.798459 0.000579843 0.679423
0.864652 0.00973526 0.702281
0 0.118044 0.622324
0.0204929 0.127199 0.646632
0.0682536 0.128832 0.676875
0.165743 0.105043 0.727916
0.466499 0.0632029 0.767941
0.689906 0.0569924 0.759274
0.813352 0.0742199 0.769985
0.896345 0.103716 0.792966
0.963211 0.138872 0.819348
0 0.216037 0.641703
0.0309453 0.239353 0.671672
0.0856184 0.254414 0.707713
0.226093 0.242481 0.769772
0.55024 0.214099 0.83415
0.766003 0.22092 0.836988
0.876005 0.244968 0.851087
0.948745 0.278294 0.870207
0.995926 0.317174 0.890318
0.0010071 0.368658 0.678538
0.0343633 0.401694 0.70753
0.0879225 0.422354 0.728847
0.235325 0.419211 0.7579
0.498863 0.404929 0.841474
0.763882 0.413306 0.874739
0.877119 0.440497 0.889967
0.947677 0.474052 0.908141
0.995773 0.50985 0.925261
0.0114137 0.543832 0.763516
0.0455482 0.578408 0.793423
0.13344 0.601587 0.812863
0.29015 0.601801 0.803677
0.480781 0.60238 0.823331
0.729107 0.606699 0.899153
0.859144 0.623896 0.912505
0.927153 0.647929 0.925612
0.977081 0.672221 0.937392
0.0218357 0.720424 0.83064
0.0714122 0.750912 0.859602
0.179797 0.768277 0.879774
0.352605 0.766278 0.88423
0.541131 0.76376 0.88098
0.69781 0.765728 0.890059
0.831067 0.765087 0.92343
0.90074 0.775769 0.930159
0.946563 0.789593 0.938048
0.0544289 0.862654 0.894286
0.120562 0.881407 0.915877
0.23212 0.886015 0.926207
0.395422 0.875319 0.9243
0.575372 0.864439 0.922042
0.727413 0.860075 0.920211
0.820737 0.86099 0.924666
0.891096 0.86157 0.93846
0.941512 0.866957 0.942061
0.105318 0.960143 0.946792
0.171511 0.968612 0.958373
0.285893 0.963287 0.958923
0.439963 0.946731 0.950423
0.605447 0.931548 0.943572
0.748241 0.92253 0.940307
0.841443 0.918807 0.94107
0.897475 0.921874 0.945327
0.947875 0.924056 0.951873
0.145647 1 0.974334
0.215702 1 0.978042
0.333608 1 0.976699
0.48159 0.995789 0.965911
0.636698 0.980667 0.956085
0.769406 0.970092 0.950332
0.856596 0.966674 0.953811
0.914015 0.969131 0.959319
0.959716 0.974945 0.966491
0 0.0641337 0.638972
0.00968948 0.0670176 0.652796
0.0485084 0.0621805 0.673808
0.117494 0.0368963 0.708705
0.330953 0.000427253 0.7467
0.571618 0 0.727413
0.713603 0.000106813 0.718654
0.803082 0.00296025 0.730327
0.871366 0.0149386 0.753826
0 0.123476 0.654414
0.0221561 0.134005 0.679072
0.0699321 0.137026 0.709834
0.160143 0.116045 0.761578
0.456992 0.0759289 0.810483
0.691234 0.0683452 0.805417
0.818723 0.0869306 0.817578
0.902831 0.116457 0.841031
0.969543 0.151308 0.867399
0.00146487 0.225849 0.676234
0.0344091 0.25069 0.706142
0.0894636 0.266133 0.742336
0.22533 0.255863 0.803891
0.540413 0.228794 0.874159
0.764889 0.233646 0.880156
0.878157 0.258686 0.895064
0.952056 0.291997 0.914611
0.99675 0.330617 0.934951
0.00491341 0.381659 0.71339
0.0386053 0.414588 0.741909
0.0930037 0.434379 0.762997
0.238788 0.431312 0.792996
0.489204 0.418219 0.873365
0.759274 0.425452 0.916686
0.877562 0.452842 0.932448
0.950179 0.486122 0.95137
0.997208 0.520409 0.96846
0.0158389 0.555932 0.798642
0.0504463 0.590188 0.828061
0.14052 0.612284 0.845304
0.293767 0.610925 0.834134
0.479408 0.610162 0.855863
0.714885 0.616053 0.933959
0.856565 0.632334 0.954711
0.928832 0.65481 0.967254
0.981079 0.677226 0.978531
0.0276646 0.730617 0.870268
0.0804456 0.759731 0.898268
0.194034 0.774609 0.915999
0.362875 0.771649 0.917296
0.539544 0.768078 0.908598
0.691218 0.769909 0.921599
0.820859 0.771923 0.961593
0.902342 0.7785 0.971862
0.952682 0.790661 0.977661
0.0632944 0.868879 0.933806
0.131411 0.885878 0.95404
0.246448 0.888441 0.962219
0.40737 0.877287 0.959854
0.58085 0.866667 0.95552
0.72372 0.863966 0.950637
0.813001 0.865141 0.958282
0.883726 0.865278 0.976089
0.938079 0.868833 0.98204
0.11339 0.963241 0.975143
0.182345 0.970291 0.983093
0.299168 0.963638 0.985565
0.450752 0.946777 0.983505
0.611444 0.932113 0.979919
0.747951 0.924605 0.976974
0.832303 0.923506 0.974731
0.888533 0.925429 0.980804
0.940841 0.926238 0.990082
0.15346 1 0.994049
0.22678 1 0.996963
0.345785 1 0.996933
0.49099 0.995468 0.993118
0.642496 0.981064 0.99147
0.768536 0.972763 0.990677
0.852842 0.969833 0.991562
0.908797 0.97261 0.996872
0.954421 0.978485 1
