src/luts/crop/2.cube
TITLE "Generated by Resolve"
LUT_3D_SIZE 5
0.0388647 0.0457008 0.0556191
0.161807 0.0368658 0.0363775
0.428473 0.00161746 0
0.654414 0 0
0.77145 0.00714122 0.00062562
0.0372473 0.176257 0.0546731
0.200229 0.197574 0.0800946
0.538994 0.188266 0.0563973
0.79881 0.215625 0.0684062
0.926619 0.287709 0.123827
0.0272221 0.476356 0.0483558
0.199069 0.530266 0.0897383
0.594766 0.538048 0.118303
0.82916 0.581094 0.139315
0.947875 0.640864 0.189578
0.107225 0.800687 0.146304
0.308339 0.831098 0.181399
0.698695 0.809476 0.180987
0.90695 0.817716 0.201999
0.977829 0.846906 0.221286
0.240009 0.996094 0.300755
0.472724 0.979309 0.286412
0.799786 0.942016 0.25864
0.957198 0.937667 0.264927
1 0.944961 0.291707
0.0142977 0.0497292 0.168597
0.16791 0.0307012 0.181857
0.428626 0.002533 0.0916152
0.650324 0.00169375 0.0513313
0.770535 0.0147707 0.0736858
0.0261845 0.18645 0.197223
0.193256 0.218204 0.233555
0.557992 0.210391 0.194949
0.808911 0.243229 0.210788
0.932662 0.314382 0.278889
0.0197604 0.502007 0.187686
0.189136 0.557839 0.237491
0.598764 0.564752 0.266011
0.843091 0.605112 0.30135
0.95935 0.660639 0.371756
0.0943923 0.82089 0.308278
0.286168 0.85182 0.348592
0.675212 0.825452 0.333791
0.895537 0.829755 0.355642
0.966476 0.85568 0.391028
0.198642 1 0.498711
0.419013 0.992294 0.484916
0.751934 0.951049 0.437781
0.930373 0.944564 0.440314
0.998672 0.951705 0.480018
0.000167849 0.0520333 0.388464
0.0660258 0.0400092 0.427604
0.452552 0 0.396277
0.691478 0 0.32491
0.81326 0.0103151 0.351919
0.00166323 0.190539 0.417166
0.0880446 0.221805 0.482567
0.596109 0.193042 0.54902
0.845853 0.232807 0.550881
0.962997 0.307256 0.604273
0.00645457 0.523369 0.51838
0.150591 0.582635 0.582757
0.568063 0.594858 0.613993
0.840513 0.621988 0.62359
0.956649 0.674311 0.671427
0.0467384 0.845914 0.628519
0.223529 0.8757 0.665537
0.601022 0.844938 0.651682
0.855863 0.842878 0.655604
0.949142 0.861997 0.686595
0.145953 1 0.775555
0.343252 0.999878 0.757916
0.67245 0.962158 0.722362
0.885801 0.951339 0.710567
0.977081 0.960235 0.739223
0 0.0576638 0.557946
0.0519112 0.0515602 0.599115
0.385428 0 0.645518
0.714397 0 0.598825
0.857374 0.00601205 0.627955
0 0.20705 0.594766
0.0826886 0.243 0.661936
0.563455 0.201007 0.779553
0.872587 0.233249 0.792966
0.992584 0.306096 0.8318
0.00808728 0.532906 0.717021
0.131411 0.591516 0.770352
0.488991 0.596506 0.782162
0.85742 0.617334 0.857603
0.968292 0.669795 0.883391
0.0474556 0.856794 0.842237
0.221057 0.883741 0.877028
0.57171 0.862684 0.873854
0.832074 0.855985 0.877745
0.943069 0.866453 0.88835
0.140581 1 0.936202
0.327306 1 0.932631
0.637049 0.978012 0.904982
0.86041 0.963027 0.905562
0.962051 0.970642 0.917266
0 0.0641337 0.638972
0.0485084 0.0621805 0.673808
0.330953 0.000427253 0.7467
0.713603 0.000106813 0.718654
0.871366 0.0149386 0.753826
0.00146487 0.225849 0.676234
0.0894636 0.266133 0.742336
0.540413 0.228794 0.874159
0.878157 0.258686 0.895064
0.99675 0.330617 0.934951
0.0158389 0.555932 0.798642
0.14052 0.612284 0.845304
0.479408 0.610162 0.855863
0.856565 0.632334 0.954711
0.981079 0.677226 0.978531
0.0632944 0.868879 0.933806
0.246448 0.888441 0.962219
0.58085 0.866667 0.95552
0.813001 0.865141 0.958282
0.938079 0.868833 0.98204
0.15346 1 0.994049
0.345785 1 0.996933
0.642496 0.981064 0.99147
0.852842 0.969833 0.991562
0.954421 0.978485 1
