src/luts/crop/2.cube
TITLE "Generated by Resolve"
LUT_3D_SIZE 33
0.0388647 0.0457008 0.0556191
0.0500343 0.045304 0.0557412
0.0603342 0.0456092 0.0550851
0.0719463 0.0457313 0.0543679
0.0848859 0.0453193 0.0529183
0.0998398 0.044419 0.0504311
0.117189 0.0428626 0.0469062
0.13756 0.0404059 0.042298
0.161807 0.0368658 0.0363775
0.190448 0.0322118 0.0289769
0.222263 0.0265202 0.0209964
0.255772 0.0206455 0.0130007
0.289723 0.0153964 0.00570687
0.3243 0.0104677 0.00112917
0.358572 0.00643931 0.000900282
0.393271 0.00318914 0.000183108
0.428473 0.00161746 0
0.463478 0.0009308 0
0.497597 0.000335698 0
0.527932 0.000228885 0
0.559747 0 0
0.587152 0 0
0.611002 0 0
0.63299 0 0
0.654414 0 0
0.674678 0 0
0.692714 0 0
0.708385 1.5259e-05 0
0.722683 3.0518e-05 0
0.735821 0.00114443 0
0.748379 0.00236515 0
0.760693 0.00411994 7.62951e-05
0.77145 0.00714122 0.00062562
0.0398413 0.0570535 0.0573129
0.0515908 0.0573892 0.0583505
0.0627756 0.0577554 0.0581979
0.0747539 0.0577859 0.0573129
0.0877699 0.0574807 0.0559701
0.10309 0.0566262 0.0538796
0.120928 0.0550851 0.0507362
0.142184 0.0527047 0.0466926
0.16733 0.0491188 0.0412604
0.196796 0.0443122 0.0343328
0.22945 0.0386664 0.026215
0.263508 0.0328679 0.0170291
0.298085 0.0272221 0.00827039
0.333639 0.0218509 0.0031281
0.368399 0.0172274 0.00131228
0.403815 0.0131228 0.00062562
0.439658 0.0093843 0
0.474922 0.00653086 0
0.508904 0.00453193 0
0.541421 0.00337224 0
0.573083 0.00315862 0
0.600595 0.00326543 0
0.624369 0.00355535 0
0.64683 0.00408942 0
0.669062 0.00469978 0
0.689555 0.00560006 0
0.706737 0.00698863 0
0.722408 0.00827039 0
0.737133 0.00970474 0
0.751537 0.0115511 0
0.765057 0.0149081 4.57771e-05
0.778134 0.0187228 0.00062562
0.790951 0.0231022 0.0011902
0.0411383 0.0694591 0.0584878
0.0529183 0.0700236 0.0600137
0.0654917 0.0702678 0.0610513
0.0772717 0.070573 0.0606851
0.0902113 0.0706035 0.0600137
0.10573 0.0699321 0.0582132
0.124239 0.0685893 0.0558328
0.145968 0.0662547 0.0523384
0.171786 0.0627604 0.0473945
0.202213 0.0579995 0.0411078
0.235737 0.0525521 0.0331884
0.27068 0.0469825 0.0238956
0.306676 0.0416266 0.0148165
0.342687 0.0362249 0.0075227
0.378973 0.0309148 0.00289921
0.415976 0.025452 0.00138857
0.451865 0.0209659 0.000457771
0.488121 0.0173648 0.000183108
0.523629 0.0148775 0
0.556405 0.0137484 0
0.587579 0.0132753 0
0.615824 0.0131533 0
0.640696 0.0136263 0
0.664302 0.014847 0
0.685832 0.0163272 0
0.706065 0.018143 0
0.723583 0.0209812 0
0.740108 0.0242771 0.000320439
0.755688 0.0276951 0.000961318
0.770916 0.031632 0.00222782
0.785397 0.0374456 0.00495918
0.799313 0.0433509 0.00729381
0.813016 0.0497292 0.0100862
0.0422675 0.0826429 0.0596017
0.0539712 0.0835126 0.0613413
0.0666667 0.0839399 0.0626993
0.0802777 0.0843214 0.0636759
0.0931106 0.0846876 0.0635996
0.108354 0.0846571 0.0627756
0.127199 0.0834669 0.060914
0.149599 0.0813764 0.057969
0.176318 0.0781415 0.0536355
0.207477 0.0737774 0.0475319
0.242084 0.0688182 0.0398413
0.278233 0.0635386 0.0309911
0.315389 0.0581979 0.0218662
0.352941 0.0529335 0.0131991
0.390768 0.0477607 0.00665293
0.429267 0.0426795 0.00350958
0.468055 0.0380713 0.00189212
0.505318 0.0339666 0.000808728
0.541009 0.0308537 0.000427253
0.57467 0.0288853 0.000411994
0.60592 0.0281376 0.000427253
0.634684 0.0281987 0.000534066
0.660914 0.0296178 0.000701915
0.684474 0.0318303 0.00109865
0.706004 0.0349126 0.00178531
0.725673 0.0383307 0.00225834
0.743801 0.04271 0.00321965
0.761044 0.048127 0.0049897
0.777508 0.0539712 0.00689708
0.793011 0.060029 0.0100404
0.808072 0.0673533 0.0136873
0.822736 0.0749218 0.0174716
0.837049 0.0826886 0.0213626
0.0428016 0.0970779 0.0602274
0.0545357 0.0982528 0.062089
0.0673838 0.0991684 0.0635996
0.0816052 0.099855 0.0650339
0.0971084 0.100359 0.0666056
0.112047 0.100725 0.0664378
0.129976 0.100465 0.0650797
0.152682 0.0988632 0.0628977
0.180072 0.0960861 0.0591745
0.212558 0.0921798 0.0538186
0.24828 0.0874342 0.0468452
0.285924 0.0823987 0.0391852
0.324788 0.0773175 0.0316472
0.364111 0.0723125 0.0243076
0.403388 0.067628 0.0172274
0.443641 0.0631876 0.0117189
0.483375 0.0590066 0.00646983
0.521721 0.0554665 0.00383001
0.558267 0.052842 0.00239567
0.592813 0.0513008 0.00199893
0.624994 0.0509041 0.00221256
0.654978 0.0518044 0.00254826
0.681529 0.0538643 0.00315862
0.705394 0.0572061 0.00444038
0.727245 0.0614939 0.00596628
0.747402 0.0665751 0.00793469
0.766384 0.0725414 0.0106966
0.783871 0.0792096 0.014313
0.800626 0.0864271 0.0181277
0.816663 0.0938735 0.0220798
0.832135 0.101808 0.0263676
0.847349 0.11043 0.0311742
0.862272 0.119203 0.0369879
0.042649 0.11313 0.0601816
0.054551 0.114824 0.0623636
0.0677195 0.116258 0.064271
0.0820935 0.117556 0.0659648
0.0988022 0.118227 0.0678416
0.116579 0.118822 0.0696422
0.133837 0.119432 0.0691691
0.155779 0.118822 0.0675822
0.183825 0.116838 0.0648814
0.217029 0.11339 0.0602579
0.254154 0.109071 0.0543221
0.29337 0.104463 0.0476997
0.333623 0.0999313 0.041001
0.374655 0.0957351 0.0344244
0.415518 0.0917525 0.0276646
0.457099 0.0877546 0.0215457
0.498726 0.084062 0.0159457
0.538994 0.0811322 0.0121767
0.577005 0.0792554 0.0101167
0.613123 0.0786908 0.00895705
0.646006 0.0791333 0.0084535
0.676204 0.0807813 0.00874342
0.703288 0.0839246 0.0102235
0.727306 0.0883803 0.0124361
0.749371 0.0937362 0.015259
0.770153 0.100191 0.018967
0.789212 0.106859 0.022797
0.806989 0.114336 0.027985
0.823957 0.122286 0.033875
0.840177 0.130587 0.0400397
0.855924 0.139116 0.0459754
0.871168 0.148302 0.0530861
0.885832 0.157382 0.0606088
0.041825 0.131411 0.0593729
0.0540475 0.133791 0.0619974
0.0672618 0.135805 0.0642863
0.0818189 0.137652 0.0664836
0.0990311 0.13901 0.0686351
0.118883 0.139803 0.0707866
0.139712 0.140703 0.0730449
0.159869 0.141711 0.071931
0.187381 0.140551 0.0702983
0.221256 0.137911 0.0668345
0.259373 0.134371 0.0619669
0.300053 0.130449 0.0563821
0.34229 0.126741 0.0506905
0.384771 0.123232 0.0449683
0.427298 0.119982 0.0393378
0.470512 0.116762 0.0337987
0.513542 0.113863 0.0287327
0.555245 0.111879 0.0247044
0.595026 0.11107 0.0220951
0.631647 0.111162 0.0206149
0.665415 0.112474 0.0204623
0.696239 0.115007 0.0213779
0.723934 0.118837 0.0233616
0.748196 0.124056 0.0262913
0.770733 0.13048 0.0305486
0.791211 0.137423 0.0359808
0.81033 0.14493 0.0422065
0.828168 0.152941 0.0489967
0.844923 0.161334 0.0564584
0.861158 0.170504 0.0644541
0.876432 0.179507 0.0721599
0.891142 0.188708 0.0801404
0.90515 0.198169 0.0881056
0.0401312 0.152392 0.0576638
0.0525826 0.155306 0.0606088
0.066041 0.158068 0.0634012
0.0808118 0.160693 0.0661326
0.0980545 0.162905 0.0687114
0.118578 0.164645 0.0712444
0.14258 0.165682 0.0740673
0.167269 0.16669 0.0766308
0.191211 0.167849 0.0745556
0.225269 0.166262 0.0728923
0.264332 0.16376 0.0695811
0.306584 0.16112 0.0654459
0.349935 0.15816 0.0608225
0.394003 0.155444 0.056199
0.438285 0.152987 0.0516518
0.483101 0.150576 0.0469215
0.527672 0.148699 0.0425269
0.570382 0.147707 0.0391699
0.610422 0.147601 0.0370336
0.647639 0.148531 0.036347
0.681849 0.150683 0.0369573
0.712902 0.154025 0.0388342
0.74107 0.158968 0.0422217
0.765347 0.164935 0.0468757
0.787442 0.171572 0.0521248
0.807889 0.17882 0.0581521
0.826871 0.186572 0.064683
0.844465 0.194781 0.0715648
0.860807 0.204089 0.0790112
0.876081 0.21323 0.0862593
0.890669 0.222599 0.0935836
0.904891 0.232105 0.101244
0.918303 0.241794 0.108797
0.0372473 0.176257 0.0546731
0.0499275 0.17995 0.0579538
0.0636912 0.183551 0.0612497
0.0787366 0.187152 0.0645609
0.0962234 0.1906 0.0678721
0.116625 0.193347 0.0708629
0.141375 0.195239 0.0738079
0.170459 0.196307 0.0772412
0.200229 0.197574 0.0800946
0.229221 0.199023 0.077409
0.268818 0.197848 0.0761273
0.311635 0.196155 0.07364
0.356054 0.194354 0.0704662
0.401221 0.192645 0.0670787
0.44686 0.191058 0.0636149
0.493339 0.189609 0.059968
0.538994 0.188266 0.0563973
0.582467 0.187778 0.0536812
0.623102 0.188388 0.052079
0.66041 0.190082 0.0516823
0.69456 0.192859 0.0525063
0.725719 0.197147 0.0548409
0.753216 0.202319 0.0583352
0.777203 0.208591 0.0629892
0.79881 0.215625 0.0684062
0.818753 0.22327 0.074342
0.837263 0.231403 0.0807507
0.854688 0.240436 0.0878157
0.870573 0.249424 0.0948348
0.885618 0.25864 0.102037
0.899855 0.26807 0.109239
0.91342 0.277607 0.11635
0.926619 0.287709 0.123827
0.0332952 0.203494 0.05066
0.0462654 0.208103 0.0543679
0.0603799 0.21268 0.0581521
0.0758679 0.217533 0.06215
0.093492 0.221866 0.066041
0.113909 0.225849 0.0697642
0.138567 0.229007 0.0732128
0.168688 0.231037 0.0766613
0.204288 0.232136 0.0806439
0.239521 0.23386 0.0835126
0.272725 0.235599 0.0805676
0.315419 0.23508 0.0799115
0.360586 0.234485 0.0785077
0.406577 0.233906 0.0765698
0.453391 0.233661 0.074403
0.500267 0.232792 0.0716716
0.546441 0.231907 0.0688029
0.590387 0.2318 0.0666972
0.631418 0.232654 0.0655375
0.669261 0.234867 0.0656291
0.703609 0.238148 0.0668193
0.734325 0.242405 0.0691234
0.761547 0.247791 0.0725872
0.785443 0.254261 0.0771649
0.806714 0.261585 0.0825208
0.826444 0.269749 0.0885023
0.844541 0.278096 0.094789
0.861341 0.286702 0.10132
0.876844 0.295613 0.108019
0.891386 0.304692 0.114855
0.905303 0.313924 0.121782
0.918837 0.323735 0.129
0.931716 0.333257 0.136019
0.02916 0.234241 0.0464637
0.0425269 0.240223 0.0507973
0.0569314 0.245762 0.0550851
0.0727398 0.251392 0.0596017
0.0906233 0.256825 0.0640726
0.111208 0.261891 0.0684672
0.135744 0.266239 0.0725719
0.165835 0.269795 0.0764477
0.202853 0.271443 0.0801862
0.24509 0.272175 0.0845197
0.283894 0.274159 0.0870832
0.319738 0.276524 0.0841688
0.364233 0.277073 0.0841993
0.410895 0.27779 0.0839551
0.45774 0.278126 0.0830091
0.505013 0.278065 0.0813458
0.551431 0.277775 0.0792706
0.595438 0.278004 0.0776532
0.636698 0.279362 0.0770123
0.674525 0.281758 0.0773938
0.70869 0.284977 0.0786908
0.739345 0.289311 0.081117
0.766461 0.294774 0.0846418
0.790265 0.301228 0.0891127
0.811414 0.308797 0.0944686
0.830671 0.316594 0.100099
0.848386 0.324697 0.106126
0.864851 0.333181 0.112459
0.880186 0.34197 0.118959
0.894545 0.351125 0.12575
0.908522 0.360967 0.132937
0.921843 0.370489 0.139986
0.934783 0.380209 0.147158
0.0257725 0.268772 0.0432288
0.0393835 0.275456 0.0480049
0.054078 0.281987 0.0528267
0.070222 0.288533 0.0578164
0.0883497 0.294896 0.0628061
0.109102 0.300832 0.0677043
0.133776 0.306432 0.0724498
0.163333 0.310552 0.076585
0.2 0.313115 0.080293
0.244846 0.313893 0.0842603
0.291325 0.314717 0.0888685
0.33225 0.31725 0.091249
0.369131 0.320714 0.0882277
0.413947 0.32195 0.0885328
0.461036 0.323003 0.089189
0.508659 0.323674 0.088838
0.555261 0.324041 0.0878004
0.599832 0.325139 0.0870222
0.640772 0.326513 0.0867018
0.678248 0.328832 0.0872816
0.71223 0.332128 0.0887922
0.742687 0.336416 0.0912184
0.769711 0.34197 0.094789
0.793515 0.348501 0.0992905
0.814404 0.355612 0.104402
0.833478 0.363272 0.110018
0.851148 0.371435 0.11606
0.867552 0.379919 0.122393
0.883085 0.38912 0.129152
0.897597 0.39855 0.136126
0.911467 0.408026 0.143221
0.924865 0.417639 0.150378
0.93785 0.42739 0.15761
0.0234073 0.306081 0.0413977
0.0373541 0.313619 0.0466316
0.0523079 0.321019 0.0518807
0.0686809 0.328313 0.0572213
0.087129 0.335744 0.0627146
0.108064 0.34229 0.0679789
0.132555 0.348043 0.0728923
0.161822 0.352697 0.0772869
0.197803 0.355825 0.0810101
0.242496 0.357107 0.0844739
0.293858 0.35761 0.0890059
0.341207 0.35906 0.0937209
0.383429 0.361685 0.0960861
0.418387 0.366003 0.0920272
0.463737 0.367498 0.0927901
0.511681 0.368688 0.0939651
0.558953 0.36997 0.094377
0.603159 0.371084 0.0943465
0.644083 0.372732 0.0946365
0.681468 0.375189 0.0955673
0.715358 0.378515 0.0972915
0.7458 0.383062 0.100023
0.772717 0.388586 0.103639
0.796338 0.394827 0.108064
0.817334 0.401968 0.113252
0.836454 0.409766 0.119081
0.854139 0.418021 0.125277
0.870726 0.426963 0.131899
0.886259 0.436103 0.138735
0.900786 0.445319 0.145647
0.914595 0.454734 0.152728
0.927977 0.464271 0.159869
0.940963 0.473884 0.167041
0.0224155 0.345907 0.0412299
0.0366369 0.354238 0.0468147
0.0517433 0.362219 0.0523079
0.0683604 0.370382 0.0580301
0.0867933 0.377859 0.0635843
0.10779 0.38471 0.068986
0.13225 0.390723 0.074052
0.161334 0.395605 0.078584
0.19678 0.398962 0.0823529
0.240925 0.4009 0.0855879
0.292729 0.400946 0.0891432
0.345968 0.401129 0.0941329
0.392325 0.403342 0.0987716
0.435874 0.405814 0.101396
0.468711 0.411215 0.0963302
0.514794 0.41297 0.0971237
0.561486 0.41416 0.0984817
0.605905 0.415564 0.0996109
0.646906 0.417548 0.100755
0.684382 0.420294 0.102312
0.718624 0.424308 0.104662
0.748943 0.428885 0.107668
0.775799 0.43444 0.111543
0.799542 0.440925 0.116243
0.820676 0.448188 0.121645
0.839887 0.456199 0.127687
0.857664 0.464759 0.134096
0.874067 0.473335 0.140627
0.889433 0.4822 0.147356
0.903975 0.491279 0.154223
0.917678 0.500465 0.161196
0.930938 0.509896 0.168231
0.943862 0.519387 0.175372
0.0228428 0.387869 0.0424811
0.0370489 0.396628 0.0482643
0.0523842 0.405447 0.0541238
0.0690318 0.413474 0.0598611
0.0874037 0.421057 0.0654459
0.108431 0.427985 0.0708782
0.132876 0.434058 0.0760052
0.161975 0.439323 0.0806744
0.197086 0.442802 0.0844587
0.24007 0.444434 0.0873579
0.291188 0.44445 0.0901198
0.346716 0.443931 0.0942702
0.398917 0.444755 0.0995956
0.444617 0.447807 0.104204
0.488563 0.449958 0.106813
0.520775 0.45539 0.101137
0.56434 0.457298 0.101259
0.60824 0.459037 0.102953
0.649638 0.461433 0.105211
0.68777 0.465049 0.107897
0.721874 0.469123 0.110872
0.752285 0.474052 0.114427
0.77911 0.47985 0.118669
0.802792 0.486473 0.123537
0.824018 0.493889 0.129168
0.843137 0.501945 0.135271
0.860624 0.510033 0.141512
0.876875 0.518395 0.147967
0.892103 0.527001 0.154559
0.906493 0.535775 0.161257
0.920104 0.544747 0.168139
0.933181 0.553689 0.174975
0.9458 0.562417 0.18175
0.0247501 0.431678 0.0448615
0.0387121 0.440848 0.0508736
0.053727 0.449378 0.0566873
0.0704814 0.457557 0.0624704
0.0888685 0.465263 0.0681468
0.10988 0.472236 0.0735943
0.134417 0.478614 0.0787823
0.16321 0.483497 0.0832837
0.197742 0.486717 0.0869001
0.239704 0.488151 0.0895247
0.289479 0.487984 0.0915847
0.344945 0.487007 0.0945602
0.401129 0.487022 0.099443
0.450996 0.488655 0.104692
0.495857 0.491554 0.109133
0.541085 0.493431 0.111925
0.571939 0.499641 0.106081
0.611795 0.502785 0.105898
0.652689 0.505943 0.10837
0.690562 0.5093 0.111635
0.724758 0.513512 0.115312
0.755138 0.518563 0.119432
0.781903 0.524437 0.124071
0.805661 0.531395 0.129458
0.826749 0.538506 0.135042
0.845594 0.546029 0.141039
0.862928 0.553811 0.147219
0.878996 0.561791 0.153552
0.894026 0.569986 0.160006
0.90837 0.578607 0.16669
0.921752 0.586831 0.173266
0.934569 0.594965 0.179812
0.94696 0.602975 0.186313
0.0272221 0.476356 0.0483558
0.0408484 0.485374 0.0542916
0.0559091 0.493996 0.0601511
0.0727245 0.502159 0.0659342
0.0911421 0.509743 0.0715343
0.112154 0.517037 0.0770581
0.136446 0.522805 0.0819867
0.164935 0.527291 0.0862745
0.199069 0.530266 0.0897383
0.240314 0.531594 0.0922255
0.289311 0.531746 0.0940871
0.344259 0.530861 0.0962997
0.401587 0.530098 0.100221
0.455802 0.530739 0.105562
0.503532 0.533227 0.110719
0.549249 0.535973 0.11516
0.594766 0.538048 0.118303
0.622858 0.545022 0.112551
0.65742 0.549538 0.11191
0.693736 0.553185 0.11458
0.72781 0.557214 0.118563
0.758083 0.562066 0.123064
0.784863 0.568093 0.128191
0.808209 0.574334 0.133639
0.82916 0.581094 0.139315
0.847883 0.58822 0.145312
0.865019 0.595529 0.1514
0.880903 0.603052 0.157656
0.895842 0.610895 0.164065
0.909804 0.618448 0.170397
0.923079 0.626123 0.176806
0.935683 0.63357 0.183169
0.947875 0.640864 0.189578
0.0301518 0.52047 0.0526284
0.0437324 0.529351 0.0585641
0.0588693 0.537758 0.0643931
0.0757153 0.5458 0.0701152
0.0942397 0.553338 0.0757
0.115038 0.559991 0.0809949
0.139284 0.565744 0.0859693
0.167941 0.570352 0.0903944
0.202197 0.57351 0.0940108
0.243687 0.575219 0.0966964
0.292027 0.575387 0.098436
0.345953 0.574563 0.10016
0.403464 0.573556 0.103151
0.460365 0.573312 0.107927
0.511788 0.574762 0.113313
0.558358 0.57789 0.118196
0.603861 0.580362 0.122621
0.645853 0.582391 0.1252
0.671595 0.589441 0.120562
0.700694 0.595071 0.11957
0.731884 0.599542 0.122042
0.761776 0.604517 0.126421
0.788052 0.60972 0.131472
0.811215 0.615503 0.136934
0.831891 0.621714 0.14258
0.850431 0.628229 0.148486
0.867521 0.635264 0.154696
0.883162 0.642069 0.16083
0.897765 0.648936 0.16701
0.911513 0.655787 0.17319
0.92459 0.662699 0.17937
0.937011 0.669429 0.185595
0.949096 0.676249 0.192111
0.0336614 0.563317 0.0580148
0.0475929 0.57203 0.0639811
0.0631266 0.580514 0.0700084
0.080293 0.588647 0.0759747
0.0990616 0.595972 0.0816663
0.120226 0.60267 0.0871443
0.144549 0.608545 0.0923018
0.173587 0.613184 0.0968338
0.208499 0.616724 0.100649
0.250111 0.618097 0.103212
0.298009 0.618128 0.104814
0.35111 0.617273 0.106126
0.408133 0.616083 0.108354
0.466407 0.615473 0.112428
0.520775 0.616022 0.117647
0.569024 0.61796 0.12256
0.613367 0.620645 0.126986
0.656901 0.622751 0.131319
0.694377 0.625147 0.133532
0.718822 0.632029 0.130571
0.742748 0.638453 0.129473
0.767849 0.643854 0.131472
0.792233 0.648951 0.135454
0.814725 0.654215 0.140444
0.835187 0.659724 0.145937
0.853727 0.665873 0.151781
0.870329 0.67187 0.157626
0.88571 0.678035 0.163577
0.900114 0.684291 0.169589
0.91368 0.690517 0.175616
0.926528 0.696574 0.181643
0.938888 0.702846 0.187991
0.950652 0.708675 0.194171
0.0389868 0.6056 0.0655375
0.0538491 0.614649 0.0720531
0.0698863 0.623011 0.0783246
0.0872663 0.630854 0.0843824
0.106432 0.638178 0.0902724
0.128069 0.644816 0.0959487
0.152972 0.650721 0.101274
0.182361 0.655512 0.105974
0.217594 0.658381 0.10956
0.259693 0.659434 0.11191
0.307485 0.659236 0.113283
0.35993 0.658259 0.11426
0.416419 0.657084 0.115923
0.474662 0.655894 0.119081
0.53048 0.655344 0.123644
0.580774 0.656306 0.128481
0.624933 0.65861 0.132769
0.667048 0.660853 0.13695
0.707057 0.663035 0.141115
0.740291 0.66566 0.143343
0.762539 0.671641 0.141817
0.781964 0.678157 0.14107
0.801343 0.684138 0.142504
0.820706 0.689632 0.145815
0.840009 0.695155 0.150622
0.857527 0.700496 0.155673
0.873716 0.705699 0.16112
0.888777 0.711177 0.166751
0.902876 0.716686 0.172457
0.916304 0.722484 0.178393
0.928923 0.727932 0.184298
0.940917 0.733242 0.19028
0.952438 0.738476 0.196201
0.0469978 0.647593 0.0760052
0.0624552 0.656214 0.0826581
0.0790875 0.66453 0.0892653
0.0969711 0.672267 0.0956283
0.116548 0.679408 0.101656
0.138735 0.685924 0.107439
0.16437 0.691676 0.112856
0.193957 0.695918 0.117357
0.229664 0.69836 0.120668
0.27245 0.698909 0.122683
0.320287 0.698314 0.123659
0.372656 0.697353 0.124392
0.427985 0.695674 0.125292
0.485512 0.693874 0.127565
0.541894 0.692576 0.131395
0.593469 0.692531 0.135866
0.6383 0.694255 0.140032
0.679088 0.696513 0.143877
0.717662 0.698299 0.147906
0.752789 0.700053 0.15169
0.781826 0.702602 0.154025
0.802045 0.707912 0.153933
0.818479 0.714305 0.154025
0.833936 0.720424 0.155367
0.849515 0.725978 0.158145
0.864683 0.731304 0.161852
0.878904 0.736431 0.166094
0.892836 0.741375 0.170947
0.9066 0.746548 0.17644
0.919463 0.751415 0.181872
0.93167 0.756146 0.187503
0.943481 0.760784 0.193194
0.954726 0.765209 0.198779
0.0581979 0.68835 0.0895247
0.0740368 0.696834 0.0963607
0.0910506 0.704936 0.103197
0.109331 0.712367 0.109682
0.129809 0.719493 0.116075
0.152544 0.725429 0.121721
0.178622 0.730373 0.126772
0.209003 0.73402 0.130953
0.244968 0.736019 0.133989
0.288731 0.735943 0.135485
0.336965 0.735119 0.136156
0.388434 0.733379 0.136172
0.442878 0.731258 0.1364
0.499535 0.728969 0.13785
0.555657 0.727047 0.140917
0.607691 0.726299 0.144915
0.65275 0.727199 0.148775
0.692088 0.728862 0.152132
0.729076 0.730465 0.155703
0.763577 0.73196 0.159533
0.794263 0.733577 0.163058
0.819242 0.7364 0.165698
0.837507 0.7411 0.166873
0.851682 0.746654 0.167605
0.864652 0.75227 0.169024
0.877302 0.757671 0.171344
0.888777 0.763027 0.174044
0.901228 0.768002 0.178134
0.912856 0.772702 0.182284
0.92459 0.777096 0.187137
0.936049 0.781308 0.192172
0.94725 0.785412 0.19733
0.957977 0.789563 0.202502
0.072221 0.727642 0.105989
0.0884413 0.735836 0.113054
0.105653 0.743603 0.120043
0.12462 0.750957 0.126879
0.145312 0.757122 0.132876
0.168719 0.762387 0.138277
0.195621 0.766552 0.142885
0.227024 0.769375 0.146517
0.264073 0.770611 0.148989
0.308278 0.77023 0.150134
0.355993 0.768566 0.150011
0.407004 0.766384 0.149462
0.460853 0.76379 0.149111
0.516457 0.760983 0.149859
0.572274 0.758679 0.1523
0.623377 0.757229 0.155581
0.667781 0.757244 0.158831
0.706127 0.758419 0.161746
0.74168 0.759716 0.164782
0.774945 0.760998 0.168231
0.805432 0.762448 0.171954
0.831388 0.764035 0.17528
0.852216 0.76669 0.17789
0.868574 0.770626 0.179797
0.881315 0.775494 0.181079
0.89276 0.780697 0.182773
0.903212 0.785824 0.184848
0.913054 0.790555 0.187411
0.922621 0.795117 0.190524
0.932769 0.799344 0.194369
0.94284 0.803388 0.19855
0.952804 0.807477 0.202976
0.9626 0.8112 0.207446
0.088838 0.765209 0.125124
0.105425 0.773083 0.132479
0.12282 0.780423 0.139452
0.141772 0.786892 0.145846
0.16289 0.792386 0.151507
0.186862 0.796872 0.156481
0.214588 0.800122 0.160494
0.247654 0.802136 0.163577
0.285832 0.802335 0.165194
0.329564 0.801099 0.165515
0.376852 0.798978 0.164813
0.427436 0.796292 0.163592
0.480674 0.793256 0.162631
0.536004 0.790158 0.162997
0.589975 0.787167 0.164584
0.639872 0.785122 0.167071
0.683207 0.784619 0.169772
0.720531 0.785275 0.172198
0.754726 0.786267 0.174746
0.786847 0.787289 0.177707
0.815976 0.788281 0.180911
0.841611 0.789517 0.184298
0.863478 0.791074 0.187472
0.881239 0.793622 0.190097
0.896071 0.797086 0.192493
0.907622 0.801389 0.194141
0.917754 0.805768 0.195941
0.926863 0.810101 0.198138
0.935164 0.81445 0.200443
0.943069 0.818692 0.202991
0.952193 0.822766 0.206622
0.960769 0.826581 0.210132
0.969696 0.830091 0.213962
0.107225 0.800687 0.146304
0.123674 0.807904 0.15317
0.141176 0.814527 0.159762
0.160159 0.820401 0.16582
0.181689 0.825086 0.170977
0.206256 0.828687 0.17528
0.235309 0.831235 0.17879
0.2692 0.831937 0.180758
0.308339 0.831098 0.181399
0.352041 0.829114 0.180865
0.398764 0.826566 0.179629
0.448875 0.823377 0.177783
0.501991 0.82002 0.176364
0.555795 0.816266 0.176013
0.608484 0.812863 0.177035
0.656794 0.810498 0.178958
0.698695 0.809476 0.180987
0.735134 0.809827 0.183032
0.767819 0.810376 0.185
0.798459 0.810895 0.187289
0.826307 0.811521 0.189975
0.851011 0.812482 0.193057
0.872694 0.813703 0.196262
0.891646 0.81532 0.199481
0.90695 0.817716 0.201999
0.920241 0.820523 0.204593
0.930556 0.824155 0.206485
0.939696 0.82797 0.208545
0.947997 0.831876 0.210803
0.955535 0.835843 0.213077
0.962615 0.839734 0.215381
0.970108 0.843458 0.218204
0.977829 0.846906 0.221286
0.125841 0.833295 0.167788
0.142275 0.83975 0.174228
0.160021 0.845701 0.180316
0.17937 0.850843 0.185779
0.201129 0.855192 0.190646
0.226535 0.858015 0.194263
0.256306 0.859312 0.196658
0.291478 0.85893 0.197681
0.331411 0.857237 0.197436
0.374884 0.854643 0.19617
0.421775 0.851621 0.194278
0.471122 0.84802 0.191867
0.523018 0.843946 0.189639
0.575814 0.839765 0.1888
0.627039 0.836027 0.189288
0.673594 0.833341 0.190631
0.714229 0.832166 0.192264
0.748913 0.831861 0.193561
0.780194 0.831952 0.194965
0.809491 0.832135 0.19675
0.836347 0.832471 0.198978
0.860044 0.833188 0.201724
0.881209 0.834272 0.204791
0.899763 0.83534 0.207828
0.91606 0.836759 0.21091
0.929397 0.838941 0.213474
0.941497 0.841398 0.216251
0.950957 0.844694 0.218372
0.959396 0.848112 0.2206
0.967041 0.851453 0.222782
0.973816 0.854902 0.224933
0.980056 0.858427 0.227054
0.986252 0.861814 0.229526
0.14432 0.863554 0.189181
0.160723 0.869108 0.194965
0.178714 0.87425 0.200443
0.198749 0.878706 0.205402
0.221103 0.882002 0.209415
0.246616 0.88397 0.212284
0.277882 0.884108 0.213642
0.314 0.882902 0.213794
0.354192 0.880568 0.212741
0.39794 0.877638 0.21091
0.444038 0.874022 0.208225
0.492775 0.869871 0.205112
0.543679 0.865385 0.202304
0.595346 0.860822 0.200992
0.645029 0.856825 0.201083
0.690166 0.854032 0.202075
0.728695 0.852415 0.202976
0.762112 0.851759 0.203815
0.792248 0.851545 0.204791
0.820127 0.851408 0.206073
0.846174 0.851621 0.208057
0.868925 0.852049 0.210452
0.889128 0.852766 0.21323
