src/luts/crop/3.cube
TITLE "Generated by Resolve"
LUT_3D_SIZE 33
0.0502174 0.0529183 0.0562905
0.0644236 0.0526589 0.0563668
0.0783703 0.0532692 0.0563821
0.0936751 0.0537423 0.0564736
0.11046 0.0536355 0.0559243
0.129397 0.0530861 0.0547951
0.150546 0.0519722 0.0529335
0.174411 0.0502785 0.0502632
0.20148 0.0478981 0.0465858
0.231617 0.0449836 0.0420996
0.263401 0.0416266 0.0369726
0.296178 0.038117 0.0316167
0.329274 0.0346532 0.026215
0.362097 0.0313573 0.0209964
0.394583 0.0282597 0.0159609
0.42768 0.0252232 0.0109712
0.460487 0.0221256 0.00672923
0.492958 0.0192416 0.00390631
0.524758 0.0166934 0.00277714
0.555474 0.0144198 0.00250248
0.585107 0.0128939 0.00144961
0.612726 0.0119326 0
0.638697 0.0115816 0
0.662882 0.0119326 0
0.685496 0.0129397 0
0.706142 0.0145876 0
0.725277 0.0166171 0
0.742977 0.0187839 0
0.759487 0.0216526 0
0.774838 0.0251164 0
0.789517 0.0289006 0.0010071
0.803845 0.0332341 0.00354009
0.817548 0.0380255 0.00842298
0.0512093 0.0677195 0.0585946
0.06598 0.0681773 0.0593271
0.080766 0.0688487 0.0598154
0.0966354 0.0691234 0.0595712
0.11397 0.0691234 0.0589609
0.133165 0.0686656 0.0577859
0.154726 0.0677348 0.0560769
0.179187 0.0662852 0.0536507
0.206775 0.0640116 0.0500954
0.237201 0.0611734 0.0456092
0.269551 0.0580148 0.0406195
0.302907 0.0547494 0.0354314
0.336583 0.0515755 0.0302434
0.370306 0.0487068 0.025391
0.403296 0.0458534 0.0205539
0.436851 0.0430457 0.0157321
0.470329 0.0402838 0.0110018
0.50341 0.0377508 0.00726329
0.535882 0.0356298 0.00463874
0.567376 0.0339666 0.00445563
0.597253 0.0326085 0.00399786
0.625269 0.0321202 0.0027924
0.65153 0.0322576 0.00224308
0.676051 0.0329442 0.00216678
0.699001 0.0342412 0.00234989
0.720027 0.036347 0.00271611
0.739254 0.0391089 0.00376898
0.757168 0.0421607 0.00492866
0.774014 0.0456397 0.00633249
0.789853 0.0498207 0.0090486
0.805081 0.0543984 0.011902
0.819669 0.059205 0.0168307
0.833738 0.0643015 0.0221561
0.0533913 0.083711 0.0606241
0.0681315 0.0843671 0.0619211
0.0834669 0.0848707 0.0627756
0.0989242 0.0855421 0.0631571
0.116457 0.0857099 0.0628214
0.13608 0.0854658 0.0619516
0.158099 0.0848554 0.0605173
0.182666 0.0835737 0.0581979
0.210452 0.0816052 0.0547341
0.241291 0.079057 0.0504311
0.274205 0.0761578 0.0456703
0.308263 0.0731518 0.0407568
0.343023 0.0704204 0.0360571
0.377203 0.0677653 0.0314488
0.411048 0.0652934 0.0270237
0.445365 0.0627756 0.0225376
0.479652 0.0603342 0.018143
0.513588 0.0581979 0.0140841
0.546868 0.0565499 0.010605
0.578729 0.0552682 0.00762951
0.60914 0.0543984 0.00747692
0.637766 0.0542458 0.00708019
0.664424 0.054902 0.00686656
0.689662 0.0564431 0.00759899
0.712734 0.0582742 0.00849927
0.73402 0.0606851 0.00965896
0.753414 0.0640726 0.0120394
0.771679 0.0678721 0.0147402
0.788952 0.0720836 0.0179904
0.805371 0.0768292 0.0221714
0.820935 0.0819715 0.0274815
0.835889 0.0872511 0.0329442
0.850462 0.0927901 0.0387274
0.0552224 0.100496 0.0625772
0.0699321 0.101381 0.0641337
0.0854353 0.102144 0.0654307
0.101823 0.102831 0.0661479
0.118959 0.103471 0.0665446
0.138796 0.103685 0.0662242
0.161044 0.103243 0.0650797
0.186084 0.102266 0.0631723
0.214481 0.100603 0.0601968
0.245884 0.098436 0.0562753
0.279561 0.0961166 0.0518654
0.314092 0.0935836 0.0471656
0.349081 0.0911269 0.0426337
0.383948 0.0888228 0.0383917
0.41857 0.0866865 0.0343633
0.453696 0.0845045 0.0302739
0.489174 0.0826429 0.0264591
0.523781 0.0808728 0.0228275
0.557488 0.0795148 0.0197147
0.58996 0.0786603 0.0172427
0.621012 0.0783703 0.0154879
0.650339 0.0786603 0.0144808
0.677714 0.0800641 0.0148013
0.702953 0.0819409 0.0158389
0.726375 0.0845045 0.0177462
0.747906 0.087541 0.0203098
0.767697 0.091371 0.0238804
0.786374 0.0958877 0.0282597
0.804074 0.100816 0.0331121
0.820722 0.105867 0.0382544
0.836652 0.111467 0.0440223
0.852033 0.117281 0.0500801
0.866957 0.123262 0.0563058
0.0565652 0.118502 0.0641184
0.0713359 0.119677 0.0659495
0.0871138 0.12079 0.0676738
0.104158 0.121813 0.0689097
0.122042 0.122774 0.0698405
0.141497 0.123339 0.0702068
0.163806 0.123369 0.0696574
0.189288 0.122805 0.0682994
0.21825 0.121538 0.0658579
0.250629 0.11986 0.0626383
0.284825 0.117815 0.0586862
0.319997 0.115709 0.0543984
0.355474 0.113741 0.0501411
0.390814 0.111986 0.0461891
0.426078 0.110399 0.0424811
0.462272 0.108888 0.0388952
0.498192 0.107225 0.0353399
0.533501 0.105806 0.0321508
0.56788 0.104814 0.0295109
0.601007 0.104448 0.0275883
0.632715 0.104723 0.0264439
0.662943 0.105791 0.0262608
0.690562 0.107469 0.0269627
0.716091 0.109926 0.0286564
0.739712 0.113069 0.0312352
0.761547 0.116823 0.0346075
0.78204 0.121355 0.0388647
0.800778 0.126268 0.0436713
0.818586 0.131548 0.0489662
0.835523 0.137087 0.054612
0.851713 0.142962 0.0606394
0.867445 0.14934 0.0671702
0.882765 0.155901 0.07393
0.0572976 0.138079 0.0650492
0.0722972 0.139681 0.0672465
0.0884718 0.141299 0.0695048
0.105715 0.142718 0.0713512
0.124834 0.143786 0.0726177
0.144488 0.144854 0.0735332
0.166644 0.145403 0.0739147
0.192233 0.145357 0.0732891
0.221897 0.144793 0.0716411
0.254673 0.143404 0.0688945
0.289616 0.141741 0.0655985
0.325689 0.140047 0.0620127
0.362005 0.138552 0.058381
0.398306 0.137469 0.0550088
0.434226 0.136461 0.0516823
0.470558 0.135378 0.0482338
0.507042 0.134325 0.0449836
0.543053 0.133471 0.0421912
0.578103 0.133013 0.0400244
0.612238 0.133303 0.0387732
0.644388 0.133989 0.0381323
0.6748 0.135302 0.0383764
0.702998 0.137453 0.0395819
0.72874 0.140429 0.0418708
0.752468 0.144076 0.0450141
0.774701 0.148608 0.049134
0.795163 0.153323 0.0536355
0.814099 0.158587 0.058793
0.831983 0.164248 0.0644846
0.849042 0.170214 0.0704814
0.865476 0.17644 0.0767834
0.881285 0.183185 0.0835431
0.896468 0.189822 0.0902419
0.0575265 0.159625 0.065507
0.0728618 0.161807 0.0681773
0.0892653 0.163775 0.0707866
0.106844 0.165576 0.0731365
0.126131 0.167117 0.0749981
0.147753 0.168292 0.0764324
0.169772 0.16968 0.0775006
0.195315 0.170245 0.0779126
0.224903 0.170016 0.0770123
0.258183 0.169268 0.0750591
0.293828 0.168124 0.0724498
0.330724 0.166918 0.0695811
0.368292 0.166033 0.0668498
0.405371 0.165301 0.0641642
0.442145 0.164752 0.0614786
0.47924 0.164218 0.0585946
0.516304 0.163745 0.0557107
0.552758 0.163546 0.053193
0.588617 0.163897 0.0514687
0.622782 0.164508 0.0503548
0.655253 0.165682 0.0500496
0.685908 0.167483 0.0506447
0.714565 0.16997 0.0521706
0.740429 0.173281 0.054902
0.764523 0.177539 0.0586862
0.78648 0.182162 0.0629435
0.806973 0.187243 0.0677653
0.826047 0.192767 0.0731365
0.843824 0.198718 0.0789807
0.861021 0.205264 0.085359
0.877272 0.211658 0.0916762
0.892821 0.218296 0.0982071
0.90779 0.225071 0.104829
0.057084 0.183352 0.0652781
0.0725872 0.185901 0.0682536
0.0892958 0.188342 0.0712596
0.10724 0.190661 0.0741741
0.126833 0.192721 0.0767224
0.148791 0.194507 0.0787671
0.173327 0.19588 0.0803998
0.198062 0.197314 0.0814221
0.227512 0.197681 0.0816358
0.261036 0.197452 0.0806592
0.297276 0.197024 0.0789807
0.335302 0.196704 0.0770733
0.373449 0.196216 0.0749676
0.411399 0.195926 0.0730144
0.449165 0.195804 0.0711223
0.487266 0.195651 0.0690166
0.52549 0.195743 0.0669108
0.562676 0.196002 0.0649271
0.598505 0.196597 0.0633402
0.632883 0.197665 0.0624094
0.665522 0.199283 0.0623026
0.696254 0.201495 0.0630503
0.725277 0.204639 0.0648966
0.751156 0.208392 0.0678111
0.774807 0.21268 0.0715038
0.796704 0.217502 0.0758984
0.817121 0.222766 0.0808576
0.83621 0.228428 0.0863203
0.854047 0.234897 0.0924697
0.870817 0.241215 0.0985733
0.886839 0.247715 0.104829
0.902266 0.254398 0.111254
0.916991 0.261173 0.117754
0.0555581 0.209171 0.0640116
0.0713817 0.212253 0.0673991
0.0884108 0.215213 0.0708324
0.106706 0.218128 0.0742504
0.126772 0.22092 0.0775311
0.148898 0.223194 0.0802625
0.1738 0.224994 0.0823987
0.201587 0.226322 0.084062
0.229709 0.227893 0.085008
0.263188 0.228321 0.0852522
0.299916 0.22855 0.0846418
0.338216 0.228687 0.0835584
0.377096 0.22887 0.0823072
0.415793 0.22916 0.0810864
0.454337 0.229541 0.0798962
0.493538 0.229984 0.0785534
0.532418 0.230289 0.0770275
0.570306 0.230655 0.0756085
0.606836 0.231418 0.0745861
0.641627 0.232715 0.0740368
0.67454 0.234562 0.0741894
0.705684 0.237308 0.0753338
0.734417 0.240452 0.0771801
0.760372 0.244327 0.0800641
0.783902 0.248844 0.0838331
0.805646 0.253803 0.0882277
0.825895 0.25919 0.0931868
0.84506 0.265293 0.0988785
0.862623 0.271382 0.104707
0.87924 0.277699 0.110765
0.895064 0.284138 0.116884
0.910246 0.290715 0.123095
0.924987 0.297749 0.129641
0.0534829 0.237156 0.0623026
0.0696422 0.240772 0.0660716
0.0869764 0.244327 0.0699321
0.105699 0.24799 0.0739147
0.12604 0.251148 0.0776532
0.148486 0.253986 0.0810712
0.173495 0.256382 0.0839551
0.201923 0.258198 0.0861372
0.233677 0.259617 0.0878157
0.265187 0.26154 0.0887312
0.301503 0.261967 0.0890669
0.340002 0.262486 0.0888838
0.379431 0.263294 0.0885786
0.418753 0.26424 0.0881666
0.458289 0.265492 0.0878309
0.497841 0.266178 0.0869764
0.537179 0.266728 0.0859083
0.57557 0.267323 0.0848707
0.612589 0.268208 0.0842145
0.648127 0.269749 0.0842145
0.681575 0.271778 0.0848096
0.712673 0.274281 0.0860304
0.741466 0.277424 0.0880293
0.767636 0.281285 0.0909438
0.791135 0.285801 0.094789
0.812985 0.291051 0.0993362
0.833127 0.296452 0.104295
0.851911 0.302113 0.109636
0.869383 0.308049 0.115282
0.885801 0.314199 0.121157
0.901488 0.320455 0.127169
0.916762 0.327214 0.133516
0.931243 0.333761 0.139712
0.0515145 0.267124 0.0608225
0.0681163 0.27158 0.065095
0.0857099 0.275624 0.0693523
0.104631 0.279591 0.0736553
0.125292 0.283284 0.0778363
0.148028 0.28661 0.0817884
0.173266 0.28954 0.0853285
0.201831 0.292165 0.088304
0.234516 0.293751 0.0902724
0.269505 0.295155 0.0917678
0.303181 0.297078 0.0926223
0.341375 0.297749 0.0932479
0.380972 0.298848 0.0937057
0.420966 0.300526 0.0942397
0.46067 0.302037 0.0944839
0.50071 0.303227 0.0943008
0.54052 0.304173 0.0937514
0.579324 0.305013 0.0931106
0.616815 0.306233 0.0928054
0.652522 0.30779 0.0929427
0.686015 0.309697 0.0936141
0.717281 0.312154 0.0949722
0.746181 0.315221 0.0970779
0.772519 0.318929 0.0999771
0.796109 0.323568 0.103899
0.817716 0.32845 0.108248
0.837644 0.333608 0.113039
0.85626 0.339101 0.118227
0.873701 0.3449 0.123751
0.890028 0.351034 0.129595
0.905867 0.357748 0.135866
0.920958 0.364248 0.142046
0.935561 0.370916 0.148363
0.050309 0.299138 0.0602884
0.0670329 0.303807 0.0647746
0.0849165 0.308354 0.0693675
0.104036 0.312764 0.073991
0.124895 0.316884 0.0785077
0.147845 0.320623 0.082826
0.173434 0.324208 0.0869154
0.201801 0.326909 0.0903029
0.234241 0.328908 0.0927749
0.271168 0.33022 0.0944381
0.307698 0.331975 0.0959335
0.343069 0.334127 0.0969558
0.382437 0.335317 0.0980392
0.422095 0.336751 0.09897
0.462074 0.338552 0.0998856
0.502571 0.34023 0.10042
0.542779 0.34165 0.100496
0.582254 0.34313 0.100435
0.619791 0.344335 0.100328
0.655482 0.345754 0.100542
0.689082 0.347631 0.101274
0.720363 0.349996 0.102632
0.749355 0.353094 0.104768
0.77583 0.356817 0.107698
0.799313 0.361059 0.111406
0.820874 0.365805 0.11577
0.840879 0.370977 0.120668
0.85948 0.376471 0.125902
0.877104 0.382574 0.131655
0.893645 0.388937 0.137728
0.909422 0.395407 0.143938
0.92462 0.402045 0.150286
0.939361 0.408835 0.156771
0.0500191 0.33228 0.0608377
0.0669108 0.337377 0.0656291
0.0849928 0.34229 0.0704509
0.104219 0.347051 0.0753033
0.125353 0.351827 0.0801862
0.148425 0.355856 0.0846876
0.173907 0.35935 0.0888838
0.202289 0.36228 0.0925765
0.234485 0.364508 0.095491
0.271397 0.366003 0.0973983
0.311269 0.367605 0.0991379
0.347784 0.369863 0.100649
0.384115 0.371969 0.101793
0.423301 0.373175 0.10309
0.463004 0.374792 0.104326
0.503685 0.376638 0.105348
0.544503 0.378622 0.106142
0.583917 0.380102 0.106447
0.621668 0.381521 0.106676
0.657511 0.383078 0.107103
0.691203 0.38497 0.108003
0.722728 0.387503 0.10956
0.751827 0.390585 0.111757
0.77821 0.394064 0.114611
0.801923 0.398322 0.11841
0.823636 0.403174 0.123003
0.843778 0.408453 0.128084
0.862699 0.414343 0.133684
0.8804 0.420432 0.139574
0.897093 0.426719 0.145724
0.912993 0.43328 0.152102
0.928298 0.439963 0.158602
0.943145 0.446769 0.165194
0.0509651 0.366522 0.0628367
0.0679789 0.371939 0.0678416
0.0861067 0.377142 0.0728161
0.105547 0.382437 0.0779126
0.126558 0.387121 0.0827649
0.149645 0.391287 0.0873426
0.175097 0.394919 0.0916152
0.203449 0.39791 0.0954452
0.235462 0.400183 0.0985733
0.272312 0.402075 0.100877
0.31252 0.403204 0.102403
0.352499 0.404761 0.104067
0.388266 0.407416 0.105531
0.42504 0.409491 0.106889
0.464256 0.410788 0.108309
0.504784 0.412543 0.10959
0.545281 0.414176 0.110567
0.584924 0.415839 0.11136
0.622995 0.417533 0.112078
0.659098 0.419394 0.112947
0.693309 0.421851 0.114321
0.72488 0.424445 0.116091
0.75404 0.427558 0.118502
0.780713 0.43125 0.121645
0.804715 0.43566 0.125689
0.826642 0.440772 0.130556
0.847044 0.446387 0.135958
0.865934 0.45214 0.141604
0.88368 0.458137 0.14757
0.900511 0.464439 0.153796
0.916472 0.47097 0.16025
0.931945 0.477867 0.166979
0.946914 0.484794 0.173724
0.0528725 0.401679 0.0660105
0.0699321 0.407324 0.0710918
0.088304 0.413077 0.0763561
0.107576 0.418204 0.0813611
0.12842 0.422919 0.0861219
0.151461 0.427131 0.0906844
0.176837 0.430747 0.0948959
0.205234 0.433967 0.0988174
0.23711 0.436194 0.101976
0.273213 0.437629 0.104204
0.313069 0.438651 0.105684
0.354635 0.439719 0.107134
0.393484 0.441688 0.108888
0.428763 0.444892 0.110491
0.465965 0.446784 0.11191
0.505653 0.447837 0.113161
0.545815 0.44921 0.114275
0.585534 0.450919 0.11545
0.623987 0.452934 0.116732
0.660838 0.455497 0.118364
0.69514 0.458061 0.12015
0.727016 0.461021 0.122393
0.75639 0.464439 0.125185
0.783185 0.468391 0.128588
0.807462 0.47303 0.132937
0.829496 0.478355 0.138003
0.849805 0.483803 0.143374
0.868757 0.48957 0.149111
0.886534 0.495598 0.155138
0.903395 0.501869 0.161379
0.919448 0.508537 0.167956
0.934874 0.515297 0.174624
0.949752 0.521981 0.181247
0.055375 0.438071 0.0699016
0.0725109 0.443976 0.0750591
0.0906386 0.449424 0.0800793
0.109834 0.454582 0.0849775
0.130556 0.459281 0.089662
0.153399 0.463432 0.0940719
0.178759 0.467185 0.0982528
0.206821 0.470008 0.101884
0.238346 0.471931 0.10486
0.27393 0.473121 0.107042
0.313054 0.47393 0.108446
0.354696 0.474678 0.109575
0.396246 0.476265 0.111299
0.433295 0.478782 0.113115
0.468254 0.481773 0.114687
0.506539 0.483604 0.116213
0.546578 0.484916 0.117723
0.586236 0.48661 0.119219
0.625101 0.488991 0.121035
0.661875 0.491432 0.122957
0.696468 0.494255 0.125216
0.728603 0.49749 0.127886
0.758129 0.501137 0.131014
0.78526 0.505623 0.135012
0.809583 0.510262 0.139422
0.831525 0.515404 0.144488
0.85182 0.520851 0.14992
0.870726 0.526589 0.155688
0.888533 0.532662 0.161776
0.905501 0.539117 0.16817
0.921477 0.545464 0.174594
0.936782 0.551904 0.181109
0.951614 0.558389 0.18764
0.0584421 0.47512 0.0743877
0.0754101 0.480842 0.0793469
0.0934615 0.486259 0.0842756
0.112581 0.491325 0.0890516
0.13315 0.495918 0.0935531
0.155886 0.500267 0.0979171
0.18085 0.503532 0.101686
0.208576 0.506004 0.104997
0.239734 0.507637 0.107729
0.274891 0.508583 0.109804
0.31368 0.509468 0.111345
0.355047 0.510262 0.11249
0.397345 0.511315 0.113924
0.437201 0.513359 0.115969
0.473243 0.516487 0.117983
0.50927 0.519478 0.119631
0.548455 0.521614 0.121477
0.587961 0.523186 0.123247
0.626307 0.52517 0.125139
0.663066 0.52755 0.127306
0.697719 0.530388 0.129824
0.729946 0.533684 0.132769
0.759808 0.537774 0.1364
0.786679 0.542 0.140444
0.811048 0.54667 0.145068
0.833036 0.551781 0.150179
0.8533 0.557168 0.155657
0.872206 0.562875 0.161486
0.890059 0.569024 0.167651
0.906798 0.575036 0.173831
0.922774 0.581231 0.180179
0.938003 0.587457 0.186603
0.952758 0.593713 0.193088
0.0616007 0.511604 0.078996
0.0784772 0.517189 0.0837873
0.0963607 0.522438 0.0885023
0.115419 0.527489 0.0931106
0.135988 0.532097 0.0975052
0.158373 0.535988 0.101549
0.183215 0.539284 0.105303
0.210971 0.541909 0.108659
0.242191 0.543679 0.111543
0.277516 0.544869 0.113863
0.315892 0.545647 0.115526
0.356603 0.546365 0.11667
0.398993 0.547295 0.117922
0.44065 0.548837 0.119799
0.479042 0.551431 0.121996
0.515099 0.555032 0.12398
0.551766 0.557824 0.125643
0.590326 0.55967 0.12752
0.628443 0.561456 0.12958
0.664958 0.563684 0.131838
0.699443 0.5664 0.134463
0.731899 0.56994 0.137713
0.76141 0.573617 0.141375
0.788205 0.577752 0.145525
0.812482 0.58233 0.15021
0.834501 0.58732 0.155367
0.854871 0.592935 0.161044
0.87361 0.598398 0.166781
0.891249 0.604074 0.172747
0.907897 0.609873 0.178836
0.923812 0.615793 0.185061
0.938949 0.62179 0.191394
0.953674 0.628016 0.198001
0.0650339 0.547234 0.0838483
0.0818952 0.552743 0.0885481
0.0998398 0.558114 0.0932631
0.11899 0.563241 0.0979019
0.139574 0.567727 0.102251
0.162081 0.57174 0.106371
0.186862 0.575204 0.110216
0.214725 0.57792 0.113664
0.246342 0.580118 0.116793
0.281575 0.581109 0.119081
0.319677 0.581781 0.120821
0.35993 0.582452 0.122042
0.401892 0.583307 0.123156
0.44445 0.584741 0.124849
0.484962 0.586908 0.127016
0.52224 0.589837 0.129015
0.557595 0.593072 0.130663
0.594247 0.595605 0.132387
0.631632 0.597482 0.134478
0.668177 0.599741 0.13695
0.702434 0.602319 0.139651
0.734295 0.605325 0.142824
0.763607 0.608804 0.146487
0.790249 0.612757 0.150652
0.814359 0.617105 0.155276
0.8365 0.622171 0.160555
0.856519 0.627207 0.165972
0.875135 0.632486 0.171649
0.892638 0.637934 0.177523
0.909178 0.643488 0.183505
0.92491 0.649088 0.189563
0.940017 0.654994 0.195972
0.954482 0.660578 0.202228
0.0695201 0.582544 0.0898146
0.0866865 0.588418 0.0947738
0.104677 0.593729 0.0994888
0.123842 0.598718 0.104082
0.144594 0.603311 0.108492
0.167269 0.607431 0.112703
0.192248 0.611078 0.11664
0.220218 0.614099 0.120256
0.251743 0.615976 0.123217
0.287144 0.616922 0.125536
0.325139 0.617517 0.127306
0.365026 0.618112 0.128557
0.406622 0.619089 0.129671
0.449088 0.620279 0.131044
0.490684 0.62182 0.132891
0.529763 0.62417 0.13489
0.565454 0.627344 0.136645
0.600473 0.63035 0.138247
0.636606 0.632883 0.140261
0.672282 0.634913 0.142596
0.706172 0.63714 0.145312
0.737697 0.639887 0.148425
0.766659 0.643107 0.15201
0.793011 0.646784 0.156069
0.81709 0.651194 0.1608
0.838895 0.655634 0.165743
0.858671 0.660319 0.170993
0.877089 0.665263 0.176486
0.894392 0.670344 0.182177
0.910903 0.675837 0.188159
0.926436 0.681086 0.194095
0.941253 0.686336 0.200168
0.955474 0.691585 0.206195
0.0756237 0.617884 0.0975662
0.0928054 0.623529 0.102449
0.110933 0.628931 0.107286
0.130297 0.633997 0.111971
0.151202 0.638621 0.116442
0.174121 0.642832 0.120714
0.19942 0.646601 0.124758
0.227253 0.649409 0.128237
0.258839 0.65124 0.131151
0.294453 0.652079 0.13341
0.332433 0.652552 0.135119
0.372412 0.653315 0.136522
0.41326 0.654017 0.137453
0.455177 0.654917 0.138506
0.497261 0.656123 0.140017
0.537713 0.657923 0.141863
0.574655 0.660807 0.143694
0.609094 0.664103 0.145312
0.643427 0.666728 0.147036
0.677745 0.668849 0.149111
0.710979 0.670878 0.151659
0.742123 0.673289 0.15465
0.770886 0.676432 0.158221
0.796902 0.679896 0.162203
0.820447 0.68365 0.166583
0.841993 0.687739 0.171328
0.861524 0.692042 0.176349
0.879637 0.696559 0.181598
0.896819 0.701549 0.187198
0.912917 0.70634 0.192813
0.928176 0.711131 0.19855
0.942779 0.715953 0.204334
0.956741 0.720714 0.210071
0.0834669 0.652598 0.107179
0.100694 0.658305 0.112123
0.118914 0.663722 0.116976
0.138399 0.668772 0.12166
0.159731 0.673701 0.126345
0.182773 0.67776 0.130541
0.208103 0.681178 0.134386
0.236194 0.683864 0.137789
0.267735 0.685618 0.140642
0.303746 0.686336 0.142809
0.342 0.6869 0.144564
0.381353 0.68719 0.145663
0.421698 0.687709 0.146456
0.463096 0.688441 0.147265
0.505196 0.689357 0.148425
0.546548 0.690806 0.150057
0.584604 0.693156 0.151827
0.618799 0.696086 0.153323
0.651926 0.698863 0.154818
0.684947 0.701122 0.156634
0.717128 0.703166 0.158907
0.747829 0.70544 0.161761
0.776013 0.708095 0.165072
0.801495 0.711116 0.168765
0.824613 0.714504 0.172885
0.845777 0.718212 0.177386
0.865095 0.722118 0.182132
0.883024 0.726467 0.187259
0.899702 0.730709 0.192416
0.915465 0.735012 0.197818
0.930465 0.739361 0.203296
0.944823 0.74374 0.208804
0.958709 0.748272 0.21445
0.0931258 0.686763 0.118761
0.110399 0.69247 0.123796
0.128634 0.697841 0.128695
0.148501 0.70312 0.133639
0.169772 0.707576 0.138033
0.193027 0.711482 0.142107
0.218616 0.714717 0.1458
0.247074 0.717159 0.149035
0.279057 0.718685 0.151736
0.315267 0.719448 0.153918
0.35317 0.7196 0.155337
0.392279 0.719722 0.156268
0.432166 0.720043 0.156863
0.472969 0.720562 0.157443
0.515221 0.721431 0.158434
0.556603 0.722377 0.159625
0.595102 0.724025 0.161074
0.629541 0.726558 0.162371
0.66186 0.729274 0.163622
0.693782 0.73164 0.165194
0.725048 0.733806 0.167254
0.75462 0.735759 0.16965
0.78201 0.737942 0.172595
0.807004 0.740551 0.176043
0.829694 0.743557 0.179889
0.850553 0.747005 0.184192
0.869718 0.750607 0.188739
0.887083 0.754253 0.193408
0.90338 0.757961 0.198337
0.918853 0.761837 0.203464
0.933608 0.765759 0.208698
0.947875 0.769924 0.21413
0.961517 0.773877 0.219409
0.10454 0.72018 0.132235
0.122133 0.725978 0.137545
0.140429 0.731304 0.14255
0.160159 0.736126 0.147219
0.181628 0.740353 0.151522
0.205097 0.743999 0.155474
0.231006 0.746944 0.158984
0.260334 0.749279 0.162203
0.29276 0.750408 0.164599
0.328557 0.750713 0.166369
0.366232 0.750668 0.167575
0.405051 0.750591 0.168246
0.444526 0.750744 0.168612
0.485191 0.751278 0.169085
0.526574 0.751598 0.169497
0.567742 0.752132 0.17026
0.606378 0.753338 0.171344
0.640986 0.755413 0.172396
0.672831 0.757946 0.173419
0.703853 0.760327 0.174701
0.733837 0.762188 0.176272
0.762493 0.764004 0.178332
0.789059 0.765927 0.180911
0.813367 0.768124 0.183993
0.83566 0.77084 0.187625
0.856077 0.773816 0.191608
0.874784 0.776883 0.195819
0.89189 0.780133 0.20032
0.907866 0.783459 0.204974
0.922957 0.786847 0.209751
0.937606 0.790616 0.214893
0.951507 0.794171 0.219913
0.964965 0.797726 0.224964
0.11809 0.752682 0.147936
0.135515 0.75816 0.152987
0.153857 0.763226 0.157794
0.17348 0.767865 0.162402
0.195102 0.771862 0.166567
0.218784 0.775204 0.170291
0.24535 0.778027 0.173785
0.274891 0.779644 0.176425
0.307759 0.780331 0.178424
0.34345 0.780331 0.179843
0.380819 0.780072 0.180774
0.419272 0.779751 0.18114
0.458671 0.779889 0.181384
0.498405 0.779934 0.181323
0.539315 0.779965 0.181369
0.580011 0.780179 0.18172
0.618311 0.780941 0.182361
0.653178 0.782788 0.183261
0.684474 0.784909 0.183902
0.714443 0.786923 0.18471
0.743465 0.788617 0.185901
0.771176 0.790204 0.187594
0.796933 0.791959 0.189868
0.820676 0.794034 0.192752
0.842268 0.796216 0.195926
0.862089 0.798688 0.199557
0.880369 0.801358 0.20351
0.897246 0.804257 0.207752
0.912978 0.807309 0.212207
0.927886 0.810468 0.216815
0.94197 0.813565 0.221424
0.955612 0.816754 0.226154
0.968856 0.819944 0.230945
0.132708 0.783703 0.164813
0.150088 0.788891 0.16965
0.168505 0.793713 0.174273
0.188235 0.798093 0.178607
0.209842 0.802121 0.182757
0.233829 0.805203 0.186221
0.260517 0.80737 0.189105
0.290623 0.808454 0.191318
0.323842 0.808698 0.192905
0.359365 0.808362 0.193927
0.396796 0.807965 0.194614
0.434821 0.807416 0.19469
0.473243 0.80705 0.194354
0.512428 0.806821 0.193927
0.552895 0.806531 0.193561
0.593042 0.806439 0.193515
0.631159 0.80708 0.193957
0.665248 0.808209 0.194263
0.696056 0.809918 0.194553
0.725216 0.811673 0.194995
0.753475 0.813184 0.195834
0.780362 0.814588 0.197192
0.805417 0.81622 0.199252
0.828199 0.817868 0.201678
0.849134 0.81973 0.204623
0.868452 0.82182 0.207935
0.88632 0.82417 0.211582
0.902953 0.826795 0.215579
0.91841 0.829557 0.219806
0.932921 0.832258 0.224018
0.946761 0.835035 0.228367
0.960067 0.837812 0.232761
0.973022 0.840635 0.237324
0.147982 0.813504 0.182345
0.165255 0.818326 0.186892
0.183703 0.822797 0.191226
0.203754 0.826963 0.195392
0.225452 0.830472 0.199084
0.249165 0.833158 0.202213
0.276341 0.83473 0.204593
0.307042 0.835325 0.206332
0.340459 0.835187 0.207492
0.37615 0.83473 0.20827
0.412879 0.833906 0.208362
0.45037 0.833036 0.207965
0.488197 0.832364 0.207309
0.526818 0.831846 0.20647
0.566827 0.83122 0.205692
0.60676 0.831022 0.205493
0.643809 0.831144 0.205356
0.677409 0.831968 0.20531
0.707744 0.833295 0.205295
