src/luts/crop/3.cube
TITLE "Generated by Resolve"
LUT_3D_SIZE 9
0.0502174 0.0529183 0.0562905
0.11046 0.0536355 0.0559243
0.20148 0.0478981 0.0465858
0.329274 0.0346532 0.026215
0.460487 0.0221256 0.00672923
0.585107 0.0128939 0.00144961
0.685496 0.0129397 0
0.759487 0.0216526 0
0.817548 0.0380255 0.00842298
0.0565652 0.118502 0.0641184
0.122042 0.122774 0.0698405
0.21825 0.121538 0.0658579
0.355474 0.113741 0.0501411
0.498192 0.107225 0.0353399
0.632715 0.104723 0.0264439
0.739712 0.113069 0.0312352
0.818586 0.131548 0.0489662
0.882765 0.155901 0.07393
0.0555581 0.209171 0.0640116
0.126772 0.22092 0.0775311
0.229709 0.227893 0.085008
0.377096 0.22887 0.0823072
0.532418 0.230289 0.0770275
0.67454 0.234562 0.0741894
0.783902 0.248844 0.0838331
0.862623 0.271382 0.104707
0.924987 0.297749 0.129641
0.0500191 0.33228 0.0608377
0.125353 0.351827 0.0801862
0.234485 0.364508 0.095491
0.384115 0.371969 0.101793
0.544503 0.378622 0.106142
0.691203 0.38497 0.108003
0.801923 0.398322 0.11841
0.8804 0.420432 0.139574
0.943145 0.446769 0.165194
0.0584421 0.47512 0.0743877
0.13315 0.495918 0.0935531
0.239734 0.507637 0.107729
0.397345 0.511315 0.113924
0.548455 0.521614 0.121477
0.697719 0.530388 0.129824
0.811048 0.54667 0.145068
0.890059 0.569024 0.167651
0.952758 0.593713 0.193088
0.0756237 0.617884 0.0975662
0.151202 0.638621 0.116442
0.258839 0.65124 0.131151
0.41326 0.654017 0.137453
0.574655 0.660807 0.143694
0.710979 0.670878 0.151659
0.820447 0.68365 0.166583
0.896819 0.701549 0.187198
0.956741 0.720714 0.210071
0.11809 0.752682 0.147936
0.195102 0.771862 0.166567
0.307759 0.780331 0.178424
0.458671 0.779889 0.181384
0.618311 0.780941 0.182361
0.743465 0.788617 0.185901
0.842268 0.796216 0.195926
0.912978 0.807309 0.212207
0.968856 0.819944 0.230945
0.179263 0.86894 0.218204
0.257023 0.88217 0.231296
0.374136 0.882918 0.235904
0.518502 0.877592 0.232288
0.669169 0.874144 0.227726
0.783932 0.87715 0.226383
0.871015 0.881132 0.231876
0.934951 0.887343 0.243397
0.986496 0.89514 0.259037
0.236835 0.961913 0.283848
0.31809 0.967025 0.289006
0.437583 0.960281 0.285679
0.574716 0.951156 0.276326
0.716152 0.944381 0.267704
0.820584 0.944259 0.263508
0.897627 0.946319 0.266926
0.955825 0.95082 0.276814
1 0.956878 0.292256
0.0459144 0.0534218 0.116396
0.113649 0.052842 0.119463
0.204913 0.0476844 0.107347
0.325505 0.0370184 0.0882124
0.454719 0.0258488 0.0690318
0.580438 0.0171511 0.0526741
0.681529 0.0175784 0.0479896
0.755642 0.0278325 0.0562753
0.81416 0.0451057 0.0733806
0.052842 0.120912 0.129305
0.119081 0.125841 0.13402
0.218494 0.124468 0.130495
0.359762 0.116472 0.115526
0.506172 0.110185 0.101442
0.641489 0.108492 0.0931716
0.747463 0.118227 0.0996414
0.825193 0.137758 0.118807
0.888716 0.162631 0.144503
0.0496529 0.216129 0.128298
0.123461 0.228214 0.140963
0.232578 0.234379 0.150454
0.383642 0.234913 0.145922
0.542107 0.236591 0.139162
0.685557 0.241123 0.136217
0.794125 0.255589 0.147738
0.871824 0.278248 0.169696
0.933761 0.30396 0.194827
0.0472419 0.342077 0.124254
0.123033 0.361944 0.14342
0.233997 0.374746 0.160021
0.388876 0.380621 0.165957
0.55259 0.386481 0.169207
0.701106 0.392096 0.170428
0.810956 0.405524 0.182055
0.888945 0.427863 0.204379
0.951812 0.454093 0.230991
0.0552529 0.485328 0.136507
0.129122 0.505989 0.154589
0.235706 0.517403 0.16849
0.395438 0.520226 0.175494
0.552728 0.529595 0.182879
0.705318 0.538842 0.192172
0.818662 0.555108 0.208515
0.897673 0.577127 0.23212
0.96054 0.601282 0.2589
0.0719615 0.628107 0.160006
0.146593 0.64918 0.177996
0.253788 0.661677 0.191989
0.40882 0.663096 0.198505
0.575982 0.668299 0.204074
0.714611 0.678401 0.21239
0.82472 0.690608 0.227893
0.901045 0.70753 0.249149
0.961089 0.726238 0.273823
0.113832 0.762417 0.21149
0.189868 0.781628 0.229328
0.300542 0.789944 0.240421
0.451667 0.78764 0.242863
0.614252 0.787335 0.242329
0.743267 0.794141 0.245533
0.842969 0.801038 0.255528
0.913985 0.811337 0.272786
0.969833 0.82324 0.2934
0.172396 0.877516 0.284047
0.248219 0.890562 0.295628
0.363119 0.89073 0.298985
0.507042 0.883482 0.294636
0.660288 0.878767 0.288258
0.780224 0.880659 0.286458
0.86836 0.884138 0.292073
0.932921 0.889784 0.304677
0.984802 0.897032 0.322438
0.225513 0.968978 0.35314
0.303822 0.9738 0.356313
0.421576 0.966262 0.351797
0.558206 0.955123 0.341634
0.703471 0.947295 0.331167
0.813962 0.946349 0.326635
0.892302 0.948226 0.330449
0.951263 0.952407 0.34229
0.997604 0.958175 0.360296
0.0366217 0.0518654 0.20647
0.100694 0.0521248 0.212039
0.208194 0.0433051 0.206485
0.336461 0.0319829 0.179324
0.457908 0.0244755 0.158312
0.578164 0.0184176 0.142565
0.675822 0.0209964 0.138842
0.748837 0.0326696 0.147372
0.807691 0.0508888 0.164492
0.0433509 0.11989 0.220722
0.109728 0.125078 0.230365
0.223774 0.121614 0.23299
0.362905 0.116136 0.213169
0.500694 0.113893 0.200641
0.631968 0.114717 0.19382
0.736233 0.125887 0.200824
0.813443 0.14638 0.220279
0.876722 0.171649 0.246052
0.0459602 0.218326 0.232441
0.11696 0.232319 0.247044
0.226932 0.239597 0.254002
0.38175 0.238956 0.24889
0.544366 0.240375 0.243076
0.690257 0.245121 0.241749
0.797345 0.260075 0.254032
0.874449 0.282582 0.275898
0.936538 0.307927 0.301183
0.0359655 0.3523 0.228412
0.112184 0.372854 0.245716
0.22652 0.385138 0.259312
0.388907 0.387717 0.266697
0.555413 0.392172 0.266865
0.706111 0.397131 0.26685
0.815 0.410788 0.278676
0.892454 0.433051 0.301717
0.955489 0.459373 0.330282
0.0446937 0.495033 0.233982
0.118547 0.515496 0.250675
0.225986 0.526955 0.263172
0.38761 0.528649 0.272602
0.552697 0.536477 0.27895
0.708949 0.546304 0.288685
0.822843 0.562341 0.30544
0.901778 0.583566 0.3299
0.964691 0.607462 0.358968
0.0614939 0.637385 0.255299
0.135729 0.658854 0.272587
0.242313 0.670924 0.284993
0.397528 0.669902 0.291295
0.570428 0.67335 0.296101
0.713268 0.683909 0.305058
0.824674 0.695857 0.32137
0.901259 0.712337 0.344244
0.961105 0.730388 0.37055
0.101915 0.771893 0.309117
0.177234 0.790707 0.325063
0.286275 0.798474 0.33402
0.437095 0.793439 0.335317
0.600824 0.791348 0.333425
0.73785 0.797253 0.336278
0.838666 0.803876 0.346639
0.910109 0.813565 0.364981
0.96611 0.824933 0.387411
0.156497 0.886213 0.384543
0.23093 0.898619 0.393729
0.344152 0.897627 0.394324
0.487938 0.887465 0.388937
0.641108 0.88072 0.380682
0.771313 0.881437 0.378119
0.86038 0.885008 0.383032
0.925872 0.890349 0.39678
0.978332 0.897307 0.416175
0.205158 0.976547 0.456413
0.281682 0.980606 0.45655
0.397894 0.971664 0.449256
0.534813 0.957473 0.438529
0.679759 0.947738 0.426291
0.801938 0.945647 0.421225
0.881804 0.947951 0.424216
0.941863 0.95227 0.437034
0.991638 0.958038 0.45658
0.0212863 0.0477913 0.322393
0.0827802 0.0479896 0.32987
0.1832 0.0405127 0.32932
0.343175 0.0234531 0.312093
0.478874 0.0137026 0.282277
0.590616 0.012192 0.261357
0.685695 0.0169985 0.255589
0.758465 0.0301518 0.262791
0.817731 0.0493935 0.278553
0.0271153 0.114656 0.339757
0.0921645 0.119585 0.352117
0.19884 0.117876 0.358251
0.37586 0.107729 0.351812
0.522087 0.105333 0.32958
0.645579 0.111162 0.319692
0.747082 0.124483 0.325231
0.823774 0.146044 0.343145
0.887587 0.171664 0.36672
0.030808 0.214038 0.351431
0.0994736 0.227512 0.369162
0.208591 0.235126 0.382757
0.396323 0.233066 0.390738
0.551812 0.238041 0.378164
0.687678 0.247547 0.377188
0.790463 0.264088 0.388479
0.865492 0.287037 0.408301
0.926543 0.312825 0.431601
0.0319829 0.355215 0.372076
0.10515 0.377417 0.394812
0.213764 0.392096 0.410117
0.379843 0.393027 0.411688
0.549676 0.393057 0.40502
0.703777 0.398764 0.404379
0.813077 0.413489 0.416114
0.891051 0.435721 0.437263
0.955001 0.46215 0.463111
0.0269627 0.50663 0.381735
0.0983597 0.528069 0.399069
0.204456 0.540627 0.407843
0.37351 0.539635 0.410925
0.547173 0.542794 0.417838
0.707393 0.552483 0.424475
0.822705 0.567895 0.438987
0.901793 0.588556 0.461372
0.964767 0.611765 0.487404
0.0399176 0.649897 0.393835
0.113359 0.671366 0.410498
0.219867 0.682414 0.418692
0.378225 0.678004 0.420417
0.553323 0.678279 0.427344
0.705867 0.6878 0.435035
0.819989 0.699992 0.450156
0.897841 0.716793 0.47158
0.958679 0.734646 0.49546
0.0795453 0.7841 0.443381
0.153841 0.802457 0.458289
0.262272 0.808606 0.462608
0.414084 0.799435 0.459022
0.575555 0.792782 0.457771
0.726406 0.797269 0.45948
0.828779 0.80473 0.468147
0.901839 0.814557 0.485084
0.958999 0.825956 0.505745
0.132555 0.897658 0.515862
0.205219 0.909422 0.523003
0.317205 0.906249 0.517418
0.462013 0.891798 0.507866
0.612406 0.88014 0.499931
0.756619 0.87921 0.495995
0.847852 0.884199 0.499474
0.914931 0.889708 0.511589
0.968734 0.896712 0.529015
0.17969 0.98587 0.583749
0.253834 0.989136 0.581125
0.368826 0.978988 0.566857
0.506981 0.960616 0.552865
0.649042 0.946151 0.541176
0.783856 0.942443 0.534463
0.868193 0.946014 0.536355
0.92961 0.95108 0.547295
0.981659 0.957305 0.56524
0.00743114 0.0451972 0.436454
0.0670329 0.0453956 0.446021
0.160937 0.0385138 0.447257
0.320089 0.0207065 0.44033
0.484108 0.00704967 0.416663
0.617365 0.0053254 0.390631
0.712383 0.00996414 0.379812
0.782986 0.0222019 0.384024
0.84181 0.0432136 0.398154
0.0133974 0.111528 0.457557
0.0770886 0.116487 0.472358
0.178393 0.114641 0.479759
0.352453 0.104067 0.48333
0.534493 0.0979934 0.470253
0.676478 0.10071 0.454261
0.776822 0.116152 0.455009
0.851347 0.138888 0.469413
0.914397 0.165759 0.490455
0.0150759 0.209552 0.470329
0.0829175 0.222446 0.49131
0.18909 0.228672 0.506462
0.369223 0.226719 0.521401
0.572015 0.229404 0.522515
0.717845 0.237934 0.51339
0.816205 0.25687 0.519799
0.888029 0.280766 0.535561
0.947372 0.307881 0.55581
0.0243229 0.352285 0.496437
0.0948348 0.373236 0.520638
0.197711 0.385168 0.534615
0.35671 0.38468 0.539345
0.562066 0.386725 0.549844
0.70544 0.396796 0.544106
0.808988 0.414939 0.555032
0.884642 0.438697 0.574243
0.946883 0.46598 0.597528
0.0272984 0.509483 0.526787
0.0971084 0.531426 0.549065
0.199817 0.545693 0.563821
0.358297 0.549508 0.568322
0.53962 0.54847 0.568521
0.700725 0.55314 0.565667
0.816815 0.568338 0.577279
0.896803 0.589426 0.597055
0.960784 0.612741 0.619699
0.0288853 0.65919 0.546822
0.0998856 0.682139 0.56733
0.20174 0.695811 0.577768
0.355947 0.693462 0.570657
0.538354 0.68925 0.573007
0.698604 0.693217 0.577859
0.815 0.704738 0.588998
0.894621 0.721294 0.607309
0.956542 0.738491 0.627558
0.0630655 0.795514 0.593286
0.134844 0.814694 0.610132
0.238376 0.82237 0.613031
0.388586 0.811154 0.597055
0.556405 0.800809 0.59379
0.714794 0.799573 0.594247
0.818967 0.806699 0.599985
0.8934 0.816236 0.614145
0.951919 0.827771 0.631968
0.115114 0.907729 0.660349
0.184543 0.920378 0.668666
0.290486 0.918898 0.660044
0.434424 0.900938 0.63743
0.589578 0.885283 0.627985
0.736767 0.879698 0.622995
0.835523 0.883909 0.624643
0.903624 0.889464 0.634287
0.958892 0.89659 0.649714
0.16173 0.992584 0.722057
0.23154 0.9953 0.720607
0.340459 0.99057 0.702327
0.478416 0.968185 0.675731
0.624308 0.949706 0.663111
0.759945 0.942016 0.65568
0.855436 0.944411 0.656687
0.917281 0.950301 0.665888
0.970855 0.957 0.682094
0.00128176 0.0439765 0.542992
0.0546731 0.0448157 0.554574
0.144793 0.0390631 0.558099
0.292744 0.021561 0.554025
0.468666 0.00631724 0.542199
0.622141 0.00364691 0.519249
0.733669 0.00495918 0.507012
0.811429 0.0146181 0.509056
0.873045 0.0345312 0.521538
0.00492866 0.111345 0.5682
0.0673991 0.117189 0.584619
0.165927 0.116426 0.594079
0.327688 0.104799 0.598398
0.522957 0.0975509 0.598795
0.685985 0.0972 0.586282
0.800671 0.109361 0.585397
0.880415 0.131228 0.597498
0.945357 0.157946 0.615839
0.00758373 0.210742 0.58555
0.0755474 0.224399 0.608362
0.179919 0.230625 0.624598
0.346731 0.224857 0.635798
0.560815 0.227878 0.652186
0.731243 0.233127 0.646983
0.841917 0.248463 0.650141
0.917479 0.271702 0.662638
0.97792 0.299184 0.679362
0.0123445 0.351522 0.607553
0.0814832 0.371374 0.632425
0.181384 0.380056 0.646143
0.334539 0.374258 0.650614
0.541878 0.378958 0.674784
0.72636 0.387717 0.677852
0.836255 0.404776 0.683177
0.910887 0.430167 0.698619
0.970535 0.458961 0.71783
0.0281987 0.509178 0.649409
0.0977646 0.53077 0.673487
0.19884 0.543832 0.688975
0.347951 0.542947 0.688807
0.519677 0.542458 0.691539
0.708675 0.548806 0.702342
0.815473 0.566323 0.70988
0.891615 0.588983 0.72726
0.95349 0.612985 0.746639
0.0323033 0.661906 0.679942
0.103075 0.684855 0.703441
0.203723 0.698772 0.717937
0.352483 0.699962 0.719615
0.523491 0.700679 0.720668
0.691188 0.697932 0.719524
0.808377 0.705226 0.723659
0.88687 0.719844 0.736233
0.948577 0.736095 0.751263
0.0627909 0.799771 0.72784
0.13341 0.818921 0.747478
0.233677 0.827802 0.755199
0.375509 0.822812 0.746746
0.536858 0.814313 0.733257
0.699992 0.806851 0.731548
0.810849 0.809934 0.73312
0.886076 0.818448 0.742718
0.946105 0.829587 0.756146
0.112337 0.911131 0.788968
0.179995 0.923827 0.800183
0.281132 0.924681 0.797375
0.41619 0.912993 0.779553
0.568704 0.896712 0.757733
0.719707 0.88632 0.753201
0.827314 0.886015 0.751827
0.894911 0.891249 0.757809
0.951171 0.897795 0.768902
0.157412 0.994018 0.841276
0.224613 0.996628 0.843442
0.327932 0.996139 0.831922
0.457633 0.979873 0.807904
0.603204 0.959213 0.783123
0.743221 0.948104 0.778088
0.844907 0.94667 0.776425
0.909239 0.952239 0.782544
0.9635 0.958999 0.794736
0.000213626 0.0440223 0.627558
0.0466316 0.0455329 0.639277
0.134203 0.0410163 0.643885
0.274968 0.0250706 0.641779
0.450141 0.0084535 0.636973
0.614847 0.00378424 0.620935
0.737209 0.00376898 0.610468
0.822461 0.0126192 0.613764
0.888426 0.032929 0.626703
0.00358587 0.112688 0.653834
0.0626078 0.119448 0.669978
0.159701 0.120012 0.680369
0.314839 0.109606 0.686046
0.508934 0.101518 0.69279
0.68336 0.100984 0.687221
0.806622 0.11136 0.687358
0.891478 0.132219 0.699474
0.95903 0.158282 0.716655
0.00743114 0.214115 0.674403
0.0743877 0.228733 0.696742
0.178286 0.23595 0.712902
0.340139 0.230823 0.723949
0.548012 0.231067 0.742809
0.729839 0.237186 0.745495
0.848112 0.250294 0.749187
0.928008 0.272267 0.761379
0.991653 0.299153 0.776822
0.0102998 0.354665 0.696056
0.0791333 0.374563 0.720272
0.179614 0.383246 0.733837
0.328649 0.375296 0.736706
0.522454 0.375418 0.75671
0.724498 0.389822 0.775891
0.845273 0.404761 0.782437
0.925551 0.428641 0.796658
0.988449 0.456611 0.813474
0.0278782 0.510903 0.739116
0.0977798 0.53228 0.762341
0.19736 0.544182 0.775631
0.337133 0.537789 0.768719
0.504982 0.534966 0.773281
0.706584 0.548348 0.801419
0.831968 0.562722 0.809339
0.910033 0.584619 0.822812
0.969802 0.609155 0.838239
0.0391852 0.665125 0.777249
0.110231 0.687846 0.800534
0.211322 0.701213 0.815152
0.358175 0.70106 0.816815
0.524056 0.699962 0.817563
0.683803 0.698955 0.818158
0.808179 0.705348 0.824216
0.882185 0.720241 0.834653
0.942092 0.736385 0.847089
0.0692912 0.803159 0.824948
0.139742 0.821729 0.844404
0.239933 0.829938 0.853193
0.379889 0.825269 0.848692
0.53489 0.819547 0.843
0.689265 0.814801 0.837354
0.805798 0.812833 0.837751
0.882322 0.819471 0.843336
0.941848 0.828428 0.851347
0.116823 0.913161 0.879377
0.183963 0.925017 0.890974
0.284489 0.925856 0.890974
0.416495 0.915846 0.879377
0.561013 0.904555 0.865415
0.708339 0.894011 0.852461
0.819242 0.889662 0.852338
0.889525 0.893217 0.855055
0.946487 0.899031 0.861723
0.159854 0.994858 0.924727
0.226337 0.996857 0.928405
0.328359 0.996368 0.920516
0.454658 0.983368 0.903319
0.592447 0.967971 0.883543
0.73257 0.955077 0.870039
0.835279 0.951293 0.870665
0.905333 0.954818 0.874144
0.959915 0.961807 0.882307
0 0.0455024 0.687175
0.0432746 0.0477455 0.698131
0.12874 0.0442969 0.703502
0.26479 0.0300298 0.703014
0.436164 0.0132448 0.701885
0.606806 0.0061799 0.691951
0.735561 0.00572213 0.683818
0.8262 0.0158541 0.688548
0.895079 0.0375982 0.702586
0.00326543 0.115572 0.713573
0.0626383 0.12343 0.729259
0.15877 0.125338 0.740139
0.310216 0.116442 0.746929
0.500771 0.108843 0.756451
0.680842 0.108461 0.755932
0.808225 0.118532 0.758007
0.896361 0.138842 0.770718
0.965835 0.164294 0.788052
0.00955215 0.219226 0.736385
0.0778973 0.234882 0.757961
0.18146 0.242878 0.773724
0.340124 0.238743 0.78497
0.54139 0.238315 0.804273
0.727596 0.244862 0.811872
0.849638 0.257496 0.816983
0.932097 0.278721 0.829679
0.995605 0.305241 0.845716
0.0132906 0.360601 0.759106
0.0836194 0.380575 0.78175
0.184421 0.389136 0.794842
0.331807 0.381979 0.798276
0.516228 0.37969 0.814984
0.720974 0.395575 0.840589
0.847288 0.411551 0.850477
0.930648 0.434363 0.865049
0.993957 0.46128 0.881712
0.0322728 0.515694 0.801297
0.102632 0.537087 0.823392
0.202289 0.548379 0.835355
0.338918 0.540078 0.826841
0.502052 0.535622 0.830762
0.699519 0.550164 0.862303
0.834867 0.567666 0.877531
0.91754 0.587472 0.890806
0.980743 0.610162 0.905028
0.0482338 0.670344 0.843351
0.119646 0.692576 0.865782
0.221775 0.705287 0.879683
0.366644 0.703761 0.879728
0.524269 0.699596 0.875746
0.679576 0.698695 0.878126
0.814878 0.70724 0.893141
0.893187 0.719997 0.900969
0.950561 0.736034 0.910872
0.0788891 0.808042 0.890959
0.149279 0.825589 0.909728
0.251392 0.832639 0.918074
0.389746 0.827604 0.914244
0.541558 0.821088 0.909194
0.692226 0.817227 0.907073
0.804547 0.815961 0.906996
0.878843 0.821439 0.910979
0.938033 0.829633 0.916716
0.124529 0.916091 0.942061
0.192111 0.927108 0.953628
0.29337 0.927138 0.953933
0.423667 0.917098 0.943877
0.56495 0.906035 0.932647
0.705898 0.898756 0.924773
0.815549 0.893568 0.920577
0.887419 0.895323 0.92343
0.9458 0.900359 0.927794
0.165911 0.996155 0.983688
0.232746 0.997421 0.987366
0.33492 0.996155 0.980545
0.459388 0.984375 0.965759
0.593881 0.970642 0.950149
0.727733 0.960861 0.937835
0.831876 0.955749 0.935256
0.902495 0.957916 0.938766
0.959167 0.964828 0.945296
0 0.0479591 0.730114
0.0425116 0.0510109 0.740856
0.126101 0.0486 0.746807
0.258854 0.0359655 0.747829
0.426413 0.0201877 0.748898
0.599924 0.0110323 0.743053
0.733593 0.0103761 0.737316
0.828199 0.0237736 0.743236
0.899397 0.0454414 0.758007
0.00399786 0.119722 0.757321
0.0651865 0.128695 0.773449
0.160266 0.131533 0.784878
0.309209 0.1243 0.792874
0.496239 0.117754 0.80444
0.678843 0.11783 0.807523
0.809583 0.127962 0.811261
0.899611 0.147936 0.824781
0.970611 0.172778 0.842496
0.0141146 0.225666 0.782681
0.0834974 0.242267 0.804211
0.186633 0.250645 0.820081
0.342672 0.247608 0.831846
0.53785 0.247227 0.851362
0.725078 0.253834 0.862242
0.849699 0.266697 0.869108
0.934157 0.287724 0.882536
0.995499 0.313985 0.899077
0.0204623 0.367941 0.806775
0.0906691 0.38793 0.828977
0.191653 0.396216 0.841718
0.337331 0.389792 0.845716
0.515129 0.386969 0.86099
0.717754 0.403006 0.889479
0.847791 0.420356 0.902632
0.932982 0.442832 0.918135
0.997803 0.468757 0.935073
0.039765 0.522179 0.848646
0.110277 0.543435 0.87042
0.210712 0.553994 0.8813
0.345357 0.545144 0.872755
0.5037 0.539528 0.876081
0.694041 0.553582 0.907515
0.834989 0.574197 0.929259
0.920287 0.593576 0.943557
0.985687 0.61445 0.957412
0.0589456 0.676829 0.893477
0.130617 0.698451 0.915526
0.23505 0.709895 0.928191
0.376699 0.707332 0.926772
0.526238 0.700313 0.918944
0.678004 0.699763 0.923308
0.813703 0.710842 0.943832
0.89778 0.72314 0.953689
0.958892 0.737133 0.962417
0.0903334 0.813382 0.941375
0.161532 0.829862 0.959625
0.26537 0.835508 0.967025
0.401907 0.829969 0.963226
0.54995 0.822522 0.957702
0.695537 0.818387 0.954955
0.803586 0.818021 0.956085
0.884581 0.822553 0.962661
0.940154 0.831189 0.967605
0.134035 0.919539 0.990631
0.202655 0.929503 0.998383
0.305547 0.928435 0.997864
0.434394 0.918151 0.992294
0.573281 0.906905 0.982361
0.711025 0.90016 0.976867
0.81445 0.89691 0.974746
0.886656 0.897612 0.976791
0.944198 0.901976 0.979629
0.173983 0.997925 1
0.242634 0.998199 1
0.34548 0.996139 1
0.468025 0.984619 0.999985
0.600885 0.971481 0.997726
0.730312 0.963806 0.991974
0.829999 0.960021 0.987793
0.901183 0.961669 0.992477
0.959411 0.968032 0.998367
