src/luts/crop/3.cube
TITLE "Generated by Resolve"
LUT_3D_SIZE 5
0.0502174 0.0529183 0.0562905
0.20148 0.0478981 0.0465858
0.460487 0.0221256 0.00672923
0.685496 0.0129397 0
0.817548 0.0380255 0.00842298
0.0555581 0.209171 0.0640116
0.229709 0.227893 0.085008
0.532418 0.230289 0.0770275
0.783902 0.248844 0.0838331
0.924987 0.297749 0.129641
0.0584421 0.47512 0.0743877
0.239734 0.507637 0.107729
0.548455 0.521614 0.121477
0.811048 0.54667 0.145068
0.952758 0.593713 0.193088
0.11809 0.752682 0.147936
0.307759 0.780331 0.178424
0.618311 0.780941 0.182361
0.842268 0.796216 0.195926
0.968856 0.819944 0.230945
0.236835 0.961913 0.283848
0.437583 0.960281 0.285679
0.716152 0.944381 0.267704
0.897627 0.946319 0.266926
1 0.956878 0.292256
0.0366217 0.0518654 0.20647
0.208194 0.0433051 0.206485
0.457908 0.0244755 0.158312
0.675822 0.0209964 0.138842
0.807691 0.0508888 0.164492
0.0459602 0.218326 0.232441
0.226932 0.239597 0.254002
0.544366 0.240375 0.243076
0.797345 0.260075 0.254032
0.936538 0.307927 0.301183
0.0446937 0.495033 0.233982
0.225986 0.526955 0.263172
0.552697 0.536477 0.27895
0.822843 0.562341 0.30544
0.964691 0.607462 0.358968
0.101915 0.771893 0.309117
0.286275 0.798474 0.33402
0.600824 0.791348 0.333425
0.838666 0.803876 0.346639
0.96611 0.824933 0.387411
0.205158 0.976547 0.456413
0.397894 0.971664 0.449256
0.679759 0.947738 0.426291
0.881804 0.947951 0.424216
0.991638 0.958038 0.45658
0.00743114 0.0451972 0.436454
0.160937 0.0385138 0.447257
0.484108 0.00704967 0.416663
0.712383 0.00996414 0.379812
0.84181 0.0432136 0.398154
0.0150759 0.209552 0.470329
0.18909 0.228672 0.506462
0.572015 0.229404 0.522515
0.816205 0.25687 0.519799
0.947372 0.307881 0.55581
0.0272984 0.509483 0.526787
0.199817 0.545693 0.563821
0.53962 0.54847 0.568521
0.816815 0.568338 0.577279
0.960784 0.612741 0.619699
0.0630655 0.795514 0.593286
0.238376 0.82237 0.613031
0.556405 0.800809 0.59379
0.818967 0.806699 0.599985
0.951919 0.827771 0.631968
0.16173 0.992584 0.722057
0.340459 0.99057 0.702327
0.624308 0.949706 0.663111
0.855436 0.944411 0.656687
0.970855 0.957 0.682094
0.000213626 0.0440223 0.627558
0.134203 0.0410163 0.643885
0.450141 0.0084535 0.636973
0.737209 0.00376898 0.610468
0.888426 0.032929 0.626703
0.00743114 0.214115 0.674403
0.178286 0.23595 0.712902
0.548012 0.231067 0.742809
0.848112 0.250294 0.749187
0.991653 0.299153 0.776822
0.0278782 0.510903 0.739116
0.19736 0.544182 0.775631
0.504982 0.534966 0.773281
0.831968 0.562722 0.809339
0.969802 0.609155 0.838239
0.0692912 0.803159 0.824948
0.239933 0.829938 0.853193
0.53489 0.819547 0.843
0.805798 0.812833 0.837751
0.941848 0.828428 0.851347
0.159854 0.994858 0.924727
0.328359 0.996368 0.920516
0.592447 0.967971 0.883543
0.835279 0.951293 0.870665
0.959915 0.961807 0.882307
0 0.0479591 0.730114
0.126101 0.0486 0.746807
0.426413 0.0201877 0.748898
0.733593 0.0103761 0.737316
0.899397 0.0454414 0.758007
0.0141146 0.225666 0.782681
0.186633 0.250645 0.820081
0.53785 0.247227 0.851362
0.849699 0.266697 0.869108
0.995499 0.313985 0.899077
0.039765 0.522179 0.848646
0.210712 0.553994 0.8813
0.5037 0.539528 0.876081
0.834989 0.574197 0.929259
0.985687 0.61445 0.957412
0.0903334 0.813382 0.941375
0.26537 0.835508 0.967025
0.54995 0.822522 0.957702
0.803586 0.818021 0.956085
0.940154 0.831189 0.967605
0.173983 0.997925 1
0.34548 0.996139 1
0.600885 0.971481 0.997726
0.829999 0.960021 0.987793
0.959411 0.968032 0.998367
