src/luts/crop/4.cube
TITLE "Generated by Resolve"
LUT_3D_SIZE 5
0.032166 0.0591897 0.0767834
0.143389 0.0539559 0.0601053
0.376577 0.0122683 0.000274662
0.620356 0 0
0.759518 0.00108339 0
0.0286564 0.189502 0.0693675
0.183124 0.205951 0.0962081
0.459693 0.192493 0.0748455
0.758114 0.187304 0.0574044
0.921355 0.236851 0.096849
0.00914015 0.449668 0.0451514
0.162692 0.502739 0.0893873
0.545785 0.501213 0.128603
0.795819 0.530571 0.13164
0.945495 0.581277 0.177234
0.0479286 0.761624 0.104387
0.220859 0.807462 0.150515
0.621683 0.787717 0.160647
0.917449 0.788983 0.203494
0.966369 0.832334 0.210681
0.179614 0.994507 0.27422
0.38352 0.995529 0.286122
0.757183 0.954955 0.261585
0.994659 0.9411 0.285145
1 0.947707 0.316381
0 0.070985 0.164111
0.138888 0.0468452 0.216159
0.391211 0.00836194 0.122835
0.627909 0 0.046479
0.768658 0.00283818 0.0394598
0.0108949 0.198489 0.209232
0.157687 0.229221 0.245411
0.47274 0.215869 0.205982
0.765164 0.220691 0.169024
0.91873 0.273884 0.205875
0.00167849 0.47425 0.187213
0.14992 0.531868 0.242969
0.542672 0.533318 0.282658
0.817868 0.558297 0.294026
0.956817 0.606256 0.347875
0.035584 0.78294 0.257053
0.203357 0.832319 0.312886
0.575601 0.819104 0.318074
0.905058 0.81181 0.359457
0.965515 0.84802 0.382132
0.150088 0.996536 0.449256
0.342275 0.999939 0.468406
0.684352 0.980606 0.436805
0.968353 0.957305 0.452522
1 0.961379 0.493858
0 0.0845808 0.323461
0 0.0735332 0.396719
0.404562 6.10361e-05 0.419959
0.6804 0 0.316777
0.815244 0.000106813 0.296727
0 0.212299 0.348577
0.00714122 0.244739 0.410895
0.505913 0.195865 0.53547
0.810452 0.207065 0.482994
0.955901 0.265217 0.507652
0 0.49543 0.47248
0.109667 0.554635 0.540017
0.487633 0.576883 0.590387
0.824903 0.583856 0.568215
0.963165 0.633112 0.599023
0.00321965 0.810895 0.529458
0.150942 0.858274 0.588418
0.511574 0.850034 0.616602
0.864637 0.84097 0.638193
0.970382 0.86424 0.666026
0.0973373 0.998566 0.692119
0.272419 0.999969 0.708873
0.612482 0.99704 0.705043
0.917479 0.97705 0.700282
1 0.980636 0.735073
0 0.0998398 0.467491
0 0.0956588 0.540825
0.272755 0.00177005 0.670695
0.686366 0 0.605844
0.856703 0.000167849 0.592065
0 0.237781 0.488853
0 0.271153 0.566873
0.356405 0.211032 0.768399
0.836545 0.198367 0.769299
0.964385 0.248188 0.788479
0 0.504921 0.645914
0.0425574 0.562478 0.698848
0.332647 0.580941 0.712673
0.852216 0.571588 0.845319
0.979507 0.620996 0.860624
0.000946059 0.827649 0.765698
0.13666 0.874022 0.822751
0.474159 0.87335 0.854124
0.834211 0.869078 0.881193
0.977676 0.878264 0.880369
0.0819715 1 0.877821
0.245548 1 0.901778
0.564385 1 0.900267
0.873045 0.998032 0.916106
0.994278 0.999252 0.930816
0 0.111772 0.554711
0 0.111833 0.614572
0.14728 0.0256962 0.768399
0.669474 0 0.747723
0.862287 0.000701915 0.749752
0 0.258808 0.56733
0 0.295872 0.644892
0.273304 0.251011 0.848951
0.836774 0.219425 0.891829
0.964645 0.266911 0.914565
0 0.528832 0.714351
0.0158846 0.586633 0.759503
0.291615 0.598688 0.783291
0.841596 0.58439 0.959808
0.977844 0.629969 0.979797
0.00256352 0.840772 0.869978
0.148928 0.882429 0.920089
0.475334 0.879164 0.943358
0.782589 0.884565 0.95523
0.980896 0.879789 0.995789
0.0932784 1 0.927672
0.263386 1 0.944991
0.571908 1 0.969039
0.862638 1 0.996719
0.988388 1 1
