src/luts/crop/4.cube
TITLE "Generated by Resolve"
LUT_3D_SIZE 9
0.032166 0.0591897 0.0767834
0.0810407 0.0592966 0.077348
0.143389 0.0539559 0.0601053
0.249714 0.0344091 0.0245518
0.376577 0.0122683 0.000274662
0.508843 6.10361e-05 0
0.620356 0 0
0.704921 0 0
0.759518 0.00108339 0
0.034638 0.113985 0.0784924
0.0899672 0.118441 0.087129
0.158465 0.116197 0.0851301
0.278157 0.098085 0.0614481
0.423529 0.0763104 0.02916
0.569696 0.0584268 0.00337224
0.68954 0.0543221 0.00102235
0.776715 0.0664073 0.00163272
0.843732 0.0895705 0.0027924
0.0286564 0.189502 0.0693675
0.0848554 0.202747 0.083299
0.183124 0.205951 0.0962081
0.297536 0.204196 0.0906691
0.459693 0.192493 0.0748455
0.62623 0.182544 0.0586862
0.758114 0.187304 0.0574044
0.851621 0.207584 0.0728771
0.921355 0.236851 0.096849
0.0116732 0.301747 0.0474861
0.0702068 0.326894 0.0684367
0.16669 0.34461 0.0856336
0.34345 0.34464 0.108141
0.480125 0.354498 0.102968
0.648646 0.353582 0.101228
0.778622 0.361227 0.104158
0.86862 0.381872 0.119646
0.934874 0.410468 0.142641
0.00914015 0.449668 0.0451514
0.068101 0.481163 0.0701762
0.162692 0.502739 0.0893873
0.341817 0.502327 0.100191
0.545785 0.501213 0.128603
0.665217 0.517937 0.115984
0.795819 0.530571 0.13164
0.885145 0.553552 0.152407
0.945495 0.581277 0.177234
0.0153811 0.609705 0.0592508
0.0778363 0.639948 0.0838178
0.173175 0.660822 0.103105
0.344106 0.662501 0.110201
0.577798 0.652674 0.131106
0.754009 0.657282 0.158175
0.817472 0.686961 0.143908
0.901518 0.704601 0.166232
0.953658 0.725185 0.192065
0.0479286 0.761624 0.104387
0.117937 0.791058 0.132158
0.220859 0.807462 0.150515
0.393637 0.804257 0.15288
0.621683 0.787717 0.160647
0.804883 0.783215 0.185351
0.917449 0.788983 0.203494
0.94136 0.815961 0.19527
0.966369 0.832334 0.210681
0.112856 0.893812 0.187015
0.18735 0.915389 0.210895
0.299886 0.921172 0.220706
0.475273 0.908629 0.213184
0.690578 0.885893 0.211231
0.858518 0.875151 0.227558
0.964324 0.875959 0.244495
1 0.881224 0.256947
1 0.891371 0.272007
0.179614 0.994507 0.27422
0.258625 1 0.288746
0.38352 0.995529 0.286122
0.556359 0.977615 0.269169
0.757183 0.954955 0.261585
0.905074 0.942824 0.272374
0.994659 0.9411 0.285145
1 0.943191 0.300328
1 0.947707 0.316381
0.00593576 0.0645762 0.111315
0.0678111 0.0606241 0.135912
0.155138 0.0489509 0.122942
0.253819 0.0335851 0.0834974
0.376577 0.0130922 0.0397345
0.508598 0.000900282 0.0043183
0.622721 0 0
0.705638 0 0
0.766018 0.000823987 6.10361e-05
0.0265507 0.116518 0.131594
0.079469 0.124056 0.140978
0.162219 0.120943 0.140108
0.276509 0.107042 0.105943
0.419226 0.0888991 0.0602121
0.566293 0.0724651 0.0209964
0.687236 0.0695201 0.00643931
0.773266 0.0836194 0.0103609
0.840528 0.107881 0.024094
0.0203555 0.195895 0.123857
0.0792096 0.210864 0.141466
0.175341 0.21912 0.156558
0.306462 0.213336 0.151263
0.476341 0.200717 0.132021
0.644694 0.192035 0.113893
0.775006 0.198322 0.111116
0.865522 0.220157 0.126604
0.934142 0.249226 0.150469
0.00749218 0.311833 0.104433
0.0671397 0.339147 0.127825
0.162539 0.361288 0.150378
0.344945 0.360494 0.169284
0.492027 0.367285 0.166003
0.664256 0.365393 0.161273
0.794125 0.372442 0.163806
0.883391 0.393423 0.180362
0.9467 0.42208 0.204883
0.00549325 0.461875 0.102998
0.0647288 0.494514 0.128634
0.159014 0.518624 0.151583
0.331273 0.519966 0.161059
0.547539 0.515938 0.187823
0.676768 0.531167 0.179538
0.807721 0.544152 0.195178
0.89662 0.566781 0.216861
0.951247 0.59379 0.243534
0.0128939 0.621256 0.117113
0.07364 0.652552 0.14255
0.169482 0.676478 0.165621
0.333486 0.679316 0.173892
0.570596 0.667994 0.189181
0.755062 0.671489 0.21796
0.824552 0.698726 0.207416
0.909224 0.715038 0.231907
0.95668 0.73521 0.260548
0.0445563 0.772717 0.164996
0.114 0.802289 0.194034
0.216068 0.822049 0.216831
0.381949 0.819074 0.219944
0.606577 0.80238 0.221256
0.801236 0.794629 0.245319
0.91487 0.799893 0.264088
0.940291 0.825452 0.257969
0.965789 0.840192 0.27779
0.107607 0.9028 0.253178
0.179782 0.924132 0.277607
0.291203 0.933532 0.291905
0.457801 0.921569 0.284596
0.668345 0.898985 0.275227
0.849363 0.88452 0.289723
0.957061 0.884794 0.30721
1 0.889662 0.321477
1 0.899763 0.338628
0.16907 0.996811 0.346471
0.244602 1 0.360616
0.367819 0.99939 0.363226
0.531624 0.987091 0.346059
0.728939 0.966339 0.330114
0.891157 0.95137 0.338842
0.98616 0.949096 0.352316
1 0.949798 0.370398
1 0.953674 0.389456
0 0.070985 0.164111
0.0139773 0.0701305 0.192706
0.138888 0.0468452 0.216159
0.272999 0.0225986 0.176379
0.391211 0.00836194 0.122835
0.518166 0.000579843 0.0772869
0.627909 0 0.046479
0.708583 0 0.0352483
0.768658 0.00283818 0.0394598
0.000686656 0.122484 0.180179
0.030869 0.131716 0.194568
0.137926 0.121996 0.235233
0.295872 0.0990311 0.202014
0.428595 0.0868544 0.156802
0.570459 0.0748913 0.119203
0.689387 0.0747845 0.100771
0.776913 0.0897536 0.105684
0.844892 0.114763 0.126146
0.0108949 0.198489 0.209232
0.0672465 0.214893 0.229129
0.157687 0.229221 0.245411
0.311238 0.22269 0.239322
0.47274 0.215869 0.205982
0.638941 0.21149 0.177615
0.765164 0.220691 0.169024
0.848997 0.245747 0.175845
0.91873 0.273884 0.205875
0.00218204 0.32314 0.188556
0.055024 0.351492 0.215183
0.153368 0.375479 0.244465
0.33341 0.380255 0.266026
0.500587 0.380285 0.26421
0.678843 0.376028 0.253574
0.809903 0.382803 0.254963
0.898528 0.4038 0.27332
0.961364 0.432837 0.302113
0.00167849 0.47425 0.187213
0.0553445 0.506706 0.215702
0.14992 0.531868 0.242969
0.314687 0.540169 0.261387
0.542672 0.533318 0.282658
0.685588 0.545403 0.279927
0.817868 0.558297 0.294026
0.906538 0.57966 0.316884
0.956817 0.606256 0.347875
0.00706493 0.631708 0.202243
0.0641337 0.663371 0.230289
0.159182 0.688487 0.257298
0.317906 0.695872 0.273228
0.548028 0.685756 0.280507
0.747967 0.686946 0.311391
0.829374 0.710307 0.307912
0.914427 0.726162 0.335988
0.959243 0.745708 0.36759
0.035584 0.78294 0.257053
0.103746 0.811856 0.287587
0.203357 0.832319 0.312886
0.364843 0.833707 0.323049
0.575601 0.819104 0.318074
0.788449 0.806821 0.338476
0.905058 0.81181 0.359457
0.934569 0.835294 0.356924
0.965515 0.84802 0.382132
0.0947127 0.91104 0.35259
0.164279 0.931792 0.377691
0.272267 0.941527 0.393637
0.435065 0.934188 0.393378
0.629831 0.913832 0.377417
0.829328 0.895003 0.385412
0.941283 0.894575 0.403555
0.996002 0.900053 0.419287
0.99736 0.910552 0.437354
0.150088 0.996536 0.449256
0.222629 0.998566 0.463416
0.342275 0.999939 0.468406
0.503059 0.995743 0.459266
0.684352 0.980606 0.436805
0.865309 0.96112 0.438422
0.968353 0.957305 0.452522
1 0.957717 0.472908
1 0.961379 0.493858
0 0.0773327 0.241886
0 0.0776989 0.271595
0.0389715 0.0604562 0.315816
0.258473 0.0162661 0.318029
0.417014 0.000350958 0.264073
0.544152 0 0.20296
0.648295 0 0.165225
0.72726 0 0.15111
0.786801 0.00131228 0.154391
0 0.130678 0.249989
0 0.13817 0.275807
0.0436713 0.134356 0.320943
0.283711 0.0912642 0.354818
0.45951 0.0691386 0.306172
0.597299 0.0633555 0.255192
0.71136 0.0678569 0.232792
0.797147 0.0854047 0.237461
0.865232 0.111498 0.258137
0 0.202014 0.284337
0.00520333 0.220996 0.301228
0.0757153 0.238041 0.323949
0.297871 0.215625 0.398672
0.504173 0.20264 0.36199
0.655955 0.207187 0.327245
0.775998 0.220264 0.318502
0.860761 0.244755 0.33193
0.926299 0.274891 0.3552
0 0.327382 0.324666
0.0387579 0.357336 0.357015
0.133364 0.383322 0.389197
0.302388 0.397345 0.413169
0.500069 0.39202 0.405509
0.674678 0.390753 0.375784
0.801541 0.402289 0.365194
0.886076 0.425605 0.375525
0.954635 0.454109 0.407248
0 0.489204 0.322255
0.0324407 0.522423 0.353552
0.125002 0.547784 0.382025
0.293568 0.558145 0.409537
0.524651 0.555489 0.432319
0.690044 0.560357 0.431937
0.826978 0.571359 0.439673
0.917372 0.591501 0.459953
0.967468 0.616999 0.488167
0 0.645945 0.329534
0.0420996 0.677485 0.360708
0.136385 0.701488 0.390417
0.296391 0.709926 0.415259
0.509575 0.709987 0.430915
0.731792 0.705287 0.454444
0.831037 0.722667 0.457847
0.917342 0.738811 0.483406
0.962768 0.757702 0.511666
0.016556 0.795743 0.384817
0.0822766 0.823758 0.41767
0.179461 0.842741 0.445258
0.340017 0.84448 0.461677
0.535378 0.83621 0.465003
0.760433 0.820554 0.471839
0.88716 0.82446 0.494606
0.927428 0.844739 0.495201
0.967742 0.855634 0.521645
0.0719158 0.92224 0.47895
0.139086 0.942046 0.504707
0.242802 0.950027 0.521614
0.406149 0.942489 0.527276
0.587823 0.927703 0.520211
0.79147 0.907423 0.512627
0.917723 0.905272 0.531182
0.983627 0.91107 0.546395
0.99086 0.923278 0.559091
0.122805 0.996323 0.569314
0.192599 0.998169 0.583413
0.308125 0.998581 0.589944
0.471214 0.998398 0.588373
0.641459 0.992325 0.575326
0.822629 0.972107 0.561746
0.943252 0.966278 0.575433
0.998947 0.96701 0.595209
1 0.970581 0.614908
0 0.0845808 0.323461
0 0.085832 0.354391
0 0.0735332 0.396719
0.167468 0.0221561 0.455299
0.404562 6.10361e-05 0.419959
0.566857 0 0.363851
0.6804 0 0.316777
0.756619 0 0.296269
0.815244 0.000106813 0.296727
0 0.138598 0.330175
0 0.145617 0.360616
0 0.14374 0.40621
0.175494 0.101762 0.485588
0.452354 0.0632029 0.470619
0.627131 0.0457771 0.423865
0.745983 0.0522011 0.393088
0.82919 0.0728313 0.392157
0.896941 0.101091 0.409689
0 0.212299 0.348577
0 0.230533 0.373785
0.00714122 0.244739 0.410895
0.175296 0.230976 0.501747
0.505913 0.195865 0.53547
0.692439 0.190097 0.501045
0.810452 0.207065 0.482994
0.891737 0.233753 0.489586
0.955901 0.265217 0.507652
0 0.327764 0.421363
0.00360113 0.358053 0.452384
0.0719463 0.384878 0.476158
0.208774 0.403098 0.488884
0.505608 0.381415 0.578027
0.698863 0.37908 0.545953
0.817151 0.396353 0.533196
0.899718 0.422034 0.543008
0.961791 0.453727 0.564157
0 0.49543 0.47248
0.0200351 0.528649 0.507912
0.109667 0.554635 0.540017
0.269032 0.568856 0.56817
0.487633 0.576883 0.590387
0.690791 0.571313 0.577523
0.824903 0.583856 0.568215
0.9131 0.606256 0.580087
0.963165 0.633112 0.599023
0 0.659342 0.480842
0.0214694 0.692256 0.515236
0.112032 0.718318 0.545892
0.266575 0.729076 0.567514
0.488441 0.729488 0.592813
0.715267 0.725628 0.613413
0.832319 0.735866 0.61796
0.921309 0.750561 0.634867
0.96875 0.767941 0.656229
0.00321965 0.810895 0.529458
0.057435 0.839139 0.562707
0.150942 0.858274 0.588418
0.308339 0.858473 0.601541
0.511574 0.850034 0.616602
0.721279 0.84126 0.621378
0.864637 0.84097 0.638193
0.924727 0.853666 0.644694
0.970382 0.86424 0.666026
0.0476692 0.935286 0.614038
0.112078 0.955123 0.638529
0.210391 0.963424 0.65272
0.371969 0.953017 0.656092
0.559869 0.937499 0.660151
0.745174 0.924865 0.65539
0.894087 0.917281 0.66537
0.966155 0.922011 0.6795
0.979553 0.93489 0.686183
0.0973373 0.998566 0.692119
0.163195 0.999908 0.705196
0.272419 0.999969 0.708873
0.43592 0.998154 0.706004
0.612482 0.99704 0.705043
0.777325 0.986358 0.696361
0.917479 0.97705 0.700282
0.989075 0.977462 0.717723
1 0.980636 0.735073
0 0.0925154 0.401633
0 0.094728 0.434669
0 0.0854353 0.476371
0.0482185 0.045243 0.547829
0.354681 3.0518e-05 0.56025
0.557 0 0.516976
0.692439 0 0.476722
0.781155 0 0.4551
0.844968 0.000122072 0.453315
0 0.148089 0.410712
0 0.155657 0.444587
0 0.155795 0.49099
0.0652628 0.124346 0.571435
0.400885 0.0608225 0.61323
0.623652 0.0426947 0.582773
0.763699 0.0420996 0.559716
0.857099 0.0605325 0.557809
0.927275 0.0885328 0.572229
0 0.225605 0.42414
0 0.243946 0.455695
0 0.257588 0.498817
0.0878157 0.246616 0.582193
0.44184 0.193393 0.676066
0.694835 0.18674 0.662547
0.833707 0.195666 0.650492
0.922683 0.22031 0.654047
0.965896 0.250767 0.668132
0 0.338827 0.486809
0 0.369574 0.515679
0.00794995 0.395636 0.537423
0.125399 0.407263 0.565988
0.382742 0.387304 0.686229
0.709422 0.370199 0.708446
0.846815 0.380652 0.697063
0.931701 0.408133 0.700587
0.97583 0.441352 0.715267
0 0.496818 0.581552
0.00421149 0.529488 0.615763
0.0788128 0.554894 0.643656
0.220066 0.568368 0.656992
0.397498 0.580713 0.660121
0.702434 0.563882 0.741451
0.838956 0.575753 0.730678
0.922698 0.601053 0.7355
0.975326 0.628855 0.749142
0 0.665873 0.620829
0.0151522 0.699077 0.656214
0.104112 0.725277 0.688273
0.254887 0.737911 0.714229
0.463462 0.743069 0.738323
0.686183 0.745449 0.756405
0.832334 0.745007 0.751659
0.918166 0.758663 0.752575
0.970611 0.77554 0.763867
0.00187686 0.820478 0.666636
0.0463417 0.848585 0.699565
0.13698 0.868299 0.725963
0.286305 0.872557 0.741833
0.482017 0.866636 0.750881
0.698512 0.858747 0.768475
0.851133 0.856092 0.77911
0.92311 0.863279 0.783917
0.974701 0.872908 0.796185
0.0356451 0.943694 0.736812
0.0983444 0.963287 0.760449
0.192157 0.97258 0.775937
0.343771 0.966476 0.780621
0.52929 0.951019 0.779934
0.72401 0.938964 0.791791
0.870054 0.932723 0.793744
0.945922 0.936522 0.80264
0.97911 0.943587 0.810987
0.084947 0.999969 0.798993
0.148089 1 0.813321
0.250843 1 0.820035
0.40499 1 0.817304
0.582727 0.997909 0.811963
0.757824 0.996384 0.820783
0.887449 0.991379 0.819608
0.975265 0.988998 0.831708
0.999115 0.991226 0.845304
0 0.0998398 0.467491
0 0.102663 0.50016
0 0.0956588 0.540825
0 0.0635386 0.609461
0.272755 0.00177005 0.670695
0.534874 0 0.634546
0.686366 0 0.605844
0.785397 0 0.590829
0.856703 0.000167849 0.592065
0 0.156802 0.476967
0 0.164996 0.510826
0 0.166812 0.557
0.0114748 0.142184 0.633295
0.320867 0.0749218 0.718135
0.608789 0.0448768 0.697643
0.763363 0.0441444 0.685618
0.865385 0.0600137 0.687907
0.937057 0.0866865 0.702632
0 0.237781 0.488853
0 0.256764 0.522179
0 0.271153 0.566873
0.038941 0.263874 0.647883
0.356405 0.211032 0.768399
0.683116 0.189792 0.771145
0.836545 0.198367 0.769299
0.932479 0.219806 0.775921
0.964385 0.248188 0.788479
0 0.354147 0.538842
0 0.38529 0.568109
3.0518e-05 0.411078 0.593088
0.0777142 0.420111 0.630762
0.30396 0.400107 0.741497
0.687678 0.368383 0.811093
0.852171 0.380865 0.812482
0.946685 0.404547 0.819348
0.975616 0.436027 0.832288
0 0.504921 0.645914
0 0.537057 0.676387
0.0425574 0.562478 0.698848
0.167178 0.574746 0.700175
0.332647 0.580941 0.712673
0.642786 0.562966 0.836133
0.852216 0.571588 0.845319
0.94406 0.593149 0.850324
0.979507 0.620996 0.860624
0 0.669505 0.711315
0.0120394 0.702708 0.744884
0.0964218 0.728603 0.775189
0.244984 0.740429 0.797742
0.438331 0.745007 0.810651
0.627573 0.753765 0.814664
0.840024 0.742336 0.866545
0.924025 0.755398 0.866911
0.978515 0.772641 0.871443
0.000946059 0.827649 0.765698
0.0458991 0.855039 0.796719
0.13666 0.874022 0.822751
0.285191 0.877852 0.840589
0.474159 0.87335 0.854124
0.678447 0.8692 0.868421
0.834211 0.869078 0.881193
0.924086 0.870344 0.880003
0.977676 0.878264 0.880369
0.0343786 0.949569 0.825391
0.0963607 0.96817 0.847944
0.189654 0.977005 0.86453
0.337728 0.971725 0.872786
0.514794 0.960571 0.876799
0.70428 0.949935 0.881971
0.85214 0.945449 0.896742
0.940642 0.945846 0.902312
0.98172 0.950515 0.906218
0.0819715 1 0.877821
0.144335 1 0.892851
0.245548 1 0.901778
0.39498 1 0.902953
0.564385 1 0.900267
0.740658 0.99942 0.901839
0.873045 0.998032 0.916106
0.962509 0.997864 0.920439
0.994278 0.999252 0.930816
0 0.106233 0.514046
0 0.10959 0.545129
0 0.104234 0.584833
0 0.0769665 0.650187
0.199405 0.0115358 0.733257
0.503258 0 0.716777
0.678416 0 0.691768
0.783871 1.5259e-05 0.682399
0.860059 0.000366217 0.687388
0 0.164462 0.523033
0 0.17348 0.555962
0 0.176791 0.601434
0.002121 0.156329 0.675029
0.260395 0.0941329 0.776379
0.589364 0.0508278 0.773754
0.762051 0.0523232 0.766171
0.868681 0.0675975 0.771969
0.940963 0.0934462 0.787182
0 0.248554 0.534691
0 0.268376 0.567864
0 0.283757 0.61239
0.0168765 0.278798 0.692226
0.303609 0.231998 0.817456
0.666377 0.197421 0.841169
0.837415 0.20795 0.842161
0.935866 0.228122 0.850629
0.964034 0.255573 0.862974
0 0.368887 0.578515
0 0.400214 0.60708
0 0.42565 0.634134
0.0567483 0.434363 0.676555
0.269825 0.415183 0.781018
0.657282 0.375097 0.876814
0.852323 0.3897 0.882216
0.950698 0.41236 0.891859
0.975143 0.442435 0.904662
0 0.516396 0.68574
0 0.548119 0.71368
0.0229496 0.574075 0.733547
0.142351 0.586603 0.732631
0.303471 0.588342 0.75227
0.587488 0.572885 0.879591
0.850034 0.577066 0.912703
0.949722 0.597482 0.921569
0.978454 0.622965 0.932113
0 0.677516 0.765789
0.00854505 0.710307 0.797498
0.0928664 0.736095 0.82565
0.239063 0.74725 0.842832
0.413962 0.750942 0.842542
0.59263 0.757656 0.851469
0.823392 0.746059 0.934462
0.9346 0.754864 0.937392
0.978439 0.770855 0.943252
0.000122072 0.833417 0.827176
0.047837 0.859724 0.85655
0.14078 0.877546 0.88159
0.28957 0.88043 0.898405
0.473335 0.875288 0.909483
0.667048 0.873335 0.917647
0.802808 0.878798 0.926055
0.922744 0.871855 0.952773
0.980896 0.878264 0.953857
0.0379187 0.954879 0.885954
0.100282 0.972503 0.908095
0.194888 0.980255 0.924407
0.342428 0.974182 0.933455
0.51574 0.963211 0.938933
0.699123 0.954864 0.947753
0.841154 0.951782 0.95613
0.933623 0.953475 0.967453
0.984634 0.955291 0.968032
0.0850385 1 0.926314
0.148257 1 0.934066
0.250507 1 0.943908
0.397482 1 0.955749
0.562646 1 0.960876
0.732006 1 0.964187
0.865812 0.999756 0.971389
0.952941 0.999252 0.98323
0.989899 0.999939 0.988571
0 0.111772 0.554711
0 0.115846 0.575982
0 0.111833 0.614572
0 0.0880903 0.677531
0.14728 0.0256962 0.768399
0.472389 0 0.772778
0.669474 0 0.747723
0.782803 0.000106813 0.742824
0.862287 0.000701915 0.749752
0 0.171588 0.555032
0 0.181613 0.587549
0 0.186069 0.632303
0 0.168627 0.70428
0.221546 0.112154 0.811917
0.571694 0.0613718 0.827039
0.76144 0.0626383 0.819562
0.872053 0.0789197 0.828443
0.940917 0.104219 0.84445
0 0.258808 0.56733
0 0.279667 0.600381
0 0.295872 0.644892
0.0111391 0.292866 0.724102
0.273304 0.251011 0.848951
0.649943 0.209064 0.891066
0.836774 0.219425 0.891829
0.938079 0.239857 0.902083
0.964645 0.266911 0.914565
0 0.382956 0.608637
0 0.414313 0.637263
0 0.439536 0.665492
0.0478523 0.4477 0.709758
0.253712 0.430228 0.810452
0.629709 0.387488 0.921248
0.849256 0.399451 0.929061
0.952865 0.424186 0.941833
0.975372 0.453071 0.955077
0 0.528832 0.714351
0 0.560418 0.740932
0.0158846 0.586633 0.759503
0.132876 0.598978 0.758618
0.291615 0.598688 0.783291
0.555978 0.585092 0.906966
0.841596 0.58439 0.959808
0.951888 0.606516 0.970184
0.977844 0.629969 0.979797
0 0.687846 0.803128
0.00694286 0.72015 0.833722
0.09514 0.745144 0.860029
0.239002 0.755703 0.872541
0.400519 0.758434 0.864256
0.574273 0.763439 0.87953
0.793729 0.754803 0.973571
0.935668 0.759319 0.983932
0.977462 0.77377 0.989639
0.00256352 0.840772 0.869978
0.0536812 0.866117 0.898421
0.148928 0.882429 0.920089
0.2981 0.884367 0.935454
0.475334 0.879164 0.943358
0.654322 0.87953 0.942184
0.782589 0.884565 0.95523
0.917189 0.874128 0.994125
0.980896 0.879789 0.995789
0.0439155 0.959243 0.919493
0.10869 0.975402 0.930068
0.206668 0.981994 0.940734
0.35436 0.975418 0.953231
0.52401 0.964202 0.96614
0.700984 0.95642 0.978988
0.831174 0.956664 0.986145
0.914275 0.960464 0.995972
0.985229 0.957015 1
0.0932784 1 0.927672
0.15848 1 0.935134
0.263386 1 0.944991
0.409125 1 0.956649
0.571908 1 0.969039
0.736019 1 0.983154
0.862638 1 0.996719
0.951141 0.999863 0.999985
0.988388 1 1
