src/luts/crop/4.cube
TITLE "Generated by Resolve"
LUT_3D_SIZE 33
0.032166 0.0591897 0.0767834
0.0433967 0.0598154 0.0783093
0.0573281 0.0594949 0.0806744
0.0694438 0.0593271 0.0792859
0.0810407 0.0592966 0.077348
0.0936904 0.0588998 0.0744182
0.108141 0.0579385 0.0707408
0.124529 0.0563211 0.0660868
0.143389 0.0539559 0.0601053
0.165484 0.050721 0.0526436
0.190875 0.0461738 0.0440528
0.219333 0.0405737 0.0347753
0.249714 0.0344091 0.0245518
0.280903 0.0281529 0.0129091
0.313451 0.0215152 0.00537118
0.345174 0.0164797 0.0018616
0.376577 0.0122683 0.000274662
0.410086 0.00776684 0
0.443976 0.00383001 0
0.47718 0.00137331 0
0.508843 6.10361e-05 0
0.540078 0 0
0.568276 0 0
0.592432 0 0
0.620356 0 0
0.645533 0 0
0.667765 0 0
0.68716 0 0
0.704921 0 0
0.719417 0 0
0.733013 0 0
0.745876 0.000137331 0
0.759518 0.00108339 0
0.0338903 0.0714275 0.078584
0.0456092 0.0725261 0.0806897
0.0583963 0.0735943 0.0828565
0.0709544 0.0735332 0.0825818
0.0831006 0.0733196 0.080766
0.0961166 0.0728923 0.0781262
0.111406 0.0716869 0.0750134
0.129091 0.0698711 0.0712749
0.149065 0.0671855 0.0662089
0.172122 0.0634775 0.0599832
0.198734 0.0585641 0.0529641
0.227955 0.0529183 0.0442969
0.258289 0.0472419 0.0328832
0.289738 0.0416876 0.0201267
0.321981 0.0355688 0.0104067
0.353826 0.0300908 0.00375372
0.386221 0.0247044 0.000946059
0.419806 0.0189975 0
0.453605 0.0134432 0
0.487694 0.00790417 0
0.519631 0.00564584 0
0.550713 0.00462348 0
0.579568 0.00375372 0
0.606256 0.00341802 0
0.631693 0.0034638 0
0.657176 0.00335698 0
0.679347 0.0033875 0
0.699077 0.00378424 0
0.717342 0.00427253 0
0.733867 0.00527962 0
0.749111 0.00648508 0
0.763714 0.00810254 0
0.777768 0.010193 0
0.0339208 0.085008 0.0789197
0.0457313 0.0863203 0.0809491
0.0589609 0.0873121 0.0832227
0.0733806 0.0872206 0.0850385
0.0865339 0.0871901 0.0846418
0.0986648 0.0871138 0.0834974
0.114183 0.086244 0.0811322
0.132189 0.0843366 0.0782025
0.152941 0.0816205 0.0741283
0.176959 0.0778515 0.0691234
0.20444 0.0729381 0.0629587
0.234379 0.0674144 0.0545815
0.265766 0.0620432 0.0434577
0.29781 0.0564889 0.0311894
0.330617 0.0509041 0.0195315
0.36376 0.0453651 0.00935378
0.397955 0.0397803 0.0040589
0.432868 0.034287 0.00109865
0.468009 0.0289921 0
0.502297 0.0239567 0
0.535561 0.0196841 0
0.567239 0.0167391 0
0.596811 0.0145876 0
0.624689 0.0133974 0
0.650263 0.0129702 0
0.673884 0.0130922 0
0.695308 0.0140078 0
0.71516 0.0156405 0
0.73373 0.0176699 0
0.750942 0.0203708 0
0.766888 0.0240635 0
0.782025 0.0277867 0
0.796521 0.0319982 0
0.0343938 0.0990768 0.0786755
0.0464485 0.100572 0.0810254
0.0593881 0.101823 0.0835737
0.0738231 0.102083 0.0854047
0.0897383 0.1019 0.0870985
0.103212 0.102144 0.0873884
0.116793 0.101976 0.0858625
0.134752 0.100465 0.0836957
0.155962 0.0979171 0.0803998
0.180468 0.0943923 0.0758679
0.208728 0.0898756 0.0699931
0.239414 0.084596 0.0620584
0.271824 0.0790723 0.0523995
0.305776 0.0732128 0.0425574
0.340276 0.0674754 0.0327153
0.375357 0.061738 0.0240024
0.411658 0.0563668 0.0160678
0.447822 0.0511177 0.00854505
0.483528 0.0461585 0.00308232
0.518288 0.0416876 0.00047303
0.55198 0.0377661 0.000167849
0.58439 0.0344854 0.000198367
0.61474 0.0325017 0
0.642725 0.0313573 0
0.668803 0.0311284 0
0.692775 0.0316472 0
0.714702 0.0333562 0
0.735012 0.0361791 0
0.753964 0.0396887 0
0.771466 0.0435645 0
0.7879 0.0484321 0
0.803571 0.0537728 0
0.818601 0.0593576 0
0.034638 0.113985 0.0784924
0.0466468 0.115724 0.0809644
0.0596017 0.117342 0.0837415
0.0739757 0.11809 0.0853742
0.0899672 0.118441 0.087129
0.108324 0.117968 0.089662
0.122118 0.11841 0.0893416
0.137713 0.11812 0.0874647
0.158465 0.116197 0.0851301
0.183337 0.113191 0.0814374
0.211948 0.108919 0.076051
0.243961 0.103716 0.0692912
0.278157 0.098085 0.0614481
0.313787 0.092256 0.0536355
0.349844 0.0866255 0.0458686
0.386419 0.0814527 0.0381476
0.423529 0.0763104 0.02916
0.461234 0.071107 0.0204013
0.498146 0.066331 0.0121614
0.53431 0.0621347 0.00643931
0.569696 0.0584268 0.00337224
0.603418 0.055787 0.00178531
0.634302 0.0541848 0.00102235
0.662959 0.0537118 0.000991836
0.68954 0.0543221 0.00102235
0.714107 0.055848 0.00112917
0.737057 0.0584268 0.00134279
0.757519 0.0620584 0.00151064
0.776715 0.0664073 0.00163272
0.79469 0.0711986 0.00189212
0.811627 0.0766461 0.00209049
0.827985 0.082948 0.00233463
0.843732 0.0895705 0.0027924
0.0342107 0.130159 0.0775311
0.0463111 0.13225 0.0803235
0.0593271 0.13434 0.0833143
0.0734569 0.135607 0.0852827
0.0895857 0.13637 0.0869612
0.108751 0.136233 0.0892042
0.129152 0.135836 0.0922866
0.143511 0.136645 0.0911727
0.162112 0.136263 0.0890974
0.18645 0.133852 0.0863813
0.215213 0.130144 0.0819715
0.247852 0.125444 0.0760815
0.283284 0.120134 0.069398
0.320394 0.114809 0.0624857
0.357733 0.109575 0.0554971
0.395178 0.104646 0.0485847
0.434134 0.099794 0.0416724
0.473243 0.0949569 0.0340581
0.512306 0.0902113 0.0269169
0.550591 0.0862593 0.0200504
0.587121 0.0828107 0.0138399
0.621866 0.0803082 0.00915541
0.654124 0.0792248 0.00654612
0.683604 0.0794232 0.00633249
0.710887 0.0807202 0.00657664
0.736477 0.0832837 0.00720226
0.75967 0.0864271 0.00788891
0.780636 0.0907301 0.00906386
0.800259 0.0958114 0.0110781
0.818845 0.101457 0.013611
0.836332 0.107576 0.0154269
0.853162 0.114565 0.019028
0.869291 0.12166 0.023331
0.0332189 0.147982 0.0758831
0.0454261 0.150652 0.079057
0.0585336 0.153109 0.0822156
0.072694 0.154864 0.0845502
0.0885176 0.156298 0.0865949
0.10808 0.15668 0.0888075
0.130358 0.156558 0.0915389
0.153002 0.15639 0.09514
0.167712 0.157855 0.0925154
0.190249 0.156725 0.0906233
0.218921 0.15375 0.0875563
0.25185 0.149722 0.0827497
0.288106 0.145205 0.0770275
0.325887 0.140352 0.0708171
0.364431 0.135637 0.064622
0.403342 0.131212 0.0586404
0.443641 0.126833 0.0525826
0.484398 0.122499 0.0465248
0.525109 0.118547 0.0406958
0.564233 0.114946 0.0348058
0.602029 0.112016 0.0300755
0.637873 0.110124 0.0266117
0.671336 0.109361 0.0237888
0.7019 0.109941 0.0223239
0.730495 0.111864 0.0221714
0.756481 0.114687 0.0230564
0.780453 0.118456 0.0249485
0.802197 0.123156 0.027985
0.822339 0.128679 0.0321813
0.841733 0.135119 0.0373999
0.859739 0.141634 0.0426337
0.876631 0.148684 0.0481117
0.892882 0.156161 0.0541238
0.0314794 0.167727 0.0732891
0.0437171 0.170809 0.0767071
0.0570077 0.1738 0.0802014
0.0711986 0.176104 0.0829175
0.0871138 0.17821 0.0855421
0.106416 0.179553 0.0877852
0.129015 0.180072 0.0904555
0.155062 0.179675 0.0939803
0.179644 0.179751 0.0974746
0.195422 0.181857 0.09337
0.222965 0.17998 0.091783
0.256519 0.176959 0.0888991
0.292912 0.173159 0.0844434
0.331182 0.1691 0.0793164
0.370535 0.165103 0.074052
0.410574 0.161395 0.0689708
0.452445 0.157748 0.0637522
0.494881 0.154147 0.0584726
0.536416 0.150668 0.0532845
0.576623 0.147677 0.0485695
0.615198 0.145434 0.0447395
0.651682 0.144198 0.0420844
0.686275 0.144259 0.04065
0.717494 0.145571 0.0406653
0.746105 0.147829 0.0416114
0.772534 0.151034 0.0436103
0.796887 0.155138 0.0465705
0.819272 0.160113 0.0506294
0.839811 0.166476 0.055787
0.858869 0.172946 0.0611582
0.876921 0.179828 0.0669718
0.893935 0.187152 0.0728771
0.910079 0.194797 0.0791638
0.0286564 0.189502 0.0693675
0.04094 0.193179 0.0730907
0.0544289 0.19678 0.0769207
0.0687419 0.199802 0.0801404
0.0848554 0.202747 0.083299
0.103761 0.204944 0.0859846
0.126192 0.206241 0.0885786
0.15288 0.206516 0.0916609
0.183124 0.205951 0.0962081
0.209873 0.206638 0.099321
0.228733 0.20911 0.0945144
0.260777 0.20708 0.0930953
0.297536 0.204196 0.0906691
0.336278 0.201114 0.0870985
0.37615 0.198077 0.0831159
0.417166 0.195453 0.0792096
0.459693 0.192493 0.0748455
0.502983 0.189502 0.0703746
0.545815 0.186633 0.0660105
0.587015 0.184192 0.0619516
0.62623 0.182544 0.0586862
0.663539 0.182208 0.0566262
0.698009 0.182696 0.0555734
0.729458 0.184451 0.0558938
0.758114 0.187304 0.0574044
0.784527 0.191012 0.0598459
0.808789 0.19559 0.0632181
0.831342 0.201389 0.0677806
0.851621 0.207584 0.0728771
0.870573 0.214221 0.0784466
0.88835 0.221317 0.0842756
0.90518 0.228733 0.0903334
0.921355 0.236851 0.096849
0.024979 0.213672 0.0642405
0.0372015 0.21799 0.0682841
0.0507515 0.222263 0.0724498
0.0653391 0.226246 0.0762493
0.0815442 0.229786 0.0798505
0.100298 0.232807 0.0830549
0.122377 0.235142 0.0860456
0.148806 0.236469 0.0889601
0.180697 0.236576 0.0928817
0.215824 0.236072 0.0985122
0.244541 0.237385 0.100755
0.266987 0.23978 0.0958114
0.301915 0.238254 0.0946365
0.340871 0.236179 0.0930953
0.381628 0.234501 0.0909438
0.422873 0.23267 0.0882734
0.465675 0.230533 0.0850233
0.509346 0.228305 0.0814679
0.552529 0.226154 0.0778821
0.594629 0.224491 0.0746624
0.634577 0.223407 0.0720684
0.671946 0.223178 0.0703441
0.70663 0.224033 0.0696727
0.738369 0.226062 0.070161
0.76704 0.229267 0.07187
0.793515 0.233616 0.0745708
0.817563 0.23856 0.0780957
0.839536 0.244175 0.0823224
0.859632 0.250416 0.0872053
0.878187 0.25716 0.092546
0.895735 0.264225 0.0982071
0.912612 0.271992 0.104356
0.928344 0.279576 0.110338
0.0205997 0.240345 0.0583658
0.0328679 0.245701 0.0628977
0.0464485 0.250614 0.0673991
0.0612192 0.255161 0.0716259
0.0776379 0.259495 0.075761
0.0964065 0.263386 0.0795605
0.118227 0.266743 0.0830701
0.144289 0.26949 0.0863508
0.175998 0.270558 0.0897078
0.213611 0.270161 0.0946059
0.253666 0.269429 0.101045
0.283879 0.271641 0.102312
0.3093 0.274449 0.0974594
0.345892 0.274067 0.0967422
0.386145 0.273075 0.0962997
0.427817 0.27216 0.0952926
0.470939 0.270939 0.0934615
0.514809 0.269444 0.0909133
0.558267 0.268177 0.088365
0.600275 0.267063 0.085832
0.639979 0.266331 0.083711
0.677333 0.266438 0.082414
0.712047 0.267521 0.082063
0.743908 0.269657 0.0827039
0.772656 0.273259 0.0846571
0.798764 0.277455 0.0872969
0.822492 0.282353 0.0907149
0.84419 0.287922 0.0948348
0.864164 0.294041 0.0995346
0.882399 0.300664 0.104662
0.899809 0.308049 0.110369
0.916182 0.315251 0.116014
0.931777 0.322652 0.121828
0.0159762 0.269902 0.0525826
0.0283207 0.275761 0.0574655
0.0420081 0.281422 0.0623789
0.057023 0.286732 0.0670634
0.0736248 0.291829 0.0716869
0.0925154 0.296544 0.076051
0.114366 0.301106 0.0802472
0.139925 0.30457 0.0838788
0.170901 0.306767 0.0872206
0.208667 0.30724 0.0912184
0.252613 0.306294 0.0971237
0.296574 0.305867 0.104173
0.328206 0.309056 0.104921
0.354162 0.312703 0.0995804
0.390585 0.313283 0.0988785
0.432197 0.312947 0.0996567
0.475593 0.312444 0.0995346
0.520119 0.312108 0.098497
0.563409 0.311269 0.0968185
0.605142 0.310491 0.0950027
0.644572 0.31014 0.0935073
0.681514 0.310506 0.092607
0.715999 0.311925 0.0925917
0.747738 0.314305 0.0934768
0.775952 0.317556 0.0953231
0.801648 0.321599 0.0979629
0.825101 0.32639 0.101381
0.84654 0.331853 0.105425
0.866453 0.338125 0.110155
0.884642 0.344747 0.115282
0.901686 0.351705 0.120729
0.917967 0.358938 0.126421
0.933074 0.366415 0.132326
0.0116732 0.301747 0.0474861
0.0242008 0.308339 0.0528115
0.0380255 0.314717 0.0581369
0.0532692 0.320745 0.0632792
0.0702068 0.326894 0.0684367
0.0892805 0.332341 0.0733349
0.111025 0.337285 0.0779126
0.13637 0.341512 0.0820325
0.16669 0.34461 0.0856336
0.203647 0.346059 0.0891737
0.248615 0.345953 0.0940261
0.297993 0.344564 0.100908
0.34345 0.34464 0.108141
0.376074 0.347875 0.10869
0.399222 0.353368 0.101671
0.436347 0.354589 0.101366
0.480125 0.354498 0.102968
0.524315 0.354192 0.103487
0.567727 0.353887 0.103014
0.609415 0.353567 0.102068
0.648646 0.353582 0.101228
0.68542 0.354314 0.100908
0.719509 0.355871 0.101213
0.750668 0.358038 0.102205
0.778622 0.361227 0.104158
0.804074 0.365225 0.106966
0.827344 0.370001 0.110521
0.848829 0.375738 0.11487
0.86862 0.381872 0.119646
0.8869 0.388434 0.124895
0.904036 0.395529 0.130602
0.920409 0.402884 0.136507
0.934874 0.410468 0.142641
0.0083772 0.335851 0.0438544
0.0210422 0.34316 0.0496071
0.0350652 0.350149 0.0553597
0.0506142 0.357153 0.0610513
0.067689 0.363561 0.0664988
0.0869612 0.369543 0.0717937
0.108797 0.375036 0.0767681
0.133989 0.379782 0.0812543
0.163806 0.383444 0.0851301
0.200153 0.385946 0.0886702
0.244221 0.386099 0.0924392
0.295354 0.384619 0.0979934
0.347448 0.383291 0.105699
0.392691 0.384161 0.11284
0.426825 0.38732 0.113787
0.446769 0.394781 0.105104
0.484642 0.395941 0.104417
0.528145 0.39556 0.105943
0.571511 0.395361 0.10692
0.613199 0.395361 0.107103
0.652766 0.396078 0.107317
0.689235 0.396979 0.107561
0.722988 0.39852 0.108278
0.753918 0.400809 0.109636
0.781826 0.404059 0.111925
0.807355 0.408377 0.115175
0.830777 0.413581 0.119219
0.852155 0.419211 0.123751
0.871931 0.425376 0.128756
0.890364 0.432013 0.134218
0.907576 0.4392 0.140185
0.924086 0.446921 0.146532
0.937499 0.454749 0.152926
0.00679026 0.371893 0.0422675
0.0193637 0.379782 0.0484321
0.0337377 0.387778 0.0547799
0.0494545 0.394903 0.0606851
0.0666972 0.401724 0.0664988
0.0861372 0.408057 0.0720226
0.108034 0.41384 0.0772259
0.133303 0.419226 0.0821088
0.162799 0.423255 0.0861677
0.198062 0.425742 0.0894636
0.241093 0.426307 0.0925612
0.292195 0.424964 0.096788
0.347539 0.422858 0.103426
0.39968 0.422477 0.111589
0.443763 0.424002 0.118441
0.478462 0.426673 0.119493
0.496757 0.434256 0.109163
0.53312 0.435813 0.107271
0.575357 0.435721 0.108751
0.617426 0.436133 0.110445
0.656672 0.436805 0.111772
0.693233 0.438117 0.113024
0.727016 0.440085 0.114504
0.757977 0.442756 0.116426
0.786175 0.446479 0.119341
0.811872 0.45124 0.123125
0.835126 0.456458 0.127428
0.856504 0.462272 0.132311
0.87631 0.468605 0.137652
0.894804 0.47538 0.143343
0.912108 0.482795 0.149569
0.928557 0.490394 0.155962
0.940291 0.497978 0.162356
0.00769055 0.409903 0.0430152
0.019913 0.418357 0.049546
0.0338598 0.426368 0.0560311
0.0498207 0.43386 0.0621805
0.0671397 0.44094 0.0681315
0.0865644 0.44744 0.0737469
0.108568 0.453666 0.0791485
0.133608 0.458869 0.0839399
0.162722 0.462898 0.0879683
0.197299 0.465522 0.0911269
0.239216 0.46627 0.0937209
0.289326 0.465049 0.0967422
0.3458 0.462913 0.102007
0.40177 0.460899 0.109468
0.451133 0.460945 0.11722
0.49427 0.462654 0.123781
0.528634 0.465003 0.123644
0.545998 0.472923 0.112337
0.580774 0.47567 0.110124
0.621439 0.476143 0.112032
0.660929 0.477043 0.114672
0.697734 0.478798 0.117266
0.731716 0.481285 0.119844
0.763058 0.484916 0.122957
0.791318 0.488853 0.12636
0.81677 0.493599 0.130434
0.839933 0.499001 0.135058
0.861204 0.504921 0.140154
0.880888 0.511406 0.145708
0.899474 0.518502 0.15172
0.91664 0.525643 0.157916
0.932876 0.532906 0.164202
0.94313 0.540276 0.170535
0.00914015 0.449668 0.0451514
0.0208438 0.458167 0.0515755
0.0347448 0.466423 0.0581216
0.0507362 0.474037 0.064271
0.068101 0.481163 0.0701762
0.0874952 0.488106 0.0758679
0.109255 0.493904 0.0809949
0.133974 0.498878 0.0855726
0.162692 0.502739 0.0893873
0.196536 0.505211 0.0923171
0.237461 0.506172 0.0945144
0.286259 0.505028 0.0965896
0.341817 0.502327 0.100191
0.39971 0.499535 0.10634
0.45388 0.498283 0.11426
0.501045 0.499184 0.121798
0.545785 0.501213 0.128603
0.576028 0.505196 0.125765
0.593652 0.513527 0.115206
0.626642 0.516686 0.113283
0.665217 0.517937 0.115984
0.70219 0.519753 0.119646
0.736538 0.52285 0.123583
0.767559 0.526375 0.127504
0.795819 0.530571 0.13164
0.821332 0.535454 0.136187
0.844327 0.540917 0.141192
0.865476 0.546914 0.146578
0.885145 0.553552 0.152407
0.903349 0.560189 0.158343
0.920439 0.567163 0.164584
0.936522 0.574182 0.170871
0.945495 0.581277 0.177234
0.0105135 0.490364 0.047776
0.0220645 0.498924 0.0542
0.0360876 0.50721 0.0606546
0.0521553 0.514977 0.0667887
0.0695964 0.522194 0.0726482
0.0886854 0.528527 0.0779889
0.11017 0.534112 0.082887
0.134661 0.538781 0.0872053
0.162966 0.542351 0.0907607
0.196368 0.544793 0.0935073
0.236194 0.545556 0.0953689
0.283543 0.544472 0.0968185
0.338109 0.541955 0.0993515
0.396643 0.539071 0.104311
0.454383 0.537102 0.111757
0.507027 0.537255 0.120165
0.553643 0.538903 0.127581
0.598184 0.540719 0.134035
0.624765 0.545983 0.12961
0.639826 0.555184 0.118868
0.670558 0.559014 0.117449
0.707103 0.561318 0.121004
0.741146 0.563867 0.12546
0.772091 0.567285 0.130205
0.800244 0.571496 0.135164
0.825696 0.576349 0.140291
0.848737 0.582147 0.145861
0.869612 0.587961 0.151507
0.888914 0.594079 0.157412
0.906905 0.600458 0.1635
0.923842 0.607004 0.169726
0.939727 0.613687 0.176028
0.947433 0.620768 0.18265
0.0119173 0.530846 0.0507973
0.0234836 0.539239 0.057084
0.037705 0.547478 0.0634623
0.0537728 0.555154 0.0694896
0.071107 0.561913 0.0750439
0.0901503 0.568002 0.0802014
0.111421 0.573449 0.0849928
0.135943 0.578058 0.0892348
0.164508 0.582086 0.0930343
0.19765 0.584512 0.0958419
0.236988 0.585397 0.0977188
0.283497 0.584619 0.0989548
0.337057 0.582406 0.100771
0.39559 0.579782 0.104677
0.455131 0.577478 0.111162
0.511238 0.576303 0.119371
0.562203 0.576761 0.12755
0.607569 0.578653 0.13463
0.650935 0.580255 0.140566
0.675135 0.586557 0.13579
0.688136 0.596353 0.125734
0.71429 0.601465 0.123934
0.746075 0.604456 0.127123
0.776913 0.607553 0.132006
0.804944 0.611444 0.137331
0.830533 0.616373 0.143084
0.853056 0.621546 0.148882
0.873686 0.627024 0.154849
0.892729 0.632807 0.160983
0.91046 0.638819 0.167254
0.927169 0.644968 0.173556
0.942992 0.651484 0.180224
0.94931 0.657832 0.186648
0.0134585 0.570535 0.0543679
0.025452 0.579004 0.0606851
0.0398871 0.586877 0.0668803
0.0560311 0.594232 0.0728008
0.0735332 0.600961 0.0783703
0.0928054 0.60708 0.0835889
0.114397 0.612741 0.0885634
0.139132 0.617777 0.0931716
0.167742 0.621546 0.0969863
0.200961 0.624125 0.0999466
0.240208 0.625193 0.101915
0.28632 0.624628 0.103105
0.339147 0.622873 0.104463
0.396872 0.620325 0.107408
0.456641 0.617578 0.112688
0.515175 0.615534 0.120165
0.56994 0.614801 0.128511
0.618036 0.6159 0.136187
0.662226 0.618112 0.143069
0.703593 0.619562 0.148699
0.725109 0.625879 0.144167
0.735546 0.635996 0.134768
0.756115 0.642451 0.132174
0.782589 0.646601 0.134661
0.810178 0.650599 0.139681
0.835431 0.654627 0.145266
0.857679 0.659144 0.151202
0.878019 0.664134 0.157305
0.896819 0.669429 0.163546
0.914504 0.675334 0.170062
0.930953 0.681041 0.176577
0.94641 0.686763 0.183322
0.951446 0.692714 0.189639
0.0153811 0.609705 0.0592508
0.0284428 0.617792 0.0655528
0.043473 0.625696 0.0718853
0.059968 0.633158 0.0780652
0.0778363 0.639948 0.0838178
0.0975357 0.64625 0.0892805
0.119646 0.652155 0.0945296
0.144427 0.656992 0.0991684
0.173175 0.660822 0.103105
0.206607 0.663386 0.106111
0.245975 0.664454 0.108064
0.292302 0.664286 0.1093
0.344106 0.662501 0.110201
0.400748 0.659861 0.112261
0.460273 0.656947 0.116457
0.520073 0.654276 0.122972
0.577798 0.652674 0.131106
0.629389 0.652796 0.139223
0.673869 0.654414 0.146258
0.715557 0.656184 0.15285
0.754009 0.657282 0.158175
0.772564 0.66392 0.153887
0.780911 0.674296 0.14548
0.796338 0.681819 0.142351
0.817472 0.686961 0.143908
0.840681 0.691081 0.148257
0.862684 0.695109 0.153887
0.882765 0.699504 0.159854
0.901518 0.704601 0.166232
0.918791 0.709621 0.172641
0.934981 0.714702 0.179278
0.950301 0.719844 0.185977
0.953658 0.725185 0.192065
0.0193484 0.648096 0.0661479
0.0333104 0.656321 0.072694
0.0490425 0.664302 0.0793011
0.0660258 0.671901 0.0857862
0.0845655 0.679179 0.0920577
0.104692 0.685374 0.097673
0.127092 0.690944 0.102907
0.1523 0.695705 0.107607
0.181033 0.69955 0.111604
0.214847 0.702037 0.114565
0.254856 0.703212 0.116533
0.300832 0.702525 0.117357
0.35198 0.70071 0.117891
0.407691 0.69807 0.11931
0.466606 0.694987 0.122515
0.527001 0.691951 0.128069
0.586404 0.689479 0.135592
0.640269 0.688319 0.143603
0.686275 0.689128 0.15082
0.727489 0.690761 0.157427
0.766644 0.692271 0.163851
0.801114 0.693553 0.168612
0.816648 0.700511 0.16466
0.823362 0.710216 0.157443
0.834653 0.718105 0.154055
0.85069 0.724056 0.15465
0.868849 0.728847 0.158068
0.888182 0.733227 0.163485
0.906386 0.737392 0.169467
0.923369 0.741756 0.175799
0.939345 0.746227 0.182269
0.953384 0.750759 0.188724
0.955795 0.755871 0.194797
0.0261997 0.686397 0.0759747
0.0408789 0.694682 0.0827802
0.0570077 0.702647 0.0896315
0.0746624 0.710628 0.0966354
0.0934462 0.717494 0.102876
0.113985 0.723537 0.108553
0.136828 0.728939 0.113802
0.162524 0.733516 0.118441
0.19176 0.737148 0.122332
0.225788 0.739727 0.125368
0.266148 0.74023 0.126894
0.312184 0.739284 0.127459
0.362921 0.737301 0.127672
0.417792 0.734508 0.128496
0.476295 0.731472 0.131014
0.53637 0.72784 0.135454
0.59617 0.724437 0.142016
0.65153 0.722301 0.149599
0.699413 0.722072 0.156893
0.740505 0.723369 0.163394
0.778881 0.725032 0.169818
0.814389 0.72636 0.175784
0.843381 0.727886 0.179309
0.856748 0.734539 0.176089
0.863066 0.74342 0.170489
0.871351 0.751583 0.1673
0.882628 0.758282 0.167147
0.896147 0.763607 0.169497
0.912444 0.76762 0.174304
0.928466 0.771557 0.179934
0.943969 0.775479 0.185992
0.956497 0.77969 0.192264
0.957687 0.784161 0.198001
0.0357519 0.72433 0.0885939
0.0511788 0.732784 0.0959487
0.0675975 0.740703 0.103014
0.0853742 0.74818 0.109941
0.104601 0.75491 0.116335
0.125536 0.760708 0.122026
0.148836 0.765759 0.127184
0.175418 0.770275 0.131899
0.20528 0.773404 0.13547
0.23946 0.77528 0.138079
0.28014 0.775402 0.1393
0.326284 0.774105 0.139513
0.376761 0.771862 0.139361
0.431418 0.7691 0.139879
0.488579 0.765423 0.141421
0.548012 0.761303 0.144732
0.607828 0.757259 0.150378
0.663798 0.754314 0.157351
0.712978 0.753201 0.164523
0.754528 0.753948 0.170947
0.791455 0.755199 0.176852
0.826246 0.756481 0.182818
0.857557 0.757702 0.188083
0.881865 0.759747 0.19086
0.893812 0.766064 0.188586
0.899779 0.774197 0.184451
0.905318 0.781994 0.181476
0.912291 0.788876 0.18056
0.923247 0.794064 0.182589
0.935958 0.798352 0.186252
0.949218 0.802396 0.19144
0.959289 0.806043 0.197024
0.960037 0.809964 0.20267
0.0479286 0.761624 0.104387
0.063508 0.769665 0.111589
0.0802472 0.77731 0.118715
0.0982376 0.784619 0.125734
0.117937 0.791058 0.132158
0.139361 0.79649 0.137789
0.16347 0.801404 0.143053
0.190249 0.805005 0.147265
0.220859 0.807462 0.150515
0.256046 0.808652 0.152636
0.296834 0.808392 0.153567
0.342885 0.806653 0.153307
0.393637 0.804257 0.15288
0.447196 0.8009 0.152636
0.503594 0.796902 0.153506
0.562387 0.792309 0.156008
0.621683 0.787717 0.160647
0.678004 0.784329 0.167071
0.727321 0.782406 0.173754
0.768902 0.782315 0.179858
0.804883 0.783215 0.185351
0.838437 0.784283 0.19089
0.86978 0.785367 0.19649
0.897231 0.786557 0.201236
0.917449 0.788983 0.203494
0.927352 0.794736 0.20174
0.932494 0.801923 0.198779
0.936172 0.809308 0.196139
0.94136 0.815961 0.19527
0.950011 0.82121 0.196841
0.957732 0.825681 0.199817
0.965072 0.829099 0.204822
0.966369 0.832334 0.210681
0.0623636 0.797223 0.122805
0.0782788 0.804852 0.130037
0.0953231 0.812192 0.137133
0.113664 0.81915 0.144015
0.133684 0.825574 0.150591
0.155703 0.830655 0.156069
0.179965 0.834699 0.160739
0.207324 0.837674 0.164538
0.238697 0.839475 0.167254
0.274815 0.839918 0.168765
0.31664 0.839155 0.169268
0.362448 0.837034 0.168551
0.412421 0.833982 0.167407
0.465385 0.830228 0.166567
0.52105 0.825818 0.166812
0.579202 0.820813 0.168643
0.638193 0.815991 0.172717
0.693217 0.811872 0.178134
0.741878 0.809308 0.184146
0.783261 0.808591 0.189899
0.818769 0.809064 0.195041
0.851057 0.809857 0.200092
0.881636 0.810895 0.205524
0.90927 0.811643 0.210651
0.932647 0.812482 0.214755
0.949294 0.815137 0.216739
0.957321 0.8206 0.215366
0.961852 0.827207 0.213184
0.964752 0.83415 0.211139
0.968765 0.840284 0.210239
0.973236 0.844709 0.212497
0.976623 0.848173 0.216739
0.978271 0.850752 0.222812
0.0782788 0.83125 0.143053
0.0945449 0.838361 0.150149
0.111849 0.845197 0.157107
0.130709 0.85182 0.164034
0.151003 0.857603 0.170291
0.172992 0.862226 0.175525
0.197757 0.865568 0.179644
0.225757 0.867933 0.182849
0.258076 0.869032 0.184909
0.295628 0.868925 0.185901
0.337545 0.867323 0.185519
0.383291 0.864729 0.184283
0.432578 0.861326 0.18262
0.485054 0.857114 0.181201
0.539971 0.852262 0.180789
0.597986 0.847013 0.182239
0.655344 0.841627 0.185397
0.709209 0.83714 0.190082
0.756878 0.834165 0.195453
0.797543 0.832822 0.200626
0.832685 0.833005 0.205539
0.86389 0.833463 0.210132
0.892989 0.834043 0.215015
0.920058 0.834699 0.220081
0.944152 0.835233 0.22475
0.963851 0.836271 0.228321
0.976577 0.839124 0.230396
0.982574 0.844404 0.229175
