src/luts/crop/5.cube
TITLE "Generated by Resolve"
LUT_3D_SIZE 9
0.0412299 0.0723888 0.0899825
0.0973678 0.0725414 0.0909895
0.166201 0.0670329 0.0726329
0.290471 0.0461585 0.0298009
0.430274 0.0218814 0.000595102
0.546731 0.00662242 0
0.650202 0.00515755 0
0.722469 0.00700389 0
0.776715 0.0151675 0
0.0440833 0.133974 0.0924849
0.106966 0.13846 0.101701
0.182101 0.135927 0.0994736
0.321599 0.116487 0.0733196
0.475868 0.0965744 0.042359
0.601144 0.08365 0.0162966
0.711147 0.0844892 0.00827039
0.792294 0.10045 0.014786
0.854337 0.126513 0.0283818
0.0359197 0.216556 0.0809949
0.100542 0.229877 0.0963149
0.208408 0.232456 0.110216
0.340078 0.230884 0.103899
0.508049 0.221805 0.0902571
0.647028 0.216953 0.0805524
0.767636 0.225223 0.0835584
0.852598 0.247135 0.101335
0.91487 0.276478 0.126558
0.0165408 0.332555 0.0571908
0.0863508 0.355871 0.0813153
0.192126 0.371313 0.0993668
0.387106 0.37023 0.124132
0.525078 0.380377 0.11725
0.663859 0.381735 0.118502
0.781964 0.391135 0.124804
0.863935 0.41178 0.142763
0.924773 0.439399 0.167865
0.01738 0.479545 0.0599832
0.0877394 0.507164 0.0872358
0.189471 0.524636 0.105715
0.395514 0.519234 0.117922
0.586358 0.520653 0.143801
0.678798 0.537331 0.131502
0.797223 0.55021 0.14902
0.878279 0.572534 0.172122
0.937957 0.599039 0.199374
0.0294499 0.634348 0.079942
0.101366 0.659922 0.105623
0.203204 0.675807 0.123354
0.401419 0.671244 0.128588
0.62594 0.662333 0.153094
0.765087 0.666987 0.175128
0.817548 0.69575 0.161929
0.893263 0.712108 0.185351
0.949828 0.730739 0.213443
0.0689403 0.773831 0.13135
0.144411 0.798169 0.158404
0.254551 0.808881 0.173587
0.452628 0.799817 0.172641
0.667048 0.783322 0.184024
0.810697 0.781689 0.204654
0.911147 0.787213 0.221363
0.932219 0.811902 0.216098
0.962951 0.828504 0.230549
0.135821 0.891981 0.216999
0.214374 0.909041 0.238987
0.340078 0.909499 0.245075
0.532036 0.893141 0.23447
0.720088 0.872679 0.23534
0.858183 0.865049 0.24889
0.954101 0.865736 0.264546
0.997726 0.871061 0.27631
1 0.883558 0.2869
0.204318 0.981521 0.3066
0.289647 0.988632 0.318944
0.430716 0.978866 0.312581
0.606699 0.957549 0.293202
0.771298 0.935805 0.2878
0.899886 0.925902 0.296147
0.983291 0.924269 0.307179
1 0.925109 0.32224
1 0.9308 0.33901
0.0137789 0.0785687 0.127291
0.0821546 0.0742504 0.155398
0.179675 0.0612802 0.142351
0.296208 0.0445563 0.0986343
0.429831 0.0235904 0.0555581
0.544488 0.00801099 0.021088
0.648737 0.00660716 0.000900282
0.724163 0.00952163 0.00205997
0.77911 0.0180667 0.00683604
0.0352941 0.136645 0.151705
0.0950332 0.144625 0.161364
0.186328 0.140932 0.160449
0.319387 0.126345 0.123507
0.471244 0.109819 0.0830396
0.593896 0.099733 0.0492866
0.706081 0.101396 0.0386664
0.785183 0.119677 0.0428321
0.84683 0.146715 0.0632334
0.0264439 0.223575 0.142504
0.0937667 0.238651 0.161608
0.199023 0.246769 0.1776
0.349508 0.240604 0.171466
0.52314 0.230564 0.154391
0.663798 0.22678 0.142885
0.783841 0.235874 0.145312
0.866468 0.258625 0.163699
0.927779 0.287526 0.189334
0.0107271 0.342702 0.123033
0.0823835 0.3682 0.14876
0.186267 0.388403 0.172
0.388113 0.385916 0.192676
0.534844 0.392889 0.187198
0.677211 0.393393 0.185519
0.795666 0.40209 0.19089
0.877012 0.422797 0.209308
0.938064 0.450401 0.235554
0.0130312 0.490745 0.126406
0.0830549 0.519768 0.152972
0.184161 0.540215 0.175296
0.382528 0.536828 0.184527
0.584955 0.535576 0.2094
0.688304 0.549889 0.201724
0.807385 0.56318 0.218982
0.888106 0.585016 0.242405
0.947585 0.610895 0.271229
0.0246738 0.644663 0.145418
0.0958419 0.671336 0.171252
0.197711 0.690562 0.192874
0.385794 0.687633 0.198016
0.618509 0.676219 0.217121
0.763272 0.680461 0.240528
0.822675 0.7066 0.230976
0.899489 0.72163 0.256413
0.954757 0.739864 0.287053
0.0640116 0.783505 0.198123
0.138659 0.807965 0.225895
0.247105 0.822522 0.245884
0.435233 0.814282 0.244816
0.651118 0.796765 0.248707
0.804883 0.792416 0.26949
0.906447 0.797589 0.286625
0.929122 0.820966 0.283253
0.963272 0.83534 0.302632
0.12871 0.899825 0.287587
0.204852 0.916655 0.30956
0.328405 0.921172 0.320775
0.509789 0.905943 0.309834
0.697749 0.884825 0.302571
0.84773 0.873808 0.315007
0.945357 0.874144 0.331121
0.995758 0.87921 0.344106
0.999466 0.892195 0.354635
0.193011 0.987198 0.37435
0.274205 0.992966 0.385702
0.412482 0.988418 0.385809
0.579126 0.968551 0.367391
0.74403 0.946517 0.355383
0.885512 0.933654 0.363867
0.972519 0.931624 0.375677
1 0.932387 0.392416
1 0.93753 0.409857
0 0.0851453 0.183536
0.0232242 0.0840772 0.215549
0.16318 0.0587167 0.241779
0.318151 0.0323491 0.198291
0.446784 0.0158083 0.146273
0.557641 0.00579843 0.109575
0.658656 0.00587472 0.0864576
0.731609 0.00939956 0.0803082
0.785397 0.0191196 0.0877852
0.00169375 0.142519 0.202747
0.043534 0.1523 0.217151
0.160723 0.14168 0.261387
0.339605 0.118166 0.224918
0.478965 0.108537 0.182788
0.599023 0.101534 0.154376
0.708446 0.106432 0.142657
0.789105 0.125124 0.151919
0.851347 0.152575 0.173983
0.0157778 0.226307 0.235157
0.0810407 0.242954 0.25536
0.180316 0.257282 0.272435
0.352804 0.250843 0.263462
0.518486 0.245777 0.234195
0.65716 0.246036 0.212116
0.77406 0.257237 0.209201
0.852415 0.281529 0.221134
0.913298 0.310124 0.244678
0.00230411 0.354543 0.215457
0.0688792 0.38085 0.242756
0.175448 0.40267 0.272038
0.379095 0.404379 0.295232
0.541619 0.405219 0.28983
0.689738 0.403525 0.282841
0.809949 0.411704 0.286046
0.890791 0.43209 0.303746
0.951736 0.459709 0.329747
0.00477607 0.502907 0.217166
0.0717021 0.531456 0.245396
0.17348 0.553017 0.271778
0.361181 0.557641 0.289403
0.57847 0.552758 0.309773
0.695171 0.563363 0.306859
0.815885 0.576501 0.321355
0.896406 0.596841 0.34258
0.95433 0.62182 0.369604
0.0150607 0.654475 0.236667
0.0843366 0.681224 0.26363
0.185641 0.70135 0.288273
0.365042 0.703639 0.30164
0.597436 0.69221 0.311452
0.753643 0.695048 0.336583
0.826261 0.716915 0.333288
0.903349 0.73138 0.358679
0.956237 0.74876 0.386145
0.0532387 0.792523 0.291554
0.12665 0.816297 0.318715
0.232364 0.831571 0.340261
0.413474 0.827863 0.346883
0.619883 0.811902 0.342412
0.791089 0.803403 0.36202
0.895827 0.808255 0.380468
0.921386 0.830076 0.376471
0.963134 0.841093 0.397818
0.115648 0.906722 0.375738
0.189502 0.923033 0.396719
0.309392 0.928252 0.409796
0.484749 0.917098 0.40647
0.662593 0.897459 0.392432
0.829099 0.882521 0.402411
0.930053 0.882399 0.418814
0.984237 0.88777 0.431144
0.989746 0.901473 0.438148
0.175891 0.991699 0.457786
0.253483 0.995392 0.468956
0.388983 0.993667 0.472343
0.550683 0.97818 0.460121
0.705959 0.957549 0.441688
0.863401 0.94107 0.44683
0.955444 0.93846 0.459464
1 0.939498 0.476753
1 0.944167 0.494301
0 0.0900282 0.249271
4.57771e-05 0.0899825 0.281758
0.0765545 0.0691081 0.331518
0.31107 0.0253147 0.325368
0.473671 0.00375372 0.270863
0.583871 0.0030518 0.225559
0.679347 0.00334173 0.19765
0.75053 0.0059968 0.188937
0.803449 0.0132753 0.193942
0 0.149126 0.259022
0.000244144 0.157061 0.284199
0.0773632 0.152392 0.333974
0.338842 0.110353 0.359594
0.5075 0.0927291 0.309606
0.622492 0.0914778 0.273503
0.728649 0.100038 0.258305
0.807782 0.120897 0.265614
0.869642 0.149401 0.285435
0 0.227237 0.303456
0.0268711 0.246296 0.318685
0.111467 0.264485 0.336172
0.361852 0.242603 0.402457
0.540322 0.236866 0.362539
0.669596 0.242924 0.33933
0.780209 0.257786 0.333837
0.856764 0.282856 0.346303
0.914961 0.313024 0.367529
0.000900282 0.359167 0.336889
0.0561227 0.387015 0.366476
0.158709 0.410788 0.396658
0.353002 0.42153 0.424399
0.542397 0.415244 0.401785
0.690654 0.414252 0.382635
0.807187 0.426093 0.375738
0.884184 0.448524 0.384863
0.944381 0.476677 0.409476
0.000457771 0.51574 0.335042
0.0513008 0.544808 0.362142
0.151293 0.566384 0.387976
0.34255 0.573846 0.417609
0.568689 0.569268 0.437873
0.698451 0.575372 0.434134
0.822568 0.586892 0.442222
0.904341 0.606424 0.460151
0.960891 0.630625 0.485298
0.00410468 0.666377 0.345205
0.0650645 0.692668 0.372778
0.165316 0.711666 0.399115
0.346151 0.716579 0.422934
0.56318 0.712093 0.432685
0.739162 0.709819 0.454749
0.826947 0.726329 0.456046
0.905165 0.740932 0.478782
0.958785 0.758022 0.504158
0.0353399 0.802808 0.396857
0.107668 0.825788 0.425498
0.210834 0.839719 0.449058
0.390982 0.837629 0.463066
0.581308 0.826673 0.460655
0.768612 0.81387 0.47071
0.881041 0.8177 0.490196
0.914763 0.837156 0.488426
0.964477 0.84654 0.511986
0.0952621 0.915938 0.482521
0.166674 0.931517 0.504799
0.281804 0.934874 0.518517
0.458732 0.925628 0.522087
0.622553 0.909407 0.509255
0.798688 0.891814 0.506279
0.90988 0.890578 0.522622
0.967941 0.896101 0.534646
0.979385 0.910735 0.540124
0.148379 0.996948 0.575494
0.222766 0.998505 0.586847
0.354879 0.99527 0.58909
0.521309 0.986465 0.582406
0.664179 0.96849 0.562951
0.828122 0.94992 0.55201
0.933104 0.945785 0.56376
0.994415 0.947417 0.581018
1 0.952361 0.599817
0 0.0972305 0.326604
0 0.098085 0.361593
0.00225834 0.0835431 0.410239
0.252598 0.0234836 0.459373
0.471397 0.00259403 0.418326
0.608454 0.000442512 0.371481
0.708736 0.000411994 0.334615
0.77789 0.00198367 0.32018
0.830091 0.00648508 0.322728
0 0.157 0.334386
0 0.164462 0.367086
0.00616464 0.162066 0.417166
0.262592 0.111376 0.498451
0.512032 0.084123 0.470527
0.653468 0.0750134 0.431052
0.761334 0.0862593 0.40856
0.838514 0.10956 0.413275
0.90074 0.139681 0.434592
0 0.236164 0.361364
0 0.255482 0.385199
0.0296788 0.270802 0.42118
0.251591 0.251255 0.526879
0.556542 0.226352 0.538537
0.70605 0.226703 0.508949
0.812848 0.245716 0.495979
0.886717 0.272541 0.505867
0.944366 0.303624 0.527108
0 0.358282 0.436362
0.0184634 0.386618 0.468711
0.107225 0.411307 0.493584
0.264851 0.428244 0.507164
0.557015 0.407004 0.577829
0.703182 0.408347 0.547616
0.813275 0.425101 0.539315
0.88954 0.449638 0.55256
0.947967 0.479652 0.576959
0.000137331 0.52311 0.476951
0.0393988 0.552712 0.513573
0.135653 0.575463 0.545525
0.316793 0.586877 0.573526
0.540017 0.591531 0.596674
0.697627 0.588006 0.575036
0.821851 0.598749 0.571557
0.902876 0.619623 0.588571
0.958038 0.646052 0.607019
0 0.679286 0.488472
0.0439002 0.707485 0.523522
0.140032 0.728832 0.552483
0.317098 0.734386 0.571588
0.538521 0.734279 0.597543
0.723934 0.728878 0.609781
0.827482 0.738994 0.61442
0.908095 0.752987 0.634089
0.965591 0.769024 0.658244
0.0151522 0.817868 0.543587
0.0814679 0.841535 0.575952
0.18024 0.855879 0.598367
0.359182 0.850462 0.607904
0.556817 0.843565 0.621759
0.732006 0.833722 0.619379
0.857755 0.834318 0.633875
0.911589 0.846326 0.641886
0.96437 0.855802 0.665797
0.0684825 0.930236 0.632883
0.136263 0.946258 0.65507
0.244816 0.950103 0.665415
0.422751 0.935485 0.665171
0.594965 0.922713 0.667353
0.751476 0.910521 0.656687
0.885405 0.903471 0.664515
0.948699 0.908156 0.677089
0.973709 0.920455 0.684733
0.12137 0.999527 0.708156
0.191058 1 0.718334
0.316091 0.999985 0.719432
0.484886 0.994614 0.715496
0.635599 0.979965 0.714168
0.779477 0.967391 0.702678
0.906065 0.958236 0.704204
0.973617 0.959838 0.71989
0.999252 0.965911 0.735653
0 0.107561 0.416693
0 0.109392 0.452873
0 0.0985733 0.499641
0.123033 0.0462501 0.585138
0.438819 0.00209049 0.578973
0.604776 0 0.547982
0.72462 0 0.51809
0.805417 4.57771e-05 0.502541
0.863264 0.0027924 0.502831
0 0.168978 0.42475
0 0.176501 0.459297
0 0.176165 0.508659
0.135866 0.135576 0.604639
0.4795 0.0811322 0.627695
0.654643 0.0715038 0.607523
0.782559 0.0759136 0.592432
0.868955 0.0971237 0.594629
0.933959 0.127016 0.609125
0 0.252277 0.441276
0 0.27071 0.470329
0 0.284215 0.512078
0.148318 0.268467 0.609491
0.515587 0.222324 0.687861
0.711864 0.222431 0.678859
0.838331 0.233677 0.670344
0.9187 0.258976 0.674601
0.96762 0.289723 0.686702
0 0.368841 0.513771
1.5259e-05 0.39733 0.538689
0.0284886 0.420829 0.556085
0.176867 0.430793 0.586069
0.462287 0.405875 0.709697
0.718151 0.398169 0.716976
0.843717 0.40943 0.708217
0.921004 0.435935 0.712291
0.973922 0.467857 0.724743
0 0.524285 0.601968
0.0147555 0.553491 0.632639
0.106523 0.575586 0.657847
0.267445 0.586603 0.668849
0.449378 0.598306 0.679789
0.710048 0.580896 0.746792
0.833432 0.592187 0.737301
0.909468 0.616083 0.741894
0.965713 0.64239 0.753521
1.5259e-05 0.686717 0.640421
0.0364538 0.715023 0.672038
0.13164 0.7364 0.700267
0.302922 0.744717 0.724285
0.512032 0.748592 0.747021
0.694896 0.749691 0.760922
0.827436 0.749065 0.756054
0.905409 0.761379 0.75697
0.962005 0.776699 0.766613
0.00866712 0.827497 0.68426
0.070634 0.850843 0.712871
0.166308 0.865965 0.735241
0.33579 0.86566 0.748425
0.52871 0.859525 0.757183
0.706752 0.852613 0.772244
0.844404 0.850004 0.781292
0.909789 0.856352 0.785382
0.964569 0.864622 0.796078
0.0581216 0.937881 0.747845
0.124193 0.953628 0.768063
0.227604 0.958953 0.780575
0.395193 0.949371 0.783307
0.568185 0.935073 0.783139
0.72987 0.925246 0.793408
0.862013 0.919142 0.794568
0.929519 0.92253 0.801877
0.971328 0.928206 0.809491
0.110872 1 0.803723
0.177615 1 0.81532
0.29575 1 0.819852
0.456794 0.999741 0.815839
0.610697 0.989395 0.812192
0.760998 0.979202 0.820172
0.878126 0.973144 0.818158
0.956756 0.971786 0.828519
0.989456 0.978302 0.837125
0 0.115053 0.478065
0 0.117586 0.513161
0 0.109087 0.558068
0.043534 0.0664073 0.643381
0.384512 0.00315862 0.682887
0.590936 0 0.654261
0.720119 0 0.634531
0.809049 0 0.625559
0.873243 0.0034638 0.629267
0 0.177798 0.485222
0 0.185977 0.519951
0 0.187396 0.569024
0.0668498 0.155047 0.661402
0.424613 0.0888533 0.727993
0.645045 0.075288 0.711437
0.783139 0.0792401 0.705089
0.876478 0.0983597 0.710521
0.943038 0.12694 0.7252
0 0.264607 0.498741
0 0.283543 0.530571
0 0.297856 0.574304
0.100084 0.28571 0.667918
0.451331 0.232883 0.778485
0.702785 0.226276 0.776913
0.841062 0.236866 0.776944
0.927504 0.259327 0.783703
0.967498 0.288045 0.794934
0 0.38265 0.560082
0 0.411673 0.584863
0.00233463 0.434989 0.604822
0.132418 0.440177 0.643626
0.37908 0.417487 0.762997
0.700343 0.396887 0.809995
0.848875 0.409873 0.812284
0.93463 0.432868 0.81912
0.976898 0.46305 0.830564
0 0.531228 0.662425
0.00250248 0.560098 0.689784
0.0763714 0.582162 0.709529
0.218082 0.59089 0.706142
0.390265 0.598077 0.728649
0.658869 0.580728 0.833799
0.846082 0.588617 0.841047
0.928847 0.609171 0.84567
0.977996 0.63534 0.853651
0 0.690013 0.722499
0.0311894 0.718364 0.752682
0.126223 0.739376 0.779416
0.294926 0.746593 0.799496
0.487816 0.75111 0.811017
0.642588 0.758282 0.814404
0.833997 0.746944 0.860517
0.909911 0.758816 0.861006
0.96492 0.77438 0.86453
0.00735485 0.833768 0.772885
0.0711833 0.85655 0.800153
0.167025 0.870954 0.822507
0.335531 0.870481 0.83827
0.520317 0.866041 0.851194
0.687984 0.862165 0.862242
0.829084 0.861799 0.873777
0.910613 0.86273 0.872343
0.963851 0.869688 0.872526
0.0576486 0.943008 0.827253
0.123003 0.957855 0.846754
0.226322 0.962997 0.860685
0.389776 0.954879 0.867506
0.553948 0.944335 0.871015
0.711788 0.934874 0.87451
0.84538 0.930632 0.887816
0.9252 0.930632 0.892531
0.971527 0.934249 0.895506
0.108659 1 0.874128
0.174517 1 0.886503
0.291096 1 0.893263
0.447303 0.999985 0.893248
0.593866 0.997925 0.890837
0.74519 0.98732 0.892836
0.864439 0.982589 0.905425
0.944854 0.981628 0.908568
0.987778 0.986236 0.916289
0 0.121675 0.520943
0 0.124773 0.554421
0 0.118074 0.597955
0.0099794 0.0817884 0.679393
0.328817 0.00909438 0.749233
0.570306 6.10361e-05 0.724956
0.713603 0 0.710292
0.808011 0.00030518 0.705806
0.876631 0.00627146 0.712917
0 0.185672 0.52752
0 0.194736 0.561456
0 0.197696 0.60972
0.0312505 0.170443 0.698848
0.376349 0.104204 0.789227
0.631357 0.081651 0.779156
0.782696 0.0882277 0.777401
0.879866 0.106752 0.785336
0.947646 0.134478 0.800229
0 0.275593 0.540078
0 0.29543 0.572015
0 0.310445 0.616037
0.0771038 0.300801 0.707927
0.402655 0.25098 0.829984
0.688945 0.233722 0.839399
0.841611 0.246464 0.842329
0.930434 0.267613 0.850645
0.967163 0.295277 0.861936
0 0.396536 0.594675
0 0.425696 0.619455
0 0.448615 0.641428
0.114534 0.453056 0.685618
0.340932 0.431052 0.797101
0.674098 0.402487 0.86923
0.849134 0.418219 0.87538
0.938262 0.440116 0.88452
0.976394 0.46894 0.896239
0 0.541451 0.699672
1.5259e-05 0.570138 0.724636
0.059678 0.592584 0.741558
0.195834 0.600534 0.734462
0.362371 0.603983 0.763729
0.609445 0.589715 0.87425
0.844404 0.594049 0.902129
0.93434 0.61326 0.910048
0.978637 0.637095 0.918914
0 0.697047 0.77258
0.0298924 0.725017 0.800977
0.1252 0.745846 0.825589
0.291371 0.75227 0.839765
0.463813 0.756313 0.83856
0.611551 0.762158 0.848219
0.820279 0.750378 0.922179
0.919982 0.758251 0.924468
0.974823 0.772457 0.928557
0.00894179 0.838727 0.828183
0.0743725 0.860609 0.854017
0.173587 0.873823 0.875486
0.341344 0.872694 0.890288
0.518502 0.867826 0.900694
0.677409 0.866194 0.906783
0.800656 0.870741 0.915206
0.908995 0.864225 0.938445
0.964034 0.869856 0.938933
0.0619974 0.947601 0.881346
0.127626 0.961532 0.900359
0.233387 0.965606 0.914351
0.395102 0.957244 0.922011
0.553841 0.946792 0.92697
0.706432 0.939559 0.933944
0.835111 0.936309 0.940917
0.918898 0.937392 0.951339
0.972915 0.938689 0.950164
0.111833 1 0.924025
0.178408 1 0.934462
0.296284 1 0.942412
0.449424 1 0.945281
0.591577 0.999008 0.944625
0.736782 0.992706 0.947738
0.857786 0.986831 0.954787
0.936095 0.98732 0.966217
0.987518 0.98999 0.971847
0 0.127718 0.55053
0 0.131441 0.582605
0 0.126162 0.62472
0.0037995 0.0945449 0.702708
0.283055 0.0205386 0.789334
0.549233 0.000854505 0.773877
0.706447 6.10361e-05 0.759701
0.807218 0.00190738 0.758846
0.878904 0.00991836 0.76788
0 0.193118 0.557107
0 0.203189 0.590539
0 0.207324 0.63798
0.0141604 0.183658 0.724956
0.342107 0.120912 0.827817
0.618769 0.0921798 0.826932
0.783032 0.0996719 0.825742
0.882979 0.118486 0.835813
0.948074 0.145586 0.851148
0 0.286046 0.569863
0 0.30692 0.601694
0 0.32253 0.645823
0.0670176 0.314717 0.736843
0.371359 0.269291 0.86154
0.674723 0.244862 0.883787
0.840986 0.258122 0.886748
0.932113 0.279072 0.896422
0.967559 0.306172 0.907973
0 0.409934 0.621149
0 0.439124 0.646113
0 0.461601 0.669322
0.108751 0.4654 0.716182
0.323095 0.444663 0.821881
0.650446 0.41323 0.909163
0.846647 0.427512 0.917189
0.9402 0.451164 0.929091
0.976425 0.478813 0.941222
0 0.552697 0.726299
0 0.581384 0.750027
0.0540475 0.603983 0.765042
0.189197 0.61149 0.757748
0.350713 0.612909 0.790814
0.580636 0.601236 0.899184
0.837385 0.601251 0.944152
0.936416 0.621881 0.953292
0.977905 0.643763 0.962783
0 0.70602 0.806958
0.0326543 0.733639 0.83415
0.130983 0.753628 0.856672
0.293568 0.759548 0.865614
0.450217 0.762783 0.857359
0.595697 0.767575 0.873671
0.794751 0.758618 0.957488
0.921492 0.762448 0.967117
0.977478 0.774868 0.972564
0.0162051 0.845106 0.866621
0.081651 0.866056 0.891447
0.184756 0.877913 0.911543
0.351415 0.876097 0.923995
0.518929 0.871351 0.93019
0.666606 0.872007 0.928832
0.783154 0.876265 0.941329
0.904662 0.866285 0.97995
0.967651 0.871305 0.981384
0.0679332 0.951202 0.918761
0.135088 0.964126 0.932265
0.245319 0.966888 0.944183
0.40502 0.958007 0.955352
0.557671 0.947646 0.962692
0.706432 0.941253 0.968673
0.823362 0.941451 0.971328
0.899321 0.944045 0.982483
0.973144 0.940124 0.991287
0.120134 1 0.930892
0.189899 1 0.938323
0.310048 1 0.948837
0.459327 1 0.960494
0.597208 0.999313 0.971038
0.738384 0.994385 0.983536
0.852674 0.990433 0.992264
0.930037 0.990845 0.997589
0.987732 0.992432 1
