src/luts/crop/5.cube
TITLE "Generated by Resolve"
LUT_3D_SIZE 5
0.0412299 0.0723888 0.0899825
0.166201 0.0670329 0.0726329
0.430274 0.0218814 0.000595102
0.650202 0.00515755 0
0.776715 0.0151675 0
0.0359197 0.216556 0.0809949
0.208408 0.232456 0.110216
0.508049 0.221805 0.0902571
0.767636 0.225223 0.0835584
0.91487 0.276478 0.126558
0.01738 0.479545 0.0599832
0.189471 0.524636 0.105715
0.586358 0.520653 0.143801
0.797223 0.55021 0.14902
0.937957 0.599039 0.199374
0.0689403 0.773831 0.13135
0.254551 0.808881 0.173587
0.667048 0.783322 0.184024
0.911147 0.787213 0.221363
0.962951 0.828504 0.230549
0.204318 0.981521 0.3066
0.430716 0.978866 0.312581
0.771298 0.935805 0.2878
0.983291 0.924269 0.307179
1 0.9308 0.33901
0 0.0851453 0.183536
0.16318 0.0587167 0.241779
0.446784 0.0158083 0.146273
0.658656 0.00587472 0.0864576
0.785397 0.0191196 0.0877852
0.0157778 0.226307 0.235157
0.180316 0.257282 0.272435
0.518486 0.245777 0.234195
0.77406 0.257237 0.209201
0.913298 0.310124 0.244678
0.00477607 0.502907 0.217166
0.17348 0.553017 0.271778
0.57847 0.552758 0.309773
0.815885 0.576501 0.321355
0.95433 0.62182 0.369604
0.0532387 0.792523 0.291554
0.232364 0.831571 0.340261
0.619883 0.811902 0.342412
0.895827 0.808255 0.380468
0.963134 0.841093 0.397818
0.175891 0.991699 0.457786
0.388983 0.993667 0.472343
0.705959 0.957549 0.441688
0.955444 0.93846 0.459464
1 0.944167 0.494301
0 0.0972305 0.326604
0.00225834 0.0835431 0.410239
0.471397 0.00259403 0.418326
0.708736 0.000411994 0.334615
0.830091 0.00648508 0.322728
0 0.236164 0.361364
0.0296788 0.270802 0.42118
0.556542 0.226352 0.538537
0.812848 0.245716 0.495979
0.944366 0.303624 0.527108
0.000137331 0.52311 0.476951
0.135653 0.575463 0.545525
0.540017 0.591531 0.596674
0.821851 0.598749 0.571557
0.958038 0.646052 0.607019
0.0151522 0.817868 0.543587
0.18024 0.855879 0.598367
0.556817 0.843565 0.621759
0.857755 0.834318 0.633875
0.96437 0.855802 0.665797
0.12137 0.999527 0.708156
0.316091 0.999985 0.719432
0.635599 0.979965 0.714168
0.906065 0.958236 0.704204
0.999252 0.965911 0.735653
0 0.115053 0.478065
0 0.109087 0.558068
0.384512 0.00315862 0.682887
0.720119 0 0.634531
0.873243 0.0034638 0.629267
0 0.264607 0.498741
0 0.297856 0.574304
0.451331 0.232883 0.778485
0.841062 0.236866 0.776944
0.967498 0.288045 0.794934
0 0.531228 0.662425
0.0763714 0.582162 0.709529
0.390265 0.598077 0.728649
0.846082 0.588617 0.841047
0.977996 0.63534 0.853651
0.00735485 0.833768 0.772885
0.167025 0.870954 0.822507
0.520317 0.866041 0.851194
0.829084 0.861799 0.873777
0.963851 0.869688 0.872526
0.108659 1 0.874128
0.291096 1 0.893263
0.593866 0.997925 0.890837
0.864439 0.982589 0.905425
0.987778 0.986236 0.916289
0 0.127718 0.55053
0 0.126162 0.62472
0.283055 0.0205386 0.789334
0.706447 6.10361e-05 0.759701
0.878904 0.00991836 0.76788
0 0.286046 0.569863
0 0.32253 0.645823
0.371359 0.269291 0.86154
0.840986 0.258122 0.886748
0.967559 0.306172 0.907973
0 0.552697 0.726299
0.0540475 0.603983 0.765042
0.350713 0.612909 0.790814
0.837385 0.601251 0.944152
0.977905 0.643763 0.962783
0.0162051 0.845106 0.866621
0.184756 0.877913 0.911543
0.518929 0.871351 0.93019
0.783154 0.876265 0.941329
0.967651 0.871305 0.981384
0.120134 1 0.930892
0.310048 1 0.948837
0.597208 0.999313 0.971038
0.852674 0.990433 0.992264
0.987732 0.992432 1
