src/luts/crop/5.cube
TITLE "Generated by Resolve"
LUT_3D_SIZE 33
0.0412299 0.0723888 0.0899825
0.0543374 0.0730907 0.091722
0.0704204 0.0727703 0.0946517
0.0842908 0.0725261 0.0932021
0.0973678 0.0725414 0.0909895
0.111467 0.0722057 0.0878309
0.127474 0.0712291 0.0841993
0.145571 0.0695354 0.0793927
0.166201 0.0670329 0.0726329
0.191791 0.0631723 0.0649729
0.221973 0.0579995 0.0555886
0.255177 0.0523079 0.0432746
0.290471 0.0461585 0.0298009
0.328664 0.0387427 0.0205692
0.364401 0.0325933 0.0104372
0.397391 0.027451 0.00491341
0.430274 0.0218814 0.000595102
0.462425 0.0162509 0
0.491798 0.0114443 0
0.51928 0.00723278 0
0.546731 0.00662242 0
0.573083 0.00573739 0
0.600107 0.00515755 0
0.624979 0.00521859 0
0.650202 0.00515755 0
0.670298 0.00514229 0
0.689555 0.0055848 0
0.707057 0.00616464 0
0.722469 0.00700389 0
0.737285 0.00823987 0
0.751095 0.00968948 0
0.764263 0.0117494 0
0.776715 0.0151675 0
0.0435492 0.0862745 0.0923018
0.0571603 0.0875715 0.0946822
0.0716411 0.0887312 0.0971237
0.0858473 0.0886702 0.0968338
0.0991226 0.0885481 0.0950179
0.113848 0.0880598 0.0918898
0.130922 0.0866865 0.0888991
0.150561 0.0847181 0.0849928
0.172442 0.0818189 0.0791333
0.198856 0.0776074 0.0721904
0.229984 0.0722667 0.0637217
0.264149 0.0664683 0.0526741
0.300008 0.0604868 0.0399329
0.336934 0.0544747 0.0272984
0.372305 0.0488441 0.0148775
0.405722 0.0437934 0.0075227
0.43859 0.0387732 0.00227359
0.470695 0.0337072 6.10361e-05
0.501183 0.0289311 0
0.529625 0.0247501 0
0.55642 0.0216831 0
0.583322 0.0193332 0
0.610452 0.0176394 0
0.636301 0.0165713 0
0.66009 0.0163729 0
0.681422 0.0168917 0
0.700984 0.0180972 0
0.718914 0.0198215 0
0.735454 0.0219883 0
0.750698 0.0252079 0
0.765087 0.0288548 0
0.778714 0.0328374 0
0.791623 0.0374151 0
0.0435492 0.101717 0.0928359
0.0572213 0.10312 0.0950637
0.0721141 0.10428 0.0975052
0.0885176 0.104128 0.0994888
0.102983 0.104143 0.099321
0.116548 0.104067 0.0980392
0.133928 0.103029 0.0957809
0.153979 0.100893 0.0926986
0.176852 0.0978408 0.088426
0.204318 0.0934615 0.0829938
0.236118 0.0882277 0.0750134
0.270787 0.0826276 0.0640116
0.307668 0.0769513 0.051545
0.345006 0.0711376 0.0390173
0.381964 0.065507 0.0277256
0.416999 0.0603952 0.0182803
0.451148 0.0554818 0.00991836
0.483803 0.0508736 0.00392157
0.514427 0.0467689 0.00143435
0.542657 0.0431373 0.000839246
0.56968 0.0400397 0.000686656
0.596841 0.0376135 0.000213626
0.624201 0.0361181 0
0.650309 0.0357061 0
0.674174 0.0357671 0
0.696086 0.0366369 0
0.715908 0.038819 0
0.734249 0.0417334 0
0.751232 0.0452277 0
0.767071 0.0495003 0
0.781842 0.0544594 0
0.795865 0.059678 0
0.809339 0.0653239 0
0.0439155 0.117449 0.0927901
0.0579385 0.119005 0.0951095
0.072694 0.120348 0.0979171
0.0889906 0.120607 0.0997177
0.106676 0.120363 0.101778
0.121782 0.120577 0.102129
0.136736 0.120424 0.10042
0.156405 0.118746 0.098085
0.179522 0.115984 0.0944533
0.207309 0.111955 0.08925
0.240345 0.106966 0.0822614
0.2766 0.101305 0.0731975
0.314885 0.0953841 0.0630808
0.354299 0.0893111 0.0537575
0.393194 0.0835584 0.0453498
0.429328 0.078706 0.0360113
0.464622 0.0743114 0.0264439
0.497642 0.0700999 0.0172885
0.528222 0.0664073 0.0109407
0.556878 0.0632944 0.00674449
0.584894 0.0607004 0.00396735
0.613016 0.058732 0.00231937
0.641413 0.0580148 0.00122072
0.667567 0.0580606 0.00120546
0.691844 0.0590219 0.00135805
0.714061 0.0607156 0.00157168
0.734386 0.063508 0.00181582
0.75314 0.0674144 0.00216678
0.770657 0.0719463 0.00236515
0.786877 0.0767681 0.00273136
0.80209 0.0825055 0.0033875
0.816617 0.0886091 0.00396735
0.830533 0.0950027 0.00463874
0.0440833 0.133974 0.0924849
0.0581674 0.135775 0.0951705
0.0729076 0.137453 0.0979934
0.0892195 0.138201 0.0998093
0.106966 0.13846 0.101701
0.127352 0.137911 0.10454
0.142168 0.13846 0.104005
0.159533 0.138064 0.102129
0.182101 0.135927 0.0994736
0.210285 0.13257 0.0951095
0.2439 0.127886 0.0889448
0.281575 0.122377 0.0813764
0.321599 0.116487 0.0733196
0.362219 0.110689 0.0654002
0.401572 0.105455 0.0576333
0.439643 0.100969 0.0504616
0.475868 0.0965744 0.042359
0.510124 0.0924086 0.0345617
0.541817 0.0887922 0.0275425
0.571847 0.0858778 0.0216831
0.601144 0.08365 0.0162966
0.630579 0.0824445 0.0111391
0.659571 0.0820783 0.00822461
0.686351 0.0827955 0.00776684
0.711147 0.0844892 0.00827039
0.734081 0.087068 0.00920119
0.755398 0.0907301 0.0105898
0.774426 0.0952621 0.0123598
0.792294 0.10045 0.014786
0.808972 0.106081 0.0169375
0.824674 0.112291 0.019852
0.839796 0.119249 0.0242618
0.854337 0.126513 0.0283818
0.0435035 0.151843 0.09131
0.0576791 0.153979 0.0942092
0.0725719 0.156176 0.0974746
0.0885023 0.157488 0.0995804
0.106538 0.158129 0.101472
0.127764 0.157977 0.103822
0.150378 0.157443 0.10724
0.165499 0.158511 0.105638
0.186053 0.157916 0.103624
0.21355 0.155169 0.100465
0.247272 0.151064 0.0953536
0.285679 0.14609 0.0888533
0.32668 0.140688 0.0816663
0.368688 0.135546 0.0745556
0.409277 0.130816 0.0677501
0.447913 0.126574 0.0615091
0.485451 0.122484 0.0553597
0.521111 0.118639 0.0497749
0.554055 0.115297 0.0449073
0.585534 0.11281 0.0407111
0.6159 0.110918 0.0364691
0.646738 0.109773 0.0329595
0.677134 0.109819 0.0301976
0.704616 0.111223 0.0285801
0.730251 0.113466 0.0286107
0.754131 0.11696 0.0298772
0.775769 0.121019 0.0315404
0.7953 0.126055 0.0347906
0.813596 0.131762 0.0390631
0.830839 0.137972 0.0439307
0.847028 0.144701 0.049012
0.862486 0.152209 0.0552071
0.877226 0.159731 0.0616312
0.0420844 0.171374 0.0891737
0.0565042 0.17409 0.092546
0.0714733 0.176623 0.0959945
0.0874647 0.178454 0.098558
0.105257 0.179812 0.100755
0.126665 0.180255 0.103044
0.151522 0.17995 0.106126
0.176394 0.17969 0.109987
0.191592 0.181506 0.106691
0.217426 0.17995 0.104707
0.251026 0.176623 0.101167
0.289616 0.172412 0.0959182
0.331472 0.16788 0.0898604
0.374151 0.163272 0.0835584
0.415808 0.159121 0.0777447
0.455604 0.155367 0.072343
0.494285 0.151858 0.0671397
0.530694 0.148791 0.0624857
0.564401 0.146365 0.0585031
0.596185 0.144335 0.0548714
0.627848 0.142931 0.052079
0.659968 0.14229 0.0501564
0.691615 0.142611 0.0493935
0.720226 0.144213 0.0500954
0.746914 0.147097 0.0519875
0.771115 0.150698 0.0545357
0.793408 0.155138 0.0579538
0.813626 0.160449 0.0622721
0.832166 0.166506 0.0674601
0.849851 0.173465 0.0734875
0.866194 0.180453 0.079408
0.881407 0.187945 0.0855268
0.895933 0.195727 0.0920729
0.0396124 0.192966 0.085832
0.0541848 0.196063 0.0895247
0.0693675 0.1991 0.0933089
0.0855421 0.201541 0.0963607
0.103319 0.203601 0.0991226
0.124437 0.204974 0.101564
0.149569 0.205402 0.104448
0.178317 0.204776 0.108339
0.204929 0.204746 0.111971
0.222538 0.206989 0.107225
0.254841 0.204837 0.105348
0.294041 0.201724 0.10219
0.335943 0.198001 0.0975814
0.379004 0.194247 0.0924697
0.421378 0.190906 0.0877241
0.462135 0.187839 0.0831922
0.502129 0.185153 0.0789807
0.539528 0.182757 0.0751507
0.573632 0.180743 0.0717784
0.606149 0.179232 0.068925
0.638636 0.178454 0.066804
0.671321 0.178485 0.0654612
0.703426 0.179751 0.0653391
0.732174 0.182055 0.0664836
0.758511 0.185183 0.0686046
0.782788 0.189166 0.0716869
0.805158 0.193927 0.0756542
0.82565 0.199451 0.0805219
0.844312 0.206226 0.0863355
0.861524 0.213016 0.0922408
0.877729 0.220142 0.098497
0.893004 0.227619 0.104967
0.907378 0.235355 0.111757
0.0359197 0.216556 0.0809949
0.0507057 0.220218 0.0851301
0.0661631 0.223819 0.0892958
0.082536 0.226902 0.0928511
0.100542 0.229877 0.0963149
0.121294 0.232013 0.0991989
0.146136 0.233234 0.101991
0.175586 0.233295 0.105364
0.208408 0.232456 0.110216
0.23743 0.233249 0.113039
0.260533 0.235554 0.10808
0.297917 0.233555 0.106477
0.340078 0.230884 0.103899
0.383566 0.228214 0.10042
0.426337 0.225849 0.0969863
0.467811 0.223835 0.0936446
0.508049 0.221805 0.0902571
0.5458 0.219944 0.087129
0.580575 0.218418 0.0844739
0.613809 0.217334 0.0822003
0.647028 0.216953 0.0805524
0.680583 0.2177 0.0798505
0.71252 0.219135 0.0799115
0.74139 0.221698 0.0811933
0.767636 0.225223 0.0835584
0.79176 0.229511 0.0867781
0.813855 0.234577 0.0908064
0.834287 0.240742 0.0958724
0.852598 0.247135 0.101335
0.869612 0.253956 0.10724
0.885512 0.261067 0.113359
0.900542 0.268437 0.119722
0.91487 0.276478 0.126558
0.0311894 0.242298 0.0749371
0.0462348 0.246494 0.0795148
0.0620279 0.25069 0.0841535
0.0787366 0.254658 0.088365
0.0968338 0.258106 0.0922713
0.11751 0.261082 0.0958267
0.141924 0.263294 0.0990005
0.17113 0.264378 0.102174
0.205646 0.264164 0.106432
0.24445 0.26334 0.11249
0.274937 0.265385 0.113466
0.303273 0.267414 0.108812
0.343847 0.266026 0.10782
0.387686 0.264347 0.106432
0.43125 0.263294 0.104753
0.47274 0.261997 0.102556
0.513024 0.260594 0.100099
0.55079 0.259342 0.0977798
0.585534 0.258366 0.0957656
0.619135 0.257969 0.0942092
0.652918 0.25803 0.0930495
0.686473 0.258732 0.0925154
0.718441 0.260319 0.0928359
0.747509 0.262928 0.0942245
0.773602 0.266575 0.0966812
0.797787 0.27126 0.100114
0.819669 0.276417 0.104173
0.839597 0.282124 0.108843
0.857786 0.28838 0.114107
0.874525 0.295079 0.119844
0.890288 0.302052 0.125872
0.905379 0.309682 0.132403
0.919432 0.317128 0.138842
0.0258946 0.270115 0.0682841
0.0413825 0.275196 0.073518
0.0575265 0.279942 0.0786145
0.0744793 0.284367 0.08336
0.0928511 0.288518 0.087892
0.113573 0.292287 0.0920882
0.137713 0.29546 0.0958877
0.166537 0.297871 0.0994125
0.200961 0.298497 0.103075
0.242435 0.297581 0.108461
0.287098 0.296757 0.115434
0.317494 0.300313 0.114214
0.349264 0.302693 0.109895
0.391714 0.302281 0.109941
0.435203 0.30164 0.110079
0.476936 0.301167 0.109392
0.517433 0.300496 0.108019
0.555215 0.299809 0.106554
0.590005 0.299458 0.105287
0.623392 0.299382 0.104234
0.656947 0.299596 0.103395
0.690364 0.300481 0.103136
0.722118 0.302205 0.1037
0.751095 0.304814 0.10515
0.777157 0.308721 0.107836
0.800916 0.3131 0.111147
0.822522 0.31809 0.115145
0.842237 0.32369 0.119783
0.860334 0.329778 0.124956
0.876844 0.336294 0.130571
0.892576 0.343526 0.136751
0.907286 0.350561 0.142885
0.921279 0.357778 0.149172
0.0208286 0.300374 0.0621195
0.0367132 0.305821 0.0678264
0.0532387 0.311162 0.0735027
0.0704814 0.316258 0.0788281
0.089128 0.321065 0.0839551
0.110033 0.325551 0.088777
0.134173 0.329778 0.0932784
0.162356 0.332769 0.0970932
0.196048 0.334356 0.100633
0.237812 0.334096 0.104997
0.287419 0.332601 0.111818
0.33521 0.332647 0.119295
0.36556 0.337301 0.116548
0.397559 0.340414 0.112062
0.438773 0.340673 0.112703
0.480613 0.340627 0.113787
0.521279 0.34052 0.113771
0.559533 0.340703 0.113405
0.594049 0.340566 0.112764
0.627161 0.340627 0.1122
0.660517 0.34107 0.111849
0.693675 0.342092 0.111925
0.725185 0.34406 0.112779
0.753964 0.346868 0.114504
0.779599 0.350393 0.117082
0.802991 0.354604 0.120409
0.824323 0.359426 0.124407
0.843824 0.364843 0.12903
0.861906 0.371038 0.134325
0.878431 0.377508 0.140002
0.893843 0.384222 0.145968
0.908507 0.391226 0.152209
0.92253 0.398444 0.158633
0.0165408 0.332555 0.0571908
0.0329137 0.338552 0.0634623
0.0498207 0.344488 0.069688
0.0673381 0.350134 0.0755474
0.0863508 0.355871 0.0813153
0.107424 0.360922 0.086656
0.131395 0.365377 0.0914778
0.159213 0.368978 0.0957198
0.192126 0.371313 0.0993668
0.233082 0.371817 0.103075
0.284596 0.370748 0.108766
0.339315 0.369284 0.116808
0.387106 0.37023 0.124132
0.416068 0.375021 0.119982
0.444892 0.379416 0.114672
0.484215 0.380072 0.11574
0.525078 0.380377 0.11725
0.562982 0.380468 0.117937
0.597528 0.380682 0.118166
0.630594 0.381033 0.118273
0.663859 0.381735 0.118502
0.69691 0.383062 0.119112
0.728145 0.385107 0.120272
0.756466 0.387701 0.122118
0.781964 0.391135 0.124804
0.805188 0.395315 0.128313
0.826398 0.400122 0.132509
0.84596 0.405768 0.137423
0.863935 0.41178 0.142763
0.880522 0.418158 0.148547
0.895964 0.42501 0.154772
0.910658 0.43209 0.161227
0.924773 0.439399 0.167865
0.0135653 0.36672 0.0542763
0.0306096 0.373205 0.0611734
0.0478218 0.379629 0.0678569
0.0656901 0.386053 0.0743267
0.0847791 0.391959 0.080354
0.105959 0.397406 0.0860456
0.1299 0.402213 0.0911879
0.157443 0.406195 0.0956893
0.189715 0.409003 0.0994888
0.229999 0.410407 0.103014
0.280964 0.409308 0.107286
0.339025 0.407172 0.11429
0.393713 0.406531 0.122713
0.439399 0.40827 0.129107
0.464118 0.414054 0.12311
0.491051 0.418936 0.117906
0.528649 0.419471 0.11873
0.566323 0.419455 0.120455
0.600793 0.41973 0.121767
0.633875 0.420264 0.122744
0.667506 0.421561 0.123857
0.700343 0.423026 0.125032
0.731273 0.425025 0.126558
0.759411 0.427695 0.12871
0.784878 0.431159 0.131685
0.808179 0.435569 0.135576
0.829511 0.440772 0.1402
0.848936 0.446296 0.145296
0.866896 0.452293 0.150835
0.883604 0.458762 0.156847
0.899062 0.465705 0.163287
0.913848 0.473091 0.170108
0.928008 0.480613 0.177096
0.0132906 0.402564 0.0540169
0.0300908 0.40943 0.0613413
0.0476997 0.416693 0.0686198
0.0656443 0.423133 0.0752117
0.0847639 0.429252 0.0814679
0.105989 0.434928 0.0873426
0.129915 0.439963 0.092668
0.157412 0.444465 0.0974746
0.189151 0.447517 0.101305
0.228321 0.448829 0.104356
0.278431 0.447974 0.107607
0.337453 0.445548 0.113085
0.397024 0.443549 0.121218
0.448371 0.444419 0.129183
0.489616 0.446555 0.133867
0.509544 0.453117 0.126238
0.535164 0.457374 0.120836
0.569833 0.457923 0.121523
0.604227 0.458 0.123705
0.637598 0.458854 0.125811
0.671 0.459968 0.127733
0.703883 0.461677 0.129732
0.734829 0.464057 0.132036
0.762997 0.467063 0.134752
0.788724 0.470924 0.138308
0.812131 0.475731 0.142672
0.83328 0.480873 0.147524
0.852689 0.486564 0.152895
0.870649 0.492699 0.158694
0.887327 0.499229 0.164904
0.902861 0.50634 0.171649
0.917556 0.513664 0.178637
0.931548 0.520958 0.185611
0.0151827 0.440208 0.0565347
0.0313726 0.447547 0.0640574
0.0489357 0.454719 0.0712902
0.0669871 0.461372 0.0779583
0.0860609 0.467658 0.0842603
0.107179 0.473396 0.0901198
0.13106 0.478676 0.095491
0.158129 0.482902 0.100053
0.189273 0.485847 0.1037
0.227695 0.487175 0.106432
0.276738 0.486381 0.108812
0.335332 0.483803 0.112779
0.397879 0.48127 0.11989
0.454429 0.480262 0.128252
0.500053 0.481682 0.135134
0.538399 0.483482 0.138964
0.553628 0.490929 0.129274
0.576623 0.495186 0.123796
0.608026 0.496483 0.124605
0.641215 0.496941 0.127291
0.67483 0.498146 0.130236
0.707927 0.500145 0.133349
0.738949 0.502876 0.136629
0.767468 0.506691 0.140459
0.793194 0.510719 0.144488
0.816388 0.51548 0.149157
0.837446 0.52079 0.154314
0.856748 0.526543 0.15993
0.874601 0.532815 0.166064
0.89131 0.539635 0.17258
0.906661 0.546441 0.179263
0.921141 0.553445 0.18616
0.934966 0.560555 0.193179
0.01738 0.479545 0.0599832
0.0332036 0.486885 0.0673381
0.0507057 0.494194 0.0745098
0.0687114 0.500908 0.0810559
0.0877394 0.507164 0.0872358
0.108766 0.513207 0.0931106
0.132235 0.518029 0.0981155
0.158892 0.521935 0.102373
0.189471 0.524636 0.105715
0.227115 0.52578 0.108064
0.275242 0.52517 0.10988
0.332845 0.522591 0.112581
0.395514 0.519234 0.117922
0.455955 0.516991 0.12578
0.506767 0.517098 0.133745
0.548821 0.518853 0.140093
0.586358 0.520653 0.143801
0.599008 0.528542 0.134173
0.616236 0.534264 0.127703
0.645182 0.536141 0.128206
0.678798 0.537331 0.131502
0.712032 0.539284 0.135424
0.743328 0.542443 0.139818
0.771527 0.545998 0.144305
0.797223 0.55021 0.14902
0.820401 0.555032 0.154192
0.841306 0.560372 0.159762
0.860487 0.566171 0.165698
0.878279 0.572534 0.172122
0.894652 0.578866 0.178607
0.909941 0.585473 0.185397
0.924285 0.592233 0.192309
0.937957 0.599039 0.199374
0.0195926 0.51957 0.063859
0.0354314 0.526925 0.071046
0.0528115 0.534188 0.0780346
0.0708019 0.540963 0.0844892
0.0898756 0.54728 0.0905623
0.110567 0.552682 0.0959945
0.13373 0.55729 0.100801
0.160189 0.560922 0.104829
0.190372 0.563348 0.107912
0.227527 0.564508 0.110033
0.274434 0.563729 0.11133
0.330663 0.561151 0.112993
0.393194 0.557687 0.117021
0.455924 0.554833 0.124071
0.511299 0.553903 0.132372
0.557443 0.555306 0.140002
0.597833 0.557153 0.146151
0.633051 0.558389 0.149813
0.645655 0.565576 0.142031
0.657664 0.573159 0.133989
0.684138 0.576654 0.133394
0.716686 0.579141 0.13698
0.747677 0.58172 0.141665
0.775814 0.585077 0.146746
0.801358 0.589166 0.152178
0.82443 0.593835 0.157839
0.845335 0.599313 0.163943
0.864271 0.604807 0.170153
0.881682 0.610605 0.176593
0.897841 0.616602 0.183215
0.912978 0.622858 0.190051
0.927123 0.629252 0.197009
0.940734 0.635874 0.204364
0.022034 0.558984 0.0681621
0.0379339 0.566186 0.0751049
0.0552834 0.573404 0.0819409
0.0733043 0.580072 0.0882734
0.0923018 0.585901 0.0940566
0.112993 0.591043 0.0993057
0.135988 0.595514 0.10399
0.162402 0.599069 0.107958
0.192813 0.601892 0.111254
0.229755 0.60296 0.113375
0.27602 0.602274 0.114519
0.331258 0.599924 0.115679
0.392996 0.596582 0.118547
0.456825 0.593545 0.124514
0.51548 0.591791 0.132509
0.565042 0.591836 0.14049
0.607156 0.593286 0.147295
0.644694 0.594903 0.153048
0.677287 0.595895 0.156893
0.692164 0.602594 0.151232
0.701747 0.611765 0.14229
0.72398 0.617014 0.14052
0.75227 0.620157 0.143694
0.78027 0.623163 0.14876
0.805707 0.62681 0.15436
0.828916 0.631373 0.160479
0.849348 0.636149 0.166735
0.868009 0.641306 0.173175
0.885206 0.646769 0.179843
0.901167 0.65243 0.186648
0.91606 0.658167 0.193515
0.93019 0.664256 0.200839
0.943465 0.669993 0.207996
0.0250858 0.597284 0.0732586
0.0413672 0.604562 0.0801556
0.0587167 0.611399 0.0868086
0.0767529 0.617685 0.093019
0.0959335 0.623392 0.0987869
0.116838 0.628443 0.104067
0.140124 0.63299 0.108873
0.166674 0.636851 0.113085
0.196963 0.639338 0.116258
0.234119 0.640452 0.118425
0.280232 0.639887 0.119524
0.334737 0.63772 0.120348
0.395789 0.634653 0.122423
0.459297 0.631342 0.127169
0.519249 0.628748 0.134249
0.571801 0.627741 0.142199
0.616449 0.62829 0.149416
0.654444 0.629847 0.155535
0.688869 0.63151 0.16112
0.721004 0.632547 0.165362
0.737545 0.638804 0.160815
0.745418 0.648493 0.152148
0.762615 0.654932 0.149584
0.785733 0.659083 0.151965
0.810483 0.662821 0.157092
0.833387 0.666499 0.162921
0.853559 0.670665 0.169192
0.872038 0.675303 0.175723
0.889006 0.680201 0.182422
0.904906 0.685649 0.189471
0.9196 0.690898 0.19649
0.933394 0.696101 0.203647
0.946487 0.701411 0.21088
0.0294499 0.634348 0.079942
0.046067 0.641215 0.086656
0.0635691 0.647974 0.0934005
0.0819409 0.654276 0.0998093
0.101366 0.659922 0.105623
0.122621 0.665034 0.111009
0.14638 0.669718 0.115984
0.172885 0.67335 0.120165
0.203204 0.675807 0.123354
0.240864 0.676829 0.125505
0.287144 0.676204 0.126543
0.341466 0.674403 0.127245
0.401419 0.671244 0.128588
0.463905 0.667674 0.132143
0.524269 0.664561 0.138186
0.578714 0.662654 0.145663
0.62594 0.662333 0.153094
0.665171 0.663447 0.159457
0.69894 0.664851 0.165011
0.732357 0.666163 0.170596
0.765087 0.666987 0.175128
0.780606 0.673442 0.171069
0.786999 0.683299 0.163409
0.799558 0.690654 0.160464
0.817548 0.69575 0.161929
0.838132 0.699672 0.166308
0.858152 0.703334 0.172274
0.876295 0.707408 0.178576
0.893263 0.712108 0.185351
0.908797 0.716731 0.192157
0.923293 0.721386 0.199176
0.936965 0.726055 0.206241
0.949828 0.730739 0.213443
0.0359045 0.670054 0.0885786
0.0527352 0.676966 0.0955215
0.0704204 0.683757 0.102434
0.0890822 0.690181 0.109041
0.109148 0.696193 0.115236
0.130694 0.701137 0.120562
0.15465 0.70544 0.125399
0.181491 0.708934 0.129549
0.211704 0.711345 0.132784
0.250233 0.712215 0.134844
0.297398 0.711604 0.135805
0.350866 0.709422 0.136019
0.409796 0.706218 0.136736
0.471138 0.70251 0.139315
0.53109 0.699001 0.14432
0.586603 0.696452 0.151156
0.635477 0.695216 0.158404
0.675883 0.695293 0.164752
0.709728 0.696315 0.17023
0.74258 0.697643 0.175753
0.776867 0.698909 0.181628
0.806806 0.700221 0.18558
0.82034 0.706783 0.182177
0.825711 0.715862 0.17583
0.834379 0.723568 0.172625
0.847623 0.729458 0.173205
0.864485 0.733684 0.177203
0.881437 0.737926 0.182773
0.897688 0.741833 0.188891
0.912932 0.745861 0.195529
0.927184 0.74995 0.202319
0.940642 0.754055 0.209201
0.953429 0.758419 0.216327
0.0446937 0.705348 0.0999924
0.0616922 0.712291 0.107164
0.0794537 0.719051 0.114168
0.0985885 0.725795 0.121141
0.118807 0.731395 0.127199
0.140749 0.736156 0.132509
0.165072 0.7402 0.137224
0.192294 0.74342 0.141253
0.223316 0.745556 0.14435
0.262486 0.746426 0.146426
0.30988 0.745174 0.146838
0.363088 0.742794 0.14667
0.421241 0.739452 0.146944
0.481071 0.735561 0.148623
0.54052 0.731914 0.152773
0.59585 0.728634 0.158618
0.645151 0.726452 0.16524
0.686595 0.725658 0.171481
0.721065 0.726116 0.176898
0.753658 0.727306 0.182254
0.787717 0.728771 0.188205
0.819394 0.729946 0.193561
0.844602 0.73164 0.196551
0.856535 0.737743 0.194003
0.861784 0.745968 0.189273
0.867857 0.753887 0.186358
0.877424 0.76022 0.186572
0.89015 0.76492 0.189715
0.903334 0.769131 0.194125
0.917754 0.772763 0.200076
0.931441 0.776425 0.206348
0.944625 0.780255 0.212985
0.957153 0.783902 0.219654
0.0556344 0.740017 0.114244
0.0730144 0.747112 0.121691
0.0909438 0.753826 0.128801
0.110048 0.760113 0.135531
0.130602 0.76553 0.141634
0.152895 0.769985 0.146914
0.177569 0.773648 0.151507
0.205722 0.776684 0.155505
0.237873 0.778271 0.158175
0.277592 0.77847 0.159701
0.324956 0.776913 0.159762
0.377997 0.774212 0.159152
0.435386 0.770642 0.158907
0.494347 0.766735 0.160143
0.551797 0.762539 0.163073
0.606363 0.758679 0.167865
0.655528 0.75584 0.173724
0.697414 0.754376 0.17966
0.732784 0.754223 0.185031
0.765652 0.755108 0.190265
0.79884 0.756237 0.195743
0.830335 0.757351 0.201297
0.858244 0.758389 0.206058
0.87924 0.760616 0.208453
0.88983 0.766461 0.20679
0.89485 0.773983 0.203449
0.89897 0.781353 0.200961
0.905608 0.787503 0.200977
0.914778 0.792462 0.203235
0.924483 0.797009 0.206516
0.937224 0.800687 0.212161
0.949081 0.804059 0.217975
0.959838 0.807385 0.224125
0.0689403 0.773831 0.13135
0.086183 0.780591 0.138491
0.10425 0.786984 0.14548
0.123522 0.793042 0.152331
0.144411 0.798169 0.158404
0.167071 0.802243 0.1635
0.192401 0.805753 0.168078
0.220874 0.80795 0.17142
0.254551 0.808881 0.173587
0.295583 0.808362 0.174517
0.342779 0.806546 0.174319
0.395575 0.803494 0.173251
0.452628 0.799817 0.172641
0.509529 0.795422 0.173007
0.565408 0.790936 0.175158
0.618799 0.786725 0.179065
0.667048 0.783322 0.184024
0.709117 0.78143 0.189609
0.745129 0.780606 0.19472
0.778149 0.780835 0.199603
0.810697 0.781689 0.204654
0.84123 0.782635 0.209857
0.869551 0.783597 0.215106
0.893874 0.784649 0.21944
0.911147 0.787213 0.221363
0.919799 0.792599 0.220127
0.924269 0.799146 0.217914
0.927443 0.80589 0.216098
0.932219 0.811902 0.216098
0.93872 0.817136 0.217731
0.946288 0.821698 0.220478
0.955673 0.825162 0.225269
0.962951 0.828504 0.230549
0.0842298 0.80589 0.150805
0.101488 0.812253 0.1579
0.119707 0.818326 0.164782
0.139269 0.824018 0.171344
0.160449 0.829145 0.177447
0.183627 0.832914 0.182315
0.208942 0.835599 0.18616
0.238361 0.837171 0.189029
0.273732 0.837415 0.190677
0.315755 0.83624 0.191012
0.363714 0.834028 0.190372
0.4159 0.830747 0.188937
0.471321 0.82649 0.187472
0.526711 0.82179 0.187198
0.581003 0.817029 0.188632
0.632914 0.812497 0.191775
0.680232 0.808972 0.196246
0.721202 0.806348 0.200885
0.757549 0.804898 0.205539
0.790936 0.804639 0.210147
0.822904 0.805173 0.214771
0.852293 0.80589 0.219471
0.88011 0.806836 0.224613
0.904921 0.807431 0.229358
0.925475 0.808301 0.233082
0.939574 0.811048 0.234791
0.946426 0.816159 0.233845
0.950561 0.822126 0.232578
0.953399 0.828321 0.231556
0.956741 0.833997 0.231418
0.961151 0.839109 0.23241
0.966598 0.842924 0.235828
0.970901 0.84622 0.240589
0.100725 0.836332 0.171923
0.118074 0.842222 0.178744
0.136446 0.847852 0.185336
0.156435 0.853239 0.191821
0.177874 0.857755 0.197543
0.201022 0.861112 0.202121
0.226719 0.863142 0.205402
0.257679 0.864057 0.207691
0.294743 0.863584 0.208591
0.338064 0.861982 0.208423
0.385779 0.859174 0.207004
0.437293 0.855467 0.204974
0.491279 0.85095 0.20296
0.545113 0.845945 0.202045
0.597681 0.840925 0.202884
0.648402 0.836286 0.205585
0.693675 0.832288 0.209064
0.7337 0.829313 0.213062
0.769955 0.82742 0.217243
0.803555 0.826642 0.221439
0.835233 0.826978 0.225879
0.863569 0.827375 0.230091
0.890043 0.827863 0.234638
0.914412 0.828367 0.239292
0.935836 0.828855 0.243549
0.953017 0.83006 0.246815
0.96527 0.832837 0.248905
0.970489 0.837766 0.248142
0.973816 0.843137 0.247272
