src/luts/crop/6.cube
TITLE "Generated by Resolve"
LUT_3D_SIZE 5
0.0420844 0.0443275 0.0471351
0.181277 0.0371099 0.0354314
0.461402 0.00285344 0
0.692775 0 0
0.816541 0.0135958 0.0012665
0.0439002 0.186358 0.05066
0.211566 0.209873 0.0737774
0.557595 0.21059 0.0613107
0.815579 0.240955 0.0772564
0.947662 0.306798 0.132342
0.0448615 0.486686 0.0594797
0.224231 0.533318 0.0999008
0.579248 0.548837 0.114916
0.843626 0.583154 0.144533
0.970138 0.639261 0.194995
0.127962 0.79733 0.15964
0.326986 0.825437 0.192477
0.668833 0.818738 0.187137
0.878996 0.831098 0.197543
0.987198 0.852705 0.229999
0.256626 0.995819 0.306172
0.478111 0.982895 0.296666
0.768124 0.96083 0.266423
0.927504 0.960128 0.262715
1 0.968719 0.28629
0.0285954 0.0426032 0.189548
0.186007 0.0323491 0.184909
0.456458 0.00428779 0.119997
0.682414 0.0033875 0.0944228
0.807721 0.0289769 0.128298
0.0357519 0.19617 0.209308
0.211917 0.224063 0.237842
0.576303 0.224506 0.224369
0.830396 0.256672 0.249378
0.958923 0.32105 0.314504
0.0355688 0.510475 0.210224
0.21355 0.556008 0.250523
0.58735 0.566827 0.267781
0.854673 0.601358 0.305394
0.978988 0.65388 0.37142
0.113283 0.817609 0.324575
0.30454 0.843091 0.353506
0.654704 0.827115 0.340261
0.87332 0.836835 0.349706
0.980621 0.855268 0.394583
0.216464 1 0.501701
0.429129 0.991745 0.480079
0.733455 0.96025 0.440177
0.908721 0.959335 0.432547
0.99736 0.967208 0.466758
0.000335698 0.0331426 0.450202
0.132036 0.0254978 0.458183
0.479683 0 0.409125
0.715984 0 0.363851
0.843091 0.0205386 0.395178
0.00331121 0.186679 0.484672
0.170733 0.213382 0.530343
0.607767 0.212757 0.546349
0.856764 0.25153 0.556405
0.97789 0.319036 0.60679
0.0128939 0.528023 0.545235
0.183261 0.577661 0.595728
0.572091 0.579889 0.600198
0.844907 0.607935 0.618051
0.970321 0.658122 0.667262
0.0691691 0.841443 0.649927
0.24802 0.867201 0.673365
0.600229 0.833326 0.636423
0.847059 0.836225 0.636194
0.959396 0.854688 0.669337
0.171115 1 0.793667
0.362142 0.999878 0.763058
0.669596 0.960052 0.706828
0.877653 0.953445 0.693751
0.974731 0.963623 0.718318
0 0.0301823 0.646174
0.103838 0.0265202 0.659632
0.440513 0 0.642191
0.743999 0 0.6112
0.892332 0.0118105 0.640772
0 0.193088 0.694011
0.165362 0.225116 0.737163
0.593194 0.220081 0.768719
0.886702 0.251362 0.783475
1 0.317662 0.820935
0.0161593 0.533654 0.765713
0.18938 0.581353 0.810559
0.543145 0.571038 0.804669
0.859281 0.604852 0.84358
0.977386 0.656077 0.873014
0.0769818 0.849226 0.872755
0.252735 0.87277 0.897597
0.57847 0.850492 0.875105
0.833265 0.840589 0.866606
0.948577 0.854353 0.878843
0.170962 1 0.968963
0.352819 1 0.954971
0.638956 0.975906 0.909255
0.85948 0.958343 0.895491
0.963882 0.966964 0.904967
0 0.033463 0.736019
0.0970321 0.0334783 0.749874
0.419135 0.000671397 0.743648
0.744854 0.000213626 0.728435
0.907347 0.0288701 0.762341
0.00291447 0.208118 0.790509
0.178943 0.244053 0.831693
0.590127 0.241901 0.866102
0.891173 0.273854 0.889403
1 0.338903 0.92842
0.031693 0.551339 0.865736
0.211566 0.596231 0.904952
0.548028 0.58024 0.894148
0.863737 0.619333 0.946929
0.991623 0.663005 0.974441
0.0983444 0.860883 0.974243
0.282231 0.877485 0.991989
0.59559 0.853483 0.972808
0.832624 0.846082 0.968063
0.945541 0.857313 0.977386
0.184985 1 1
0.371359 1 1
0.647288 0.978897 1
0.855604 0.965103 0.993606
0.9635 0.972152 1
