src/luts/crop/6.cube
TITLE "Generated by Resolve"
LUT_3D_SIZE 33
0.0420844 0.0443275 0.0471351
0.0540932 0.0441291 0.0472114
0.0659037 0.0445869 0.0471351
0.0791485 0.0448768 0.0471199
0.0939803 0.0446326 0.0464637
0.111147 0.0438697 0.0451362
0.131044 0.0424353 0.0429999
0.154162 0.0402228 0.0398108
0.181277 0.0371099 0.0354314
0.212726 0.0331273 0.0298009
0.246876 0.0284581 0.0231479
0.282353 0.0235447 0.0161135
0.318166 0.0187076 0.00907912
0.353811 0.0139773 0.00213626
0.389288 0.00944533 0.00180056
0.425528 0.00486763 0.000366217
0.461402 0.00285344 0
0.49662 0.00180056 0
0.530648 0.000732433 0
0.563104 0.000518807 0
0.593652 0 0
0.621561 0 0
0.647349 0 0
0.671 0 0
0.692775 0 0
0.712261 0 0
0.730114 0 0
0.746593 1.5259e-05 0
0.761959 9.15541e-05 0
0.776242 0.00227359 0
0.789944 0.00471504 0
0.803449 0.00816358 0.000167849
0.816541 0.0135958 0.0012665
0.0429541 0.0568551 0.049073
0.055375 0.0571756 0.0496834
0.0679942 0.0577401 0.0500496
0.0817426 0.0579385 0.0498054
0.0970321 0.0577554 0.049073
0.114519 0.0571145 0.0477607
0.134829 0.0558328 0.0457313
0.158648 0.0538338 0.042771
0.186374 0.0508278 0.038468
0.218311 0.0469062 0.0327916
0.253193 0.0424048 0.0262303
0.289403 0.0377508 0.0193484
0.325933 0.0331731 0.0124971
0.362768 0.0288548 0.00587472
0.398962 0.0245365 0.00250248
0.435782 0.0202792 0.00125124
0.47245 0.016144 0
0.508354 0.0124208 0
0.543069 0.009308 0
0.576257 0.00679026 0
0.607187 0.00630198 0
0.635477 0.00653086 0
0.66157 0.00712596 0
0.685466 0.00816358 0
0.707607 0.00939956 0
0.727504 0.0112001 0
0.745632 0.0139773 0
0.762448 0.0165408 0
0.778332 0.0195315 0
0.793362 0.0243687 0
0.807889 0.029572 9.15541e-05
0.821897 0.035172 0.0012665
0.835538 0.0411994 0.00239567
0.0446937 0.0703899 0.0507057
0.0571603 0.0709697 0.0518349
0.0703288 0.071458 0.0525978
0.0836805 0.0719463 0.0528267
0.0992599 0.0720073 0.0524453
0.117159 0.0715343 0.0513924
0.138033 0.0705577 0.0496529
0.162081 0.0687572 0.0468299
0.190234 0.0660258 0.0426184
0.222843 0.0623484 0.0371252
0.258518 0.0580911 0.0307927
0.295583 0.0537118 0.0242161
0.333425 0.0495918 0.0178225
0.370916 0.0455329 0.01149
0.408316 0.0416571 0.00535592
0.446159 0.0376898 0.00274662
0.483818 0.0339818 0.000915541
0.520714 0.0307774 0.000350958
0.556405 0.0283055 0
0.589975 0.0263828 0
0.621408 0.0251316 0
0.650355 0.0249027 0
0.676844 0.0257267 0
0.701442 0.0276341 0
0.723644 0.0299382 0
0.743893 0.0329442 0
0.762371 0.0371405 0
0.779828 0.0418555 0.00062562
0.796353 0.046952 0.00190738
0.812161 0.0527199 0.00447089
0.827314 0.0590524 0.0099031
0.841901 0.0654765 0.0145876
0.856214 0.0722667 0.0201724
0.0461891 0.0848402 0.0522927
0.0586862 0.0856794 0.0536965
0.0719768 0.0863508 0.0548104
0.086183 0.0870069 0.0554818
0.101427 0.0874495 0.0557107
0.119692 0.08748 0.0552377
0.140856 0.0867018 0.0537728
0.16556 0.0852064 0.0513466
0.194568 0.0827955 0.0476844
0.227924 0.07953 0.0425116
0.264637 0.0758526 0.0365301
0.302556 0.0719615 0.0303044
0.341009 0.0681468 0.0242313
0.379538 0.0644846 0.0183566
0.418006 0.0610361 0.0126955
0.456962 0.057557 0.00697337
0.496132 0.0545205 0.00373846
0.533852 0.0518502 0.00163272
0.570077 0.0498817 0.000839246
0.604395 0.0486915 0.000808728
0.636545 0.0483558 0.000854505
0.666285 0.0487984 0.00106813
0.693553 0.0507057 0.00138857
0.71812 0.0533608 0.00218204
0.740658 0.0568551 0.00358587
0.761303 0.0608682 0.00453193
0.780316 0.0658274 0.00643931
0.798367 0.0716716 0.00996414
0.815564 0.0779278 0.0137942
0.831769 0.0843214 0.0200809
0.84744 0.0914168 0.0273747
0.862623 0.0987564 0.0349432
0.877424 0.106249 0.0426947
0.0471656 0.100603 0.0534218
0.0597391 0.101762 0.0551003
0.0733196 0.102831 0.056672
0.0881971 0.103807 0.0578317
0.104158 0.104707 0.0586709
0.122148 0.105104 0.0588846
0.143587 0.104891 0.0581064
0.168887 0.103822 0.0562448
0.198703 0.101869 0.0531472
0.233433 0.0991379 0.0487221
0.270909 0.0958419 0.0432746
0.309697 0.0925307 0.0375067
0.34902 0.0893568 0.0318456
0.388525 0.0863203 0.0264286
0.428122 0.0834363 0.0212711
0.468696 0.0806897 0.0162509
0.508614 0.0780804 0.0115053
0.547356 0.0760052 0.0075227
0.584405 0.0746319 0.00479133
0.619471 0.0742504 0.0039826
0.652323 0.074815 0.00444038
0.683146 0.0764935 0.00511177
0.710689 0.0790723 0.00630198
0.735515 0.0827497 0.00886549
0.758297 0.0872358 0.0119326
0.779339 0.0923934 0.0157626
0.799176 0.0984054 0.02121
0.81738 0.104921 0.027512
0.834745 0.111894 0.0344091
0.851316 0.119081 0.0416266
0.867247 0.12665 0.0492256
0.88278 0.134798 0.0573129
0.897948 0.143114 0.0655985
0.0474556 0.11812 0.0538491
0.0603189 0.119783 0.0559396
0.0742657 0.121416 0.0580148
0.0894484 0.122927 0.0598459
0.106584 0.12401 0.0610819
0.124834 0.125048 0.0619669
0.146304 0.125444 0.0622263
0.171923 0.125048 0.0612192
0.202762 0.123827 0.0589609
0.23827 0.121538 0.0552224
0.276951 0.118776 0.0505989
0.316976 0.115999 0.0456092
0.357412 0.113481 0.040589
0.398306 0.11136 0.0358282
0.439033 0.109316 0.03122
0.480217 0.10721 0.0266575
0.52134 0.105364 0.0225986
0.561242 0.104112 0.019379
0.599283 0.103609 0.0171359
0.635569 0.10425 0.0163882
0.669017 0.105562 0.016434
0.700008 0.107805 0.0174716
0.727977 0.111284 0.0200809
0.752895 0.115877 0.0240635
0.775784 0.121233 0.0289311
0.797284 0.127565 0.0347906
0.81706 0.134035 0.0409094
0.835401 0.141146 0.0476692
0.85272 0.148669 0.0549172
0.869276 0.156497 0.0624094
0.885298 0.164569 0.0701762
0.900633 0.17319 0.0782635
0.915328 0.181689 0.0862135
0.0471199 0.138003 0.0536507
0.0603799 0.140352 0.0562448
0.0746014 0.142489 0.0587472
0.0901503 0.144518 0.0611276
0.107607 0.146319 0.0631571
0.127749 0.147616 0.064622
0.149203 0.148989 0.0657054
0.175113 0.149432 0.0660105
0.206104 0.148806 0.0646677
0.242496 0.147234 0.0618448
0.282368 0.145174 0.0581521
0.323781 0.143069 0.0541695
0.366033 0.141405 0.0502632
0.408072 0.139956 0.0463264
0.449928 0.13872 0.0424353
0.49218 0.137514 0.0384833
0.534142 0.136568 0.0349126
0.574975 0.136294 0.0323949
0.614252 0.136934 0.0310979
0.650706 0.138155 0.0307469
0.684611 0.140291 0.0315557
0.715877 0.143359 0.0335699
0.744137 0.147463 0.0368658
0.769055 0.152682 0.0415503
0.792233 0.158923 0.0472114
0.813291 0.165499 0.0531624
0.832914 0.172564 0.0595712
0.851179 0.180072 0.066453
0.868132 0.187945 0.07364
0.88452 0.196506 0.0812848
0.900008 0.204868 0.088777
0.914824 0.213397 0.096376
0.928954 0.222141 0.104005
0.0460365 0.160708 0.0526894
0.0595865 0.163592 0.0556497
0.0741894 0.16643 0.0586709
0.0901198 0.169146 0.0616465
0.107942 0.171664 0.0644236
0.128573 0.173907 0.0667735
0.152575 0.17557 0.0686046
0.17789 0.177081 0.069749
0.209064 0.177295 0.0698405
0.246036 0.176638 0.0682994
0.286992 0.175509 0.0657511
0.330159 0.174563 0.0629892
0.373571 0.173526 0.0600443
0.41706 0.172747 0.0571908
0.46038 0.172229 0.0543374
0.503914 0.171756 0.0512551
0.547066 0.17174 0.0484016
0.58854 0.172366 0.0464027
0.627695 0.173587 0.0453193
0.664393 0.17557 0.0453803
0.698451 0.178408 0.0465858
0.729641 0.182132 0.0489509
0.758099 0.187167 0.0527962
0.782788 0.192935 0.0576791
0.805325 0.199268 0.0632334
0.826169 0.206104 0.069276
0.845548 0.213352 0.0757
0.863508 0.220951 0.082414
0.880217 0.229496 0.0896925
0.895888 0.237858 0.096849
0.910903 0.246403 0.104112
0.925383 0.255146 0.111482
0.939178 0.264012 0.118929
0.0439002 0.186358 0.05066
0.0577249 0.18999 0.0540017
0.0727245 0.193622 0.0575418
0.0890822 0.197269 0.0611276
0.107469 0.200855 0.0647746
0.128374 0.203891 0.0679637
0.152804 0.206363 0.0705577
0.181353 0.208133 0.0725872
0.211566 0.209873 0.0737774
0.248768 0.210147 0.0738231
0.290654 0.210132 0.0727398
0.334508 0.209934 0.0710765
0.379141 0.209827 0.0692302
0.423865 0.209842 0.0673381
0.468482 0.209964 0.0654612
0.513527 0.210254 0.0634012
0.557595 0.21059 0.0613107
0.59968 0.21149 0.0598611
0.639292 0.213199 0.059266
0.676051 0.215671 0.0595712
0.710018 0.218921 0.0608988
0.741268 0.223377 0.0635386
0.76907 0.228443 0.0671702
0.793484 0.234394 0.0718547
0.815579 0.240955 0.0772564
0.836042 0.248005 0.0831922
0.855055 0.255482 0.0895399
0.872984 0.263737 0.0964828
0.889357 0.271931 0.103426
0.904875 0.280339 0.110552
0.919661 0.288914 0.117708
0.933852 0.297581 0.124849
0.947662 0.306798 0.132342
0.04094 0.215305 0.0478828
0.0551156 0.219776 0.0517128
0.0705425 0.224338 0.055787
0.0874189 0.229145 0.06009
0.106188 0.233463 0.064332
0.12752 0.237446 0.0683757
0.152224 0.240864 0.0719615
0.181323 0.243503 0.0747539
0.215564 0.245411 0.0768597
0.251026 0.247547 0.0779889
0.292668 0.247929 0.0782025
0.337102 0.248508 0.0778058
0.382589 0.249348 0.0771191
0.428275 0.250217 0.0762341
0.474205 0.251392 0.0753033
0.519768 0.251987 0.0738689
0.564462 0.252522 0.0723125
0.607111 0.25359 0.0713207
0.647181 0.255329 0.0710918
0.684504 0.258106 0.07187
0.718746 0.261646 0.073518
0.74966 0.265919 0.076112
0.777279 0.271061 0.0797284
0.801755 0.277073 0.0843824
0.823697 0.283787 0.0897688
0.844068 0.291249 0.0957504
0.862837 0.298848 0.102037
0.880308 0.306676 0.108598
0.896559 0.314778 0.115358
0.911788 0.323033 0.122255
0.92639 0.331411 0.129229
0.940612 0.340352 0.136522
0.954131 0.348989 0.143587
0.0380407 0.247517 0.0453498
0.0527199 0.253269 0.0498512
0.0685588 0.258671 0.0544747
0.0858015 0.264118 0.0592813
0.104967 0.269322 0.0641031
0.126711 0.274113 0.0688182
0.151751 0.278386 0.0731975
0.181186 0.28217 0.0770428
0.216007 0.284581 0.0796826
0.255756 0.286244 0.0815137
0.294591 0.288441 0.0824903
0.338766 0.289235 0.0831311
0.384649 0.290623 0.0834821
0.431205 0.292485 0.0836957
0.477333 0.293965 0.0834211
0.523476 0.295125 0.0826886
0.568643 0.296025 0.0816205
0.611597 0.29723 0.0809186
0.652186 0.299275 0.0810559
0.689738 0.302068 0.0820325
0.723995 0.30544 0.0837873
0.755001 0.309682 0.0865034
0.782696 0.314809 0.0902266
0.807248 0.320745 0.0948196
0.829236 0.327657 0.100282
0.849317 0.334768 0.10602
0.867842 0.342107 0.112139
0.8851 0.349798 0.118532
0.901244 0.357778 0.125139
0.91635 0.366049 0.131975
0.931044 0.37496 0.139193
0.945037 0.383597 0.146288
0.958618 0.392386 0.153475
0.036286 0.283085 0.0442206
0.0512703 0.289342 0.0491493
0.0674754 0.295567 0.0542916
0.085069 0.301747 0.0596017
0.104524 0.307637 0.0648814
0.126543 0.3131 0.0700542
0.152041 0.318273 0.0750591
0.181369 0.322255 0.0793469
0.215991 0.3252 0.0826734
0.257038 0.327016 0.0847486
0.299931 0.328817 0.0864118
0.340764 0.33135 0.0874952
0.386343 0.332784 0.0885939
0.432609 0.334478 0.0893721
0.479149 0.336492 0.090013
0.52578 0.338201 0.0900587
0.571374 0.33959 0.089662
0.615122 0.341512 0.0895705
0.655695 0.343481 0.0898451
0.693202 0.34612 0.090898
0.727581 0.349477 0.0927749
0.758618 0.353628 0.0955062
0.786435 0.358816 0.0992752
0.811124 0.364797 0.103914
0.832929 0.371252 0.109148
0.852918 0.37821 0.114855
0.871427 0.38558 0.121004
0.888655 0.393256 0.127398
0.904936 0.401587 0.134218
0.92015 0.410117 0.141176
0.934676 0.418692 0.148272
0.948699 0.42739 0.155398
0.96228 0.436225 0.1626
0.0359045 0.32076 0.0447395
0.0512093 0.327718 0.0501106
0.0676585 0.334585 0.0556497
0.0854353 0.341283 0.0612345
0.105226 0.348058 0.0669413
0.127398 0.353918 0.0723583
0.152773 0.359045 0.0774243
0.182132 0.363226 0.0819562
0.216541 0.366354 0.0856184
0.257267 0.368414 0.0880903
0.303197 0.37023 0.0899367
0.346349 0.37258 0.0915999
0.388235 0.375097 0.0928054
0.433875 0.376471 0.0940414
0.480201 0.378363 0.0951247
0.527306 0.380529 0.0959945
0.573693 0.382757 0.0965591
0.617334 0.384665 0.0968948
0.658122 0.386847 0.0975814
0.695781 0.389578 0.0988327
0.73022 0.39295 0.100816
0.761486 0.397284 0.103731
0.789319 0.402426 0.107515
0.813901 0.408103 0.112016
0.835859 0.414572 0.117281
0.855909 0.421607 0.12314
0.874449 0.429068 0.129366
0.891844 0.43714 0.136019
0.908095 0.445411 0.14284
0.923323 0.453758 0.149752
0.937789 0.462287 0.156832
0.951797 0.470954 0.163989
0.965362 0.479698 0.17116
0.0369421 0.360342 0.0469825
0.0524147 0.367803 0.0525978
0.0689403 0.375082 0.0583047
0.0869001 0.382483 0.0641489
0.106569 0.389151 0.0697795
0.12871 0.395163 0.0751965
0.15404 0.400366 0.0802472
0.183368 0.404608 0.0848096
0.217639 0.407706 0.0886091
0.258228 0.410117 0.0914626
0.303975 0.411475 0.0932174
0.350973 0.413062 0.0950027
0.392981 0.416068 0.0966964
0.435721 0.418555 0.0981155
0.481529 0.420127 0.0995499
0.528572 0.422263 0.100832
0.574777 0.424338 0.1019
0.618753 0.426551 0.102876
0.659785 0.429038 0.104067
0.697658 0.432013 0.105715
0.73257 0.435981 0.108156
0.76379 0.440299 0.111208
0.791653 0.445411 0.115099
0.816403 0.451301 0.119829
0.838544 0.457847 0.125231
0.858686 0.465064 0.131258
0.877363 0.472801 0.137682
0.894575 0.480583 0.144213
0.910735 0.488594 0.150942
0.926009 0.496834 0.157839
0.940414 0.505196 0.164858
0.95436 0.513832 0.171984
0.96791 0.52253 0.179171
0.0389715 0.401373 0.0504311
0.0544747 0.40911 0.0561074
0.0711833 0.417044 0.0620432
0.0890059 0.424201 0.0677348
0.108476 0.430854 0.0732586
0.130587 0.436866 0.078584
0.155886 0.442054 0.0836042
0.185336 0.446555 0.0882124
0.219577 0.449622 0.0920424
0.25951 0.451514 0.0948806
0.304707 0.452705 0.0966812
0.35285 0.453864 0.0982376
0.39881 0.456016 0.100252
0.440192 0.459754 0.102052
0.483513 0.462028 0.103578
0.529549 0.463386 0.104952
0.575448 0.465187 0.106233
0.619562 0.467506 0.107713
0.661021 0.470375 0.109514
0.699611 0.474128 0.11191
0.734493 0.478096 0.114687
0.765896 0.482719 0.11812
0.793805 0.488014 0.122271
0.81857 0.494026 0.127108
0.840848 0.500725 0.132708
0.86099 0.508019 0.138781
0.879438 0.515343 0.145022
0.896574 0.522942 0.151492
0.912657 0.5308 0.158145
0.92784 0.538811 0.16492
0.942214 0.547051 0.171862
0.956024 0.555306 0.17882
0.96936 0.563409 0.185687
0.0415808 0.443809 0.0545815
0.0571603 0.451835 0.0603647
0.0736706 0.459373 0.0660716
0.0915236 0.466575 0.0717632
0.111009 0.473335 0.0773175
0.133074 0.479316 0.0826123
0.15848 0.484749 0.0876478
0.187686 0.488853 0.0920577
0.221607 0.4916 0.0957198
0.261067 0.493141 0.0984512
0.305364 0.494011 0.100191
0.35314 0.494804 0.101472
0.401709 0.496498 0.103288
0.445747 0.499245 0.105348
0.486519 0.5028 0.107042
0.530877 0.504967 0.108675
0.576532 0.506645 0.110338
0.620554 0.508904 0.112139
0.66244 0.512169 0.114458
0.700816 0.515679 0.117098
0.735866 0.519783 0.120241
0.767346 0.524544 0.12398
0.795285 0.529931 0.128374
0.820233 0.536294 0.133577
0.842435 0.542763 0.139071
0.862394 0.549615 0.145022
0.880766 0.556725 0.151202
0.89778 0.56405 0.157565
0.913725 0.571603 0.16408
0.928923 0.579568 0.170871
0.943145 0.587228 0.177539
0.956756 0.594827 0.184192
0.969924 0.602396 0.190814
0.0448615 0.486686 0.0594797
0.0603799 0.49453 0.0651865
0.0769513 0.502098 0.0709239
0.0948348 0.509255 0.0766003
0.114336 0.515877 0.0820783
0.1364 0.522179 0.0874495
0.161593 0.527047 0.0922103
0.190524 0.5308 0.0963912
0.224231 0.533318 0.0999008
0.263416 0.534661 0.102617
0.307485 0.535653 0.104555
0.354788 0.536416 0.105821
0.403677 0.53753 0.107286
0.45069 0.539605 0.109331
0.493065 0.542962 0.11136
0.534569 0.546365 0.112978
0.579248 0.548837 0.114916
0.622995 0.550881 0.116945
0.664179 0.553552 0.119249
0.702403 0.556924 0.122042
0.737408 0.560906 0.125353
0.768811 0.56553 0.129229
0.796841 0.571145 0.133913
0.821469 0.576928 0.139025
0.843626 0.583154 0.144533
0.863523 0.589715 0.150393
0.881758 0.596475 0.156435
0.898665 0.603479 0.162692
0.91458 0.610834 0.169192
0.929488 0.617945 0.175586
0.943633 0.625162 0.182086
0.957107 0.632258 0.188525
0.970138 0.639261 0.194995
0.0489052 0.528862 0.0651865
0.0644236 0.536583 0.0708782
0.0809796 0.543938 0.0765393
0.0988937 0.551003 0.0821546
0.118517 0.55761 0.087602
0.140352 0.563363 0.0927291
0.165454 0.568261 0.0975204
0.194568 0.572122 0.101793
0.228458 0.574762 0.105425
0.267994 0.576379 0.108354
0.311803 0.577203 0.110384
0.358419 0.577859 0.111696
0.407095 0.578744 0.112856
0.455695 0.580224 0.11458
0.500633 0.582879 0.11667
0.542199 0.586801 0.118517
0.583841 0.589883 0.120165
0.62652 0.592004 0.122179
0.667323 0.594369 0.124544
0.70515 0.597406 0.127337
0.739788 0.601068 0.130617
0.771191 0.605768 0.134646
0.798733 0.610712 0.139193
0.823178 0.616144 0.144244
0.845106 0.621958 0.149599
0.864897 0.628061 0.155306
0.883162 0.634745 0.161395
0.899886 0.641199 0.167483
0.915526 0.647745 0.173632
0.930266 0.654307 0.179828
0.944259 0.660929 0.186069
0.957595 0.667491 0.192309
0.970565 0.674174 0.198856
0.0539254 0.569894 0.0719158
0.0695048 0.577478 0.0776379
0.086244 0.584909 0.0834363
0.104402 0.592065 0.0892042
0.124178 0.598474 0.0946975
0.146288 0.604257 0.0999466
0.17142 0.609262 0.10486
0.200793 0.613138 0.109209
0.235279 0.616114 0.113008
0.274907 0.617395 0.115801
0.318532 0.617975 0.1178
0.364645 0.618463 0.119066
0.412802 0.619181 0.120043
0.462089 0.620478 0.121477
0.509056 0.622568 0.123415
0.551659 0.625605 0.125154
0.591592 0.629038 0.12665
0.632181 0.631693 0.128374
0.672023 0.63389 0.130632
0.709621 0.636759 0.133425
0.743847 0.640101 0.136629
0.774456 0.643977 0.140429
0.801587 0.648447 0.144793
0.825681 0.653422 0.149645
0.84741 0.658732 0.154833
0.867201 0.664668 0.160479
0.885008 0.670466 0.166171
0.901488 0.676432 0.172
0.91696 0.68249 0.177951
0.931533 0.688563 0.183963
0.945357 0.69456 0.18996
0.958633 0.700771 0.196246
0.971313 0.706584 0.202396
0.0606699 0.610346 0.0805371
0.0767071 0.618265 0.0867018
0.0936599 0.625528 0.092607
0.11194 0.63241 0.0983749
0.132006 0.638804 0.10399
0.154467 0.644572 0.109361
0.17998 0.649622 0.114351
0.209598 0.653681 0.118822
0.244251 0.656077 0.122332
0.284245 0.657099 0.124956
0.32784 0.65745 0.126818
0.373571 0.657755 0.128023
0.421302 0.658457 0.128893
0.470298 0.659327 0.129854
0.518059 0.660609 0.131304
0.562127 0.662943 0.132921
0.601755 0.666209 0.13431
0.640391 0.669154 0.135714
0.678828 0.671733 0.137713
0.715297 0.674052 0.1402
0.748821 0.676799 0.143221
0.778881 0.680201 0.146792
0.805524 0.684169 0.150927
0.82919 0.688594 0.155489
0.850752 0.693721 0.160601
0.870146 0.698772 0.16582
0.887587 0.703929 0.171176
0.903807 0.7093 0.17673
0.918975 0.714763 0.182391
0.933425 0.720577 0.188281
0.947021 0.726055 0.19411
0.959945 0.731411 0.2
0.972366 0.736721 0.205875
0.069688 0.650492 0.0916762
0.085832 0.658 0.0978256
0.103059 0.665202 0.103914
0.12166 0.672007 0.109865
0.142031 0.678264 0.115511
0.164889 0.683925 0.120912
0.190982 0.688914 0.125948
0.22063 0.692515 0.130175
0.255589 0.694575 0.133455
0.296117 0.695216 0.135805
0.339666 0.695262 0.137423
0.385473 0.695598 0.138567
0.432303 0.695796 0.13901
0.480537 0.696193 0.139498
0.528511 0.696941 0.140475
0.57348 0.698558 0.141772
0.613596 0.701427 0.143038
0.650996 0.70454 0.144228
0.687419 0.706905 0.145754
0.722362 0.709041 0.147875
0.754971 0.711284 0.150515
0.784375 0.714168 0.153796
0.810605 0.71783 0.157748
0.833844 0.721813 0.162081
0.854734 0.726055 0.16669
0.873762 0.730526 0.171572
0.890959 0.735119 0.176638
0.906813 0.739834 0.181827
0.921874 0.745007 0.187381
0.935927 0.749905 0.192874
0.949248 0.754711 0.198489
0.96199 0.759487 0.204105
0.974121 0.764065 0.209628
0.0809796 0.689418 0.105241
0.0973068 0.696818 0.111498
0.114778 0.703838 0.117678
0.133639 0.710384 0.123644
0.154711 0.716701 0.12958
0.177951 0.721889 0.134813
0.204334 0.726177 0.139498
0.234592 0.72932 0.14345
0.269688 0.73106 0.146517
0.310887 0.731243 0.148501
0.354696 0.731197 0.149905
0.399649 0.730861 0.150469
0.445823 0.730663 0.150469
0.493324 0.730678 0.1505
0.540948 0.731014 0.150988
0.586221 0.732128 0.151934
0.626551 0.734386 0.152941
0.662745 0.737041 0.153735
0.697658 0.739345 0.154879
0.731197 0.741344 0.156573
0.762631 0.743358 0.158831
0.791287 0.745861 0.161822
0.816754 0.748882 0.165362
0.839368 0.752224 0.169299
0.859785 0.755901 0.173571
0.878416 0.759793 0.178119
0.895323 0.763851 0.182849
0.911009 0.768246 0.187915
0.925536 0.772457 0.19292
0.939239 0.776699 0.198199
0.95227 0.780911 0.203494
0.964752 0.785077 0.208774
0.976806 0.789319 0.214145
0.0945907 0.727001 0.121279
0.111177 0.734173 0.127687
0.12874 0.740917 0.133944
0.14815 0.747448 0.140139
0.169329 0.752926 0.145647
0.193088 0.75761 0.150622
0.220081 0.761288 0.154925
0.251118 0.76379 0.15845
0.287007 0.764965 0.161074
0.32845 0.764965 0.162844
0.371633 0.764263 0.163607
0.416129 0.763561 0.163699
0.461784 0.763027 0.163272
0.508476 0.762631 0.162829
0.55584 0.762768 0.162982
0.600412 0.763317 0.163394
0.640208 0.764843 0.163882
0.675639 0.767086 0.164324
0.70927 0.769207 0.165042
0.741573 0.771054 0.166323
0.772015 0.772946 0.168261
0.799359 0.774929 0.170718
0.823835 0.777264 0.173739
0.845838 0.780102 0.177295
0.865751 0.78323 0.181186
0.884031 0.786725 0.185473
0.90071 0.790341 0.189929
0.91577 0.793866 0.19443
0.929824 0.797452 0.199161
0.943191 0.801129 0.204059
0.955917 0.804837 0.209018
0.968231 0.808667 0.21413
0.979995 0.812299 0.219104
0.110491 0.763027 0.139605
0.127367 0.770001 0.146181
0.144991 0.77644 0.152407
0.164279 0.782177 0.158145
0.185779 0.787121 0.163333
0.209979 0.79118 0.16788
0.237629 0.794171 0.171664
0.270008 0.796094 0.174777
0.306661 0.79649 0.176745
0.347463 0.795819 0.177813
0.390158 0.794766 0.178134
0.43418 0.793683 0.177691
0.479301 0.792828 0.176776
0.525795 0.792309 0.176074
0.571756 0.791791 0.175555
0.615351 0.791852 0.175402
0.654429 0.79292 0.175448
0.689052 0.79472 0.175494
0.721584 0.796597 0.175814
0.75285 0.79826 0.176715
0.781857 0.79968 0.178073
0.808087 0.801328 0.180087
0.831632 0.803281 0.182681
0.852872 0.805539 0.185748
0.872297 0.80827 0.189319
0.890013 0.8112 0.193149
0.906188 0.814191 0.197177
0.920897 0.817243 0.201434
0.934585 0.82034 0.205814
0.947524 0.823453 0.210269
0.960067 0.826932 0.215091
0.971984 0.830167 0.219745
0.98349 0.833356 0.224414
0.127962 0.79733 0.15964
0.144625 0.803754 0.165774
0.16231 0.809598 0.171542
0.181491 0.814847 0.176944
0.203265 0.819181 0.181643
0.227939 0.822568 0.185641
0.256718 0.82504 0.189075
0.289708 0.825864 0.191272
0.326986 0.825437 0.192477
0.367483 0.824247 0.19292
0.409598 0.822873 0.192752
0.453132 0.821408 0.191775
0.49807 0.820386 0.190494
0.543343 0.819287 0.189166
0.588373 0.818433 0.188205
0.630854 0.818158 0.18761
0.668833 0.818738 0.187137
0.702831 0.820279 0.186892
0.734127 0.821729 0.18674
0.76408 0.822919 0.18706
0.791897 0.824002 0.187961
0.817014 0.82533 0.189563
0.839704 0.826963 0.191775
0.860349 0.828977 0.194537
0.878996 0.831098 0.197543
0.896056 0.833448 0.200977
0.911727 0.835966 0.204685
0.926177 0.838636 0.208637
0.93959 0.841443 0.212772
0.95227 0.844251 0.217014
0.964324 0.847044 0.221256
0.975967 0.849897 0.22562
0.987198 0.852705 0.229999
0.145647 0.829206 0.179889
0.162219 0.835019 0.18555
0.180041 0.84033 0.190875
0.199542 0.845014 0.195743
0.221485 0.849104 0.200183
0.246876 0.851865 0.203616
0.276204 0.853269 0.206088
0.31014 0.853223 0.207553
0.347875 0.852155 0.208118
0.387961 0.850492 0.207919
0.429938 0.848829 0.207248
0.472862 0.847044 0.205783
0.51667 0.845426 0.203769
0.561151 0.843976 0.201984
0.605142 0.842771 0.20058
0.646357 0.842176 0.199542
0.683467 0.842573 0.198779
0.71606 0.843442 0.19791
0.746151 0.84445 0.197299
0.774929 0.845335 0.197177
0.801831 0.846143 0.197696
0.825971 0.847227 0.198978
0.847898 0.848646 0.200885
0.867597 0.850156 0.203174
0.885618 0.851896 0.205921
0.902129 0.853819 0.208988
0.917357 0.85597 0.212345
0.931533 0.858351 0.216037
0.944671 0.860838 0.219913
0.956954 0.863218 0.223758
0.968719 0.86566 0.227695
0.980056 0.868101 0.231708
0.990478 0.870542 0.235859
0.163256 0.859144 0.200031
0.179782 0.864225 0.205097
0.197787 0.868864 0.209873
0.217853 0.872999 0.214298
0.240269 0.876204 0.217975
0.265675 0.878264 0.220783
0.296208 0.87866 0.222431
0.330877 0.877943 0.223209
0.368612 0.876371 0.223133
0.408667 0.87451 0.222522
0.449744 0.872374 0.221073
0.491981 0.870192 0.218967
0.535027 0.868208 0.21648
0.578653 0.866407 0.214252
0.621607 0.864897 0.212451
0.661845 0.864149 0.211154
0.697276 0.864073 0.209796
0.728862 0.864576 0.20856
0.758007 0.865263 0.207614
0.785534 0.865812 0.207095
0.811734 0.866545 0.207401
0.834958 0.867338 0.208392
0.855787 0.86833 0.209934
0.874784 0.869535 0.211917
0.892226 0.870985 0.214313
0.908278 0.872633 0.21709
