src/luts/crop/6.cube
TITLE "Generated by Resolve"
LUT_3D_SIZE 9
0.0420844 0.0443275 0.0471351
0.0939803 0.0446326 0.0464637
0.181277 0.0371099 0.0354314
0.318166 0.0187076 0.00907912
0.461402 0.00285344 0
0.593652 0 0
0.692775 0 0
0.761959 9.15541e-05 0
0.816541 0.0135958 0.0012665
0.0471656 0.100603 0.0534218
0.104158 0.104707 0.0586709
0.198703 0.101869 0.0531472
0.34902 0.0893568 0.0318456
0.508614 0.0780804 0.0115053
0.652323 0.074815 0.00444038
0.758297 0.0872358 0.0119326
0.834745 0.111894 0.0344091
0.897948 0.143114 0.0655985
0.0439002 0.186358 0.05066
0.107469 0.200855 0.0647746
0.211566 0.209873 0.0737774
0.379141 0.209827 0.0692302
0.557595 0.21059 0.0613107
0.710018 0.218921 0.0608988
0.815579 0.240955 0.0772564
0.889357 0.271931 0.103426
0.947662 0.306798 0.132342
0.0359045 0.32076 0.0447395
0.105226 0.348058 0.0669413
0.216541 0.366354 0.0856184
0.388235 0.375097 0.0928054
0.573693 0.382757 0.0965591
0.73022 0.39295 0.100816
0.835859 0.414572 0.117281
0.908095 0.445411 0.14284
0.965362 0.479698 0.17116
0.0448615 0.486686 0.0594797
0.114336 0.515877 0.0820783
0.224231 0.533318 0.0999008
0.403677 0.53753 0.107286
0.579248 0.548837 0.114916
0.737408 0.560906 0.125353
0.843626 0.583154 0.144533
0.91458 0.610834 0.169192
0.970138 0.639261 0.194995
0.069688 0.650492 0.0916762
0.142031 0.678264 0.115511
0.255589 0.694575 0.133455
0.432303 0.695796 0.13901
0.613596 0.701427 0.143038
0.754971 0.711284 0.150515
0.854734 0.726055 0.16669
0.921874 0.745007 0.187381
0.974121 0.764065 0.209628
0.127962 0.79733 0.15964
0.203265 0.819181 0.181643
0.326986 0.825437 0.192477
0.49807 0.820386 0.190494
0.668833 0.818738 0.187137
0.791897 0.824002 0.187961
0.878996 0.831098 0.197543
0.93959 0.841443 0.212772
0.987198 0.852705 0.229999
0.197482 0.912703 0.239139
0.277287 0.923568 0.25124
0.408301 0.918364 0.250828
0.570306 0.9075 0.239811
0.723369 0.901473 0.230564
0.829847 0.902129 0.226337
0.905272 0.904952 0.231067
0.959319 0.910323 0.241413
0.998077 0.916854 0.255741
0.256626 0.995819 0.306172
0.345647 0.995575 0.307118
0.478111 0.982895 0.296666
0.631251 0.968887 0.279316
0.768124 0.96083 0.266423
0.861128 0.959106 0.259937
0.927504 0.960128 0.262715
0.976532 0.96379 0.271687
1 0.968719 0.28629
0.0383154 0.0447089 0.0992142
0.0966964 0.0438849 0.101396
0.183642 0.0371252 0.0876326
0.314305 0.0210422 0.0623789
0.457969 0.00434882 0.0353857
0.592172 0.000915541 0.0142214
0.691783 0.000183108 0.0083772
0.761044 0.00573739 0.0183413
0.816098 0.0213626 0.0386816
0.0439918 0.102785 0.109911
0.101884 0.107591 0.114565
0.199908 0.104875 0.10959
0.355856 0.0921492 0.0887007
0.519219 0.0815747 0.0689708
0.663249 0.0798657 0.0603799
0.767605 0.0943618 0.0724346
0.843 0.120516 0.0990768
0.90518 0.152316 0.132555
0.0396277 0.193591 0.106081
0.105669 0.208988 0.120455
0.216373 0.217838 0.131777
0.389258 0.217624 0.125704
0.571054 0.219089 0.116777
0.72372 0.22771 0.117708
0.827008 0.25034 0.136889
0.899062 0.281575 0.165087
0.956329 0.315694 0.196002
0.0352483 0.33257 0.100343
0.104845 0.360372 0.122911
0.218296 0.37882 0.142748
0.39588 0.385901 0.149844
0.584939 0.392828 0.153002
0.741939 0.402594 0.157443
0.845579 0.424567 0.176349
0.91696 0.455451 0.204578
0.974044 0.489311 0.236103
0.0438849 0.499336 0.114397
0.112612 0.528374 0.136568
0.22269 0.545419 0.154223
0.404547 0.548333 0.16199
0.586282 0.558892 0.169879
0.74641 0.571191 0.181598
0.85127 0.593179 0.202823
0.921691 0.620111 0.230015
0.976852 0.647517 0.259358
0.0687877 0.662806 0.148089
0.140154 0.6907 0.171679
0.253437 0.706508 0.189014
0.430701 0.706111 0.194446
0.617105 0.709895 0.197559
0.759625 0.719341 0.20531
0.858854 0.73315 0.222614
0.925475 0.750744 0.245212
0.977295 0.768963 0.271275
0.125948 0.807828 0.219135
0.199863 0.829175 0.241062
0.32105 0.834974 0.251301
0.491722 0.827848 0.248203
0.667018 0.824552 0.242832
0.791806 0.829114 0.242786
0.879393 0.835294 0.252598
0.939864 0.844694 0.269963
0.987106 0.855146 0.290822
0.190265 0.920806 0.306157
0.267491 0.931289 0.317159
0.396109 0.925231 0.314961
0.557015 0.912398 0.301976
0.716197 0.90486 0.289784
0.825711 0.904952 0.284108
0.902144 0.907149 0.289067
0.956481 0.911849 0.301335
0.997467 0.917815 0.319463
0.24239 0.998932 0.382681
0.327871 0.999069 0.381262
0.458824 0.98761 0.36875
0.610864 0.971771 0.348699
0.757076 0.962188 0.332357
0.853834 0.960403 0.324086
0.921462 0.961105 0.327199
0.970962 0.964355 0.339178
1 0.968902 0.357992
0.0285954 0.0426032 0.189548
0.0835889 0.0425879 0.194308
0.186007 0.0323491 0.184909
0.321065 0.0168917 0.149187
0.456458 0.00428779 0.119997
0.584909 0.00204471 0.0986648
0.682414 0.0033875 0.0944228
0.751736 0.0113375 0.105806
0.807721 0.0289769 0.128298
0.0342412 0.101335 0.202426
0.0922408 0.106477 0.212665
0.204288 0.101915 0.212955
0.356283 0.0927901 0.186297
0.512184 0.0865797 0.167865
0.653513 0.0875868 0.160723
0.756878 0.103838 0.174853
0.831556 0.13106 0.204639
0.892973 0.163134 0.24155
0.0357519 0.19617 0.209308
0.0995956 0.213733 0.22771
0.211917 0.224063 0.237842
0.389487 0.223133 0.231479
0.576303 0.224506 0.224369
0.729274 0.233494 0.227604
0.830396 0.256672 0.249378
0.901778 0.287572 0.280476
0.958923 0.32105 0.314504
0.0260166 0.34432 0.201114
0.0958572 0.372839 0.225025
0.212146 0.390906 0.243931
0.397696 0.394705 0.252628
0.590143 0.400504 0.253498
0.748028 0.409491 0.257816
0.849897 0.4318 0.2795
0.920378 0.462242 0.311574
0.977005 0.495827 0.348348
0.0355688 0.510475 0.210224
0.103624 0.5393 0.233555
0.21355 0.556008 0.250523
0.397284 0.557488 0.260273
0.58735 0.566827 0.267781
0.750408 0.579721 0.281254
0.854673 0.601358 0.305394
0.924361 0.627161 0.336553
0.978988 0.65388 0.37142
0.0601816 0.673426 0.244572
0.130434 0.701579 0.269795
0.242542 0.716686 0.286397
0.419532 0.71339 0.291142
0.613138 0.715007 0.293004
0.757885 0.724651 0.301152
0.857404 0.737667 0.320653
0.923476 0.754406 0.347555
0.974456 0.771603 0.377829
0.113283 0.817609 0.324575
0.185702 0.838209 0.345617
0.30454 0.843091 0.353506
0.474388 0.832486 0.34847
0.654704 0.827115 0.340261
0.784772 0.831327 0.338933
0.87332 0.836835 0.349706
0.933761 0.845518 0.369879
0.980621 0.855268 0.394583
0.170367 0.929137 0.420478
0.245426 0.938872 0.42887
0.372244 0.931029 0.422934
0.532387 0.914351 0.408438
0.697154 0.904646 0.392401
0.814557 0.904555 0.384756
0.892119 0.906569 0.388846
0.947082 0.910964 0.403357
0.990723 0.916564 0.424231
0.216464 1 0.501701
0.299489 1 0.496208
0.429129 0.991745 0.480079
0.580804 0.971862 0.459586
0.733455 0.96025 0.440177
0.839658 0.958312 0.430716
0.908721 0.959335 0.432547
0.959091 0.962646 0.445808
0.99736 0.967208 0.466758
0.0104372 0.0371099 0.320516
0.0629129 0.0369879 0.327703
0.157031 0.0284886 0.32311
0.327611 0.00633249 0.296925
0.473518 0.000823987 0.255818
0.592966 0.000106813 0.228489
0.688548 0.00146487 0.222416
0.758312 0.00982681 0.233783
0.815778 0.027985 0.256886
0.0151675 0.0947585 0.337926
0.071809 0.0997177 0.35169
0.17583 0.0971542 0.355901
0.370077 0.082475 0.343053
0.532372 0.07776 0.313649
0.665675 0.0844434 0.304219
0.767254 0.102937 0.317739
0.842786 0.130968 0.346548
0.906096 0.162921 0.381292
0.0176242 0.190906 0.345434
0.0794385 0.208103 0.368612
0.190936 0.218753 0.386267
0.405982 0.216464 0.394659
0.583459 0.222721 0.380636
0.72639 0.236332 0.383856
0.823941 0.260884 0.404334
0.893675 0.292088 0.433127
0.950042 0.325978 0.464866
0.0196231 0.348806 0.365545
0.0863661 0.378973 0.396262
0.197436 0.399298 0.417273
0.387854 0.400961 0.41973
0.584131 0.401816 0.412695
0.74522 0.412146 0.416815
0.846723 0.435172 0.437888
0.917632 0.465476 0.467323
0.974838 0.499001 0.500664
0.0141451 0.523919 0.376013
0.079881 0.553338 0.401419
0.188693 0.570947 0.415366
0.380743 0.569482 0.418952
0.58056 0.573571 0.426902
0.747921 0.586954 0.437903
0.853346 0.607935 0.460029
0.923064 0.632914 0.489036
0.977691 0.658686 0.52018
0.0356756 0.687144 0.401755
0.104646 0.715297 0.427939
0.216114 0.729183 0.44033
0.39556 0.720577 0.438575
0.593332 0.717571 0.441566
0.747463 0.727184 0.44889
0.849241 0.740078 0.467018
0.916075 0.756863 0.49221
0.967773 0.773877 0.5196
0.0864424 0.830686 0.480034
0.157153 0.850706 0.500496
0.274434 0.853651 0.501976
0.445518 0.837079 0.490257
0.624338 0.826261 0.481621
0.769467 0.829908 0.479255
0.860044 0.835843 0.487556
0.921813 0.844587 0.505943
0.969696 0.854398 0.528618
0.141299 0.940917 0.573785
0.213382 0.950332 0.579873
0.338186 0.939818 0.564645
0.499702 0.916854 0.544335
0.662455 0.901701 0.527977
0.797192 0.900694 0.519234
0.876387 0.903975 0.520943
0.93283 0.908492 0.53344
0.977722 0.914244 0.552102
0.186465 1 0.650111
0.264927 1 0.641443
0.392813 0.996017 0.615213
0.546197 0.973114 0.590204
0.696651 0.956329 0.570733
0.8206 0.95314 0.560082
0.892012 0.955688 0.559884
0.943862 0.959716 0.571038
0.987289 0.964767 0.590219
0.000335698 0.0331426 0.450202
0.0445106 0.0331884 0.460029
0.132036 0.0254978 0.458183
0.297581 0.00283818 0.442832
0.479683 0 0.409125
0.621546 0 0.374914
0.715984 0 0.363851
0.784543 0.00224308 0.372839
0.843091 0.0205386 0.395178
0.00198367 0.0907759 0.472648
0.0546883 0.0961776 0.489586
0.153445 0.0939193 0.496086
0.341894 0.0784619 0.494087
0.548012 0.0684367 0.475364
0.700832 0.0725109 0.459495
0.80235 0.0931106 0.468513
0.876799 0.122011 0.493446
0.940032 0.154986 0.524941
0.00331121 0.186679 0.484672
0.0623331 0.204028 0.511437
0.170733 0.213382 0.530343
0.376196 0.209873 0.545922
0.607767 0.212757 0.546349
0.761868 0.225254 0.541299
0.856764 0.25153 0.556405
0.923552 0.283543 0.579721
0.97789 0.319036 0.60679
0.00909438 0.345861 0.50898
0.0738537 0.374807 0.541558
0.179248 0.391608 0.560662
0.36051 0.390387 0.565469
0.597803 0.394507 0.578851
0.748623 0.409598 0.577691
0.844602 0.435843 0.596567
0.912703 0.467597 0.62269
0.967956 0.501854 0.651286
0.0128939 0.528023 0.545235
0.077409 0.558083 0.575631
0.183261 0.577661 0.595728
0.363516 0.581445 0.600305
0.572091 0.579889 0.600198
0.739513 0.587793 0.600519
0.844907 0.607935 0.618051
0.914992 0.6327 0.642069
0.970321 0.658122 0.667262
0.0216526 0.697948 0.57818
0.0889906 0.726818 0.607523
0.195666 0.743053 0.622141
0.368826 0.737041 0.61059
0.573968 0.728145 0.608042
0.737316 0.731563 0.611322
0.841123 0.743526 0.624537
0.909545 0.760189 0.645212
0.962493 0.776684 0.667124
0.0691691 0.841443 0.649927
0.137758 0.861769 0.671855
0.24802 0.867201 0.673365
0.414633 0.849729 0.647745
0.600229 0.833326 0.636423
0.755856 0.830427 0.631678
0.847059 0.836225 0.636194
0.91017 0.844709 0.650858
0.959396 0.854688 0.669337
0.125246 0.948409 0.731151
0.193423 0.958892 0.739025
0.308782 0.952239 0.724132
0.466987 0.926818 0.689479
0.635782 0.906386 0.672663
0.77821 0.899443 0.662242
0.861494 0.902525 0.661418
0.919036 0.907057 0.670634
0.965331 0.912978 0.686168
0.171115 1 0.793667
0.24358 1 0.788647
0.362142 0.999878 0.763058
0.513375 0.981323 0.724483
0.669596 0.960052 0.706828
0.798337 0.951782 0.694972
0.877653 0.953445 0.693751
0.929793 0.958129 0.702388
0.974731 0.963623 0.718318
0 0.0307622 0.564553
0.030518 0.0314183 0.575936
0.114183 0.0250553 0.577279
0.266728 0.0047303 0.566522
0.460227 0 0.547677
0.626993 0 0.518029
0.739742 0 0.505852
0.815595 0 0.513054
0.877058 0.0113527 0.533867
0 0.0896773 0.590295
0.0439307 0.0961929 0.60763
0.140398 0.0956283 0.616785
0.316503 0.0804608 0.617624
0.53669 0.0687266 0.614313
0.712276 0.0695659 0.602502
0.826764 0.0875715 0.610101
0.905272 0.115984 0.631876
0.969635 0.149111 0.659037
0.00030518 0.188449 0.608927
0.0557717 0.207263 0.635752
0.163958 0.217899 0.655436
0.356176 0.21146 0.668132
0.599878 0.213397 0.683497
0.77583 0.222416 0.681285
0.880323 0.245731 0.692943
0.950683 0.277241 0.711833
0.998703 0.313115 0.733394
0.00239567 0.346838 0.630732
0.0617227 0.375204 0.661814
0.166186 0.389868 0.679896
0.3402 0.381888 0.682719
0.581537 0.388678 0.711269
0.77055 0.401907 0.717311
0.872694 0.426673 0.730205
0.940352 0.459754 0.750317
0.992569 0.495323 0.771771
0.0142672 0.529046 0.678233
0.0793317 0.559075 0.708568
0.185122 0.577905 0.728695
0.356237 0.57644 0.728099
0.552834 0.574823 0.729229
0.747219 0.584009 0.742168
0.844526 0.605722 0.754223
0.910597 0.631785 0.77322
0.963653 0.65771 0.792477
0.0253452 0.701732 0.720287
0.0927901 0.73019 0.749538
0.19855 0.745968 0.766079
0.366384 0.743496 0.763973
0.558434 0.739986 0.760632
0.729244 0.735821 0.75819
0.834318 0.744045 0.764187
0.902022 0.758495 0.777432
0.954559 0.773739 0.791852
0.0699626 0.845014 0.785718
0.137804 0.864713 0.807355
0.245151 0.87068 0.812619
0.40296 0.859602 0.797803
0.579507 0.846098 0.778271
0.74081 0.836027 0.772351
0.837812 0.838392 0.772702
0.901549 0.845808 0.78172
0.952041 0.855344 0.794171
0.12401 0.950134 0.852125
0.190707 0.96025 0.861219
0.301518 0.955428 0.853147
0.450034 0.937316 0.829038
0.614206 0.917067 0.801907
0.760327 0.904753 0.793652
0.852476 0.903807 0.790402
0.909529 0.907942 0.795453
0.956725 0.913344 0.805447
0.168383 1 0.898985
0.23827 1 0.897627
0.351934 1 0.880903
0.493904 0.992035 0.851255
0.648753 0.968917 0.823575
0.78146 0.956817 0.816144
0.867796 0.954955 0.812894
0.921523 0.959426 0.817853
0.967132 0.964965 0.828656
0 0.0301823 0.646174
0.0226749 0.0315709 0.656825
0.103838 0.0265202 0.659632
0.249042 0.00767529 0.652537
0.440513 0 0.642191
0.619699 0 0.620966
0.743999 0 0.6112
0.827008 0 0.620035
0.892332 0.0118105 0.640772
0 0.0907759 0.671473
0.0399939 0.0984817 0.687617
0.135607 0.0995346 0.697658
0.306096 0.086305 0.701183
0.526268 0.0746471 0.705547
0.712871 0.0754101 0.700236
0.83415 0.0923018 0.708141
0.916121 0.120302 0.728527
0.980697 0.153368 0.752789
0 0.193088 0.694011
0.0567483 0.213367 0.718639
0.165362 0.225116 0.737163
0.352941 0.219608 0.749538
0.593194 0.220081 0.768719
0.77731 0.229679 0.77203
0.886702 0.251362 0.783475
0.959854 0.282109 0.801358
1 0.317662 0.820935
0.000503548 0.352789 0.717159
0.0622721 0.381216 0.7449
0.168078 0.395499 0.760815
0.339483 0.386664 0.762753
0.568032 0.389303 0.787976
0.771664 0.40763 0.806989
0.880644 0.430671 0.819898
0.952209 0.462409 0.838087
0.999573 0.496849 0.856565
0.0161593 0.533654 0.765713
0.0829328 0.563729 0.793576
0.18938 0.581353 0.810559
0.352407 0.575387 0.803037
0.543145 0.571038 0.804669
0.749187 0.586496 0.832944
0.859281 0.604852 0.84358
0.926604 0.629938 0.858213
0.977386 0.656077 0.873014
0.0333562 0.707179 0.813016
0.101579 0.735119 0.839551
0.208804 0.749813 0.854566
0.37528 0.746059 0.852537
0.562234 0.741085 0.849973
0.72488 0.73843 0.849134
0.831983 0.745373 0.854795
0.89659 0.759579 0.865156
0.948119 0.774487 0.876143
0.0769818 0.849226 0.872755
0.14493 0.867979 0.892348
0.252735 0.87277 0.897597
0.408316 0.86154 0.886351
0.57847 0.850492 0.875105
0.731899 0.842344 0.865919
0.833265 0.840589 0.866606
0.898222 0.846571 0.871794
0.948577 0.854353 0.878843
0.12874 0.952102 0.929107
0.195239 0.961196 0.937942
0.305562 0.95613 0.932097
0.45095 0.939116 0.913542
0.60734 0.923339 0.895094
0.750835 0.910475 0.880796
0.845808 0.906264 0.879683
0.904601 0.909209 0.881819
0.952407 0.914 0.887434
0.170962 1 0.968963
0.24033 1 0.968734
0.352819 1 0.954971
0.491798 0.994461 0.931685
0.638956 0.975906 0.909255
0.772641 0.962051 0.896132
0.85948 0.958343 0.895491
0.917952 0.961227 0.898192
0.963882 0.966964 0.904967
0 0.0312963 0.699062
0.0198367 0.0334325 0.708782
0.0990616 0.0294957 0.712505
0.239872 0.011902 0.707805
0.427482 0 0.701823
0.613153 0 0.687327
0.744289 0 0.679881
0.832517 0.00115969 0.690105
0.900572 0.0189212 0.711604
0 0.0937057 0.724285
0.0409705 0.1028 0.739956
0.136522 0.105501 0.750713
0.304433 0.0942397 0.755978
0.522622 0.0838636 0.763943
0.71458 0.0851606 0.763058
0.838666 0.101915 0.772305
0.922988 0.129686 0.792874
0.989349 0.162371 0.816907
0 0.199817 0.749569
0.0618906 0.221622 0.773205
0.171237 0.234165 0.790982
0.355856 0.229694 0.803433
0.590723 0.230304 0.824094
0.778119 0.240513 0.831174
0.889738 0.261616 0.843366
0.964767 0.29189 0.861601
1 0.327153 0.881483
0.00201419 0.361715 0.774426
0.0687419 0.390112 0.799893
0.175845 0.403815 0.814633
0.345739 0.395544 0.816709
0.56463 0.396338 0.839185
0.771313 0.417044 0.864622
0.883558 0.440436 0.879362
0.957244 0.470893 0.89749
1 0.503929 0.915465
0.022797 0.541695 0.822782
0.090898 0.571633 0.849088
0.198978 0.588296 0.864179
0.358419 0.580026 0.85362
0.543832 0.57438 0.854948
0.746563 0.591821 0.887602
0.862821 0.611307 0.902266
0.933761 0.63415 0.91632
0.987289 0.658274 0.929732
0.0436713 0.714855 0.872633
0.112871 0.741726 0.897612
0.222675 0.755093 0.911223
0.387808 0.749783 0.907591
0.567254 0.742794 0.901778
0.723537 0.740368 0.901869
0.839841 0.747585 0.913283
0.904982 0.760555 0.921111
0.953643 0.775296 0.930251
0.0868238 0.854963 0.930236
0.155154 0.872236 0.948516
0.266102 0.875166 0.952468
0.41976 0.863539 0.941741
0.585992 0.852049 0.931502
0.734142 0.845304 0.926299
0.832609 0.843458 0.92575
0.896162 0.848173 0.928832
0.946426 0.855207 0.933562
0.136263 0.954925 0.982193
0.203983 0.962844 0.99057
0.315343 0.956832 0.984649
0.458839 0.939879 0.967483
0.611353 0.92462 0.951904
0.748058 0.914733 0.941039
0.842832 0.909285 0.937682
0.902861 0.910918 0.93962
0.951888 0.915114 0.943267
0.177005 1 1
0.247227 1 1
0.35996 1 0.999664
0.496925 0.995056 0.983948
0.640299 0.978286 0.965454
0.76849 0.966522 0.951736
0.856718 0.961776 0.950149
0.915938 0.963577 0.95256
0.963317 0.969482 0.958038
0 0.033463 0.736019
0.019379 0.0363622 0.74548
0.0970321 0.0334783 0.749874
0.234974 0.0176394 0.74699
0.419135 0.000671397 0.743648
0.608499 0 0.733394
0.744854 0.000213626 0.728435
0.837217 0.00588998 0.740215
0.907347 0.0288701 0.762341
0 0.0979782 0.762142
0.0443427 0.108461 0.778424
0.139849 0.112413 0.789975
0.306386 0.103166 0.796918
0.522454 0.0945602 0.807675
0.717037 0.0966506 0.81004
0.843076 0.113619 0.820539
0.928634 0.141207 0.841657
0.993759 0.173526 0.865873
0.00291447 0.208118 0.790509
0.0688182 0.231281 0.814115
0.178943 0.244053 0.831693
0.361013 0.240665 0.84445
0.590127 0.241901 0.866102
0.778332 0.252461 0.876036
0.891173 0.273854 0.889403
0.967636 0.303929 0.908125
1 0.338903 0.92842
0.00984207 0.371969 0.816999
0.0771954 0.400259 0.841779
0.185794 0.413169 0.855619
0.354025 0.405432 0.857984
0.564965 0.405783 0.878813
0.77052 0.427771 0.908141
0.884825 0.451972 0.924926
0.95964 0.481605 0.943481
1 0.513313 0.961578
0.031693 0.551339 0.865736
0.100877 0.58088 0.891539
0.211566 0.596231 0.904952
0.367971 0.58645 0.892744
0.548028 0.58024 0.894148
0.743679 0.59794 0.927779
0.863737 0.619333 0.946929
0.936492 0.640986 0.961349
0.991623 0.663005 0.974441
0.055314 0.723613 0.917739
0.125597 0.749233 0.941924
0.239826 0.760235 0.953445
0.401862 0.753811 0.948409
0.572824 0.7449 0.939559
0.723903 0.742977 0.941161
0.840528 0.752056 0.957321
0.91046 0.76347 0.965667
0.96112 0.776577 0.973419
0.0983444 0.860883 0.974243
0.168536 0.876463 0.990906
0.282231 0.877485 0.991989
0.433845 0.865324 0.983001
0.59559 0.853483 0.972808
0.73875 0.847074 0.96788
0.832624 0.846082 0.968063
0.898665 0.850004 0.972641
0.945541 0.857313 0.977386
0.145449 0.958114 1
0.215244 0.964584 1
0.328695 0.957351 1
0.470634 0.940185 0.99971
0.619913 0.925231 0.993912
0.752483 0.916274 0.985763
0.841413 0.912398 0.982483
0.902205 0.91284 0.984527
0.950881 0.916533 0.987289
0.184985 1 1
0.258045 1 1
0.371359 1 1
0.506142 0.994766 1
0.647288 0.978897 1
0.769848 0.969497 0.996033
0.855604 0.965103 0.993606
0.914748 0.966659 0.997467
0.9635 0.972152 1
