src/luts/crop/7.cube
TITLE "Generated by Resolve"
LUT_3D_SIZE 33
0.0400244 0.0575875 0.0755016
0.0533761 0.0570993 0.0775921
0.0651255 0.0567636 0.0761425
0.0763256 0.0569924 0.0746319
0.0882887 0.0568399 0.0721752
0.10164 0.0561837 0.0689555
0.116793 0.0549935 0.0649882
0.134081 0.0530556 0.0598611
0.154025 0.0503395 0.0532387
0.177615 0.0465095 0.0458534
0.204303 0.0414282 0.0374304
0.233188 0.0356909 0.0272068
0.263493 0.0297093 0.015671
0.296193 0.0227207 0.00767529
0.328252 0.0170138 0.00228885
0.359014 0.013077 0.000534066
0.391089 0.00927749 0
0.424643 0.00508125 0
0.457053 0.00166323 0
0.489296 0.000411994 0
0.52221 1.5259e-05 0
0.552361 0 0
0.579705 0 0
0.603784 0 0
0.62974 0 0
0.654322 0 0
0.6757 0 0
0.694636 0 0
0.711879 0 0
0.725689 0 0
0.738415 0 0
0.750637 0.000122072 0
0.765148 0.000976577 0
0.0419928 0.069688 0.0777142
0.0544594 0.070634 0.0797284
0.0671702 0.0707256 0.0798962
0.0789807 0.0706493 0.0782025
0.0909743 0.0704509 0.0761578
0.105135 0.0696269 0.0734875
0.120928 0.0682536 0.069749
0.139391 0.0661784 0.065507
0.160449 0.0631266 0.0600443
0.185138 0.0587625 0.0542
0.212772 0.0535134 0.0465705
0.242252 0.0479438 0.0362249
0.273167 0.0421607 0.0243229
0.305669 0.0361181 0.0131075
0.337423 0.0303502 0.00444038
0.36878 0.0250858 0.0012665
0.401343 0.0196231 1.5259e-05
0.434913 0.0138857 0
0.468223 0.00859083 0
0.501335 0.00437934 0
0.532753 0.00424201 0
0.563912 0.0033875 0
0.592371 0.00271611 0
0.616922 0.00238041 0
0.642176 0.00236515 0
0.66688 0.00224308 0
0.688396 0.00231937 0
0.7075 0.00268559 0
0.725155 0.0031281 0
0.741192 0.0041352 0
0.755993 0.00531014 0
0.770245 0.00691234 0
0.784192 0.0089723 0
0.0425422 0.0831617 0.0784161
0.0554513 0.0841993 0.0805829
0.0696269 0.084184 0.082414
0.0825208 0.0842145 0.0822766
0.0940414 0.0843519 0.0814069
0.107927 0.0837415 0.0791791
0.124453 0.0824903 0.0768902
0.143557 0.0802167 0.0737011
0.16553 0.0770581 0.069398
0.190936 0.0727855 0.0640421
0.219348 0.0675975 0.0568246
0.249744 0.0620432 0.0469215
0.281697 0.0565805 0.0348669
0.314229 0.0508888 0.0225071
0.347112 0.0452583 0.0106813
0.38024 0.039765 0.00344854
0.414359 0.0343023 0.000991836
0.449058 0.0288853 0.000274662
0.483696 0.0237278 0
0.517388 0.0188907 0
0.549798 0.0153353 0
0.580545 0.0129244 0
0.609262 0.0112917 0
0.636362 0.0104524 0
0.661051 0.0102235 0
0.68394 0.0104524 0
0.704723 0.0115053 0
0.72398 0.0132601 0
0.742031 0.0153353 0
0.758801 0.0180972 0
0.774411 0.0217594 0
0.789273 0.0255131 0
0.803601 0.0297551 0
0.043595 0.0970474 0.0788586
0.0562905 0.0983749 0.0813916
0.0703136 0.0986343 0.0831311
0.085481 0.0986496 0.0848249
0.098436 0.0988479 0.0853132
0.11107 0.0991379 0.0843824
0.127489 0.0980087 0.0825208
0.146761 0.096025 0.079942
0.169177 0.0930495 0.0761883
0.195102 0.0890211 0.0711528
0.224598 0.084123 0.0644236
0.256123 0.0786755 0.0553597
0.289174 0.0730144 0.0447852
0.323491 0.0670787 0.0344701
0.358587 0.0611734 0.0253452
0.393301 0.0557565 0.0164034
0.429328 0.0505684 0.009308
0.464973 0.0453956 0.00411994
0.500008 0.0406348 0.00122072
0.534081 0.0363775 0.000244144
0.566949 0.0327153 0
0.598321 0.0297551 0
0.627665 0.0281376 0
0.654765 0.0272984 0
0.680003 0.0273594 0
0.703212 0.0281224 0
0.724422 0.0300603 0
0.744137 0.0331121 0
0.762554 0.0368048 0
0.779614 0.0408484 0
0.795727 0.0458534 0
0.811139 0.0512093 0
0.825986 0.0568704 0
0.0440986 0.111833 0.0791485
0.056733 0.11342 0.0818036
0.0706951 0.114137 0.08336
0.0859083 0.114595 0.0850538
0.103136 0.114427 0.0875715
0.116915 0.114824 0.087892
0.130495 0.11516 0.0863508
0.14934 0.11371 0.0846571
0.171878 0.111177 0.0816205
0.19852 0.107591 0.0771038
0.228855 0.102785 0.0709544
0.262104 0.097261 0.0635996
0.297215 0.0914168 0.0556039
0.333196 0.0855268 0.047364
0.369436 0.0798962 0.0393072
0.406027 0.074876 0.0310826
0.442893 0.0697795 0.0218051
0.479866 0.0647746 0.012665
0.515984 0.0602579 0.00628672
0.551232 0.0563668 0.00325017
0.585443 0.0530404 0.00161746
0.618128 0.0507973 0.000411994
0.647852 0.0496071 0.000396735
0.675471 0.0495003 0.000366217
0.701198 0.0503853 0.00047303
0.724956 0.0521706 0.000640879
0.747127 0.055024 0.000793469
0.766934 0.0588846 0.000991836
0.785565 0.0634165 0.00131228
0.803098 0.0683757 0.0015259
0.819715 0.0739757 0.00170901
0.835798 0.080415 0.00140383
0.851408 0.0870527 0.00151064
0.0439307 0.127916 0.0787976
0.0566567 0.1299 0.0816358
0.0704662 0.131182 0.0835431
0.0857862 0.132082 0.0851606
0.103471 0.132265 0.0873579
0.122911 0.131991 0.0903334
0.137255 0.132815 0.0902419
0.152941 0.133013 0.0882734
0.175326 0.131334 0.0864881
0.201984 0.128176 0.0827955
0.232807 0.123827 0.0774548
0.267002 0.118669 0.070985
0.303334 0.1131 0.0640116
0.340993 0.107622 0.0569162
0.378592 0.102403 0.0497292
0.416098 0.0975814 0.0424964
0.454932 0.0926375 0.0354009
0.493828 0.0878157 0.0279393
0.531884 0.0833448 0.0203403
0.569192 0.0797284 0.0136568
0.604517 0.0767376 0.00808728
0.637812 0.0747997 0.00384527
0.668772 0.0741436 0.0030518
0.697093 0.0747845 0.00300603
0.723476 0.0764324 0.00355535
0.748104 0.0793469 0.00450141
0.770382 0.082826 0.00556954
0.7906 0.0874037 0.00683604
0.809628 0.0926833 0.00901808
0.827665 0.098497 0.0116426
0.844862 0.104723 0.0134127
0.861494 0.111803 0.0166018
0.877317 0.11902 0.0204166
0.0431373 0.145647 0.0777905
0.0561074 0.148211 0.0809186
0.0698863 0.149889 0.0830549
0.0849622 0.151415 0.0850538
0.103014 0.152041 0.0872969
0.123705 0.152087 0.089662
0.145312 0.152102 0.09337
0.160128 0.153643 0.0922255
0.179339 0.153399 0.0902876
0.205707 0.151034 0.0880293
0.236759 0.147372 0.0838941
0.271427 0.142794 0.078294
0.308873 0.137896 0.0720531
0.347509 0.132845 0.065568
0.386465 0.128099 0.0592966
0.425498 0.123674 0.053193
0.465675 0.119249 0.0471199
0.506035 0.114946 0.0410925
0.546059 0.111101 0.0352941
0.584207 0.107836 0.0295415
0.620768 0.105364 0.0250401
0.655436 0.103853 0.0218662
0.68777 0.103532 0.0196078
0.716884 0.104692 0.0179141
0.744228 0.107088 0.0175631
0.769039 0.110353 0.0185092
0.791928 0.114519 0.0206302
0.81294 0.119493 0.0238804
0.832532 0.125216 0.028275
0.851423 0.131838 0.0335241
0.86894 0.138537 0.0385901
0.885649 0.145632 0.0442817
0.901701 0.15317 0.0504005
0.0416114 0.165301 0.0758831
0.0546731 0.168276 0.0792248
0.0685283 0.17052 0.0817578
0.0836347 0.17261 0.084184
0.101472 0.174075 0.0864271
0.122377 0.174914 0.0888533
0.146761 0.174884 0.0922103
0.170947 0.174975 0.0963912
0.186221 0.177172 0.0937057
0.210071 0.176318 0.0920119
0.241032 0.173495 0.0894789
0.276371 0.16997 0.08542
0.314061 0.165759 0.0802167
0.353399 0.161425 0.0746471
0.393439 0.157321 0.0691997
0.43389 0.15349 0.06392
0.475715 0.149844 0.0586099
0.51754 0.146242 0.0532998
0.558206 0.142977 0.0482643
0.597421 0.140246 0.0438697
0.634852 0.138415 0.0404822
0.670222 0.13756 0.0383307
0.703563 0.138094 0.0373541
0.733669 0.139788 0.0375525
0.761166 0.142443 0.0386664
0.78648 0.146059 0.0408637
0.80975 0.150546 0.0440223
0.831342 0.15581 0.0483711
0.851377 0.162371 0.0537728
0.869932 0.169024 0.0591592
0.88751 0.176089 0.0648051
0.904265 0.183505 0.0708019
0.920119 0.191241 0.0770886
0.0389715 0.187015 0.0727092
0.0522011 0.190509 0.0763409
0.0661936 0.193423 0.0793011
0.0814527 0.196231 0.0822003
0.0990921 0.198703 0.0848554
0.119753 0.200381 0.0873579
0.144472 0.201022 0.0902266
0.17261 0.200793 0.0944839
0.200336 0.200931 0.0991836
0.216022 0.204303 0.0944839
0.245655 0.202899 0.0933089
0.280934 0.200046 0.0911269
0.319036 0.196811 0.087602
0.358877 0.193454 0.08336
0.399542 0.190219 0.0789654
0.441184 0.187396 0.0747387
0.483864 0.184314 0.0701762
0.526787 0.181292 0.0656443
0.568673 0.178592 0.0613413
0.608667 0.176501 0.057557
0.646601 0.175296 0.0546731
0.682567 0.175433 0.0530556
0.71577 0.176364 0.0524147
0.74609 0.178515 0.0530861
0.773693 0.181735 0.054963
0.799039 0.185824 0.0577401
0.822293 0.190768 0.0614176
0.844099 0.196811 0.0662699
0.863844 0.203174 0.071519
0.882322 0.21001 0.0771954
0.899672 0.217258 0.0830091
0.916152 0.224796 0.0890059
0.932052 0.23299 0.0955215
0.0352941 0.211185 0.0683757
0.0486152 0.215259 0.072282
0.0628061 0.218875 0.0756542
0.0783093 0.222644 0.0791028
0.0957961 0.225772 0.0821851
0.116121 0.228397 0.085069
0.140475 0.230121 0.0878614
0.169604 0.23061 0.0914473
0.20235 0.230381 0.0966506
0.234775 0.230716 0.101961
0.251698 0.234806 0.095613
0.285328 0.233249 0.0945602
0.323598 0.230945 0.0931563
0.363882 0.228626 0.0907149
0.405432 0.226734 0.0878767
0.447257 0.224674 0.0847181
0.490242 0.222324 0.0810712
0.533623 0.22002 0.0773327
0.57612 0.217884 0.0737163
0.61709 0.21651 0.0707408
0.655772 0.215869 0.0684825
0.691722 0.216159 0.0671397
0.725093 0.217456 0.0668498
0.755581 0.219913 0.0677043
0.783108 0.223529 0.0697032
0.808454 0.228275 0.072755
0.831495 0.23357 0.0765545
0.852674 0.239445 0.0809796
0.872145 0.245914 0.0859388
0.890227 0.252842 0.0913558
0.907347 0.26006 0.0970169
0.923842 0.267948 0.10312
0.9393 0.275624 0.109102
0.0308385 0.237858 0.0632334
0.0443732 0.242924 0.0675669
0.0587472 0.247242 0.0713512
0.0744182 0.25156 0.0752117
0.0919814 0.255543 0.0788281
0.112139 0.259113 0.0822461
0.136034 0.261936 0.085359
0.165026 0.263828 0.0887465
0.199268 0.264073 0.0931258
0.237537 0.263493 0.0991379
0.273625 0.263951 0.104463
0.293172 0.268376 0.097612
0.328435 0.267826 0.0963302
0.368704 0.266682 0.0959029
0.410315 0.265476 0.0947585
0.452491 0.264363 0.0929732
0.49572 0.262898 0.0905013
0.539208 0.261295 0.0876631
0.581949 0.259968 0.0849012
0.622827 0.259083 0.0824903
0.661418 0.258701 0.0806287
0.697475 0.259251 0.0796674
0.730892 0.260792 0.0796521
0.761471 0.263371 0.0806134
0.789105 0.267369 0.082826
0.814084 0.271977 0.0857404
0.836805 0.277211 0.0894179
0.857694 0.28307 0.0936904
0.877043 0.289418 0.0984512
0.894789 0.296208 0.103593
0.911803 0.303746 0.109316
0.927749 0.311086 0.114916
0.942855 0.318624 0.120684
0.0261997 0.267384 0.0580453
0.0398413 0.272969 0.0626993
0.05449 0.278096 0.0669261
0.0703746 0.283162 0.0712291
0.0880903 0.287938 0.0753796
0.108263 0.292378 0.0793317
0.132006 0.296452 0.0830243
0.16022 0.299138 0.0864271
0.194324 0.300389 0.0902113
0.234791 0.300114 0.0953841
0.278477 0.299321 0.102113
0.316426 0.300587 0.106966
0.338994 0.305425 0.100359
0.373892 0.306127 0.0986038
0.414603 0.30576 0.0989548
0.457084 0.305379 0.0988785
0.500572 0.304753 0.0978103
0.544625 0.304265 0.0962234
0.587091 0.303319 0.0942245
0.627604 0.302678 0.0923629
0.665858 0.302632 0.0910048
0.701564 0.30338 0.0903334
0.734752 0.305241 0.0906233
0.76524 0.308049 0.091783
0.792416 0.311681 0.0938125
0.817029 0.316091 0.0967117
0.839475 0.321233 0.100298
0.860136 0.326955 0.104479
0.879423 0.333471 0.109255
0.897093 0.340291 0.114382
0.913741 0.347372 0.119799
0.92961 0.354757 0.125414
0.943206 0.362371 0.131228
0.0218662 0.299199 0.0533608
0.0356909 0.305562 0.0584268
0.0506447 0.311437 0.0631113
0.0667277 0.317189 0.0678111
0.0847334 0.323049 0.0725414
0.105028 0.328206 0.0769818
0.128511 0.332723 0.0810407
0.156207 0.336309 0.0847181
0.189563 0.338521 0.0882734
0.230137 0.338949 0.0925307
0.277745 0.338247 0.0987411
0.32459 0.337697 0.105928
0.362921 0.33962 0.110063
0.386069 0.344793 0.103212
0.42002 0.346746 0.101045
0.461219 0.347021 0.102052
0.505211 0.347112 0.102724
0.548928 0.346807 0.102388
0.591424 0.346395 0.101335
0.631785 0.346136 0.10016
0.669734 0.346349 0.0993515
0.705226 0.347433 0.0991531
0.737987 0.349386 0.0996719
0.76788 0.351965 0.100893
0.794858 0.355459 0.102953
0.819257 0.359823 0.105974
0.84155 0.364935 0.109682
0.862242 0.370932 0.114092
0.881392 0.37731 0.118898
0.899138 0.38407 0.124117
0.915846 0.391302 0.129763
0.931823 0.39881 0.135576
0.943832 0.406516 0.141588
0.0184482 0.333333 0.0499733
0.032517 0.340398 0.0554208
0.047715 0.346914 0.0605173
0.0641642 0.353582 0.0657054
0.0822309 0.359731 0.0707103
0.102647 0.365423 0.0755322
0.126085 0.37052 0.0799878
0.153399 0.374731 0.0839857
0.186023 0.377661 0.0875257
0.226139 0.379156 0.091249
0.274174 0.378332 0.0961471
0.326238 0.376806 0.10312
0.373495 0.376944 0.110384
0.412024 0.379263 0.114031
0.4336 0.385611 0.106325
0.466972 0.388617 0.103777
0.509133 0.388663 0.104997
0.552743 0.388403 0.106142
0.595209 0.388327 0.106371
0.635538 0.388434 0.106081
0.673716 0.389303 0.106065
0.708812 0.390448 0.106325
0.741176 0.39234 0.107179
0.770855 0.39498 0.108659
0.797818 0.398505 0.111025
0.822278 0.403159 0.114397
0.844709 0.408682 0.118547
0.865293 0.414572 0.123125
0.884443 0.420935 0.128145
0.902358 0.427771 0.133562
0.919097 0.435126 0.139406
0.935073 0.442985 0.145632
0.94519 0.450919 0.151904
0.0164187 0.369375 0.0483711
0.0307774 0.377005 0.0541848
0.0464027 0.384512 0.0598459
0.0629892 0.391318 0.0652476
0.0811475 0.397833 0.0705119
0.101701 0.403922 0.0756237
0.125093 0.409369 0.080354
0.152316 0.414267 0.0846876
0.184405 0.417655 0.0882734
0.22327 0.419226 0.0914168
0.270878 0.418692 0.0951705
0.324834 0.416785 0.100954
0.378317 0.415442 0.108659
0.424704 0.416693 0.11574
0.462882 0.419074 0.11899
0.480186 0.426871 0.109087
0.514076 0.429221 0.106203
0.556466 0.428946 0.107683
0.598917 0.428885 0.109316
0.639643 0.429618 0.110445
0.677516 0.430518 0.111299
0.712627 0.432044 0.112352
0.744976 0.434272 0.113802
0.774716 0.437232 0.115801
0.801923 0.441184 0.118715
0.82652 0.446265 0.12256
0.848829 0.451774 0.126925
0.869383 0.457832 0.131792
0.888533 0.464363 0.137102
0.906523 0.471305 0.142718
0.923354 0.478874 0.148806
0.938247 0.486625 0.155062
0.946654 0.494316 0.161273
0.0166171 0.407324 0.0488441
0.0307469 0.415534 0.0549935
0.0464179 0.423011 0.0607309
0.0632334 0.430182 0.066392
0.0814832 0.436973 0.07187
0.102007 0.443244 0.0770733
0.12546 0.449119 0.0819867
0.1523 0.453895 0.0862593
0.18381 0.457343 0.0897688
0.221714 0.459144 0.0925612
0.268254 0.458824 0.0953994
0.322316 0.456779 0.0997482
0.379309 0.45478 0.10663
0.431342 0.454078 0.114427
0.475242 0.455528 0.120851
0.513268 0.457542 0.123781
0.526574 0.466606 0.111177
0.56173 0.468528 0.108888
0.60296 0.4692 0.110567
0.643503 0.469749 0.112917
0.681575 0.471061 0.115068
0.716945 0.473106 0.117281
0.749462 0.475883 0.119707
0.779538 0.479759 0.122683
0.80679 0.483925 0.125994
0.831098 0.48893 0.130037
0.853315 0.494575 0.134661
0.873793 0.500725 0.139727
0.892882 0.507393 0.14519
0.910887 0.514641 0.151064
0.927565 0.521904 0.157061
0.941329 0.52932 0.16321
0.947601 0.536812 0.169314
0.0176089 0.446967 0.0504311
0.0313878 0.455207 0.0565805
0.0472114 0.462943 0.0624552
0.0640269 0.470253 0.068101
0.0822461 0.477104 0.0735485
0.102708 0.483772 0.0787976
0.125826 0.489265 0.0834669
0.1523 0.493812 0.087541
0.183215 0.497154 0.0908522
0.220142 0.498894 0.0933394
0.265568 0.498848 0.0954299
0.318654 0.496803 0.0983749
0.37615 0.493904 0.10367
0.43238 0.491905 0.111086
0.481697 0.492088 0.118761
0.524712 0.493904 0.125032
0.564462 0.495888 0.128161
0.57763 0.505592 0.115389
0.608972 0.50927 0.112016
0.647334 0.510613 0.113725
0.685573 0.512016 0.116945
0.72105 0.51429 0.120287
0.753979 0.517754 0.123919
0.783764 0.521553 0.127626
0.811002 0.526009 0.131624
0.835325 0.531136 0.136019
0.857404 0.536828 0.140902
0.877745 0.543023 0.146166
0.896742 0.549813 0.151827
0.914412 0.556588 0.157626
0.931044 0.563684 0.163607
0.943923 0.570855 0.169726
0.948592 0.578073 0.17583
0.0187076 0.487648 0.0526589
0.032578 0.495964 0.0587472
0.0484169 0.503746 0.0646067
0.0652781 0.511162 0.0702068
0.0835126 0.518105 0.0755474
0.103609 0.524178 0.0804608
0.12636 0.529412 0.0849012
0.152483 0.533669 0.0887312
0.182834 0.536706 0.0917678
0.219028 0.538476 0.0940108
0.26305 0.538293 0.0955673
0.314763 0.536309 0.0975052
0.372229 0.53341 0.101488
0.430961 0.530907 0.108141
0.485222 0.530098 0.116213
0.533028 0.531609 0.123949
0.576959 0.533684 0.130388
0.617105 0.535088 0.133639
0.627955 0.545769 0.120394
0.654643 0.551003 0.115969
0.689815 0.553338 0.117784
0.725597 0.555901 0.121828
0.75819 0.558907 0.126177
0.78793 0.562722 0.130678
0.81503 0.567208 0.135332
0.839246 0.572305 0.140246
0.861357 0.578332 0.145632
0.881422 0.584298 0.151125
0.900099 0.5906 0.156802
0.917571 0.597101 0.162661
0.934005 0.603784 0.168643
0.946288 0.61062 0.17467
0.949691 0.617823 0.180972
0.0199588 0.528161 0.0552224
0.0339818 0.536355 0.0611582
0.0498665 0.544152 0.0669413
0.0666972 0.551431 0.0724193
0.0847639 0.55787 0.0774853
0.104768 0.563714 0.0822156
0.127291 0.568841 0.0865644
0.153338 0.573053 0.0903639
0.183825 0.576593 0.0936141
0.219547 0.578363 0.0958877
0.262776 0.578317 0.0973068
0.313451 0.576638 0.0986801
0.370169 0.573938 0.101518
0.430106 0.571359 0.107134
0.487953 0.569802 0.11487
0.539818 0.569924 0.123064
0.586236 0.571588 0.130449
0.630335 0.57348 0.136919
0.66601 0.575891 0.138293
0.676417 0.586969 0.126131
0.69894 0.593515 0.121309
0.730312 0.59678 0.12314
0.762676 0.599542 0.127565
0.792309 0.603037 0.132433
0.819211 0.607248 0.137545
0.843534 0.612482 0.143099
0.865125 0.617884 0.148699
0.884978 0.623606 0.154437
0.903426 0.629572 0.160266
0.920653 0.635706 0.166247
0.936553 0.641932 0.17229
0.948684 0.648646 0.178546
0.950973 0.655131 0.184634
0.0215152 0.567941 0.0582132
0.0359655 0.576196 0.0641794
0.0518654 0.583719 0.0698711
0.0686961 0.590631 0.0751965
0.0869001 0.59704 0.0802777
0.107088 0.602914 0.0850843
0.1299 0.608255 0.0895857
0.156085 0.612909 0.0936599
0.186511 0.61622 0.0969406
0.222171 0.618173 0.0993668
0.265064 0.618372 0.100786
0.314946 0.616983 0.101884
0.371008 0.614664 0.103944
0.430762 0.611948 0.10837
0.490181 0.609583 0.115145
0.545663 0.608545 0.123247
0.595514 0.609186 0.131182
0.640406 0.611093 0.138216
0.683177 0.61323 0.144411
0.714687 0.616464 0.144579
0.723568 0.627176 0.133608
0.741176 0.634806 0.128328
0.768048 0.639048 0.129717
0.796963 0.642313 0.134173
0.823957 0.646479 0.139498
0.847974 0.650874 0.144976
0.86923 0.65565 0.150759
0.888823 0.660868 0.156619
0.907012 0.666331 0.162585
0.924178 0.672343 0.168811
0.939529 0.678157 0.175021
0.951202 0.684108 0.181323
0.952529 0.690272 0.187274
0.0240177 0.607202 0.0624247
0.0390173 0.615106 0.0683909
0.0552224 0.622705 0.0742809
0.0723583 0.629679 0.0797742
0.0908675 0.636133 0.0849928
0.111467 0.642206 0.0900435
0.134752 0.647807 0.0948348
0.160937 0.652262 0.0989548
0.19144 0.65565 0.102358
0.227359 0.657588 0.104784
0.270115 0.657847 0.106142
0.319783 0.656947 0.107149
0.374731 0.654582 0.108492
0.433646 0.651682 0.111772
0.493706 0.64889 0.117494
0.551614 0.646922 0.125063
0.604974 0.646571 0.133288
0.65185 0.647944 0.140719
0.694545 0.649821 0.147448
0.733959 0.651576 0.152865
0.761975 0.655131 0.152834
0.769482 0.665629 0.143069
0.782712 0.674357 0.13756
0.804395 0.679698 0.13814
0.828855 0.683635 0.14197
0.852628 0.687465 0.147234
0.873777 0.691737 0.15288
0.893111 0.696361 0.158724
0.911254 0.701595 0.164813
0.928008 0.706722 0.170947
0.942748 0.711971 0.177249
0.953826 0.717388 0.18349
0.954299 0.722942 0.189212
0.0286259 0.645716 0.0686046
0.0439765 0.653742 0.0747997
0.0605936 0.661494 0.0809491
0.0781415 0.668559 0.0866865
0.0973678 0.675471 0.0923629
0.118349 0.681422 0.0975357
0.141863 0.686702 0.102342
0.168475 0.691112 0.106538
0.198917 0.694499 0.110018
0.235264 0.696361 0.112367
0.278508 0.696727 0.11371
0.327413 0.69543 0.114305
0.38146 0.69308 0.115145
0.439506 0.69012 0.117464
0.499382 0.687007 0.122103
0.55877 0.684413 0.128923
0.614572 0.683024 0.13695
0.663539 0.683177 0.144549
0.70634 0.684749 0.151293
0.746303 0.686442 0.157656
0.782315 0.687999 0.162585
0.807401 0.691951 0.162722
0.813916 0.702052 0.15436
0.822904 0.710979 0.148669
0.839216 0.717083 0.148241
0.859083 0.721614 0.151293
0.879011 0.725734 0.156054
0.897978 0.73022 0.161593
0.915679 0.734508 0.167361
0.932143 0.73901 0.17348
0.94609 0.743679 0.179629
0.955581 0.748516 0.185657
0.956024 0.753811 0.191379
0.0358129 0.684123 0.0775464
0.0514382 0.692226 0.0839857
0.0683604 0.700023 0.0903944
0.0865492 0.707454 0.0966201
0.106004 0.713863 0.10222
0.127474 0.719676 0.107469
0.151415 0.724773 0.112276
0.17847 0.729 0.116396
0.209461 0.732174 0.119753
0.246036 0.734127 0.122164
0.289281 0.733928 0.123095
0.337987 0.732433 0.1234
0.39144 0.729976 0.123842
0.448447 0.726848 0.125414
0.508232 0.723674 0.129168
0.567773 0.720333 0.134951
0.62472 0.71783 0.142306
0.675563 0.716915 0.149828
0.719188 0.717784 0.156603
0.758404 0.719448 0.16289
0.795697 0.721019 0.169055
0.828 0.722377 0.17351
0.849729 0.726192 0.173678
0.855467 0.73547 0.16672
0.86157 0.744411 0.161349
0.873533 0.751232 0.160388
0.888945 0.756466 0.162631
0.904555 0.761044 0.166278
0.920394 0.765179 0.170993
0.936599 0.769039 0.176776
0.949432 0.773144 0.182635
0.957198 0.777661 0.18851
0.95758 0.782269 0.194003
0.0453346 0.722164 0.089189
0.0616617 0.730465 0.0961013
0.0788434 0.738247 0.102815
0.0971084 0.745174 0.108965
0.116945 0.751385 0.114641
0.138842 0.756909 0.119875
0.163287 0.761669 0.124544
0.191226 0.76582 0.12874
0.222827 0.768521 0.131792
0.25951 0.769802 0.133761
0.302785 0.769329 0.134447
0.35137 0.767529 0.134371
0.404334 0.764858 0.134371
0.461082 0.76173 0.135531
0.519432 0.757916 0.138155
0.578729 0.753948 0.142855
0.636133 0.750683 0.149432
0.688075 0.748852 0.156619
0.732631 0.748959 0.163363
0.771588 0.750286 0.169497
0.807614 0.751614 0.175402
0.84126 0.752758 0.181094
0.86978 0.753948 0.185122
0.888319 0.7579 0.185306
0.893782 0.766445 0.179904
0.898177 0.775097 0.17528
0.906508 0.781918 0.173922
0.917174 0.787518 0.175051
0.928573 0.792523 0.177401
0.942321 0.796429 0.181598
0.953338 0.800381 0.187137
0.959121 0.804242 0.192538
0.959701 0.808286 0.198001
0.0575418 0.759548 0.103883
0.073991 0.767452 0.110643
0.0914473 0.77496 0.117403
0.10985 0.781765 0.123705
0.130098 0.787671 0.129381
0.152453 0.792813 0.134478
0.177722 0.797421 0.139208
0.20589 0.800687 0.142855
0.238331 0.802701 0.145541
0.275837 0.803326 0.147112
0.319127 0.802472 0.147478
0.367376 0.800336 0.14699
0.420356 0.797574 0.146685
0.475914 0.793835 0.147036
0.533455 0.789654 0.148928
0.592157 0.785245 0.152758
0.649256 0.781292 0.158419
0.70193 0.778943 0.16527
0.746822 0.778164 0.171725
0.785382 0.77879 0.177478
0.820066 0.779858 0.18291
0.852903 0.780972 0.18851
0.882918 0.781872 0.193713
0.907271 0.783459 0.19707
0.922789 0.787457 0.197269
0.927886 0.794873 0.193286
0.931258 0.802655 0.189609
0.93698 0.809339 0.188098
0.944091 0.81532 0.188281
0.952941 0.820493 0.190036
0.960235 0.82414 0.194369
0.964492 0.827558 0.199588
0.96585 0.830884 0.20531
0.0719921 0.79527 0.12105
0.088716 0.802747 0.127901
0.106523 0.809934 0.134615
0.125338 0.816449 0.14081
0.145769 0.822385 0.146624
0.168597 0.827115 0.151553
0.194018 0.830869 0.155673
0.222812 0.833463 0.158938
0.256153 0.83476 0.161089
0.294667 0.834607 0.16199
0.338689 0.833356 0.16199
0.386374 0.830945 0.161135
0.438392 0.827512 0.160082
0.493263 0.823392 0.159808
0.549981 0.81883 0.161044
0.608011 0.813977 0.164187
0.664973 0.809781 0.169299
0.716381 0.806638 0.175219
0.761181 0.805097 0.18117
0.799176 0.805173 0.186587
0.833005 0.805936 0.191623
0.864622 0.80679 0.19675
0.894347 0.807782 0.20206
0.920043 0.808576 0.206409
0.939895 0.810346 0.209049
0.952895 0.814206 0.209476
0.95819 0.820584 0.206882
0.961044 0.827756 0.203922
0.965087 0.834318 0.202472
0.970062 0.840146 0.202167
0.973739 0.843763 0.205829
0.976303 0.846769 0.210925
0.978088 0.849424 0.216861
0.0880751 0.829358 0.140078
0.104952 0.836378 0.146838
0.123064 0.843091 0.153384
0.142519 0.849271 0.159564
0.163348 0.854475 0.165026
0.186053 0.858625 0.169619
0.211978 0.861646 0.173266
0.241596 0.863615 0.175937
0.275929 0.86421 0.177417
0.315541 0.863661 0.17789
0.359258 0.861723 0.177142
0.406882 0.858793 0.175708
0.458015 0.85507 0.174166
0.512184 0.850492 0.173236
0.568124 0.845487 0.173877
0.625864 0.840421 0.176608
0.681178 0.83566 0.180819
0.73164 0.83209 0.186099
0.775525 0.830076 0.191501
0.812909 0.829541 0.196445
0.846281 0.830091 0.201221
0.876722 0.83061 0.205905
0.905287 0.831235 0.210864
0.931258 0.831754 0.215625
0.953033 0.832547 0.219394
0.969375 0.834684 0.221607
0.978836 0.838651 0.222141
0.983536 0.844312 0.220462
0.985245 0.850752 0.218067
0.987213 0.856504 0.217166
