src/luts/crop/7.cube
TITLE "Generated by Resolve"
LUT_3D_SIZE 5
0.0400244 0.0575875 0.0755016
0.154025 0.0503395 0.0532387
0.391089 0.00927749 0
0.62974 0 0
0.765148 0.000976577 0
0.0389715 0.187015 0.0727092
0.200336 0.200931 0.0991836
0.483864 0.184314 0.0701762
0.773693 0.181735 0.054963
0.932052 0.23299 0.0955215
0.0176089 0.446967 0.0504311
0.183215 0.497154 0.0908522
0.564462 0.495888 0.128161
0.811002 0.526009 0.131624
0.948592 0.578073 0.17583
0.0575418 0.759548 0.103883
0.238331 0.802701 0.145541
0.649256 0.781292 0.158419
0.922789 0.787457 0.197269
0.96585 0.830884 0.20531
0.19086 0.993835 0.263661
0.401663 0.992721 0.271382
0.776989 0.950729 0.251469
0.997787 0.93933 0.276051
1 0.946746 0.306279
6.10361e-05 0.0689097 0.16231
0.159915 0.0426032 0.20444
0.402762 0.00663767 0.107134
0.635493 0 0.0335241
0.774105 0.00218204 0.0291752
0.0224918 0.196277 0.207019
0.177462 0.225299 0.243091
0.497093 0.208362 0.193759
0.779156 0.216007 0.15903
0.925978 0.27129 0.195468
0.00749218 0.471595 0.18677
0.171237 0.52781 0.24097
0.56051 0.529213 0.275288
0.832776 0.553613 0.287556
0.956542 0.603067 0.341802
0.0464179 0.780926 0.250889
0.221637 0.828962 0.304006
0.607187 0.811978 0.307195
0.909865 0.810773 0.346746
0.965209 0.846586 0.371878
0.162356 0.997055 0.435874
0.361166 0.999969 0.452934
0.707607 0.976013 0.419425
0.977295 0.955505 0.439246
1 0.960266 0.480247
0 0.0825971 0.319646
0.000961318 0.0674449 0.396521
0.423468 1.5259e-05 0.3991
0.684489 0 0.294652
0.817945 0.000122072 0.280461
0 0.210315 0.345769
0.0179446 0.240269 0.415106
0.535683 0.187671 0.522927
0.822354 0.203815 0.472389
0.958999 0.262348 0.501778
0.00030518 0.492973 0.470146
0.130648 0.550668 0.53724
0.51812 0.571344 0.587961
0.839246 0.580102 0.558618
0.962783 0.630426 0.593759
0.00907912 0.808652 0.521675
0.168978 0.854292 0.579065
0.537377 0.845914 0.608499
0.87219 0.838911 0.627008
0.970169 0.862837 0.657359
0.108339 0.99852 0.680949
0.291341 0.999908 0.696574
0.630442 0.996765 0.693416
0.927077 0.975219 0.689342
1 0.979599 0.724269
0 0.098146 0.46595
0 0.0910658 0.541924
0.312612 0.00030518 0.658793
0.696925 0 0.590295
0.862608 0.00015259 0.580209
0 0.235554 0.49099
0 0.26627 0.575021
0.420005 0.195315 0.773037
0.852171 0.192905 0.766461
0.964004 0.244175 0.788739
0 0.502205 0.644709
0.0564736 0.558068 0.695003
0.359915 0.574929 0.723674
0.868055 0.566217 0.844205
0.979492 0.617716 0.86183
0.00257877 0.825544 0.764248
0.152575 0.870634 0.820737
0.498405 0.869291 0.85211
0.849241 0.865354 0.880644
0.977478 0.876844 0.877943
0.090898 1 0.873579
0.260838 1 0.89659
0.581796 1 0.89485
0.881498 0.997299 0.911711
0.994568 0.998871 0.926299
0 0.110399 0.547219
0 0.107652 0.618235
0.188128 0.0151369 0.771145
0.682902 0 0.740246
0.869276 0.000595102 0.744961
0 0.256367 0.572503
0 0.290761 0.655756
0.331456 0.233783 0.867338
0.853819 0.21416 0.894087
0.964263 0.262318 0.918303
0 0.526177 0.713161
0.023331 0.582422 0.755581
0.315938 0.591592 0.796765
0.861585 0.579324 0.962661
0.977829 0.626154 0.983459
0.00529488 0.838285 0.871046
0.165026 0.878569 0.920714
0.496132 0.87509 0.942199
0.793866 0.881666 0.961425
0.980789 0.877913 0.99649
0.101976 1 0.92874
0.278187 1 0.946227
0.587793 1 0.970275
0.871046 1 0.99765
0.988388 1 1
