src/luts/crop/7.cube
TITLE "Generated by Resolve"
LUT_3D_SIZE 9
0.0400244 0.0575875 0.0755016
0.0882887 0.0568399 0.0721752
0.154025 0.0503395 0.0532387
0.263493 0.0297093 0.015671
0.391089 0.00927749 0
0.52221 1.5259e-05 0
0.62974 0 0
0.711879 0 0
0.765148 0.000976577 0
0.0440986 0.111833 0.0791485
0.103136 0.114427 0.0875715
0.171878 0.111177 0.0816205
0.297215 0.0914168 0.0556039
0.442893 0.0697795 0.0218051
0.585443 0.0530404 0.00161746
0.701198 0.0503853 0.00047303
0.785565 0.0634165 0.00131228
0.851408 0.0870527 0.00151064
0.0389715 0.187015 0.0727092
0.0990921 0.198703 0.0848554
0.200336 0.200931 0.0991836
0.319036 0.196811 0.087602
0.483864 0.184314 0.0701762
0.646601 0.175296 0.0546731
0.773693 0.181735 0.054963
0.863844 0.203174 0.071519
0.932052 0.23299 0.0955215
0.0218662 0.299199 0.0533608
0.0847334 0.323049 0.0725414
0.189563 0.338521 0.0882734
0.362921 0.33962 0.110063
0.505211 0.347112 0.102724
0.669734 0.346349 0.0993515
0.794858 0.355459 0.102953
0.881392 0.37731 0.118898
0.943832 0.406516 0.141588
0.0176089 0.446967 0.0504311
0.0822461 0.477104 0.0735485
0.183215 0.497154 0.0908522
0.37615 0.493904 0.10367
0.564462 0.495888 0.128161
0.685573 0.512016 0.116945
0.811002 0.526009 0.131624
0.896742 0.549813 0.151827
0.948592 0.578073 0.17583
0.0240177 0.607202 0.0624247
0.0908675 0.636133 0.0849928
0.19144 0.65565 0.102358
0.374731 0.654582 0.108492
0.604974 0.646571 0.133288
0.761975 0.655131 0.152834
0.828855 0.683635 0.14197
0.911254 0.701595 0.164813
0.954299 0.722942 0.189212
0.0575418 0.759548 0.103883
0.130098 0.787671 0.129381
0.238331 0.802701 0.145541
0.420356 0.797574 0.146685
0.649256 0.781292 0.158419
0.820066 0.779858 0.18291
0.922789 0.787457 0.197269
0.944091 0.81532 0.188281
0.96585 0.830884 0.20531
0.122972 0.892103 0.181476
0.199954 0.912428 0.203265
0.318059 0.916381 0.210666
0.499763 0.902693 0.202594
0.714321 0.880476 0.204639
0.870893 0.872526 0.221469
0.973663 0.873518 0.238392
1 0.880919 0.247684
1 0.890089 0.264576
0.19086 0.993835 0.263661
0.272694 0.999924 0.276066
0.401663 0.992721 0.271382
0.579232 0.973129 0.254658
0.776989 0.950729 0.251469
0.915587 0.940688 0.262928
0.997787 0.93933 0.276051
1 0.941924 0.290394
1 0.946746 0.306279
0.0149691 0.0627146 0.110582
0.0857557 0.0558938 0.131289
0.165026 0.0461433 0.111864
0.26656 0.0296941 0.0721752
0.3906 0.0102693 0.0281376
0.521508 0 0.000457771
0.6327 0 0
0.712673 0 0
0.772686 0.000640879 0
0.0364233 0.114626 0.129427
0.091783 0.121523 0.139712
0.174182 0.116884 0.131472
0.295293 0.100816 0.0951095
0.440955 0.0814069 0.0532387
0.583673 0.066392 0.0128786
0.699626 0.0653239 0.00476081
0.783368 0.0801251 0.00923171
0.849134 0.104936 0.0209506
0.0318608 0.193332 0.124544
0.0941329 0.20766 0.141787
0.196963 0.212802 0.156313
0.32929 0.205554 0.144076
0.500801 0.192706 0.124102
0.664469 0.185122 0.106371
0.789654 0.19324 0.105089
0.876982 0.216175 0.121996
0.942672 0.245777 0.145892
0.0179904 0.309392 0.106996
0.0826734 0.335973 0.129763
0.183978 0.355734 0.14963
0.367422 0.354772 0.169162
0.517571 0.359838 0.161868
0.685344 0.358099 0.15613
0.810285 0.366735 0.159808
0.896071 0.388937 0.177172
0.951873 0.418158 0.201648
0.0149691 0.459312 0.104982
0.0799573 0.491249 0.129824
0.179049 0.513298 0.150423
0.366735 0.511345 0.160067
0.566247 0.511055 0.184131
0.697169 0.525521 0.177279
0.822705 0.53962 0.191974
0.908095 0.563058 0.213596
0.951797 0.590616 0.239765
0.0211948 0.618906 0.117144
0.0876173 0.649546 0.141482
0.187472 0.671397 0.162097
0.36318 0.671656 0.168292
0.600992 0.661357 0.188586
0.764141 0.66923 0.210071
0.837079 0.695125 0.203311
0.918868 0.712123 0.227726
0.956436 0.733074 0.255085
0.0546273 0.770779 0.161639
0.127108 0.799863 0.189258
0.233127 0.817349 0.209201
0.40763 0.81265 0.210254
0.636469 0.795514 0.215442
0.816892 0.791333 0.240024
0.920943 0.798245 0.255268
0.943297 0.824811 0.248341
0.965438 0.838743 0.269978
0.118181 0.901213 0.24506
0.193301 0.922026 0.268116
0.308858 0.928878 0.279362
0.481254 0.915923 0.270604
0.694301 0.893172 0.264973
0.862654 0.881834 0.280934
0.967132 0.882414 0.298634
1 0.889113 0.309926
1 0.898436 0.328649
0.180728 0.997299 0.333776
0.259342 1 0.346761
0.385367 0.998291 0.346502
0.553262 0.983322 0.328466
0.751324 0.962219 0.316609
0.902785 0.949126 0.327031
0.99234 0.947265 0.34081
1 0.948486 0.358129
1 0.952621 0.377066
6.10361e-05 0.0689097 0.16231
0.0302129 0.0652018 0.193072
0.159915 0.0426032 0.20444
0.285145 0.0199435 0.158556
0.402762 0.00663767 0.107134
0.52842 0.000137331 0.062623
0.635493 0 0.0335241
0.714656 0 0.0251621
0.774105 0.00218204 0.0291752
0.00259403 0.120882 0.176791
0.0455787 0.128923 0.194339
0.170367 0.11342 0.228946
0.310948 0.0949111 0.186236
0.446174 0.0818341 0.14287
0.586175 0.0700847 0.106508
0.7019 0.0710307 0.0899977
0.786648 0.0869001 0.0966354
0.85333 0.112306 0.117998
0.0224918 0.196277 0.207019
0.0825513 0.212085 0.226261
0.177462 0.225299 0.243091
0.331899 0.216068 0.226627
0.497093 0.208362 0.193759
0.658488 0.205005 0.165881
0.779156 0.216007 0.15903
0.860639 0.241749 0.168856
0.925978 0.27129 0.195468
0.00700389 0.320562 0.188281
0.0719005 0.348043 0.214694
0.175738 0.371115 0.243412
0.364721 0.371893 0.264317
0.526833 0.372396 0.255283
0.700511 0.368795 0.245121
0.825788 0.377234 0.248203
0.910964 0.399451 0.267689
0.963012 0.429023 0.296757
0.00749218 0.471595 0.18677
0.071519 0.503349 0.214603
0.171237 0.52781 0.24097
0.347463 0.532265 0.255375
0.56051 0.529213 0.275288
0.706203 0.540032 0.273915
0.832776 0.553613 0.287556
0.917998 0.575875 0.31075
0.956542 0.603067 0.341802
0.0143435 0.629328 0.199619
0.0786755 0.660319 0.226703
0.178454 0.684565 0.252354
0.345113 0.688731 0.264546
0.583154 0.678126 0.276188
0.75996 0.683986 0.301595
0.842451 0.706722 0.301076
0.924117 0.723384 0.328786
0.959014 0.743603 0.359686
0.0464179 0.780926 0.250889
0.117449 0.809354 0.28014
0.221637 0.828962 0.304006
0.388693 0.827604 0.310597
0.607187 0.811978 0.307195
0.805249 0.803555 0.330449
0.909865 0.810773 0.346746
0.939818 0.834028 0.345586
0.965209 0.846586 0.371878
0.106004 0.909224 0.342367
0.178302 0.929458 0.366232
0.291264 0.938384 0.380911
0.456672 0.928908 0.377325
0.65687 0.907912 0.362524
0.844892 0.892042 0.374456
0.952178 0.892241 0.392569
0.996933 0.898848 0.406226
0.997559 0.909041 0.425696
0.162356 0.997055 0.435874
0.237552 0.998978 0.449058
0.361166 0.999969 0.452934
0.522622 0.99292 0.440696
0.707607 0.976013 0.419425
0.879301 0.958556 0.425071
0.977295 0.955505 0.439246
1 0.956313 0.45919
1 0.960266 0.480247
0 0.0754406 0.237995
0 0.0739147 0.269261
0.070161 0.0521859 0.31426
0.280568 0.0133059 0.300282
0.430091 0.000137331 0.240635
0.550622 0 0.182223
0.653696 0 0.147036
0.73164 0 0.135164
0.790799 0.00108339 0.140459
0 0.128801 0.247257
0.000213626 0.135195 0.275563
0.0708476 0.12668 0.32546
0.313252 0.0854047 0.34023
0.477089 0.0650187 0.285679
0.610361 0.0602121 0.238514
0.722042 0.0652628 0.219135
0.805417 0.0834363 0.226108
0.872419 0.109773 0.248188
0 0.200366 0.280095
0.0138094 0.218936 0.297047
0.0969406 0.234211 0.326253
0.341695 0.206638 0.387762
0.523964 0.197635 0.344701
0.672938 0.202228 0.313924
0.788937 0.216327 0.308141
0.871046 0.241596 0.323537
0.935454 0.272068 0.348013
0.00138857 0.325154 0.322362
0.0555276 0.354314 0.354391
0.155306 0.37937 0.386114
0.331548 0.392111 0.408591
0.524666 0.384924 0.390265
0.696254 0.384405 0.364462
0.816052 0.397681 0.35436
0.897887 0.421775 0.367376
0.954772 0.450462 0.400931
0.00062562 0.486686 0.319249
0.0490425 0.51902 0.350027
0.146883 0.543343 0.378286
0.325933 0.552346 0.406622
0.550011 0.549432 0.426368
0.711376 0.554696 0.422644
0.842252 0.566598 0.431373
0.928923 0.587579 0.452644
0.967102 0.613825 0.481636
0.00254826 0.643214 0.324819
0.0576791 0.673884 0.355367
0.156085 0.696895 0.384421
0.324468 0.704723 0.408682
0.543618 0.702327 0.420356
0.744121 0.702205 0.442939
0.844297 0.71931 0.449439
0.927153 0.736049 0.474815
0.962509 0.755535 0.50338
0.0272374 0.793271 0.377295
0.0966506 0.820676 0.409308
0.198108 0.838758 0.435966
0.364538 0.83978 0.451087
0.56228 0.830014 0.450706
0.78085 0.816693 0.463264
0.890211 0.824292 0.479591
0.935546 0.842527 0.484611
0.967483 0.8542 0.510994
0.0838026 0.919829 0.468208
0.153597 0.939147 0.493355
0.262119 0.946181 0.509392
0.428428 0.938704 0.514076
0.6103 0.922637 0.503639
0.811597 0.903655 0.501427
0.928954 0.90309 0.519829
0.98613 0.91075 0.531609
0.991913 0.921767 0.547417
0.135348 0.996536 0.556268
0.207813 0.99823 0.570062
0.327581 0.998566 0.576059
0.491234 0.997925 0.573556
0.660243 0.988708 0.557534
0.84062 0.968994 0.548318
0.952651 0.964645 0.562402
0.999893 0.965591 0.581994
1 0.969467 0.601816
0 0.0825971 0.319646
0 0.0823224 0.35169
0.000961318 0.0674449 0.396521
0.211002 0.0136873 0.442267
0.423468 1.5259e-05 0.3991
0.577783 0 0.339742
0.684489 0 0.294652
0.759304 0 0.277134
0.817945 0.000122072 0.280461
0 0.136324 0.328542
0 0.142306 0.361074
0.00360113 0.137453 0.409598
0.229572 0.0878157 0.482933
0.477546 0.0563058 0.454139
0.643168 0.041886 0.405402
0.75555 0.050309 0.377737
0.836515 0.071397 0.379934
0.903487 0.0997177 0.399512
0 0.210315 0.345769
0 0.227787 0.372503
0.0179446 0.240269 0.415106
0.229877 0.215595 0.515816
0.535683 0.187671 0.522927
0.710231 0.185336 0.486946
0.822354 0.203815 0.472389
0.901473 0.230915 0.481529
0.958999 0.262348 0.501778
0 0.32546 0.41828
0.00805676 0.355093 0.448081
0.0893873 0.381476 0.470085
0.2374 0.398047 0.493645
0.544488 0.37348 0.568704
0.717189 0.374289 0.53431
0.83093 0.392218 0.524956
0.910719 0.418448 0.536629
0.96733 0.450462 0.559243
0.00030518 0.492973 0.470146
0.035874 0.525444 0.505348
0.130648 0.550668 0.53724
0.299809 0.563668 0.565148
0.51812 0.571344 0.587961
0.711238 0.565789 0.565667
0.839246 0.580102 0.558618
0.923217 0.603571 0.571008
0.962783 0.630426 0.593759
0 0.657053 0.476173
0.0360266 0.689235 0.509819
0.130907 0.714244 0.539696
0.295094 0.723186 0.560815
0.519371 0.724666 0.588937
0.726894 0.722988 0.602747
0.845808 0.732586 0.609903
0.931365 0.747829 0.627588
0.968429 0.766003 0.649927
0.00907912 0.808652 0.521675
0.0712444 0.836271 0.554131
0.168978 0.854292 0.579065
0.333562 0.852399 0.592004
0.537377 0.845914 0.608499
0.746609 0.835676 0.61178
0.87219 0.838911 0.627008
0.932662 0.851484 0.635584
0.970169 0.862837 0.657359
0.058793 0.933135 0.603998
0.125628 0.952316 0.627878
0.228946 0.959228 0.641367
0.394934 0.947662 0.645274
0.581552 0.934096 0.649729
0.765545 0.92047 0.642222
0.904768 0.914992 0.655421
0.967666 0.921859 0.665873
0.979538 0.9337 0.675975
0.108339 0.99852 0.680949
0.176974 0.999878 0.693492
0.291341 0.999908 0.696574
0.456443 0.997818 0.694697
0.630442 0.996765 0.693416
0.793103 0.983276 0.682078
0.927077 0.975219 0.689342
0.993393 0.976028 0.707057
1 0.979599 0.724269
0 0.0906539 0.398627
0 0.0916762 0.432883
0 0.0803082 0.476188
0.088426 0.0338445 0.548684
0.384833 0 0.54136
0.571847 0 0.496803
0.701183 0 0.45626
0.786313 0 0.436423
0.848875 0.000137331 0.437354
0 0.145769 0.410758
0 0.152407 0.446235
0 0.14995 0.494942
0.109133 0.110811 0.581064
0.440497 0.0529335 0.6
0.64361 0.0369879 0.569497
0.776715 0.0387274 0.547387
0.866239 0.0582437 0.547814
0.932967 0.0865034 0.56437
0 0.223407 0.423819
0 0.240696 0.45745
0 0.252674 0.504738
0.126482 0.233967 0.598199
0.4934 0.183551 0.669108
0.716869 0.179843 0.654093
0.848127 0.19115 0.643442
0.933791 0.216739 0.648936
0.965621 0.247333 0.665431
0 0.336645 0.483452
0 0.366598 0.511452
0.0154116 0.391531 0.533547
0.152468 0.400717 0.574929
0.452308 0.371008 0.700923
0.733288 0.362768 0.702296
0.86186 0.375952 0.691829
0.943175 0.404273 0.696971
0.975662 0.437675 0.713878
0 0.494133 0.58024
0.00965896 0.525979 0.613962
0.0968185 0.550393 0.640726
0.243305 0.56318 0.650401
0.426581 0.575631 0.667323
0.726787 0.556786 0.735225
0.852705 0.571862 0.725322
0.933486 0.597787 0.731868
0.976455 0.626001 0.747509
0 0.663584 0.618997
0.0285344 0.696117 0.654078
0.122377 0.721416 0.685817
0.281315 0.732738 0.711406
0.492927 0.738445 0.736065
0.70898 0.740871 0.755673
0.844709 0.741726 0.744076
0.927642 0.756146 0.747265
0.970596 0.773663 0.760555
0.00422675 0.818494 0.662242
0.058854 0.846128 0.694759
0.153216 0.864988 0.720668
0.309071 0.867658 0.735363
0.508339 0.861738 0.744839
0.718547 0.855741 0.764843
0.856886 0.854475 0.770459
0.93109 0.861158 0.777905
0.974456 0.87158 0.791226
0.0453803 0.941939 0.730739
0.11017 0.961013 0.754009
0.208225 0.96936 0.768795
0.364477 0.962005 0.772564
0.552056 0.946242 0.772778
0.740383 0.936645 0.78584
0.882841 0.929732 0.787213
0.948745 0.935714 0.793667
0.97879 0.942489 0.804074
0.094377 1 0.791821
0.159838 1 0.805692
0.267063 1 0.811536
0.423819 1 0.808118
0.601938 0.997436 0.804578
0.770932 0.995163 0.813687
0.899107 0.989197 0.811063
0.980804 0.987793 0.824491
0.999435 0.990402 0.838056
0 0.098146 0.46595
0 0.100038 0.500053
0 0.0910658 0.541924
0.0114137 0.0541848 0.61387
0.312612 0.00030518 0.658793
0.553613 0 0.619821
0.696925 0 0.590295
0.792737 0 0.576699
0.862608 0.00015259 0.580209
0 0.154528 0.478874
0 0.161852 0.514321
0 0.161517 0.56257
0.031754 0.13077 0.645258
0.371328 0.0621958 0.713176
0.632441 0.0396429 0.68957
0.777752 0.0396735 0.678126
0.875761 0.056733 0.682246
0.940581 0.0837568 0.698787
0 0.235554 0.49099
0 0.253407 0.526497
0 0.26627 0.575021
0.0694133 0.25243 0.664149
0.420005 0.195315 0.773037
0.709148 0.183795 0.767834
0.852171 0.192905 0.766461
0.944564 0.215396 0.774624
0.964004 0.244175 0.788739
0 0.352132 0.537224
0 0.382483 0.566278
0 0.407019 0.592981
0.102495 0.412467 0.641657
0.357305 0.384878 0.76524
0.719875 0.362325 0.809735
0.868833 0.375006 0.811444
0.959335 0.399832 0.819165
0.975372 0.43183 0.83357
0 0.502205 0.644709
0.000167849 0.533608 0.674327
0.0564736 0.558068 0.695003
0.184146 0.568383 0.692393
0.359915 0.574929 0.723674
0.691554 0.554009 0.840177
0.868055 0.566217 0.844205
0.955657 0.589151 0.849958
0.979492 0.617716 0.86183
0 0.666896 0.711345
0.0214084 0.699443 0.744717
0.113817 0.724437 0.774548
0.268956 0.734768 0.795621
0.462623 0.740658 0.806729
0.64892 0.749386 0.821927
0.852995 0.738125 0.863737
0.933349 0.752499 0.864622
0.978531 0.770459 0.871153
0.00257877 0.825544 0.764248
0.0581521 0.852491 0.795071
0.152575 0.870634 0.820737
0.307225 0.873167 0.837964
0.498405 0.869291 0.85211
0.69836 0.866056 0.86656
0.849241 0.865354 0.880644
0.93167 0.868177 0.8757
0.977478 0.876844 0.877943
0.0435645 0.947753 0.822309
0.107698 0.965896 0.844678
0.205112 0.973892 0.860792
0.357183 0.96791 0.868528
0.535317 0.956985 0.872786
0.721767 0.946853 0.878477
0.862821 0.943786 0.893614
0.944869 0.944472 0.897429
0.981506 0.949432 0.902525
0.090898 1 0.873579
0.155459 1 0.888273
0.260838 1 0.89659
0.412329 1 0.897353
0.581796 1 0.89485
0.754833 0.999451 0.898024
0.881498 0.997299 0.911711
0.968734 0.997375 0.916106
0.994568 0.998871 0.926299
0 0.104662 0.514
0 0.107134 0.546654
0 0.0999313 0.587442
0.000213626 0.0687877 0.656291
0.240787 0.00555428 0.730114
0.526238 0 0.704311
0.689632 0 0.680766
0.792035 0 0.672724
0.866651 0.00030518 0.679744
0 0.162219 0.52639
0 0.170306 0.560952
0 0.171771 0.608438
0.00521859 0.145876 0.688106
0.312352 0.0793622 0.779797
0.616632 0.0446021 0.767452
0.776715 0.0474861 0.762005
0.879408 0.0638285 0.769375
0.941741 0.0900587 0.78613
0 0.24622 0.538582
0 0.265034 0.573785
0 0.278767 0.622034
0.0424353 0.267781 0.709224
0.365454 0.214755 0.831189
0.69633 0.190585 0.839246
0.853284 0.202228 0.842023
0.947631 0.223316 0.851728
0.963623 0.251209 0.865187
0 0.366903 0.578134
0 0.39736 0.607217
0 0.421424 0.636606
0.0806134 0.426749 0.689143
0.314855 0.401053 0.805417
0.696941 0.367712 0.878019
0.86949 0.383825 0.883803
0.963592 0.407294 0.894118
0.974899 0.437995 0.907774
0 0.51371 0.684535
0 0.544778 0.711482
0.0334478 0.569848 0.729488
0.157397 0.579995 0.726513
0.329076 0.581643 0.764843
0.639704 0.561654 0.894347
0.867994 0.572183 0.914244
0.961364 0.592981 0.923506
0.978424 0.619364 0.935058
0 0.674708 0.766583
0.0173037 0.706874 0.798047
0.109178 0.731823 0.825437
0.260319 0.741512 0.840146
0.432792 0.746197 0.836866
0.613306 0.753246 0.861128
0.846204 0.740475 0.934447
0.944366 0.751324 0.937758
0.978378 0.768368 0.944839
0.00030518 0.831113 0.827359
0.0598611 0.856931 0.856519
0.156664 0.873884 0.881132
0.310933 0.875624 0.897246
0.496117 0.871138 0.908492
0.683833 0.870909 0.915511
0.814862 0.875639 0.93022
0.930938 0.869276 0.951507
0.98172 0.876554 0.953552
0.0470588 0.952941 0.884794
0.111589 0.970092 0.906706
0.210407 0.976974 0.922728
0.361532 0.970413 0.931319
0.535546 0.959716 0.93724
0.715007 0.952438 0.946578
0.852369 0.949783 0.954833
0.942535 0.950973 0.967391
0.984512 0.954162 0.966278
0.0936141 1 0.92723
0.159014 1 0.935225
0.265263 1 0.945174
0.414176 1 0.954696
0.579248 1 0.957763
0.745052 1 0.961425
0.874983 0.999146 0.96968
0.95877 0.999023 0.981659
0.990082 0.999908 0.987152
0 0.110399 0.547219
0 0.113436 0.578561
0 0.107652 0.618235
0 0.0803693 0.684749
0.188128 0.0151369 0.771145
0.499123 0 0.762905
0.682902 0 0.740246
0.791424 4.57771e-05 0.736187
0.869276 0.000595102 0.744961
0 0.169329 0.559472
0 0.178363 0.593652
0 0.18114 0.640452
0.000213626 0.158648 0.718151
0.272572 0.0968185 0.8206
0.60209 0.0540932 0.822293
0.777173 0.0580758 0.817868
0.882918 0.0748913 0.827863
0.941619 0.100557 0.845167
0 0.256367 0.572503
0 0.276234 0.607446
0 0.290761 0.655756
0.0307774 0.281865 0.741985
0.331456 0.233783 0.867338
0.683177 0.201282 0.8907
0.853819 0.21416 0.894087
0.948852 0.234821 0.904936
0.964263 0.262318 0.918303
0 0.380865 0.609293
0 0.411368 0.638819
0 0.435187 0.669352
0.0712749 0.44007 0.723522
0.294453 0.416709 0.834943
0.674678 0.378668 0.925795
0.867811 0.39408 0.932494
0.965682 0.418952 0.94583
0.975174 0.448463 0.959716
0 0.526177 0.713161
0 0.557137 0.738842
0.023331 0.582422 0.755581
0.147463 0.592309 0.754742
0.315938 0.591592 0.796765
0.603845 0.573648 0.926726
0.861585 0.579324 0.962661
0.963592 0.60174 0.973816
0.977829 0.626154 0.983459
0 0.684886 0.804273
0.0172122 0.71667 0.834516
0.110536 0.740826 0.859632
0.257893 0.750088 0.869047
0.416175 0.753231 0.858335
0.59382 0.758846 0.890333
0.821485 0.747997 0.979492
0.946212 0.755779 0.985733
0.977386 0.771023 0.992111
0.00529488 0.838285 0.871046
0.0655985 0.863111 0.899245
0.165026 0.878569 0.920714
0.318532 0.879561 0.93547
0.496132 0.87509 0.942199
0.667765 0.877409 0.939269
0.793866 0.881666 0.961425
0.929122 0.870497 0.994202
0.980789 0.877913 0.99649
0.0528878 0.957092 0.920439
0.119875 0.973205 0.931426
0.222232 0.978958 0.942229
0.372747 0.971466 0.954681
0.542702 0.960601 0.967422
0.715373 0.954147 0.979629
0.839261 0.955505 0.985183
0.923049 0.957443 0.997864
0.985138 0.955688 1
0.101976 1 0.92874
0.169451 1 0.936294
0.278187 1 0.946227
0.425498 1 0.957916
0.587793 1 0.970275
0.748165 1 0.984344
0.871046 1 0.99765
0.956542 0.999695 0.999969
0.988388 1 1
