src/luts/crop/8.cube
TITLE "Generated by Resolve"
LUT_3D_SIZE 33
0.0416114 0.0596017 0.0775311
0.0559243 0.0590219 0.0795758
0.0686656 0.058732 0.0779126
0.0810254 0.0588998 0.0760815
0.0944381 0.0585336 0.073106
0.10985 0.0575723 0.0693065
0.127443 0.0558633 0.0643626
0.14789 0.053254 0.0578622
0.172152 0.0494392 0.049836
0.200641 0.0442969 0.040528
0.231998 0.0381018 0.0297398
0.265507 0.031281 0.018265
0.300679 0.0239872 0.00830091
0.335302 0.0171969 0.00154116
0.368536 0.013077 0.000854505
0.405142 0.00872816 0
0.441703 0.00453193 0
0.476356 0.00146487 0
0.510811 6.10361e-05 0
0.544961 0 0
0.576288 0 0
0.604761 0 0
0.631952 0 0
0.659495 0 0
0.682048 0 0
0.702098 0 0
0.719768 0 0
0.735576 0 0
0.749722 0 0
0.764462 0 0
0.779004 3.0518e-05 0
0.792874 0.000366217 0
0.806302 0.0037995 0
0.0436103 0.072694 0.0798047
0.0572213 0.0737774 0.0820172
0.0710613 0.0738231 0.0820935
0.0838636 0.0736858 0.0803082
0.0975814 0.0733501 0.0776226
0.113863 0.0721294 0.0745098
0.132738 0.0701305 0.0705577
0.154635 0.0672618 0.0653239
0.180255 0.063035 0.058793
0.209751 0.0575113 0.0507362
0.241871 0.0513771 0.0402686
0.275578 0.0450599 0.0275578
0.310475 0.0385901 0.0148623
0.345449 0.032639 0.00367742
0.379767 0.0268406 0.00128176
0.415991 0.020798 0.000274662
0.452964 0.0144503 0
0.489357 0.00868238 0
0.525231 0.00440986 0
0.558038 0.00399786 0
0.589014 0.0041352 0
0.618051 0.00369268 0
0.645548 0.00358587 0
0.672694 0.00383001 0
0.695644 0.00425727 0
0.716335 0.00488289 0
0.735012 0.00602731 0
0.751049 0.00720226 0
0.767254 0.00856031 0
0.783215 0.0108644 0
0.798688 0.0132601 0
0.813138 0.0166171 0
0.827268 0.0216068 0
0.0443122 0.0873579 0.0805371
0.0583505 0.0885786 0.0829938
0.0738384 0.0885328 0.0849317
0.087892 0.0886091 0.0848096
0.100664 0.0886702 0.0837873
0.117189 0.0876631 0.0814374
0.136828 0.085771 0.078645
0.159487 0.0828107 0.0744488
0.186114 0.0785229 0.0691691
0.216648 0.0730907 0.0619364
0.249607 0.0671702 0.0514992
0.284092 0.0611429 0.0385443
0.320348 0.0550393 0.0257267
0.356405 0.0490578 0.0132906
0.393225 0.0430304 0.00486763
0.430793 0.0370642 0.00213626
0.46865 0.0311589 0.000350958
0.506127 0.0256962 0
0.542596 0.0213321 0
0.576974 0.0181277 0
0.609125 0.0158083 0
0.638743 0.0146181 0
0.665812 0.0144656 0
0.691127 0.0153658 0
0.713954 0.0166934 0
0.734844 0.0184939 0
0.753841 0.021561 0
0.771756 0.0252537 0
0.788724 0.0291447 0
0.80499 0.0338293 0
0.82063 0.0396429 0
0.835706 0.0453346 0
0.850614 0.0519265 0
0.0453346 0.102708 0.0809491
0.0591592 0.104219 0.083772
0.0745403 0.10457 0.0855421
0.0914778 0.10454 0.0874952
0.105959 0.104799 0.088014
0.120363 0.104967 0.0866407
0.139788 0.103426 0.0845655
0.162905 0.100771 0.081178
0.190097 0.0968338 0.0762188
0.221378 0.0917067 0.0693217
0.256291 0.085893 0.0605631
0.292866 0.0796674 0.0500954
0.330678 0.0733043 0.0394751
0.369299 0.0669108 0.0298466
0.407843 0.0609445 0.0199435
0.447089 0.0551308 0.0101472
0.486351 0.0500496 0.00297551
0.524392 0.0452277 0.000900282
0.56112 0.0411383 0.000274662
0.596002 0.0379492 3.0518e-05
0.629007 0.0356909 0
0.659419 0.0344549 0
0.68719 0.0350347 0
0.71252 0.0364843 0
0.735821 0.0389258 0
0.757061 0.0420691 0
0.776562 0.0463722 0
0.795087 0.0516365 0
0.812787 0.057435 7.62951e-05
0.829465 0.0634623 0.000183108
0.845685 0.0703899 0.000274662
0.86154 0.0775616 0.000381476
0.877058 0.0849622 0.000244144
0.0456703 0.119249 0.0811322
0.0594492 0.121157 0.0840314
0.0748455 0.121996 0.0857557
0.0918441 0.122606 0.0876326
0.111513 0.122408 0.0906081
0.126406 0.123079 0.0905776
0.14313 0.122988 0.0888685
0.165896 0.121035 0.0866102
0.193317 0.117647 0.0824598
0.22594 0.112947 0.0764935
0.262181 0.107164 0.068986
0.300725 0.100862 0.0607767
0.340307 0.0945754 0.0522774
0.380377 0.0885786 0.0439918
0.420401 0.0831617 0.035111
0.461738 0.0778363 0.0257725
0.502892 0.0725261 0.0162356
0.542535 0.0678874 0.00967422
0.580728 0.0640574 0.00447089
0.616968 0.0613718 0.00149538
0.650935 0.0598459 0.000808728
0.682582 0.0597696 0.00114443
0.710689 0.0609598 0.00138857
0.736446 0.0633707 0.00146487
0.760082 0.0668193 0.00157168
0.781918 0.0711681 0.00167849
0.802365 0.0765698 0.00196841
0.82121 0.0826429 0.00323491
0.839277 0.0892653 0.0052491
0.856596 0.0961624 0.00730907
0.873396 0.103593 0.00985733
0.889982 0.111681 0.0140383
0.904509 0.119875 0.0178073
0.0452125 0.137392 0.0803845
0.0591135 0.139757 0.0835737
0.0742809 0.141421 0.0857557
0.0914626 0.142565 0.0877241
0.112093 0.142763 0.0900893
0.134096 0.142565 0.0936294
0.149966 0.143694 0.0929427
0.169863 0.143404 0.0908675
0.197299 0.140993 0.0882887
0.229984 0.136843 0.0833906
0.267018 0.131579 0.0768902
0.306844 0.12578 0.0696117
0.347982 0.119982 0.0621653
0.389883 0.114687 0.0548867
0.431769 0.109682 0.0476234
0.474525 0.10457 0.0401923
0.517632 0.0995804 0.032929
0.559609 0.0951705 0.0260471
0.599664 0.0916762 0.0200504
0.637507 0.0897841 0.0148623
0.672526 0.0887922 0.0115511
0.704875 0.0890974 0.0100404
0.734051 0.0909743 0.00973526
0.760342 0.0942702 0.0096437
0.784619 0.098497 0.0104677
0.80734 0.10399 0.0121004
0.828138 0.109865 0.0133974
0.84744 0.116625 0.0178225
0.865919 0.123903 0.0231327
0.883741 0.131518 0.0290074
0.901106 0.139452 0.0354467
0.918044 0.148058 0.0424964
0.926955 0.156298 0.0500801
0.043946 0.157763 0.0787671
0.0581064 0.160769 0.0823377
0.0732891 0.162921 0.0849165
0.0902571 0.164752 0.0872663
0.110918 0.165698 0.089601
0.13521 0.165774 0.092607
0.160159 0.16585 0.0968948
0.176959 0.167834 0.0948501
0.20177 0.166857 0.0929274
0.234455 0.163668 0.0897078
0.271839 0.159289 0.084596
0.312352 0.154299 0.0784161
0.354986 0.149386 0.0719921
0.398138 0.144671 0.0656748
0.441672 0.140215 0.0595407
0.486122 0.135729 0.0531777
0.530526 0.131487 0.0469673
0.573816 0.127871 0.0413825
0.615442 0.125399 0.0367132
0.654429 0.12372 0.0334173
0.690639 0.123308 0.0314031
0.724086 0.124163 0.0308995
0.754711 0.126329 0.0316014
0.78204 0.129915 0.0337377
0.807279 0.134966 0.0369879
0.830106 0.140719 0.041001
0.851392 0.147189 0.0458228
0.87126 0.154269 0.0513161
0.889921 0.161913 0.0574655
0.908125 0.170306 0.0643168
0.924636 0.178546 0.0708782
0.940352 0.187121 0.0775006
0.94551 0.195605 0.0848402
0.0415961 0.180652 0.0759594
0.0559396 0.184131 0.0797742
0.0712596 0.186954 0.082826
0.0882734 0.189563 0.0857557
0.108598 0.191485 0.088304
0.132952 0.19263 0.0910658
0.161669 0.192645 0.09514
0.190478 0.192706 0.100023
0.207553 0.195804 0.0956436
0.239063 0.193835 0.0942702
0.276722 0.190509 0.09131
0.318151 0.186862 0.0869459
0.361151 0.182834 0.0817884
0.405188 0.178988 0.0765698
0.45005 0.175357 0.071397
0.495933 0.171572 0.0659342
0.542168 0.168215 0.0607156
0.586694 0.165393 0.0559854
0.628702 0.16347 0.0522164
0.668132 0.1626 0.0496223
0.704692 0.162982 0.0483558
0.738338 0.164614 0.0483864
0.769512 0.167819 0.0499275
0.797116 0.172137 0.0529335
0.82211 0.17731 0.0569314
0.845197 0.183291 0.061799
0.866728 0.189929 0.0673838
0.886915 0.197131 0.0736095
0.905669 0.205463 0.0803235
0.923278 0.213596 0.0868544
0.938125 0.221958 0.0934615
0.951659 0.230518 0.100252
0.952682 0.239063 0.107134
0.0378119 0.206104 0.0715648
0.0523842 0.210315 0.0757458
0.0679332 0.213916 0.0793011
0.0851301 0.217426 0.0828107
0.105287 0.22063 0.0859998
0.129137 0.222827 0.0888533
0.158282 0.223697 0.092256
0.19202 0.223468 0.097322
0.225925 0.22356 0.102861
0.245045 0.227558 0.0967727
0.281697 0.225666 0.0957198
0.323018 0.222934 0.0936294
0.366567 0.220127 0.0903487
0.411139 0.217441 0.0866102
0.456657 0.214832 0.0826581
0.503624 0.212146 0.0783703
0.550561 0.20943 0.0739605
0.595834 0.207111 0.0699779
0.638727 0.205661 0.0668345
0.678584 0.205417 0.0647898
0.715404 0.206332 0.0639506
0.749462 0.20885 0.0645914
0.780285 0.212253 0.0662699
0.807828 0.216876 0.0692454
0.832547 0.222492 0.0733196
0.855314 0.228763 0.0780957
0.876402 0.23566 0.0834516
0.896345 0.243519 0.089601
0.914611 0.251377 0.0957809
0.931991 0.259449 0.102205
0.944686 0.267674 0.108614
0.952087 0.276066 0.115068
0.952361 0.285023 0.121843
0.0331121 0.23447 0.0661173
0.047837 0.23946 0.0706798
0.0636301 0.243961 0.0747539
0.0811627 0.248661 0.0789349
0.101167 0.252705 0.0826886
0.124697 0.256046 0.0860914
0.153277 0.258244 0.0894179
0.188113 0.258885 0.0936294
0.228305 0.258457 0.0997635
0.267399 0.258961 0.10573
0.289372 0.263188 0.0988479
0.327916 0.262119 0.0975662
0.371359 0.260487 0.0965286
0.416403 0.258961 0.094667
0.46273 0.257801 0.0924392
0.509712 0.255863 0.0892653
0.556664 0.253849 0.0858167
0.60206 0.252171 0.0826123
0.64506 0.25124 0.0800793
0.68542 0.25156 0.078645
0.722576 0.252949 0.0782635
0.756344 0.255344 0.0789349
0.787015 0.258885 0.0807202
0.814527 0.263539 0.0836042
0.838911 0.269215 0.0875105
0.861509 0.275898 0.0922866
0.882292 0.282841 0.0975052
0.90164 0.290135 0.103075
0.919646 0.297795 0.108949
0.936706 0.30573 0.115084
0.946258 0.313787 0.121294
0.950057 0.322454 0.127901
0.950256 0.330831 0.13431
0.0280461 0.265827 0.0603952
0.0430152 0.272038 0.065507
0.0590829 0.277409 0.0700694
0.0768597 0.282811 0.0747387
0.0969863 0.287785 0.079118
0.120394 0.292165 0.0831922
0.148348 0.295613 0.0868696
0.182895 0.297826 0.0907149
0.224796 0.297841 0.0957961
0.271672 0.296895 0.102846
0.312993 0.297948 0.108263
0.337667 0.302541 0.101305
0.376608 0.303029 0.0998703
0.421454 0.302754 0.100023
0.467643 0.302159 0.0995346
0.514809 0.301152 0.0978256
0.561852 0.299947 0.0955215
0.607065 0.298863 0.0931716
0.649958 0.298558 0.0913558
0.68986 0.299123 0.0903029
0.726513 0.300526 0.0901198
0.760037 0.302983 0.090959
0.790433 0.306523 0.0928206
0.817853 0.31104 0.0955978
0.842115 0.316945 0.0995651
0.864256 0.323217 0.104036
0.884688 0.3299 0.109026
0.903792 0.337057 0.114443
0.921736 0.344625 0.120241
0.938689 0.352621 0.12639
0.945602 0.361257 0.132967
0.947784 0.369589 0.139437
0.948013 0.378134 0.14609
0.0233768 0.300465 0.0554055
0.038529 0.307286 0.0608835
0.0549477 0.313558 0.0659495
0.0729534 0.319738 0.0711223
0.0932631 0.325536 0.0760357
0.116655 0.33077 0.0806744
0.144366 0.335546 0.0849775
0.17789 0.338552 0.088716
0.219516 0.339483 0.0928511
0.269413 0.338476 0.0989242
0.320623 0.337606 0.10663
0.362554 0.339651 0.111284
0.387793 0.345525 0.103838
0.426657 0.34696 0.102464
0.471901 0.346975 0.103502
0.519188 0.346593 0.10367
0.566339 0.346059 0.102708
0.611856 0.345907 0.101488
0.654261 0.345739 0.100237
0.693553 0.346303 0.0995651
0.729717 0.347829 0.0997482
0.762798 0.350286 0.100755
0.792889 0.353964 0.102785
0.820203 0.358587 0.105699
0.844205 0.364065 0.10956
0.866209 0.370275 0.114199
0.886641 0.37705 0.119402
0.905715 0.384237 0.124941
0.923873 0.392233 0.131075
0.940993 0.400549 0.137591
0.945266 0.408789 0.144152
0.946715 0.417227 0.150805
0.947112 0.425879 0.157641
0.0196994 0.337484 0.0517586
0.0351415 0.345083 0.0577249
0.0518807 0.352102 0.0632639
0.0700847 0.358923 0.0688334
0.0907607 0.365759 0.0743572
0.114229 0.371633 0.0794232
0.141573 0.376684 0.0840162
0.17438 0.380453 0.0879683
0.215 0.382269 0.0916152
0.265171 0.381704 0.0963149
0.321675 0.380346 0.103639
0.373907 0.380133 0.111559
0.415869 0.382498 0.115648
0.43801 0.389639 0.106538
0.476707 0.391485 0.105028
0.523156 0.391318 0.106508
0.570611 0.391333 0.107378
0.615686 0.391211 0.107271
0.657969 0.39144 0.106966
0.697139 0.392309 0.106935
0.733059 0.394003 0.107591
0.766049 0.396826 0.109163
0.795987 0.400626 0.111498
0.823026 0.405051 0.114565
0.847166 0.41062 0.118685
0.8692 0.417014 0.123705
0.889677 0.423987 0.129229
0.90898 0.431678 0.135302
0.926894 0.439628 0.141604
0.943221 0.447807 0.14818
0.945861 0.456077 0.154818
0.946746 0.464515 0.161578
0.94725 0.473106 0.168429
0.0177005 0.376761 0.050248
0.0334478 0.38497 0.056611
0.0504768 0.392523 0.062562
0.0690013 0.400198 0.0685588
0.0897383 0.407141 0.0743114
0.113222 0.413397 0.0796674
0.140414 0.418784 0.0845197
0.172717 0.422904 0.0886091
0.212268 0.425193 0.0919966
0.261799 0.425498 0.0957046
0.319234 0.423499 0.101335
0.377874 0.421714 0.109361
0.428504 0.422385 0.116976
0.470008 0.424796 0.120577
0.487907 0.433524 0.109148
0.528283 0.435187 0.107774
0.574228 0.434852 0.109361
0.619394 0.434897 0.110811
0.661753 0.435554 0.111894
0.70103 0.436912 0.112947
0.737377 0.439445 0.114549
0.770153 0.442481 0.11664
0.8 0.446418 0.119493
0.827131 0.451209 0.123049
0.851392 0.457008 0.127581
0.873503 0.463722 0.132952
0.894072 0.471077 0.138857
0.913207 0.478553 0.144976
0.930449 0.486336 0.151324
0.945815 0.494438 0.1579
0.94696 0.502586 0.164462
0.947463 0.511131 0.171328
0.947967 0.519768 0.178317
0.0179599 0.417777 0.0506905
0.0332494 0.426444 0.0572976
0.0507362 0.434928 0.0637827
0.0693828 0.442527 0.0698711
0.0899672 0.449577 0.0756542
0.11339 0.455955 0.0810712
0.140322 0.461402 0.0859236
0.172335 0.465934 0.0901198
0.210971 0.468437 0.0932937
0.258808 0.468559 0.0960098
0.315801 0.466499 0.0999313
0.377264 0.463752 0.106676
0.434714 0.462623 0.115068
0.483131 0.464424 0.122255
0.524804 0.466407 0.125566
0.540887 0.475639 0.112596
0.579477 0.477546 0.110475
0.623087 0.47808 0.112215
0.665736 0.479072 0.114839
0.705653 0.4813 0.117525
0.741848 0.484031 0.120165
0.774762 0.487572 0.12314
0.804608 0.49192 0.126619
0.831662 0.497032 0.130632
0.856031 0.503105 0.135561
0.87805 0.510033 0.141192
0.898329 0.517067 0.147066
0.917281 0.524422 0.153201
0.933944 0.532097 0.159548
0.947433 0.540017 0.166094
0.947936 0.548165 0.172717
0.948409 0.556435 0.179522
0.948898 0.564584 0.186252
0.019028 0.460853 0.0523537
0.0341039 0.469947 0.059144
0.0514687 0.478172 0.0654765
0.0700694 0.485847 0.0715038
0.0905165 0.492897 0.0771801
0.113725 0.499168 0.0824903
0.14049 0.504799 0.0872969
0.171756 0.508888 0.0911269
0.209323 0.511177 0.0939498
0.255604 0.511284 0.0960098
0.311177 0.509224 0.0985275
0.373053 0.506035 0.103426
0.435172 0.50396 0.111391
0.489632 0.503944 0.119799
0.536721 0.505867 0.126711
0.579904 0.5075 0.13019
0.594491 0.517845 0.116533
0.628992 0.521569 0.113542
0.6701 0.523598 0.116014
0.709789 0.525536 0.119753
0.746059 0.528466 0.123583
0.778988 0.53228 0.127565
0.808789 0.536828 0.131777
0.83595 0.542535 0.136645
0.860166 0.548501 0.141787
0.881865 0.555032 0.147478
0.901961 0.561898 0.153414
0.920714 0.569055 0.159594
0.936828 0.576547 0.166033
0.948547 0.584421 0.172641
0.949004 0.59205 0.179065
0.949477 0.599725 0.185626
0.94995 0.607431 0.192203
0.0202335 0.505043 0.0547341
0.0353246 0.513893 0.0613413
0.0526284 0.522087 0.0675975
0.0711833 0.529595 0.0734569
0.0914778 0.5364 0.0789197
0.114504 0.542885 0.0841535
0.140856 0.547829 0.0885634
0.171603 0.551522 0.0921187
0.208301 0.553613 0.0947127
0.253254 0.55378 0.0963912
0.307652 0.552224 0.0982223
0.369207 0.549279 0.101793
0.433082 0.54638 0.108446
0.492866 0.54522 0.117067
0.545144 0.546288 0.125429
0.592782 0.548394 0.132418
0.636057 0.550347 0.135821
0.647364 0.561959 0.121569
0.677043 0.567224 0.117998
0.714061 0.569879 0.120562
0.750393 0.57258 0.125109
0.783246 0.576257 0.129931
0.813138 0.58117 0.135149
0.839826 0.586343 0.140475
0.863828 0.592172 0.146044
0.88539 0.598459 0.151888
0.905226 0.60499 0.157992
0.923781 0.611811 0.164294
0.939406 0.619074 0.170855
0.949752 0.626169 0.177188
0.950225 0.633448 0.18352
0.950698 0.640665 0.189929
0.951171 0.647883 0.196429
0.0216678 0.548363 0.0573739
0.036759 0.55697 0.0637675
0.0540322 0.564935 0.0698863
0.0725872 0.572351 0.0756237
0.092958 0.579141 0.0810101
0.115724 0.585031 0.0859693
0.142 0.590082 0.0904707
0.172854 0.593973 0.0942855
0.209461 0.596399 0.0971084
0.254093 0.597162 0.0989395
0.30724 0.59588 0.100298
0.367727 0.593057 0.102739
0.43209 0.589944 0.107988
0.495079 0.587777 0.115938
0.552193 0.587503 0.124727
0.603265 0.589395 0.13286
0.650401 0.59147 0.139651
0.687922 0.594232 0.14081
0.697978 0.605875 0.127932
0.722316 0.612512 0.123735
0.755062 0.616083 0.126284
0.788113 0.619821 0.131395
0.817578 0.623926 0.136858
0.844007 0.628687 0.14258
0.867704 0.634058 0.148547
0.889036 0.639857 0.154711
0.908797 0.646311 0.161242
0.927001 0.652583 0.16759
0.941939 0.659022 0.174014
0.951217 0.665583 0.180346
0.951705 0.672267 0.186465
0.952209 0.679011 0.192721
0.952728 0.686 0.199374
0.0236057 0.590463 0.0607309
0.0390784 0.598947 0.0671397
0.0565957 0.60708 0.0733959
0.0754711 0.614618 0.0793164
0.0960861 0.621271 0.0848402
0.119234 0.627298 0.0900282
0.145556 0.632532 0.0947585
0.176593 0.636576 0.0987411
0.21355 0.639551 0.101869
0.257832 0.640177 0.103593
0.309972 0.639017 0.104585
0.36936 0.636393 0.106264
0.43328 0.633188 0.110185
0.498085 0.630564 0.117052
0.559045 0.629191 0.125658
0.613382 0.629526 0.134142
0.661524 0.631357 0.141573
0.706798 0.633295 0.148028
0.7393 0.636667 0.148119
0.748074 0.648508 0.13669
0.766781 0.656397 0.132006
0.793866 0.66099 0.133898
0.822293 0.66479 0.138689
0.848524 0.669001 0.14435
0.871962 0.673747 0.150393
0.893324 0.679301 0.156832
0.912596 0.68484 0.16321
0.930526 0.690517 0.169726
0.944854 0.696406 0.176211
0.953002 0.702434 0.182483
0.95349 0.708598 0.188418
0.954025 0.715084 0.194797
0.954513 0.721202 0.201083
0.0271763 0.632212 0.0661326
0.0436713 0.641123 0.0730449
0.0615702 0.64921 0.0795911
0.080705 0.65655 0.0856031
0.101747 0.663294 0.0913558
0.125307 0.669398 0.0967575
0.152117 0.674754 0.101671
0.183352 0.679133 0.105898
0.220233 0.68162 0.108827
0.264652 0.682155 0.11046
0.316182 0.681041 0.111208
0.374548 0.678508 0.112245
0.437888 0.67541 0.115129
0.502892 0.672251 0.120714
0.56582 0.669688 0.128466
0.623453 0.668696 0.136965
0.673518 0.669642 0.144701
0.718822 0.671443 0.151705
0.760342 0.673411 0.157504
0.789197 0.677211 0.157519
0.796323 0.688212 0.147662
0.809461 0.69691 0.142535
0.830289 0.702632 0.143236
0.853758 0.707073 0.147234
0.876875 0.711666 0.152987
0.897841 0.716213 0.158999
0.916793 0.720882 0.165301
0.934478 0.725856 0.171695
0.947921 0.731075 0.178012
0.95491 0.736889 0.184253
0.955383 0.74255 0.190143
0.955871 0.748226 0.196201
0.956329 0.753841 0.202304
0.033463 0.673976 0.0746014
0.05066 0.682551 0.0816205
0.0690623 0.690761 0.0885176
0.0886397 0.698131 0.0948959
0.110094 0.704799 0.100771
0.134188 0.710872 0.106325
0.161624 0.716228 0.111376
0.192844 0.72018 0.11545
0.229953 0.722454 0.118242
0.274723 0.722698 0.119615
0.325978 0.721355 0.120043
0.383932 0.719081 0.120729
0.445914 0.715663 0.122591
0.510307 0.71194 0.126864
0.574228 0.708553 0.133593
0.634058 0.706355 0.141649
0.686488 0.70631 0.149569
0.731777 0.707851 0.156573
0.773495 0.709438 0.16318
0.810437 0.710872 0.168292
0.835752 0.714626 0.168612
0.842115 0.724819 0.160464
0.850629 0.734325 0.155093
0.865446 0.7411 0.15462
0.883787 0.746105 0.157656
0.903273 0.750347 0.162676
0.921431 0.754543 0.168231
0.938827 0.758724 0.174258
0.95108 0.763653 0.180453
0.956664 0.768566 0.186313
0.957076 0.773617 0.192126
0.957519 0.778698 0.197971
0.957916 0.783581 0.203891
0.0429389 0.7149 0.0862593
0.0604562 0.723445 0.0934462
0.0792859 0.731594 0.100572
0.0992599 0.738796 0.107012
0.121416 0.745632 0.113268
0.145922 0.751308 0.1187
0.173663 0.756024 0.123476
0.205463 0.759564 0.127352
0.242603 0.761563 0.130022
0.287953 0.76141 0.13109
0.339605 0.759991 0.131289
0.396292 0.757107 0.131243
0.457206 0.753368 0.132204
0.520684 0.749249 0.135348
0.584772 0.745144 0.140978
0.645884 0.742077 0.148409
0.699886 0.740917 0.156176
0.745373 0.741543 0.163043
0.785992 0.742977 0.16939
0.823896 0.744213 0.175555
0.856657 0.745388 0.180209
0.87863 0.749371 0.180789
0.884352 0.758724 0.174304
0.88925 0.767941 0.168948
0.899199 0.775036 0.167651
0.913451 0.780316 0.169802
0.928374 0.784939 0.173388
0.943801 0.789349 0.178134
0.953902 0.793332 0.183749
0.958236 0.797635 0.189456
0.958709 0.802075 0.195148
0.959304 0.8065 0.200946
0.960128 0.81091 0.207111
0.0551461 0.754849 0.100969
0.0729381 0.763241 0.108354
0.0920424 0.771176 0.115648
0.112764 0.7785 0.122484
0.135134 0.784512 0.128359
0.160113 0.789715 0.133623
0.188373 0.793912 0.138079
0.22089 0.796872 0.141558
0.258869 0.798291 0.143847
0.304494 0.797971 0.144762
0.355718 0.795789 0.144259
0.411917 0.792554 0.143694
0.471839 0.788464 0.143954
0.534249 0.783825 0.14609
0.598306 0.779339 0.15082
0.659388 0.775357 0.15729
0.71368 0.773083 0.164477
0.759564 0.772885 0.17113
0.799359 0.773877 0.177081
0.836271 0.775051 0.183062
0.870466 0.77615 0.188952
0.898314 0.777249 0.192767
0.916136 0.781231 0.192996
0.921538 0.78938 0.188083
0.92491 0.797925 0.183474
0.932265 0.80502 0.182101
0.942382 0.810758 0.183108
0.953048 0.815747 0.18526
0.959579 0.81944 0.190143
0.963012 0.823133 0.195727
0.963836 0.826932 0.201434
0.96492 0.830839 0.207507
0.966598 0.834333 0.213809
0.0697795 0.793561 0.118441
0.0881666 0.80177 0.126223
0.107546 0.80943 0.133593
0.128359 0.816007 0.140078
0.151186 0.821515 0.14583
0.176654 0.826062 0.150835
0.205493 0.829557 0.15494
0.239322 0.831968 0.158114
0.278187 0.832563 0.159716
0.323613 0.831388 0.159869
0.374411 0.828794 0.158877
0.430121 0.825116 0.157702
0.489311 0.82063 0.15729
0.551278 0.815778 0.158801
0.613809 0.810468 0.162325
0.674174 0.805798 0.167803
0.728283 0.802777 0.174319
0.774044 0.801801 0.18056
0.81326 0.802289 0.18616
0.849027 0.80322 0.191684
0.882078 0.804044 0.197208
0.911467 0.804715 0.202121
0.934371 0.80618 0.20502
0.948898 0.810178 0.205097
0.954696 0.817227 0.201892
0.957626 0.82504 0.198245
0.962554 0.831739 0.196567
0.969238 0.837522 0.19675
0.972717 0.840818 0.201404
0.975235 0.843824 0.206882
0.97673 0.84715 0.212894
0.978073 0.850248 0.218845
0.979995 0.853071 0.225254
0.0870527 0.830533 0.138766
0.105409 0.838178 0.146136
0.124956 0.845258 0.153277
0.1458 0.851423 0.159701
0.169024 0.856352 0.165133
0.194919 0.860182 0.169635
0.224765 0.863142 0.173404
0.259068 0.864347 0.175586
0.298985 0.863935 0.176318
0.344747 0.861982 0.175723
0.395071 0.859007 0.174289
0.450126 0.854902 0.172503
0.509087 0.850111 0.171618
0.569512 0.844587 0.172137
0.631128 0.838788 0.174807
0.690303 0.833631 0.179477
0.743374 0.830014 0.185138
0.788937 0.828565 0.191043
0.827329 0.828382 0.196124
0.861677 0.828809 0.200931
0.893431 0.829313 0.205921
0.922667 0.829847 0.210925
0.947616 0.830488 0.215076
0.966522 0.832517 0.217517
0.976608 0.836423 0.217624
0.981308 0.84242 0.215488
0.982971 0.849271 0.212757
0.98613 0.855268 0.21181
0.987793 0.857847 0.216999
0.989181 0.860273 0.222812
0.990356 0.862638 0.228672
0.99176 0.865125 0.234684
0.993027 0.867552 0.240879
0.105272 0.865003 0.160342
0.12372 0.871977 0.167407
0.143526 0.878492 0.174166
0.164767 0.884077 0.180117
0.188098 0.888747 0.185351
0.214527 0.89192 0.189288
0.2448 0.893782 0.192065
0.280186 0.894026 0.193469
0.320912 0.892775 0.193439
0.366751 0.89015 0.192126
0.417487 0.886671 0.190173
0.47155 0.882216 0.187808
0.529168 0.876692 0.185992
0.588571 0.87071 0.18584
0.64918 0.864454 0.187762
0.707012 0.858915 0.191684
0.75906 0.8551 0.196918
0.803235 0.852872 0.201892
0.840574 0.852171 0.206409
0.873869 0.852201 0.210712
0.904723 0.85243 0.215183
0.933288 0.852796 0.219944
0.958923 0.853254 0.224628
0.979644 0.853895 0.228199
0.990234 0.856062 0.230152
0.994461 0.859922 0.23032
0.996277 0.864988 0.229389
0.996429 0.870314 0.228962
0.996948 0.872343 0.234302
0.99736 0.874372 0.239673
0.997726 0.876448 0.245182
0.998138 0.878553 0.250782
0.99884 0.880705 0.256657
0.123842 0.897337 0.182406
0.142229 0.903517 0.188922
0.162234 0.909316 0.195163
0.184039 0.914351 0.200809
0.207736 0.91812 0.205356
0.234028 0.920577 0.208698
0.265217 0.921447 0.210575
0.30164 0.920836 0.211109
0.343053 0.918822 0.210208
0.389532 0.915816 0.208392
0.439551 0.911681 0.205646
0.492973 0.906615 0.202594
0.549401 0.900725 0.200061
0.607767 0.894301 0.199313
0.667216 0.887633 0.200595
0.724041 0.881956 0.20412
0.774136 0.877684 0.208484
0.817029 0.875151 0.21294
0.853559 0.874037 0.216968
0.885801 0.873686 0.220752
0.916014 0.873793 0.224948
0.943618 0.873869 0.229297
0.968643 0.874189 0.233967
0.988998 0.874327 0.238193
0.99826 0.875135 0.241352
0.99971 0.877501 0.24303
1 0.880903 0.244282
1 0.884199 0.246082
1 0.886107 0.250523
1 0.888106 0.255177
1 0.890181 0.259937
1 0.892332 0.265064
1 0.89453 0.270588
0.142351 0.927398 0.204562
0.160723 0.932967 0.210513
