src/luts/crop/8.cube
TITLE "Generated by Resolve"
LUT_3D_SIZE 5
0.0416114 0.0596017 0.0775311
0.172152 0.0494392 0.049836
0.441703 0.00453193 0
0.682048 0 0
0.806302 0.0037995 0
0.0378119 0.206104 0.0715648
0.225925 0.22356 0.102861
0.550561 0.20943 0.0739605
0.832547 0.222492 0.0733196
0.952361 0.285023 0.121843
0.0202335 0.505043 0.0547341
0.208301 0.553613 0.0947127
0.636057 0.550347 0.135821
0.863828 0.592172 0.146044
0.951171 0.647883 0.196429
0.0870527 0.830533 0.138766
0.298985 0.863935 0.176318
0.743374 0.830014 0.185138
0.976608 0.836423 0.217624
0.993027 0.867552 0.240879
0.224002 1 0.30454
0.467475 0.991363 0.297612
0.853849 0.956573 0.277195
1 0.947845 0.299229
1 0.950011 0.327688
0 0.0719463 0.176242
0.179416 0.040116 0.222324
0.453391 0.00315862 0.111482
0.68603 9.15541e-05 0.0457465
0.817136 0.0104829 0.0598459
0.0190738 0.217227 0.22649
0.200855 0.252811 0.270161
0.565484 0.237858 0.216907
0.83563 0.26041 0.199863
0.940841 0.322866 0.251865
0.00798047 0.530388 0.209735
0.191882 0.585733 0.266728
0.628916 0.586282 0.304692
0.882856 0.621225 0.328573
0.958129 0.673243 0.392065
0.0716869 0.85098 0.312016
0.273976 0.889616 0.362219
0.697429 0.858351 0.354086
0.959792 0.858137 0.390112
0.979065 0.888991 0.421149
0.185077 0.997574 0.498497
0.41445 0.999512 0.505241
0.782605 0.97644 0.463401
1 0.963165 0.486
1 0.96556 0.52546
0 0.0872969 0.350744
0.000442512 0.0681315 0.438499
0.479728 0 0.436286
0.741283 0 0.343069
0.871519 0.00236515 0.349493
0 0.23328 0.381018
0.0244297 0.268956 0.458976
0.609583 0.215076 0.58117
0.884092 0.244312 0.54905
0.967651 0.310719 0.588785
7.62951e-05 0.553521 0.523064
0.147509 0.612619 0.593271
0.585214 0.632288 0.647868
0.888899 0.647532 0.631724
0.965774 0.698207 0.670253
0.0243381 0.878721 0.608026
0.210361 0.915114 0.658335
0.613947 0.893202 0.676326
0.91574 0.885771 0.688426
0.974029 0.907301 0.716243
0.124865 0.999985 0.752911
0.334462 1 0.757275
0.69514 0.997375 0.749645
0.965637 0.985672 0.749035
1 0.986267 0.779873
0 0.103548 0.497261
0 0.0939956 0.581033
0.389029 0 0.696162
0.754284 0 0.639292
0.909468 0.000961318 0.652567
0 0.261921 0.522957
0 0.299062 0.614267
0.531273 0.221256 0.822782
0.911162 0.238453 0.823651
0.96762 0.300435 0.852461
0 0.56318 0.699046
0.0932174 0.622705 0.753964
0.441306 0.638743 0.778775
0.913573 0.637613 0.892958
0.978561 0.688746 0.914488
0.0177768 0.894194 0.828519
0.19852 0.928573 0.877546
0.577066 0.914443 0.899947
0.896742 0.908919 0.924666
0.981292 0.919417 0.925841
0.111971 1 0.924895
0.307927 1 0.943664
0.650919 1 0.936202
0.925963 1 0.953353
0.991836 1 0.966369
0 0.116045 0.568765
0 0.111635 0.647776
0.292393 0.00317388 0.808591
0.749493 3.0518e-05 0.772457
0.918547 0.00434882 0.795132
0 0.285679 0.596643
0 0.326467 0.688685
0.460594 0.257206 0.92015
0.914702 0.263081 0.937865
0.968673 0.323552 0.967788
0 0.588174 0.767178
0.0753643 0.6477 0.813718
0.404227 0.655253 0.845853
0.90985 0.651545 0.995544
0.977127 0.696544 1
0.0285954 0.906081 0.915816
0.22182 0.933898 0.940734
0.582773 0.918227 0.965026
0.856077 0.922652 0.986267
0.983063 0.921416 1
0.127138 1 0.931701
0.329839 1 0.950423
0.65948 1 0.976165
0.918868 1 1
0.988388 1 1
