src/luts/crop/8.cube
TITLE "Generated by Resolve"
LUT_3D_SIZE 9
0.0416114 0.0596017 0.0775311
0.0944381 0.0585336 0.073106
0.172152 0.0494392 0.049836
0.300679 0.0239872 0.00830091
0.441703 0.00453193 0
0.576288 0 0
0.682048 0 0
0.749722 0 0
0.806302 0.0037995 0
0.0456703 0.119249 0.0811322
0.111513 0.122408 0.0906081
0.193317 0.117647 0.0824598
0.340307 0.0945754 0.0522774
0.502892 0.0725261 0.0162356
0.650935 0.0598459 0.000808728
0.760082 0.0668193 0.00157168
0.839277 0.0892653 0.0052491
0.904509 0.119875 0.0178073
0.0378119 0.206104 0.0715648
0.105287 0.22063 0.0859998
0.225925 0.22356 0.102861
0.366567 0.220127 0.0903487
0.550561 0.20943 0.0739605
0.715404 0.206332 0.0639506
0.832547 0.222492 0.0733196
0.914611 0.251377 0.0957809
0.952361 0.285023 0.121843
0.0196994 0.337484 0.0517586
0.0907607 0.365759 0.0743572
0.215 0.382269 0.0916152
0.415869 0.382498 0.115648
0.570611 0.391333 0.107378
0.733059 0.394003 0.107591
0.847166 0.41062 0.118685
0.926894 0.439628 0.141604
0.94725 0.473106 0.168429
0.0202335 0.505043 0.0547341
0.0914778 0.5364 0.0789197
0.208301 0.553613 0.0947127
0.433082 0.54638 0.108446
0.636057 0.550347 0.135821
0.750393 0.57258 0.125109
0.863828 0.592172 0.146044
0.939406 0.619074 0.170855
0.951171 0.647883 0.196429
0.033463 0.673976 0.0746014
0.110094 0.704799 0.100771
0.229953 0.722454 0.118242
0.445914 0.715663 0.122591
0.686488 0.70631 0.149569
0.835752 0.714626 0.168612
0.883787 0.746105 0.157656
0.95108 0.763653 0.180453
0.957916 0.783581 0.203891
0.0870527 0.830533 0.138766
0.169024 0.856352 0.165133
0.298985 0.863935 0.176318
0.509087 0.850111 0.171618
0.743374 0.830014 0.185138
0.893431 0.829313 0.205921
0.976608 0.836423 0.217624
0.987793 0.857847 0.216999
0.993027 0.867552 0.240879
0.160372 0.955062 0.226383
0.246174 0.969604 0.243534
0.386511 0.963882 0.241932
0.589059 0.941772 0.227008
0.802838 0.917159 0.231327
0.936477 0.911467 0.244923
0.999908 0.911406 0.260822
1 0.916259 0.273671
1 0.923949 0.290837
0.224002 1 0.30454
0.318441 0.999695 0.311208
0.467475 0.991363 0.297612
0.662577 0.973816 0.276524
0.853849 0.956573 0.277195
0.972152 0.950271 0.286137
1 0.947845 0.299229
1 0.948608 0.310246
1 0.950011 0.327688
0.0131991 0.0651102 0.116228
0.093019 0.0569924 0.138903
0.183291 0.045243 0.114015
0.301793 0.0251469 0.0678416
0.440009 0.00619516 0.0200351
0.577371 0.000106813 0.000289921
0.68191 0 0
0.755032 0.000671397 0
0.81294 0.00820935 0.000762951
0.0372931 0.122408 0.136889
0.0991531 0.130495 0.148653
0.195697 0.124514 0.13695
0.337682 0.106218 0.0934462
0.50132 0.0861372 0.0512245
0.648524 0.0757458 0.0166476
0.75668 0.0851301 0.0122988
0.835019 0.109575 0.0241703
0.903029 0.139605 0.0535286
0.0304723 0.213504 0.129152
0.100465 0.231464 0.149706
0.223529 0.237522 0.166949
0.378698 0.230823 0.153735
0.569421 0.21973 0.134356
0.734386 0.217823 0.124056
0.849073 0.235096 0.134295
0.929381 0.264393 0.157855
0.958221 0.296956 0.185901
0.0159915 0.349508 0.111818
0.0889296 0.380636 0.138354
0.208804 0.401434 0.159945
0.419547 0.39939 0.180606
0.583352 0.405127 0.173114
0.748012 0.407004 0.17142
0.86157 0.423835 0.183902
0.939712 0.452934 0.208972
0.952911 0.486076 0.238514
0.0172885 0.518013 0.114855
0.0881208 0.550759 0.140887
0.202533 0.570306 0.160479
0.422522 0.564813 0.170535
0.63798 0.566339 0.198627
0.761486 0.586923 0.192874
0.874357 0.606394 0.21474
0.947219 0.632486 0.241611
0.954025 0.660395 0.270787
0.0306706 0.686549 0.136828
0.106859 0.719051 0.165072
0.225132 0.738964 0.186328
0.431571 0.733486 0.189197
0.682643 0.72079 0.211856
0.83534 0.72871 0.232166
0.889464 0.756985 0.225834
0.955703 0.772961 0.251377
0.960128 0.792355 0.27892
0.0834974 0.841321 0.205295
0.164508 0.867781 0.23389
0.29073 0.878279 0.249485
0.490501 0.865171 0.242908
0.730373 0.842863 0.248997
0.88748 0.84007 0.270146
0.973053 0.846281 0.283314
0.984421 0.867399 0.284245
0.991577 0.877043 0.311208
0.152148 0.962814 0.299901
0.235309 0.978042 0.318364
0.37171 0.975952 0.320958
0.562631 0.95523 0.303349
0.78233 0.928618 0.298939
0.925734 0.920378 0.312398
0.998779 0.919997 0.32932
1 0.924346 0.344396
1 0.931731 0.365072
0.209476 0.999023 0.384878
0.300069 1 0.392691
0.444587 0.996674 0.384115
0.628 0.982773 0.358602
0.828809 0.964065 0.350378
0.957488 0.956588 0.359609
1 0.953994 0.373983
1 0.954818 0.388388
1 0.956481 0.409567
0 0.0719463 0.176242
0.0273899 0.0674754 0.2103
0.179416 0.040116 0.222324
0.322713 0.0143893 0.167086
0.453391 0.00315862 0.111482
0.584772 0.000198367 0.0670787
0.68603 9.15541e-05 0.0457465
0.758541 0.00289921 0.0459297
0.817136 0.0104829 0.0598459
0.00292973 0.129549 0.190997
0.0440223 0.138766 0.212284
0.194232 0.119417 0.252094
0.355291 0.0995193 0.201816
0.507027 0.0871595 0.156329
0.651453 0.0803998 0.124651
0.760128 0.0914321 0.121202
0.840055 0.116518 0.140337
0.907423 0.148333 0.170245
0.0190738 0.217227 0.22649
0.086717 0.237003 0.249958
0.200855 0.252811 0.270161
0.380194 0.243793 0.250034
0.565484 0.237858 0.216907
0.726101 0.240635 0.194278
0.83563 0.26041 0.199863
0.91342 0.290257 0.222522
0.940841 0.322866 0.251865
0.00402838 0.362905 0.207401
0.0762646 0.394644 0.238315
0.198459 0.419165 0.270878
0.41651 0.418021 0.292988
0.592294 0.418799 0.282841
0.762539 0.419165 0.277134
0.876646 0.435813 0.290181
0.95552 0.464469 0.318105
0.964645 0.497704 0.352804
0.00798047 0.530388 0.209735
0.076524 0.562448 0.238987
0.191882 0.585733 0.266728
0.397803 0.5879 0.280934
0.628916 0.586282 0.304692
0.769528 0.602396 0.306752
0.882856 0.621225 0.328573
0.954482 0.645899 0.357671
0.958129 0.673243 0.392065
0.0215152 0.697658 0.23473
0.0957351 0.730175 0.266468
0.213169 0.752728 0.293736
0.406622 0.751598 0.302358
0.663203 0.737041 0.314549
0.825635 0.744076 0.337942
0.89192 0.767681 0.339376
0.960372 0.782803 0.369299
0.962722 0.801389 0.400473
0.0716869 0.85098 0.312016
0.150332 0.876402 0.341787
0.273976 0.889616 0.362219
0.462516 0.880339 0.360723
0.697429 0.858351 0.354086
0.871412 0.851911 0.375341
0.959792 0.858137 0.390112
0.975387 0.878691 0.392599
0.979065 0.888991 0.421149
0.134112 0.970077 0.41239
0.21355 0.984802 0.431327
0.347616 0.985168 0.438666
0.528267 0.968551 0.426627
0.740749 0.942641 0.408469
0.90483 0.930266 0.420569
0.99379 0.92987 0.437705
1 0.934173 0.454704
1 0.941238 0.477775
0.185077 0.997574 0.498497
0.271397 0.998871 0.507195
0.41445 0.999512 0.505241
0.586999 0.992859 0.485679
0.782605 0.97644 0.463401
0.932754 0.966186 0.471641
1 0.963165 0.486
1 0.963775 0.502693
1 0.96556 0.52546
0 0.0790112 0.262409
0 0.0770733 0.296666
0.0777447 0.0502632 0.348653
0.320287 0.0074464 0.329152
0.484688 0 0.263478
0.610376 0 0.204761
0.707668 0 0.178073
0.779522 0.00120546 0.177081
0.838636 0.0069276 0.191562
0 0.137911 0.271962
0.000228885 0.145342 0.303929
0.0794995 0.134096 0.363424
0.361318 0.0876631 0.377127
0.542275 0.0686656 0.319463
0.679667 0.0694591 0.277714
0.784939 0.0841993 0.271595
0.864393 0.111101 0.290654
0.929961 0.143359 0.320058
0 0.221164 0.309361
0.011841 0.243641 0.329244
0.109117 0.26186 0.362692
0.396735 0.232456 0.433677
0.593744 0.226429 0.38909
0.74258 0.236896 0.364355
0.847547 0.259098 0.36907
0.923003 0.289738 0.390036
0.956527 0.322911 0.419211
0.00117494 0.369039 0.360937
0.0579385 0.402579 0.397864
0.174975 0.429114 0.432914
0.380499 0.440436 0.457115
0.589944 0.431525 0.434394
0.759045 0.435859 0.411475
0.868864 0.456779 0.415122
0.948928 0.485405 0.441749
0.95845 0.5187 0.47219
0.000518807 0.546517 0.359564
0.0505379 0.579232 0.391669
0.164096 0.603311 0.421714
0.373129 0.610895 0.452964
0.613886 0.609186 0.473152
0.774258 0.618601 0.475029
0.890654 0.635615 0.491005
0.965774 0.65861 0.51635
0.966171 0.684886 0.547127
0.00549325 0.713176 0.377295
0.0710918 0.745129 0.412024
0.186465 0.765881 0.442435
0.380972 0.767681 0.464439
0.618601 0.760449 0.47248
0.808164 0.761074 0.495354
0.891356 0.778943 0.5028
0.962829 0.794034 0.529442
0.965698 0.812116 0.557641
0.0474861 0.864179 0.453132
0.12398 0.888472 0.484657
0.243778 0.899443 0.507271
0.432624 0.892195 0.516304
0.642908 0.87657 0.508675
0.844633 0.864378 0.521401
0.935958 0.871519 0.534508
0.970184 0.888167 0.540139
0.971649 0.899229 0.564904
0.106035 0.981277 0.548363
0.182025 0.994141 0.56762
0.311864 0.992569 0.57644
0.494575 0.97818 0.575402
0.684825 0.957534 0.558572
0.873152 0.940612 0.559121
0.972793 0.940612 0.57525
0.999329 0.945602 0.590021
0.999832 0.952148 0.610956
0.152148 0.998245 0.625162
0.234699 0.999176 0.63328
0.375509 0.998245 0.633738
0.551202 0.997848 0.627878
0.726268 0.990646 0.606973
0.897139 0.978225 0.603113
0.990204 0.974105 0.617197
1 0.97406 0.633295
1 0.975677 0.653498
0 0.0872969 0.350744
0 0.0868544 0.386343
0.000442512 0.0681315 0.438499
0.253666 0.00686656 0.484627
0.479728 0 0.436286
0.638972 0 0.377569
0.741283 0 0.343069
0.812039 0 0.337102
0.871519 0.00236515 0.349493
0 0.147097 0.360784
0 0.15436 0.397894
0.00492866 0.14728 0.455055
0.282567 0.0878614 0.534951
0.546151 0.0594492 0.502922
0.713985 0.0516518 0.461555
0.822126 0.0685893 0.448768
0.900786 0.0971237 0.46247
0.94963 0.130465 0.49015
0 0.23328 0.381018
0 0.254475 0.411139
0.0244297 0.268956 0.458976
0.282582 0.238117 0.577417
0.609583 0.215076 0.58117
0.78088 0.219409 0.552911
0.884092 0.244312 0.54905
0.957427 0.276234 0.562387
0.967651 0.310719 0.588785
0 0.369924 0.468696
0.0109102 0.403403 0.502739
0.106828 0.430304 0.525429
0.277333 0.444999 0.546914
0.610437 0.419226 0.624445
0.779095 0.425864 0.596384
0.883955 0.451286 0.597696
0.959274 0.483207 0.615244
0.972808 0.517281 0.643442
7.62951e-05 0.553521 0.523064
0.0371252 0.586877 0.559579
0.147509 0.612619 0.593271
0.345022 0.624643 0.623072
0.585214 0.632288 0.647868
0.773816 0.63003 0.628
0.888899 0.647532 0.631724
0.961547 0.672557 0.643549
0.965774 0.698207 0.670253
0 0.727565 0.541817
0.0487831 0.760647 0.578683
0.159213 0.783597 0.608698
0.348898 0.786358 0.625818
0.589914 0.78381 0.652338
0.787076 0.781964 0.66273
0.891157 0.791379 0.672145
0.964294 0.805417 0.690089
0.970397 0.822385 0.711711
0.0243381 0.878721 0.608026
0.096788 0.903227 0.638758
0.210361 0.915114 0.658335
0.397559 0.904753 0.663478
0.613947 0.893202 0.676326
0.813382 0.881559 0.676768
0.91574 0.885771 0.688426
0.967407 0.896483 0.697307
0.974029 0.907301 0.716243
0.0800793 0.990097 0.688334
0.151888 0.998154 0.706249
0.27396 1 0.712367
0.457008 0.986435 0.709636
0.654124 0.970336 0.712795
0.830396 0.956573 0.704128
0.947143 0.952789 0.716472
0.995178 0.958694 0.726253
0.997162 0.964981 0.743297
0.124865 0.999985 0.752911
0.201602 1 0.760662
0.334462 1 0.757275
0.513207 0.997711 0.749935
0.69514 0.997375 0.749645
0.85156 0.992157 0.738689
0.965637 0.985672 0.749035
1 0.984878 0.763943
1 0.986267 0.779873
0 0.0959182 0.433936
0 0.0968948 0.471046
0 0.0826123 0.520684
0.129534 0.0242008 0.603922
0.445609 0 0.585077
0.634958 0 0.542245
0.756207 0 0.51368
0.836957 0 0.507836
0.901137 0.000595102 0.519234
0 0.157458 0.446647
0 0.165621 0.485588
0 0.161929 0.542031
0.160723 0.111696 0.64448
0.518135 0.057435 0.65211
0.716442 0.0482643 0.628901
0.840925 0.0600748 0.62211
0.925292 0.0865797 0.634974
0.949355 0.11902 0.660166
0 0.248508 0.461372
0 0.270008 0.497566
0 0.284169 0.550607
0.174868 0.259495 0.66244
0.579034 0.212222 0.72697
0.788449 0.215228 0.71783
0.906813 0.233692 0.717311
0.966384 0.26334 0.728771
0.968765 0.298177 0.748775
0 0.382086 0.537896
0 0.41593 0.568353
0.0310369 0.441581 0.587823
0.192325 0.447044 0.626108
0.534188 0.413916 0.759304
0.796475 0.415442 0.760937
0.913863 0.436561 0.761212
0.977432 0.469322 0.772946
0.978561 0.505425 0.793576
0 0.554879 0.63621
0.0143587 0.588403 0.670985
0.120287 0.61416 0.700374
0.294392 0.624826 0.710903
0.497475 0.637522 0.728481
0.788357 0.622156 0.793088
0.89955 0.640543 0.789944
0.970794 0.666606 0.797787
0.977829 0.693507 0.816556
3.0518e-05 0.735195 0.682307
0.0430762 0.768093 0.718715
0.152377 0.790845 0.749722
0.335866 0.796262 0.77232
0.56376 0.797726 0.794446
0.774166 0.797635 0.812833
0.890547 0.800031 0.804273
0.963409 0.812604 0.807568
0.973983 0.828214 0.821836
0.0176242 0.887343 0.740093
0.0871595 0.911391 0.769848
0.196918 0.923888 0.790936
0.373953 0.918685 0.800198
0.585382 0.907958 0.806165
0.784466 0.900603 0.82327
0.901884 0.899825 0.826917
0.967453 0.905318 0.833555
0.977829 0.915282 0.845747
0.0695506 0.993835 0.804105
0.139315 0.998932 0.82269
0.255314 1 0.832044
0.427848 0.997131 0.831281
0.626062 0.982132 0.829877
0.804135 0.972717 0.842161
0.926741 0.966888 0.843046
0.981338 0.972198 0.8486
0.98677 0.977935 0.858793
0.11371 1 0.856168
0.186999 1 0.866224
0.312245 1 0.867414
0.481102 1 0.860197
0.668544 0.998032 0.854688
0.828763 1 0.865354
0.942275 0.997116 0.864775
0.998474 0.995132 0.877058
0.997757 0.996124 0.887739
0 0.103548 0.497261
0 0.10547 0.53344
0 0.0939956 0.581033
0.0442817 0.0456703 0.667262
0.389029 0 0.696162
0.622354 0 0.658579
0.754284 0 0.639292
0.842756 0 0.638926
0.909468 0.000961318 0.652567
0 0.166674 0.509804
0 0.175601 0.548043
0 0.174334 0.603677
0.0871901 0.133242 0.705257
0.471031 0.0647593 0.757015
0.711986 0.0543984 0.739147
0.844251 0.0643778 0.739025
0.934478 0.0895857 0.753384
0.947692 0.121202 0.775372
0 0.261921 0.522957
0 0.284092 0.560372
0 0.299062 0.614267
0.124956 0.27953 0.721279
0.531273 0.221256 0.822782
0.785916 0.222507 0.818875
0.911162 0.238453 0.823651
0.965133 0.266224 0.836179
0.96762 0.300435 0.852461
0 0.398123 0.58703
0 0.432044 0.616739
0.00700389 0.457145 0.639094
0.150896 0.458762 0.685695
0.450584 0.426535 0.822416
0.790982 0.419303 0.856916
0.920851 0.439231 0.864958
0.976577 0.469322 0.877821
0.977615 0.504265 0.893812
0 0.56318 0.699046
0.00308232 0.597025 0.730694
0.0932174 0.622705 0.753964
0.246693 0.631113 0.749462
0.441306 0.638743 0.778775
0.7691 0.6224 0.887709
0.913573 0.637613 0.892958
0.978851 0.661158 0.900862
0.978561 0.688746 0.914488
0 0.740215 0.767346
0.0396887 0.772732 0.801404
0.149706 0.794705 0.830396
0.329747 0.799054 0.849226
0.542123 0.801297 0.859983
0.723278 0.808118 0.874937
0.894896 0.798566 0.908293
0.966552 0.810544 0.910231
0.979934 0.826123 0.920089
0.0177768 0.894194 0.828519
0.0884413 0.917205 0.856504
0.19852 0.928573 0.877546
0.373526 0.923125 0.889265
0.577066 0.914443 0.899947
0.76733 0.909499 0.911528
0.896742 0.908919 0.924666
0.968338 0.911711 0.920195
0.981292 0.919417 0.925841
0.0691081 0.994812 0.882948
0.138613 0.999054 0.901427
0.254231 1 0.912535
0.42266 0.998718 0.91545
0.611749 0.990417 0.917586
0.789502 0.980636 0.92311
0.909819 0.978317 0.936965
0.980209 0.979446 0.940505
0.986816 0.9841 0.945815
0.111971 1 0.924895
0.184634 1 0.934279
0.307927 1 0.943664
0.471885 1 0.940505
0.650919 1 0.936202
0.816083 1 0.939757
0.925963 1 0.953353
0.99173 1 0.959457
0.991836 1 0.966369
0 0.110109 0.539422
0 0.112764 0.574166
0 0.103227 0.620432
0.0128939 0.0614939 0.70454
0.335302 0.000228885 0.764645
0.606424 0 0.731914
0.751186 0 0.718532
0.844877 9.15541e-05 0.721828
0.912383 0.00259403 0.737682
0 0.174823 0.551858
0 0.184802 0.589364
0 0.185611 0.644419
0.0501259 0.149996 0.743755
0.431693 0.079408 0.8215
0.706783 0.0624857 0.806607
0.84686 0.074876 0.811597
0.937499 0.0996109 0.82742
0.948333 0.13051 0.848188
0 0.273915 0.565148
0 0.2972 0.602548
0 0.312947 0.656596
0.102632 0.296468 0.76109
0.491661 0.238315 0.880613
0.780377 0.231785 0.880903
0.913314 0.249668 0.88925
0.965469 0.2766 0.90251
0.967834 0.310491 0.918486
0 0.413886 0.622995
0 0.447547 0.652003
0.00164797 0.471763 0.67686
0.134997 0.473091 0.728038
0.40972 0.442908 0.859586
0.778836 0.426734 0.917601
0.923217 0.450019 0.929
0.976379 0.478553 0.942809
0.977295 0.512001 0.9579
0 0.575097 0.737789
0.000106813 0.609094 0.767834
0.0800946 0.634943 0.787686
0.226688 0.642405 0.779217
0.416526 0.64593 0.815763
0.732906 0.630182 0.941085
0.915022 0.644465 0.954894
0.977737 0.665736 0.965194
0.977432 0.691066 0.976944
0 0.748959 0.819104
0.0408637 0.780697 0.851621
0.151812 0.801862 0.878401
0.327886 0.805508 0.891386
0.521111 0.807828 0.888884
0.69514 0.813428 0.911467
0.891737 0.800763 0.970916
0.973098 0.810269 0.973693
0.978927 0.82591 0.981659
0.0202792 0.899687 0.88423
0.0921798 0.921294 0.911101
0.205631 0.930892 0.931121
0.37879 0.924926 0.941726
0.576165 0.916106 0.949981
0.753567 0.914916 0.954803
0.867475 0.918166 0.970382
0.967117 0.913054 0.985351
0.983352 0.919646 0.988067
0.0743267 0.995468 0.924056
0.145617 0.999176 0.933776
0.263264 1 0.944961
0.429191 0.999252 0.958236
0.612741 0.99176 0.970977
0.782666 0.985321 0.981613
0.901411 0.982666 0.989548
0.979538 0.983642 0.994949
0.987076 0.986908 0.995712
0.118349 1 0.930678
0.191974 1 0.938567
0.316167 1 0.94934
0.476921 1 0.961822
0.650401 1 0.975387
0.80763 1 0.989639
0.920775 1 0.998199
0.987305 1 0.999283
0.988388 1 1
0 0.116045 0.568765
0 0.119493 0.602609
0 0.111635 0.647776
0.00282292 0.0745251 0.729824
0.292393 0.00317388 0.808591
0.590799 0 0.783764
0.749493 3.0518e-05 0.772457
0.847471 0.00062562 0.778332
0.918547 0.00434882 0.795132
0 0.182727 0.581933
0 0.193912 0.619501
0 0.196277 0.67425
0.0298466 0.164843 0.77203
0.401572 0.0959945 0.866056
0.701076 0.0733043 0.85687
0.850538 0.0878614 0.863676
0.937499 0.112367 0.880659
0.949966 0.142641 0.901015
0 0.285679 0.596643
0 0.31014 0.634211
0 0.326467 0.688685
0.091371 0.312322 0.79173
0.460594 0.257206 0.92015
0.772808 0.243198 0.928405
0.914702 0.263081 0.937865
0.966461 0.289906 0.952026
0.968673 0.323552 0.967788
0 0.429007 0.651652
0 0.462425 0.680888
0 0.485801 0.707149
0.128588 0.486915 0.760983
0.387625 0.459403 0.88748
0.764569 0.437751 0.964233
0.923384 0.461906 0.975174
0.976684 0.490745 0.988174
0.977493 0.522759 0.99675
0 0.588174 0.767178
0 0.622171 0.796414
0.0753643 0.6477 0.813718
0.218662 0.654505 0.804761
0.404227 0.655253 0.845853
0.700038 0.641306 0.975082
0.90985 0.651545 0.995544
0.977295 0.673609 0.999313
0.977127 0.696544 1
0.000213626 0.759457 0.857267
0.0445716 0.790188 0.888792
0.158999 0.809644 0.911665
0.329839 0.812772 0.919066
0.506203 0.814511 0.909422
0.676524 0.818753 0.939696
0.873198 0.807355 0.999985
0.975525 0.81384 1
0.978546 0.827451 1
0.0285954 0.906081 0.915816
0.103868 0.926192 0.927565
0.22182 0.933898 0.940734
0.392828 0.927306 0.954116
0.582773 0.918227 0.965026
0.74786 0.918791 0.967254
0.856077 0.922652 0.986267
0.970626 0.913893 1
0.983063 0.921416 1
0.0841535 0.997208 0.926619
0.157473 0.999603 0.935042
0.278508 1 0.946273
0.443473 1 0.959289
0.623423 0.992508 0.973465
0.787854 0.986511 0.988525
0.898985 0.98558 0.998184
0.976242 0.986358 1
0.987366 0.988113 1
0.127138 1 0.931701
0.203723 1 0.939666
0.329839 1 0.950423
0.488563 1 0.962692
0.65948 1 0.976165
0.810987 1 0.990906
0.918868 1 1
0.987472 1 1
0.988388 1 1
