src/luts/crop/9.cube
TITLE "Generated by Resolve"
LUT_3D_SIZE 5
0.0356451 0.0470741 0.0641184
0.142336 0.0366369 0.0373236
0.395544 0.000396735 0
0.616037 0 0
0.72636 0.000671397 0
0.0305791 0.166155 0.0586862
0.188907 0.18529 0.0863966
0.520409 0.165957 0.0514839
0.78204 0.190311 0.059556
0.905608 0.268605 0.115297
0.00959792 0.466026 0.0372015
0.173892 0.52723 0.0795758
0.610315 0.52726 0.121675
0.814694 0.579049 0.134096
0.925628 0.642481 0.184146
0.0864729 0.804044 0.132967
0.289693 0.836774 0.170321
0.728573 0.800198 0.174823
0.934905 0.804318 0.206455
0.968429 0.841093 0.212589
0.223392 0.996384 0.295338
0.467369 0.975723 0.276158
0.831449 0.923186 0.250858
0.986908 0.915206 0.26714
1 0.921187 0.297124
0 0.0568704 0.147646
0.149813 0.0290532 0.178805
0.400793 0.00077821 0.0632181
0.61825 0 0.00827039
0.733364 0.000549325 0.0190585
0.0166018 0.176715 0.185138
0.174578 0.21236 0.229267
0.539696 0.196277 0.165545
0.787411 0.229786 0.172183
0.906401 0.307698 0.243259
0.00396735 0.493553 0.165118
0.164736 0.559655 0.22446
0.610193 0.562692 0.264225
0.83151 0.608865 0.297307
0.939727 0.667384 0.372091
0.0755322 0.824155 0.291981
0.267826 0.860533 0.343664
0.69572 0.823789 0.327321
0.917754 0.82266 0.361593
0.952346 0.856062 0.387472
0.180804 0.997467 0.49572
0.408911 0.992752 0.489769
0.770428 0.941848 0.435386
0.952026 0.929793 0.448081
0.999985 0.936202 0.493278
0 0.0709544 0.326711
0 0.054551 0.397024
0.425422 0 0.383413
0.666972 0 0.285969
0.783413 7.62951e-05 0.308675
0 0.194385 0.349645
0.00535592 0.230228 0.434775
0.584451 0.173342 0.55169
0.834958 0.214069 0.545342
0.948104 0.295491 0.60174
0 0.51873 0.491524
0.117937 0.58761 0.569772
0.56405 0.609827 0.627771
0.836118 0.636057 0.629129
0.942977 0.690486 0.675608
0.0243076 0.850401 0.607126
0.199069 0.884184 0.657725
0.601816 0.85655 0.666911
0.864668 0.849546 0.675013
0.938872 0.869291 0.703853
0.12079 1 0.757427
0.324346 0.999893 0.752773
0.675288 0.964279 0.737911
0.89395 0.949218 0.727382
0.979446 0.956832 0.760128
0 0.0851301 0.469749
0 0.0766003 0.538598
0.330327 0 0.648829
0.684794 0 0.586465
0.822416 0.000198367 0.615137
0 0.221012 0.495521
0 0.260884 0.586725
0.533715 0.181918 0.790402
0.858457 0.215137 0.802457
0.967315 0.294499 0.84268
0 0.532158 0.66833
0.0734417 0.601663 0.730159
0.434806 0.621973 0.75964
0.855558 0.629831 0.871641
0.959197 0.683513 0.893767
0.0179141 0.864393 0.811719
0.18938 0.894728 0.856458
0.56492 0.874861 0.872587
0.8309 0.871382 0.888899
0.937545 0.878553 0.897856
0.110216 1 0.903456
0.301793 1 0.910292
0.635111 0.980117 0.90071
0.861357 0.967727 0.915618
0.96022 0.974304 0.929564
0 0.0948043 0.541939
0 0.0908675 0.597742
0.242786 0.000198367 0.749737
0.682322 0 0.708858
0.83537 0.000991836 0.745327
0 0.243595 0.561975
0 0.288197 0.652979
0.490684 0.215702 0.882216
0.865141 0.243519 0.90071
0.968521 0.322316 0.941482
0 0.56054 0.731563
0.0694743 0.628336 0.785657
0.410758 0.640101 0.817563
0.849393 0.645319 0.962493
0.970123 0.691463 0.98262
0.0282597 0.87689 0.893385
0.210681 0.899397 0.930617
0.566079 0.87985 0.938231
0.793378 0.884199 0.948516
0.930617 0.880354 0.986679
0.121935 1 0.931105
0.320195 1 0.949645
0.63769 0.983215 0.974899
0.850065 0.974563 0.989548
0.945357 0.984833 0.99968
