src/luts/crop/9.cube
TITLE "Generated by Resolve"
LUT_3D_SIZE 9
0.0356451 0.0470741 0.0641184
0.0757916 0.0460059 0.0593881
0.142336 0.0366369 0.0373236
0.26128 0.0120699 0.00234989
0.395544 0.000396735 0
0.525841 0 0
0.616037 0 0
0.683406 0 0
0.72636 0.000671397 0
0.0384527 0.0935683 0.0670329
0.090074 0.0960098 0.0745403
0.161425 0.0902876 0.0652171
0.300557 0.0652628 0.0314641
0.458152 0.0399329 0.00141909
0.597665 0.0270085 0
0.696193 0.0357671 0
0.766506 0.0609598 0.00184634
0.826596 0.0952773 0.0083772
0.0305791 0.166155 0.0586862
0.0849775 0.180346 0.070985
0.188907 0.18529 0.0863966
0.332982 0.178882 0.0717174
0.520409 0.165957 0.0514839
0.679118 0.166796 0.0441291
0.78204 0.190311 0.059556
0.851789 0.226917 0.0862593
0.905608 0.268605 0.115297
0.0109102 0.291402 0.038056
0.0690318 0.32343 0.0584726
0.179065 0.345296 0.0764019
0.378622 0.348272 0.0993515
0.544182 0.357183 0.0921645
0.700481 0.364096 0.0937819
0.798779 0.389349 0.109224
0.864424 0.42681 0.134615
0.916564 0.468086 0.162921
0.00959792 0.466026 0.0372015
0.0679484 0.503624 0.0610056
0.173892 0.52723 0.0795758
0.399496 0.522652 0.0931563
0.610315 0.52726 0.121675
0.718196 0.553521 0.111742
0.814694 0.579049 0.134096
0.877089 0.610956 0.158953
0.925628 0.642481 0.184146
0.0243076 0.644694 0.0603494
0.0910811 0.680552 0.0878004
0.203723 0.702144 0.107881
0.423682 0.695552 0.111574
0.663005 0.687068 0.137011
0.808698 0.693904 0.157549
0.844297 0.725887 0.149599
0.89134 0.748104 0.165484
0.935332 0.766339 0.187945
0.0864729 0.804044 0.132967
0.160098 0.830991 0.160296
0.289693 0.836774 0.170321
0.505882 0.819623 0.162234
0.728573 0.800198 0.174823
0.860685 0.799039 0.191989
0.934905 0.804318 0.206455
0.95642 0.822309 0.20882
0.968429 0.841093 0.212589
0.162203 0.920562 0.221958
0.243076 0.932448 0.237156
0.386664 0.922042 0.230472
0.595605 0.895674 0.211673
0.787503 0.873137 0.216022
0.897658 0.867643 0.225467
0.967834 0.86807 0.238987
0.998779 0.872114 0.250431
1 0.882216 0.258289
0.223392 0.996384 0.295338
0.31722 0.995651 0.296544
0.467369 0.975723 0.276158
0.667109 0.944976 0.251057
0.831449 0.923186 0.250858
0.925429 0.916335 0.256168
0.986908 0.915206 0.26714
0.999954 0.917113 0.281041
1 0.921187 0.297124
0.0141451 0.051133 0.0951858
0.077348 0.0446174 0.109331
0.148302 0.0347906 0.0859693
0.260563 0.014023 0.0397192
0.395941 0.0011902 0.00138857
0.527306 0 0
0.617334 0 0
0.683589 0 0
0.73109 0.000549325 0
0.0323491 0.0962539 0.109743
0.0822919 0.102602 0.119677
0.162936 0.0966812 0.105821
0.30193 0.0742809 0.0603494
0.459602 0.0514687 0.0115969
0.599908 0.0402686 0.000213626
0.696696 0.0521096 0.00257877
0.766949 0.0796521 0.00946059
0.826459 0.115465 0.0301671
0.0263676 0.172671 0.102235
0.0827802 0.190234 0.119921
0.191226 0.197528 0.136278
0.347646 0.189105 0.119966
0.540612 0.176867 0.098436
0.697536 0.179568 0.0915541
0.797101 0.204868 0.109392
0.865431 0.241886 0.139422
0.918944 0.282506 0.172229
0.00956741 0.303822 0.0834669
0.0692607 0.338842 0.107439
0.177188 0.363867 0.128893
0.386007 0.365057 0.149493
0.559136 0.37171 0.142977
0.715496 0.378363 0.144198
0.811841 0.404425 0.162875
0.876829 0.442039 0.192081
0.928923 0.482826 0.225101
0.0091249 0.480674 0.0833906
0.0674907 0.519463 0.109087
0.172198 0.544213 0.130266
0.395224 0.540383 0.140948
0.615824 0.543572 0.17026
0.729671 0.568429 0.164965
0.824216 0.593713 0.189807
0.885817 0.624537 0.218494
0.933837 0.654673 0.248844
0.0249332 0.658717 0.109453
0.0911574 0.695705 0.139178
0.203235 0.718395 0.16199
0.415686 0.712398 0.164324
0.663813 0.700725 0.186358
0.811322 0.706523 0.208209
0.846937 0.73698 0.202808
0.896178 0.756588 0.223392
0.940002 0.773846 0.252003
0.0859083 0.815091 0.188464
0.158404 0.841932 0.218418
0.284092 0.849729 0.232151
0.490532 0.832959 0.220844
0.721584 0.810849 0.227268
0.856382 0.808316 0.243702
0.931258 0.812726 0.259373
0.950668 0.830564 0.264134
0.963455 0.84828 0.273671
0.155245 0.927443 0.289494
0.233173 0.940169 0.3066
0.372 0.932586 0.302846
0.5691 0.907698 0.277882
0.773129 0.882033 0.274388
0.888304 0.87512 0.282414
0.959777 0.874983 0.296971
0.995834 0.87863 0.311269
1 0.889509 0.322637
0.207889 0.998138 0.375601
0.29778 0.999222 0.378393
0.442344 0.985336 0.361028
0.629877 0.956695 0.327504
0.811872 0.931105 0.31841
0.911803 0.923232 0.321782
0.975174 0.921691 0.333623
0.999619 0.92372 0.351781
1 0.927733 0.373434
0 0.0568704 0.147646
0.0224308 0.0525673 0.174563
0.149813 0.0290532 0.178805
0.272648 0.00950637 0.120897
0.400793 0.00077821 0.0632181
0.525612 0 0.0199435
0.61825 0 0.00827039
0.682139 0 0.00907912
0.733364 0.000549325 0.0190585
0.00216678 0.102434 0.158267
0.0345312 0.10959 0.17818
0.166964 0.0915999 0.206317
0.309636 0.0721599 0.152514
0.461372 0.0548562 0.103471
0.600717 0.046952 0.072694
0.69958 0.0602274 0.0756237
0.771069 0.088716 0.103288
0.831327 0.124559 0.143236
0.0166018 0.176715 0.185138
0.0712749 0.196124 0.207752
0.174578 0.21236 0.229267
0.350149 0.203098 0.202869
0.539696 0.196277 0.165545
0.692439 0.202167 0.154086
0.787411 0.229786 0.172183
0.851759 0.268269 0.201312
0.906401 0.307698 0.243259
0.00509651 0.316945 0.163378
0.0610513 0.352773 0.194018
0.171176 0.38201 0.227558
0.386297 0.38378 0.248905
0.570306 0.386511 0.240681
0.729656 0.391882 0.240375
0.825666 0.41828 0.2636
0.890639 0.455375 0.300038
0.942931 0.495766 0.342321
0.00396735 0.493553 0.165118
0.0598459 0.531746 0.195392
0.164736 0.559655 0.22446
0.374334 0.561852 0.237415
0.610193 0.562692 0.264225
0.737865 0.584024 0.268132
0.83151 0.608865 0.297307
0.892332 0.638285 0.332677
0.939727 0.667384 0.372091
0.01944 0.670466 0.196719
0.0831922 0.707347 0.231662
0.194446 0.732418 0.261631
0.393088 0.729809 0.267887
0.650767 0.715663 0.280552
0.80473 0.720165 0.305455
0.843946 0.748348 0.305653
0.897566 0.765148 0.336614
0.940444 0.781399 0.372717
0.0755322 0.824155 0.291981
0.145129 0.849683 0.324498
0.267826 0.860533 0.343664
0.459876 0.84712 0.334981
0.69572 0.823789 0.327321
0.840299 0.81915 0.342702
0.917754 0.82266 0.361593
0.933791 0.841016 0.369085
0.952346 0.856062 0.387472
0.136065 0.933349 0.405982
0.209567 0.945251 0.423713
0.345937 0.9411 0.426017
0.527504 0.920317 0.404028
0.737667 0.893385 0.383581
0.866743 0.884138 0.389319
0.940169 0.883467 0.403754
0.982498 0.886885 0.422568
0.991196 0.898939 0.435584
0.180804 0.997467 0.49572
0.26566 0.998886 0.499153
0.408911 0.992752 0.489769
0.580972 0.968566 0.460594
0.770428 0.941848 0.435386
0.88603 0.931594 0.437171
0.952026 0.929793 0.448081
0.993408 0.932067 0.46865
0.999985 0.936202 0.493278
0 0.0632792 0.233616
0 0.0615549 0.261189
0.0512093 0.0379339 0.303136
0.276448 0.00244144 0.277699
0.425162 0 0.203891
0.54313 0 0.144533
0.633799 0 0.119661
0.698161 0 0.122621
0.750942 4.57771e-05 0.142885
0 0.109911 0.242496
0 0.115999 0.271611
0.0544747 0.104509 0.323323
0.321859 0.0573892 0.326406
0.491035 0.0387427 0.262196
0.624216 0.0379492 0.224018
0.721447 0.0542611 0.228077
0.793957 0.0839857 0.259739
0.855909 0.119722 0.302434
0 0.181872 0.267094
0.00265507 0.203723 0.290196
0.0813916 0.221729 0.329213
0.371115 0.190875 0.392157
0.561761 0.187839 0.347417
0.70489 0.200778 0.330846
0.797055 0.230045 0.349203
0.861479 0.26772 0.382162
0.913375 0.308614 0.419791
0 0.324895 0.318151
0.0402686 0.362554 0.357641
0.146456 0.393469 0.395789
0.355108 0.406851 0.423651
0.570123 0.400214 0.395239
0.727947 0.410407 0.379873
0.821073 0.438972 0.399725
0.885054 0.476219 0.433371
0.93698 0.516289 0.472847
0 0.510216 0.313817
0.0337072 0.548196 0.34966
0.137789 0.576135 0.382788
0.34844 0.585672 0.418265
0.592645 0.586419 0.438895
0.742229 0.601633 0.446586
0.837751 0.624887 0.471992
0.898985 0.652583 0.504891
0.946731 0.67985 0.539528
0.00447089 0.685237 0.342947
0.0589303 0.721401 0.383322
0.167712 0.744442 0.416968
0.364523 0.744854 0.438544
0.607477 0.735759 0.442512
0.779919 0.737987 0.466773
0.839124 0.75903 0.475181
0.895216 0.774624 0.506355
0.938216 0.790463 0.538476
0.049958 0.836576 0.441749
0.116838 0.860945 0.476219
0.234928 0.869093 0.496757
0.425681 0.858045 0.501244
0.636927 0.84062 0.48632
0.810056 0.831403 0.496208
0.892653 0.834607 0.514
0.912398 0.851835 0.520424
0.944228 0.862348 0.543481
0.104997 0.943816 0.551629
0.174365 0.95494 0.569024
0.306538 0.947372 0.57145
0.488731 0.928756 0.563821
0.675242 0.907561 0.538918
0.833875 0.89395 0.536599
0.911482 0.893339 0.548547
0.957885 0.896696 0.566339
0.970169 0.909072 0.576074
0.145266 0.99826 0.631998
0.224811 0.999176 0.634638
0.365866 0.994965 0.626688
0.540276 0.975708 0.613733
0.708064 0.954299 0.586404
0.851194 0.9402 0.578805
0.922469 0.938521 0.58732
0.969726 0.941024 0.605753
0.995483 0.945739 0.62884
0 0.0709544 0.326711
0 0.070634 0.355978
0 0.054551 0.397024
0.20267 0.00109865 0.441947
0.425422 0 0.383413
0.575494 0 0.318486
0.666972 0 0.285969
0.729534 0 0.286366
0.783413 7.62951e-05 0.308675
0 0.118547 0.33785
0 0.124834 0.371496
0 0.117937 0.421561
0.241856 0.0574197 0.49723
0.501823 0.0253452 0.456611
0.661021 0.0180819 0.417121
0.75967 0.0372625 0.417166
0.831327 0.0687114 0.446006
0.893462 0.10602 0.486503
0 0.194385 0.349645
0 0.215503 0.383383
0.00535592 0.230228 0.434775
0.264927 0.195193 0.556191
0.584451 0.173342 0.55169
0.743999 0.182849 0.533028
0.834958 0.214069 0.545342
0.897322 0.252644 0.571023
0.948104 0.295491 0.60174
0 0.327184 0.429557
0.00199893 0.364889 0.468162
0.0725719 0.395636 0.494347
0.247105 0.411749 0.524193
0.590143 0.387045 0.602106
0.745968 0.400565 0.585229
0.835264 0.433036 0.599008
0.896757 0.472145 0.626123
0.946105 0.513359 0.656291
0 0.51873 0.491524
0.017319 0.557427 0.532341
0.117937 0.58761 0.569772
0.317403 0.601465 0.60145
0.56405 0.609827 0.627771
0.741741 0.61323 0.617166
0.836118 0.636057 0.629129
0.896269 0.663523 0.651789
0.942977 0.690486 0.675608
0 0.700893 0.519142
0.0337682 0.737499 0.561929
0.137682 0.762295 0.594842
0.3299 0.762768 0.60911
0.572106 0.758801 0.636393
0.758083 0.757458 0.647593
0.83682 0.770504 0.658381
0.894469 0.785473 0.680125
0.93904 0.800244 0.702052
0.0243076 0.850401 0.607126
0.0885176 0.874525 0.640269
0.199069 0.884184 0.657725
0.387472 0.869627 0.655726
0.601816 0.85655 0.666911
0.777722 0.847089 0.662348
0.864668 0.849546 0.675013
0.899626 0.861219 0.683513
0.938872 0.869291 0.703853
0.0796979 0.953506 0.696818
0.144594 0.965362 0.713085
0.266194 0.96051 0.713741
0.448615 0.937026 0.702541
0.640436 0.919539 0.704402
0.794507 0.907881 0.691554
0.882673 0.904997 0.698665
0.930846 0.908644 0.712016
0.951354 0.918502 0.720363
0.12079 1 0.757427
0.193133 1 0.761563
0.324346 0.999893 0.752773
0.500587 0.98233 0.738567
0.675288 0.964279 0.737911
0.808728 0.953384 0.723796
0.89395 0.949218 0.727382
0.943771 0.951446 0.742168
0.979446 0.956832 0.760128
0 0.0787671 0.410269
0 0.079469 0.441367
0 0.0671244 0.481407
0.070573 0.0136873 0.556359
0.388617 0 0.539651
0.574578 0 0.49099
0.685924 0 0.463111
0.7561 0 0.463981
0.812497 9.15541e-05 0.486107
0 0.127825 0.424384
0 0.134936 0.459388
0 0.131411 0.509422
0.11841 0.0816358 0.607263
0.476707 0.0223392 0.611856
0.666438 0.0135042 0.588693
0.777935 0.0294347 0.593759
0.854078 0.0604868 0.62031
0.918288 0.0981003 0.654826
0 0.208652 0.43592
0 0.230655 0.473518
0 0.246296 0.528267
0.156664 0.218952 0.646326
0.56379 0.172396 0.701366
0.753338 0.179965 0.696559
0.853422 0.207141 0.709453
0.920256 0.244709 0.73022
0.966857 0.287694 0.753491
0 0.342138 0.499519
0 0.379995 0.535302
0.0106203 0.409598 0.560204
0.166323 0.415152 0.606058
0.533547 0.383719 0.745083
0.764355 0.391485 0.746319
0.860975 0.421271 0.758297
0.923766 0.461418 0.777356
0.971878 0.503685 0.796399
0 0.521523 0.608652
0.00459297 0.560571 0.64686
0.0925612 0.591119 0.6795
0.269978 0.603662 0.691402
0.479194 0.618112 0.712947
0.752712 0.606851 0.778073
0.843595 0.629847 0.786053
0.901823 0.658427 0.799252
0.947097 0.685954 0.812329
3.0518e-05 0.708873 0.663676
0.0277562 0.744961 0.702693
0.130388 0.768994 0.734707
0.315755 0.772778 0.75584
0.544808 0.77261 0.776059
0.732937 0.774151 0.791226
0.836683 0.777844 0.794461
0.893278 0.790768 0.801419
0.936095 0.804746 0.809705
0.0175479 0.858091 0.735561
0.0799573 0.881285 0.765148
0.186999 0.891218 0.784024
0.364416 0.882353 0.789242
0.573434 0.869505 0.791638
0.751492 0.861875 0.806455
0.849851 0.862089 0.812268
0.895445 0.868955 0.81796
0.937163 0.87599 0.82826
0.070985 0.958312 0.802182
0.134173 0.969726 0.817914
0.249866 0.966552 0.823514
0.420554 0.949294 0.818936
0.613413 0.92961 0.814206
0.769146 0.920165 0.824796
0.860548 0.917983 0.823362
0.915984 0.919219 0.833524
0.943389 0.926146 0.838148
0.111772 1 0.84509
0.180896 1 0.851728
0.305303 1 0.849287
0.471077 0.993698 0.8392
0.650858 0.97229 0.834669
0.788128 0.963623 0.8439
0.870588 0.96173 0.841901
0.92578 0.962692 0.849393
0.967391 0.966598 0.863355
0 0.0851301 0.469749
0 0.0865339 0.499687
0 0.0766003 0.538598
0.00605783 0.0327916 0.614282
0.330327 0 0.648829
0.562158 0 0.605631
0.684794 0 0.586465
0.761547 0 0.592187
0.822416 0.000198367 0.615137
0 0.135637 0.483131
0 0.143618 0.516884
0 0.14226 0.566552
0.0525673 0.101106 0.664256
0.438193 0.0293736 0.712413
0.665553 0.0200198 0.693751
0.782818 0.035172 0.702449
0.862379 0.0661631 0.727611
0.927306 0.103944 0.757549
0 0.221012 0.495521
0 0.24419 0.532311
0 0.260884 0.586725
0.113085 0.238544 0.700542
0.533715 0.181918 0.790402
0.754788 0.189624 0.787991
0.858457 0.215137 0.802457
0.927657 0.251865 0.822171
0.967315 0.294499 0.84268
0 0.359289 0.548287
0 0.397101 0.582193
0.00030518 0.425681 0.608713
0.134524 0.42826 0.66157
0.467765 0.396689 0.809094
0.762982 0.398581 0.831861
0.867353 0.42768 0.846754
0.933486 0.46595 0.864698
0.977447 0.506447 0.881331
0 0.532158 0.66833
0.00103761 0.57145 0.703349
0.0734417 0.601663 0.730159
0.233982 0.612039 0.727749
0.434806 0.621973 0.75964
0.738262 0.610452 0.863844
0.855558 0.629831 0.871641
0.914931 0.656565 0.883482
0.959197 0.683513 0.893767
0 0.715618 0.742611
0.0270695 0.751125 0.777417
0.130571 0.773953 0.806394
0.313542 0.776486 0.824125
0.527977 0.777737 0.834714
0.693065 0.784604 0.846723
0.832273 0.778241 0.883574
0.89163 0.790341 0.890486
0.935714 0.803204 0.896147
0.0179141 0.864393 0.811719
0.0814984 0.886244 0.838193
0.18938 0.894728 0.856458
0.364431 0.88542 0.864424
0.56492 0.874861 0.872587
0.735225 0.868666 0.880003
0.8309 0.871382 0.888899
0.896345 0.872816 0.897246
0.937545 0.878553 0.897856
0.0712596 0.962341 0.867247
0.134386 0.972641 0.882399
0.24979 0.9691 0.889586
0.416388 0.952895 0.889158
0.599863 0.937179 0.889387
0.756695 0.926299 0.892744
0.850263 0.924605 0.903075
0.905867 0.927352 0.909499
0.942519 0.930877 0.912184
0.110216 1 0.903456
0.178866 1 0.910811
0.301793 1 0.910292
0.463523 0.995911 0.904128
0.635111 0.980117 0.90071
0.777859 0.968826 0.90518
0.861357 0.967727 0.915618
0.915511 0.971054 0.92076
0.96022 0.974304 0.929564
0 0.0900587 0.517586
0 0.0923323 0.535531
0 0.0840925 0.573724
0.00030518 0.0457008 0.647761
0.279957 0 0.710994
0.547433 0 0.674418
0.682734 0 0.66006
0.764416 0 0.668742
0.828733 0.000549325 0.692973
0 0.142382 0.520363
0 0.151598 0.553338
0 0.152163 0.603037
0.027039 0.115846 0.69984
0.410376 0.0425422 0.771939
0.665217 0.0288396 0.755489
0.788022 0.04654 0.767666
0.869703 0.07776 0.793042
0.936248 0.115389 0.821805
0 0.232258 0.533837
0 0.257084 0.570123
0 0.274678 0.624445
0.0963149 0.255253 0.736095
0.509758 0.197894 0.84419
0.753902 0.201343 0.842786
0.862287 0.228321 0.858824
0.932738 0.264729 0.878798
0.967681 0.307195 0.899138
0 0.375601 0.58265
0 0.413275 0.615152
0 0.440894 0.643061
0.124895 0.442878 0.699077
0.433097 0.41352 0.843763
0.756481 0.409567 0.884871
0.870665 0.440558 0.900557
0.938094 0.477211 0.918776
0.977508 0.51577 0.935058
0 0.545968 0.704234
0.000213626 0.585184 0.737774
0.0679026 0.614893 0.761563
0.221866 0.623575 0.75375
0.417731 0.630365 0.791714
0.711635 0.621561 0.910704
0.855467 0.636484 0.922728
0.920546 0.661723 0.934905
0.966873 0.686152 0.945068
0 0.725978 0.788663
0.0299535 0.760098 0.821607
0.136919 0.781476 0.84831
0.317388 0.782757 0.860883
0.515007 0.784726 0.860182
0.672084 0.791074 0.878248
0.822293 0.782605 0.933562
0.896498 0.790967 0.939208
0.939498 0.803906 0.94583
0.022034 0.870359 0.858335
0.0859388 0.890578 0.883223
0.198123 0.89688 0.899947
0.371084 0.887114 0.906844
0.564736 0.876829 0.912581
0.720684 0.874846 0.914122
0.808865 0.878523 0.923568
0.88603 0.874968 0.948089
0.936599 0.878706 0.950561
0.0743572 0.965347 0.911406
0.139055 0.97438 0.926192
0.256458 0.969741 0.933165
0.421103 0.953567 0.933364
0.599557 0.938476 0.935225
0.748409 0.930312 0.93959
0.84007 0.928344 0.944472
0.892073 0.93283 0.951049
0.943847 0.933013 0.960464
0.114275 1 0.930205
0.184176 1 0.937789
0.30724 1 0.948333
0.466285 0.996521 0.947875
0.633097 0.983063 0.946731
0.770306 0.973663 0.948928
0.856489 0.971588 0.957458
0.912093 0.974685 0.966094
0.95613 0.980407 0.974945
0 0.0948043 0.541939
0 0.0977035 0.560113
0 0.0908675 0.597742
0 0.0561685 0.670436
0.242786 0.000198367 0.749737
0.534752 0 0.721431
0.682322 0 0.708858
0.768948 3.0518e-05 0.720424
0.83537 0.000991836 0.745327
0 0.148959 0.5467
0 0.159564 0.579736
0 0.161624 0.629694
0.0138857 0.128939 0.726223
0.391531 0.0573129 0.813291
0.665431 0.0400397 0.800778
0.794354 0.0602426 0.814603
0.877012 0.0917067 0.840406
0.94226 0.129091 0.86894
0 0.243595 0.561975
0 0.270085 0.598169
0 0.288197 0.652979
0.0896468 0.271061 0.763317
0.490684 0.215702 0.882216
0.751431 0.214801 0.88426
0.865141 0.243519 0.90071
0.936477 0.280079 0.921111
0.968521 0.322316 0.941482
0 0.391348 0.609781
0 0.428901 0.642039
0.000183108 0.455573 0.67039
0.123552 0.457191 0.728008
0.413458 0.43064 0.867903
0.748028 0.423117 0.925231
0.870298 0.453696 0.939971
0.940703 0.490654 0.959258
0.977569 0.527504 0.975326
0 0.56054 0.731563
0 0.599496 0.764584
0.0694743 0.628336 0.785657
0.219547 0.635416 0.775525
0.410758 0.640101 0.817563
0.686122 0.63415 0.940124
0.849393 0.645319 0.962493
0.921157 0.66865 0.973175
0.970123 0.691463 0.98262
0 0.737621 0.822797
0.0352789 0.77023 0.854627
0.148241 0.788968 0.878553
0.323903 0.789487 0.886168
0.506264 0.791257 0.877638
0.658549 0.796826 0.902052
0.801175 0.791791 0.965896
0.89424 0.79353 0.978073
0.944244 0.804746 0.981903
0.0282597 0.87689 0.893385
0.0943008 0.895277 0.916762
0.210681 0.899397 0.930617
0.380896 0.88925 0.936706
0.566079 0.87985 0.938231
0.708705 0.880858 0.933364
0.793378 0.884199 0.948516
0.868803 0.880552 0.979553
0.930617 0.880354 0.986679
0.0813458 0.968353 0.926589
0.149447 0.975982 0.934859
0.269627 0.969909 0.946334
0.430884 0.953384 0.958785
0.602975 0.938994 0.965911
0.74342 0.932952 0.968185
0.823178 0.9346 0.966964
0.874846 0.938018 0.977081
0.9308 0.935943 0.992874
0.121935 1 0.931105
0.195529 1 0.938888
0.320195 1 0.949645
0.475837 0.99617 0.961913
0.63769 0.983215 0.974899
0.767208 0.976043 0.98352
0.850065 0.974563 0.989548
0.902846 0.978561 0.995834
0.945357 0.984833 0.99968
