src/luts/crop/9.cube
TITLE "Generated by Resolve"
LUT_3D_SIZE 33
0.0356451 0.0470741 0.0641184
0.0459449 0.0464942 0.0642863
0.0547646 0.0466316 0.0630045
0.0647593 0.0465705 0.0616159
0.0757916 0.0460059 0.0593881
0.0885176 0.0449836 0.0557107
0.103349 0.0433051 0.0508125
0.120958 0.0406043 0.0447852
0.142336 0.0366369 0.0373236
0.168154 0.0312963 0.0281376
0.197665 0.0245823 0.0188296
0.229191 0.0177462 0.00988785
0.26128 0.0120699 0.00234989
0.294789 0.00697337 0.000137331
0.32784 0.00344854 0
0.361013 0.00151064 0
0.395544 0.000396735 0
0.43032 4.57771e-05 0
0.46453 0 0
0.49276 0 0
0.525841 0 0
0.552743 0 0
0.574655 0 0
0.59498 0 0
0.616037 0 0
0.63711 0 0
0.655329 0 0
0.670192 0 0
0.683406 0 0
0.695415 0 0
0.706813 0 0
0.717937 9.15541e-05 0
0.72636 0.000671397 0
0.0366979 0.0572824 0.0655375
0.0477913 0.0576028 0.0670329
0.0575418 0.0577707 0.0663615
0.0677501 0.0576181 0.0648051
0.0785229 0.0572213 0.0628672
0.0916457 0.0561379 0.0599985
0.107027 0.0543526 0.0557412
0.125719 0.0515755 0.0506142
0.148272 0.0473793 0.0440528
0.17528 0.0417029 0.035874
0.205722 0.0349279 0.026215
0.237629 0.0279698 0.0146944
0.270253 0.0212711 0.00404364
0.304524 0.0148623 0.000350958
0.337835 0.00991836 0.000122072
0.371862 0.00596628 0
0.406867 0.00263981 0
0.441489 0.000701915 0
0.474754 0 0
0.506569 0 0
0.538979 0 0
0.565728 0 0
0.587198 0 0
0.608194 0 0
0.630503 0 0
0.651591 0 0
0.667826 0 0
0.682338 0 0
0.695933 0 0
0.709697 0 0
0.722225 0.00077821 0
0.734356 0.00227359 0
0.746365 0.0049897 0
0.037583 0.0685283 0.0662699
0.0486763 0.0690776 0.0681926
0.0606699 0.0691081 0.0694896
0.0708629 0.0692149 0.068513
0.081178 0.0691844 0.0675669
0.0943008 0.0683299 0.0650492
0.110445 0.0666361 0.0620127
0.129854 0.0637522 0.057847
0.153338 0.0594949 0.0521553
0.181582 0.053666 0.0451057
0.212955 0.0469978 0.0355993
0.245777 0.0402686 0.0235752
0.279927 0.0336614 0.0118105
0.314458 0.0269322 0.00357061
0.34963 0.0201572 0.000442512
0.385794 0.0132143 1.5259e-05
0.419898 0.00794995 0
0.455543 0.00396735 0
0.490852 0.00155642 0
0.52282 0.00132753 0
0.553735 0.00141909 0
0.581308 0.00140383 0
0.604578 0.0015259 0
0.627146 0.00207523 0
0.64802 0.00271611 0
0.668223 0.00332647 0
0.684794 0.00479133 0
0.700374 0.00666819 0
0.715038 0.00842298 0
0.729656 0.011017 0
0.743481 0.0163272 0
0.756741 0.0212406 0
0.769848 0.0272068 0
0.0383612 0.0804608 0.0669261
0.0492561 0.0813153 0.0689708
0.0613565 0.0815442 0.0705882
0.0743725 0.081651 0.07187
0.0847944 0.0819257 0.071519
0.0970321 0.0818341 0.0703136
0.113542 0.0802319 0.0680552
0.133654 0.0775464 0.0645762
0.158068 0.0734875 0.0595712
0.18703 0.06804 0.0525673
0.219516 0.0617838 0.0431373
0.253925 0.0551156 0.0316625
0.289784 0.0482643 0.019501
0.326345 0.0413672 0.0080415
0.363561 0.0345006 0.00062562
0.401587 0.0278019 6.10361e-05
0.439963 0.0216068 6.10361e-05
0.476768 0.016083 0
0.511925 0.011841 0
0.544945 0.00906386 0
0.57528 0.00791943 0
0.603098 0.00759899 0
0.628305 0.00854505 0
0.650813 0.0103151 0
0.671351 0.0129702 0
0.690059 0.0158236 0
0.707301 0.0196078 0
0.72372 0.0245975 0
0.739452 0.0300145 0
0.754253 0.0357671 0
0.768704 0.0433051 0
0.782849 0.0511025 0
0.796674 0.0591287 3.0518e-05
0.0384527 0.0935683 0.0670329
0.0493172 0.0947585 0.0690929
0.0614328 0.0955062 0.0705119
0.0749981 0.0959182 0.072221
0.090074 0.0960098 0.0745403
0.101961 0.0963607 0.073991
0.116396 0.0960555 0.0720531
0.136477 0.0938888 0.0695354
0.161425 0.0902876 0.0652171
0.191699 0.0852216 0.0588998
0.225635 0.0790265 0.0504158
0.262165 0.0722972 0.0408637
0.300557 0.0652628 0.0314641
0.339696 0.0582895 0.0222019
0.378668 0.0518349 0.0131838
0.418601 0.0457008 0.007187
0.458152 0.0399329 0.00141909
0.496117 0.0349584 0.00015259
0.532143 0.0310674 0
0.566171 0.0283665 1.5259e-05
0.597665 0.0270085 0
0.62681 0.0271305 0
0.652384 0.0286717 0
0.675273 0.0316777 0
0.696193 0.0357671 0
0.71545 0.0407721 0.000122072
0.733593 0.0466926 0.000183108
0.750362 0.0535134 0.00109865
0.766506 0.0609598 0.00184634
0.781994 0.0686961 0.00256352
0.797009 0.0769818 0.00349432
0.811917 0.0860456 0.00502022
0.826596 0.0952773 0.0083772
0.0378576 0.10811 0.0664988
0.0487984 0.109834 0.0687877
0.0611734 0.111086 0.0705425
0.0747234 0.1122 0.0720836
0.0910201 0.112459 0.0746014
0.108324 0.112581 0.0773175
0.12137 0.113405 0.0760967
0.139635 0.112612 0.0739605
0.164904 0.109834 0.0707866
0.195773 0.105226 0.0652934
0.231357 0.0993668 0.0580453
0.269764 0.0929427 0.0497902
0.309834 0.0863813 0.041413
0.351003 0.0800946 0.0330205
0.39202 0.0741894 0.024094
0.433997 0.0682994 0.0164187
0.476112 0.0627756 0.009308
0.516762 0.0581674 0.00497444
0.554742 0.054902 0.00309758
0.590677 0.0531319 0.00155642
0.622995 0.0527047 0.00047303
0.652399 0.0537575 0
0.678584 0.0565652 0.000366217
0.701717 0.0608682 0.000793469
0.722972 0.0662242 0.00157168
0.743023 0.0728008 0.00314336
0.761349 0.0796826 0.00468452
0.778576 0.0875257 0.00828565
0.795178 0.0958724 0.0128328
0.811063 0.104692 0.0176547
0.826566 0.11368 0.0217594
0.841718 0.123445 0.0279088
0.856352 0.133089 0.0350042
0.0365148 0.124804 0.0650797
0.0476997 0.127199 0.0677348
0.0599222 0.129091 0.0698405
0.0734722 0.1308 0.0718242
0.0904555 0.131716 0.0741131
0.110018 0.132006 0.0769207
0.13022 0.132418 0.0803693
0.144625 0.133974 0.0778363
0.168673 0.132311 0.0759442
0.200015 0.128573 0.0718242
0.236378 0.123583 0.0657969
0.27631 0.117845 0.0586099
0.318563 0.112093 0.0511177
0.361456 0.106508 0.0436408
0.404654 0.101228 0.0362554
0.448859 0.096025 0.0291142
0.492958 0.0911727 0.0225528
0.535531 0.0874647 0.0170291
0.575799 0.0852216 0.0130922
0.612604 0.0841688 0.0104829
0.646235 0.0846571 0.00935378
0.676585 0.086656 0.00918593
0.703731 0.0902113 0.00985733
0.727337 0.0954299 0.0110323
0.749233 0.102052 0.0138857
0.769116 0.109346 0.0187991
0.787747 0.117296 0.0248417
0.805142 0.125811 0.0315251
0.821714 0.134707 0.0392767
0.837812 0.144472 0.0476234
0.852857 0.154147 0.0555276
0.86746 0.164019 0.0639048
0.881331 0.174197 0.0722362
0.034226 0.14406 0.062623
0.0455787 0.147021 0.0655375
0.057908 0.149691 0.0681315
0.0715038 0.152209 0.0706188
0.0881971 0.154131 0.0729992
0.108568 0.155383 0.0757
0.132586 0.155795 0.0795148
0.156664 0.156313 0.0834974
0.173358 0.158404 0.0792859
0.204517 0.155901 0.0774701
0.241672 0.152026 0.0734264
0.283024 0.147662 0.0679026
0.326314 0.142809 0.0615854
0.370916 0.138125 0.0552224
0.41619 0.133761 0.0489662
0.462303 0.129412 0.0425727
0.508278 0.125673 0.0366369
0.552209 0.123049 0.0319524
0.593149 0.121614 0.028748
0.630884 0.121508 0.0273136
0.665278 0.122942 0.0273289
0.696178 0.125902 0.0287022
0.724056 0.130755 0.0316625
0.74789 0.136934 0.0360723
0.769543 0.143893 0.0410315
0.789593 0.151553 0.0470436
0.808209 0.159823 0.053666
0.825422 0.168627 0.0607156
0.841398 0.178698 0.0683299
0.856275 0.188617 0.0756542
0.870436 0.198779 0.0830396
0.884413 0.209064 0.0909895
0.897444 0.219593 0.0986801
0.0305791 0.166155 0.0586862
0.0421149 0.169909 0.0619059
0.0546426 0.17348 0.0649577
0.0684062 0.17702 0.0679942
0.0849775 0.180346 0.070985
0.104875 0.182818 0.0737621
0.129946 0.184131 0.0770428
0.159564 0.184497 0.0818952
0.188907 0.18529 0.0863966
0.209689 0.1879 0.0809796
0.246998 0.18558 0.07953
0.288746 0.182361 0.0762036
0.332982 0.178882 0.0717174
0.378576 0.175448 0.066804
0.425238 0.172168 0.0617838
0.473152 0.168963 0.0565499
0.520409 0.165957 0.0514839
0.565255 0.164065 0.0475166
0.606912 0.163561 0.0449226
0.64477 0.164508 0.0437934
0.679118 0.166796 0.0441291
0.710155 0.170916 0.046128
0.737362 0.176181 0.0495003
0.760922 0.182788 0.0541238
0.78204 0.190311 0.059556
0.801465 0.198535 0.0654917
0.819455 0.207355 0.0719768
0.836378 0.217151 0.079118
0.851789 0.226917 0.0862593
0.866346 0.236957 0.0935378
0.880034 0.247211 0.100755
0.892973 0.257618 0.107851
0.905608 0.268605 0.115297
0.0256657 0.191669 0.0534218
0.0374304 0.196399 0.057023
0.0502174 0.201022 0.0605173
0.0643168 0.205921 0.0642252
0.0808118 0.210269 0.0677653
0.100298 0.214252 0.0711528
0.12491 0.217182 0.0744488
0.156039 0.21857 0.0785534
0.193011 0.218845 0.0844587
0.228016 0.220203 0.0890364
0.252781 0.22327 0.0829175
0.293751 0.221653 0.082002
0.338598 0.219623 0.0798962
0.384878 0.217594 0.0768902
0.432578 0.21593 0.073518
0.480766 0.213611 0.0694743
0.528435 0.211276 0.0652934
0.573678 0.21001 0.0620584
0.615656 0.209964 0.059968
0.654017 0.211627 0.0593881
0.688487 0.214633 0.0601205
0.71899 0.218906 0.0621347
0.7458 0.224521 0.0654459
0.769131 0.231449 0.0699474
0.789731 0.239384 0.0752728
0.808804 0.248234 0.0812543
0.82623 0.257328 0.0875257
0.842344 0.266728 0.0940414
0.85713 0.276448 0.100679
0.87097 0.286351 0.107454
0.884215 0.296422 0.114336
0.897063 0.307134 0.121477
0.9093 0.31754 0.128466
0.0202792 0.220951 0.0475776
0.0323339 0.227176 0.0517433
0.0453193 0.232853 0.0556954
0.0596933 0.238682 0.0599069
0.0762951 0.244358 0.0640574
0.0957046 0.249653 0.0681163
0.119738 0.254108 0.0719158
0.1505 0.25742 0.0758373
0.1897 0.258305 0.080705
0.234424 0.258106 0.087541
0.273198 0.259892 0.0916762
0.30074 0.263813 0.0852216
0.343816 0.263539 0.0849165
0.39057 0.263111 0.0842145
0.438163 0.262272 0.0825971
0.486564 0.261021 0.0800031
0.534203 0.259525 0.076936
0.579263 0.258793 0.0743877
0.621195 0.259449 0.0729839
0.659297 0.261448 0.0727398
0.693401 0.26453 0.0736095
0.723705 0.268956 0.0757305
0.750225 0.274754 0.079057
0.773281 0.281712 0.0834058
0.793606 0.289921 0.0886549
0.811994 0.298421 0.0941787
0.828916 0.307271 0.100114
0.844587 0.316533 0.106371
0.859129 0.326146 0.112795
0.87274 0.336187 0.119524
0.886015 0.346944 0.12665
0.898665 0.357397 0.133684
0.910933 0.368048 0.140841
0.0152438 0.254475 0.0422522
0.0274815 0.26157 0.0468452
0.0406806 0.268391 0.0513313
0.055375 0.275334 0.0560464
0.0721447 0.282155 0.0607462
0.0916609 0.288563 0.0653849
0.115526 0.29456 0.0698405
0.145296 0.298863 0.0738231
0.184024 0.301015 0.0779126
0.232654 0.300771 0.0837568
0.282704 0.300618 0.09131
0.323766 0.303151 0.0950027
0.351934 0.308659 0.0878462
0.39527 0.309438 0.0876936
0.442939 0.309529 0.0883803
0.491539 0.309148 0.0876326
0.539162 0.308507 0.0859388
0.584543 0.308766 0.0844739
0.625834 0.30956 0.0835737
0.663264 0.311559 0.0836805
0.696895 0.314778 0.0847944
0.726741 0.319219 0.0869459
0.753002 0.325154 0.0903029
0.775921 0.332204 0.0946517
0.79588 0.339956 0.0996567
0.814054 0.348363 0.105165
0.830854 0.357275 0.111131
0.846479 0.366567 0.117388
0.861234 0.376654 0.124117
0.875044 0.386969 0.13106
0.888243 0.397375 0.138186
0.901015 0.407889 0.145357
0.913405 0.418555 0.152605
0.0109102 0.291402 0.038056
0.0234836 0.299535 0.0431373
0.0369726 0.307454 0.0480964
0.0519265 0.315343 0.0532082
0.0690318 0.32343 0.0584726
0.0887312 0.330663 0.0635996
0.112337 0.337041 0.0683757
0.141512 0.342168 0.0726329
0.179065 0.345296 0.0764019
0.227741 0.345769 0.0808423
0.28452 0.345006 0.0880751
0.336049 0.345541 0.0958572
0.378622 0.348272 0.0993515
0.402914 0.355535 0.0899977
0.447288 0.356634 0.0904555
0.496025 0.356832 0.0919356
0.544182 0.357183 0.0921645
0.588983 0.357488 0.0917983
0.63003 0.358618 0.0917067
0.66717 0.360784 0.0923018
0.700481 0.364096 0.0937819
0.730129 0.368841 0.0963149
0.756115 0.374777 0.0997787
0.778759 0.381537 0.104082
0.798779 0.389349 0.109224
0.816999 0.39791 0.115023
0.833814 0.406989 0.121202
0.849622 0.416785 0.127794
0.864424 0.42681 0.134615
0.878264 0.436896 0.141527
0.891402 0.447181 0.148623
0.904158 0.457603 0.155764
0.916564 0.468086 0.162921
0.00788891 0.331502 0.035462
0.0208286 0.340658 0.0410163
0.0345464 0.34934 0.0463264
0.049836 0.358297 0.0518959
0.0670176 0.366567 0.0573587
0.0868696 0.374258 0.0627756
0.11046 0.381064 0.0678416
0.139315 0.386618 0.0723583
0.175937 0.390234 0.0760967
0.223651 0.391699 0.0797131
0.281498 0.390417 0.0850538
0.340948 0.389212 0.0932631
0.391669 0.390616 0.100877
0.435996 0.393072 0.104677
0.455894 0.402304 0.0930953
0.501015 0.403693 0.093431
0.54818 0.403967 0.095079
0.593057 0.404578 0.0963302
0.634028 0.406043 0.0974441
0.671107 0.40856 0.098909
0.704662 0.412634 0.101183
0.734096 0.417472 0.104128
0.759945 0.423468 0.107973
0.782681 0.430564 0.112673
0.802823 0.438514 0.118074
0.821073 0.447318 0.124117
0.837964 0.456718 0.130526
0.853529 0.466102 0.137041
0.868147 0.475807 0.143771
0.881941 0.48574 0.150607
0.894957 0.495735 0.157534
0.90753 0.505943 0.164492
0.919799 0.516243 0.171572
0.00672923 0.374365 0.0345312
0.0196231 0.384131 0.0404364
0.0335851 0.39382 0.0462196
0.049073 0.402762 0.0519722
0.0663157 0.411246 0.0576333
0.0862745 0.419089 0.0631723
0.10985 0.426062 0.0684062
0.138628 0.43209 0.0731365
0.174594 0.435996 0.0768749
0.22063 0.437369 0.0798505
0.277699 0.436194 0.0835737
0.340597 0.433982 0.0903029
0.399023 0.433509 0.0989395
0.449027 0.435874 0.106355
0.493599 0.437919 0.110048
0.512001 0.44741 0.0973373
0.553231 0.449378 0.0962844
0.596933 0.450568 0.0982071
0.638254 0.452506 0.100923
0.675929 0.455985 0.103883
0.709239 0.460151 0.107057
0.738659 0.4654 0.110735
0.764401 0.471687 0.115053
0.787015 0.47892 0.119966
0.807187 0.487053 0.125643
0.825284 0.495872 0.131777
0.84181 0.504723 0.138018
0.85716 0.513848 0.144457
0.87155 0.523201 0.150958
0.885145 0.532738 0.15758
0.897993 0.542428 0.164401
0.910338 0.552056 0.17113
0.92224 0.561425 0.177813
0.00793469 0.419562 0.0351415
0.020264 0.429862 0.0413825
0.0337835 0.439384 0.047303
0.049424 0.448539 0.053193
0.066743 0.457221 0.0589761
0.0867018 0.465171 0.0645762
0.110338 0.47248 0.0699168
0.138735 0.478141 0.0745251
0.173877 0.481834 0.0780957
0.218357 0.483162 0.0805982
0.273579 0.481956 0.0829786
0.336751 0.479225 0.0876631
0.400549 0.477516 0.0955825
0.456245 0.478065 0.104067
0.50518 0.480323 0.111208
0.551278 0.481895 0.115175
0.567361 0.492622 0.101823
0.603052 0.496666 0.0996414
0.642924 0.499733 0.102266
0.680293 0.502922 0.106172
0.713634 0.507225 0.110369
0.742931 0.512581 0.11487
0.768505 0.518914 0.119783
0.791104 0.526513 0.125338
0.811048 0.534264 0.131014
0.828794 0.542443 0.137057
0.845106 0.550896 0.143236
0.860197 0.559533 0.149554
0.874327 0.568368 0.155917
0.8878 0.577646 0.162509
0.900374 0.586435 0.168978
0.912383 0.595087 0.175418
0.923995 0.603555 0.181811
0.00959792 0.466026 0.0372015
0.0213016 0.476219 0.0433814
0.0348974 0.485893 0.0493782
0.0506142 0.495064 0.0552682
0.0679484 0.503624 0.0610056
0.0879072 0.511894 0.0666667
0.111299 0.518547 0.0717784
0.139315 0.523781 0.0761578
0.173892 0.52723 0.0795758
0.217212 0.528527 0.0818341
0.271122 0.52784 0.0836194
0.333715 0.525292 0.0867933
0.399496 0.522652 0.0931563
0.460914 0.521874 0.101808
0.514015 0.523476 0.110079
0.563912 0.525582 0.117327
0.610315 0.52726 0.121675
0.622721 0.539147 0.108156
0.650645 0.54551 0.104555
0.685084 0.549447 0.107118
0.718196 0.553521 0.111742
0.747341 0.558587 0.116884
0.772869 0.565011 0.122469
0.79498 0.57174 0.128237
0.814694 0.579049 0.134096
0.832242 0.586725 0.140215
0.84828 0.594583 0.146349
0.863127 0.602625 0.15259
0.877089 0.610956 0.158953
0.890105 0.618952 0.165225
0.902525 0.627085 0.171527
0.914275 0.634897 0.177813
0.925628 0.642481 0.184146
0.0113985 0.512062 0.0400702
0.0230259 0.522103 0.0462501
0.036759 0.531563 0.0522469
0.0525368 0.540597 0.0580911
0.0699779 0.54905 0.0637827
0.0897383 0.556603 0.0692454
0.1131 0.563226 0.0744182
0.141314 0.568582 0.0789654
0.175937 0.572259 0.0825818
0.219409 0.57406 0.0850538
0.272236 0.573571 0.0864881
0.333516 0.571283 0.0886244
0.399832 0.568353 0.0934462
0.465034 0.5664 0.101289
0.522927 0.566644 0.109941
0.574533 0.568963 0.117861
0.623896 0.57084 0.125078
0.665171 0.572763 0.128222
0.675868 0.584497 0.116564
0.696223 0.592737 0.111788
0.72398 0.598032 0.113466
0.752361 0.603281 0.118196
0.777371 0.608743 0.123751
0.799237 0.614878 0.129625
0.818662 0.621469 0.135576
0.835981 0.628367 0.14168
0.851896 0.635782 0.147982
0.866438 0.642924 0.154177
0.880018 0.650126 0.160388
0.892744 0.657267 0.166552
0.904891 0.664469 0.172686
0.916411 0.671366 0.178866
0.927626 0.678325 0.185382
0.0133974 0.556756 0.0441138
0.0256809 0.566583 0.0503395
0.0400244 0.576135 0.0565957
0.0561685 0.58526 0.0627451
0.07393 0.593484 0.0686351
0.0941482 0.601083 0.0743267
0.117678 0.607843 0.0797436
0.146365 0.61323 0.0844587
0.18172 0.617334 0.088304
0.225315 0.618784 0.0906233
0.277485 0.618265 0.0918288
0.337591 0.616068 0.0931868
0.403479 0.612985 0.0966812
0.47071 0.610468 0.103395
0.532509 0.609491 0.111879
0.586404 0.61033 0.119966
0.635126 0.612222 0.127321
0.68162 0.613825 0.134264
0.716731 0.616434 0.136416
0.728008 0.627298 0.127718
0.74165 0.63682 0.122332
0.761227 0.643732 0.122515
0.782879 0.649454 0.126101
0.803754 0.655009 0.131273
0.822965 0.660716 0.137041
0.840253 0.667063 0.143099
0.855665 0.673259 0.149096
0.869947 0.679637 0.155154
0.883284 0.686091 0.161227
0.895827 0.69247 0.167285
0.907713 0.698619 0.173342
0.919127 0.704936 0.179721
0.930007 0.710781 0.185931
0.0173037 0.600839 0.0505226
0.0309911 0.611048 0.0574197
0.046128 0.620478 0.0640574
0.0626078 0.629297 0.0703746
0.0808576 0.637522 0.0765545
0.101686 0.645075 0.082536
0.125963 0.651804 0.0881819
0.155108 0.657359 0.0931411
0.190936 0.6607 0.096788
0.235142 0.661768 0.0988785
0.287129 0.661021 0.0997482
0.346273 0.658763 0.100511
0.411521 0.655711 0.102937
0.479026 0.652445 0.108309
0.542885 0.650095 0.115984
0.59942 0.649668 0.124041
0.648127 0.651011 0.131228
0.69369 0.652552 0.138201
0.735286 0.654353 0.144533
0.765301 0.657267 0.146487
0.776226 0.666499 0.140429
0.785016 0.676127 0.135348
0.797162 0.684123 0.134096
0.812238 0.690669 0.136126
0.829267 0.69659 0.140612
0.844907 0.70219 0.145525
0.859846 0.707485 0.151064
0.873762 0.713024 0.156771
0.886763 0.718593 0.162539
0.899184 0.724407 0.168521
0.910826 0.729809 0.174502
0.921874 0.735073 0.18056
0.932494 0.740246 0.186542
0.0243076 0.644694 0.0603494
0.0390631 0.654429 0.0674907
0.0551156 0.663859 0.0746319
0.072282 0.672526 0.0813916
0.0910811 0.680552 0.0878004
0.112581 0.687907 0.0939803
0.137774 0.694453 0.0997635
0.167285 0.699336 0.104524
0.203723 0.702144 0.107881
0.248783 0.702632 0.109545
0.300908 0.701366 0.109911
0.359838 0.699123 0.110216
0.423682 0.695552 0.111574
0.490486 0.691569 0.115618
0.555276 0.688197 0.122316
0.613474 0.686519 0.129961
0.663005 0.687068 0.137011
0.707179 0.688472 0.143542
0.74789 0.689693 0.150057
0.78323 0.691066 0.155535
0.808698 0.693904 0.157549
0.819684 0.701656 0.154086
0.826352 0.710796 0.150301
0.834028 0.71902 0.148653
0.844297 0.725887 0.149599
0.855589 0.732082 0.152132
0.86688 0.737743 0.155581
0.878889 0.742931 0.160067
0.89134 0.748104 0.165484
0.902998 0.752926 0.170886
0.914092 0.75758 0.176516
0.924971 0.762081 0.1823
0.935332 0.766339 0.187945
0.0354314 0.687282 0.0737926
0.0507515 0.696849 0.0812238
0.0673075 0.706035 0.0887007
0.0850233 0.714351 0.0957046
0.104921 0.722271 0.102571
0.127123 0.728954 0.108644
0.152926 0.734554 0.114061
0.183429 0.738705 0.118456
0.220249 0.740963 0.121477
0.26659 0.740642 0.122469
0.319219 0.73904 0.122408
0.377234 0.735912 0.121889
0.439933 0.731853 0.122332
0.50576 0.72726 0.125216
0.570352 0.723079 0.130846
0.62916 0.720485 0.137881
0.678935 0.720012 0.144594
0.721462 0.720699 0.15053
0.760479 0.721599 0.156527
0.795956 0.722576 0.162493
0.825895 0.723812 0.167285
0.847196 0.726925 0.169574
0.858244 0.733318 0.168383
0.864012 0.741085 0.165896
0.869505 0.748653 0.164462
0.876188 0.755535 0.164584
0.882231 0.762203 0.165255
0.891447 0.767773 0.168353
0.900191 0.772946 0.171633
0.909941 0.777493 0.176059
0.919829 0.78172 0.18085
0.929747 0.785748 0.185885
0.939147 0.789807 0.190875
0.0498512 0.728298 0.0906996
0.0657054 0.737514 0.098436
0.0825818 0.746288 0.106172
0.101106 0.754482 0.113619
0.121309 0.761334 0.120104
0.144366 0.767163 0.125933
0.171176 0.771801 0.130846
0.202945 0.77496 0.134585
0.241123 0.776257 0.136904
0.28809 0.775464 0.137438
0.340352 0.772885 0.136431
0.397894 0.769207 0.13521
0.459907 0.764553 0.134951
0.524453 0.759319 0.136889
0.588693 0.754589 0.141619
0.646357 0.751141 0.147768
0.695338 0.749676 0.153796
0.736614 0.749752 0.159182
0.774075 0.75024 0.164538
0.808301 0.750942 0.170138
0.838849 0.751965 0.175631
0.863401 0.753155 0.179843
0.880613 0.756115 0.18201
0.891325 0.761181 0.1823
0.896895 0.767788 0.180972
0.901488 0.77467 0.180072
0.905699 0.781323 0.179767
0.910353 0.787243 0.180407
0.915419 0.792798 0.181888
0.922362 0.797559 0.18468
0.929763 0.801968 0.188067
0.937377 0.806287 0.191821
0.945235 0.810101 0.195773
0.0671702 0.767376 0.110643
0.0834821 0.776165 0.118761
0.100649 0.78439 0.126513
0.11928 0.791623 0.133532
0.140017 0.797665 0.139712
0.163745 0.802548 0.145068
0.191562 0.806088 0.14934
0.225315 0.808179 0.152407
0.265003 0.808194 0.153628
0.31165 0.806394 0.153201
0.363516 0.803204 0.151492
0.420691 0.798901 0.149508
0.482033 0.793667 0.148486
0.546197 0.788022 0.14992
0.608179 0.782544 0.153597
0.664408 0.778393 0.15874
0.711971 0.776333 0.164096
0.75201 0.775814 0.168917
0.787884 0.775952 0.173663
0.820829 0.776318 0.178698
0.850111 0.776883 0.183764
0.875135 0.777707 0.18851
0.895308 0.778866 0.192279
0.90959 0.781704 0.194446
0.91986 0.785901 0.195651
0.925246 0.791592 0.195148
0.929305 0.797375 0.19472
0.93283 0.802976 0.194842
0.935744 0.80856 0.195071
0.938628 0.813947 0.195697
0.94432 0.818616 0.198169
0.949569 0.82298 0.200519
0.955886 0.82681 0.203525
0.0864729 0.804044 0.132967
0.102724 0.81207 0.140581
0.120043 0.819471 0.147967
0.138827 0.825956 0.154681
0.160098 0.830991 0.160296
0.184573 0.834821 0.16492
0.213886 0.837446 0.168521
0.248692 0.83801 0.170275
0.289693 0.836774 0.170321
0.336599 0.833982 0.168826
0.387915 0.830274 0.166491
0.444633 0.825345 0.16379
0.505882 0.819623 0.162234
0.568246 0.813245 0.16286
0.62858 0.807309 0.165866
0.682719 0.802838 0.170306
0.728573 0.800198 0.174823
0.767437 0.799374 0.179187
0.801511 0.799023 0.183246
0.832822 0.798871 0.187533
0.860685 0.799039 0.191989
0.884978 0.799649 0.196567
0.905684 0.800427 0.200763
0.922927 0.801678 0.204425
0.934905 0.804318 0.206455
0.944427 0.807614 0.208209
0.949386 0.812375 0.208286
0.953231 0.817304 0.208453
0.95642 0.822309 0.20882
0.958801 0.82742 0.20914
0.960891 0.832441 0.209506
0.964248 0.837003 0.210773
0.968429 0.841093 0.212589
0.10602 0.837385 0.155703
0.122332 0.844495 0.16289
0.139986 0.851057 0.169757
0.159213 0.856687 0.17583
0.180774 0.86128 0.181125
0.206195 0.864164 0.184909
0.236423 0.865354 0.187213
0.272801 0.864622 0.187793
0.314931 0.862318 0.186755
0.361807 0.858778 0.184405
0.413611 0.854398 0.181338
0.469398 0.849012 0.177951
0.529366 0.842466 0.175525
0.590463 0.835569 0.175616
0.648905 0.829282 0.178012
0.700832 0.824521 0.18172
0.744976 0.821744 0.185733
0.781765 0.820249 0.189212
0.814221 0.819455 0.192645
0.844038 0.818952 0.196307
0.870848 0.818784 0.200259
0.894118 0.819165 0.204486
0.914504 0.819898 0.208698
0.931914 0.820539 0.212497
0.946502 0.821622 0.215915
0.956649 0.824063 0.217975
0.965621 0.826825 0.220157
0.970367 0.831037 0.220706
0.974121 0.835386 0.221271
0.977127 0.839689 0.221805
0.978897 0.84416 0.222171
0.980056 0.848753 0.2224
0.98143 0.853101 0.223194
0.125399 0.867948 0.178332
0.14168 0.874006 0.184817
0.159655 0.879637 0.190997
0.179644 0.884413 0.196506
0.201938 0.887816 0.200839
0.227543 0.889708 0.203754
0.259556 0.88954 0.204852
0.297108 0.887846 0.204395
0.339773 0.884749 0.20235
0.387198 0.880751 0.199329
0.438331 0.875669 0.195392
0.493568 0.869535 0.191272
0.552346 0.862562 0.188128
0.612055 0.855238 0.187732
0.668467 0.848737 0.189731
0.718486 0.8439 0.193011
0.760113 0.840757 0.196139
0.795361 0.838941 0.199069
0.826474 0.837812 0.201968
0.854704 0.837003 0.205051
0.880629 0.836698 0.208698
0.902892 0.836744 0.212528
0.922469 0.837186 0.216541
0.939574 0.837705 0.220325
0.954421 0.838331 0.223835
0.966949 0.83949 0.226993
0.97612 0.841794 0.229297
0.983856 0.844175 0.231739
0.987091 0.847822 0.23241
0.990051 0.85156 0.233097
0.991501 0.85539 0.233692
0.992203 0.859373 0.234424
0.992554 0.863264 0.23566
0.144183 0.89572 0.200488
0.160555 0.900999 0.206317
