src/luts/vivid/1.cube
LUT_3D_SIZE 16
0.000415 0.000471 0.000667
0.044131 0.000918 0.001339
0.105071 0.002135 0.002394
0.179541 0.004837 0.003704
0.264797 0.009407 0.003988
0.353575 0.013908 0.006251
0.443851 0.019410 0.007982
0.534899 0.026105 0.008420
0.627743 0.033172 0.008250
0.716051 0.039649 0.008011
0.765726 0.041319 0.007776
0.804846 0.041702 0.007666
0.843839 0.042074 0.007563
0.882786 0.042427 0.007460
0.921582 0.042786 0.007358
0.969778 0.042958 0.007294
0.000795 0.040701 0.001191
0.040428 0.040480 0.001227
0.100374 0.041042 0.002196
0.173312 0.042508 0.003592
0.257825 0.046865 0.003837
0.346877 0.050975 0.005955
0.437577 0.056417 0.007877
0.528942 0.063163 0.008600
0.621836 0.070407 0.008475
0.713372 0.077357 0.008247
0.766115 0.079401 0.008007
0.805170 0.079772 0.007927
0.844218 0.080137 0.007815
0.883086 0.080479 0.007705
0.921899 0.080808 0.007610
0.970133 0.080984 0.007550
0.002386 0.090662 0.002427
0.039654 0.090025 0.002372
0.093057 0.093738 0.003184
0.168309 0.096674 0.003314
0.251087 0.098623 0.003853
0.339092 0.099390 0.005369
0.428847 0.100480 0.007690
0.519639 0.103232 0.008898
0.612242 0.108998 0.008962
0.705853 0.114903 0.008610
0.766418 0.117504 0.008209
0.805522 0.117857 0.008147
0.844534 0.118196 0.008072
0.883510 0.118535 0.007969
0.922299 0.118848 0.007862
0.970454 0.119004 0.007795
0.004509 0.145538 0.004359
0.041343 0.144676 0.004252
0.086249 0.146161 0.004608
0.156556 0.157711 0.005543
0.244310 0.165067 0.004451
0.332694 0.165331 0.005589
0.421939 0.165660 0.008283
0.512053 0.166836 0.010175
0.603802 0.168920 0.010762
0.697489 0.171233 0.010567
0.768827 0.170772 0.009849
0.807230 0.165912 0.009329
0.845919 0.163670 0.008991
0.884458 0.161808 0.008692
0.923119 0.160737 0.008480
0.971361 0.160507 0.008390
0.008134 0.204792 0.006989
0.044949 0.204034 0.006956
0.084004 0.202970 0.006931
0.143230 0.211073 0.008109
0.228643 0.229405 0.008436
0.325071 0.238824 0.007225
0.415032 0.238223 0.008892
0.504553 0.238251 0.010722
0.595144 0.239288 0.011827
0.688499 0.240844 0.012332
0.771402 0.240830 0.012167
0.811168 0.235446 0.011832
0.849776 0.232288 0.011647
0.888327 0.229447 0.011446
0.926951 0.227380 0.011245
0.975081 0.226708 0.011159
0.014965 0.267351 0.010983
0.051718 0.266528 0.010836
0.088216 0.264729 0.010439
0.138420 0.267795 0.011420
0.209262 0.282919 0.014566
0.306138 0.306073 0.014396
0.406110 0.315824 0.011094
0.496301 0.313837 0.011196
0.586821 0.312383 0.012049
0.679154 0.312223 0.012704
0.768823 0.311911 0.012950
0.815280 0.307020 0.012825
0.853822 0.303434 0.012746
0.892215 0.300350 0.012606
0.930766 0.297978 0.012492
0.978956 0.297039 0.012438
0.026278 0.331782 0.018392
0.062891 0.331033 0.018151
0.099191 0.329362 0.017623
0.140573 0.329036 0.017758
0.201023 0.339731 0.021457
0.281998 0.360473 0.025243
0.385931 0.384591 0.021105
0.485666 0.393047 0.014225
0.577047 0.389810 0.012425
0.669308 0.386828 0.012457
0.762242 0.384869 0.012634
0.820080 0.380402 0.012566
0.858686 0.376018 0.012613
0.896955 0.372645 0.012605
0.935272 0.369854 0.012574
0.983508 0.368603 0.012549
0.038817 0.397920 0.029239
0.075340 0.397262 0.028991
0.111565 0.395893 0.028511
0.147291 0.393649 0.027687
0.200959 0.400271 0.030201
0.271004 0.416952 0.034865
0.359361 0.438223 0.036654
0.463984 0.461060 0.028466
0.564194 0.468991 0.017195
0.657840 0.465261 0.013199
0.752399 0.461038 0.012223
0.823164 0.456163 0.011822
0.863444 0.450987 0.011872
0.901774 0.447048 0.011919
0.940110 0.443807 0.011947
0.988454 0.442181 0.011954
0.052732 0.464820 0.041814
0.089288 0.464161 0.041560
0.125589 0.463008 0.041054
0.161443 0.460936 0.040121
0.205749 0.462825 0.040855
0.268066 0.475137 0.045298
0.344671 0.493444 0.049639
0.435888 0.513425 0.048541
0.540847 0.535923 0.035676
0.642733 0.543754 0.019783
0.738951 0.540154 0.013538
0.823440 0.534470 0.011553
0.867396 0.528531 0.011238
0.905981 0.524029 0.011143
0.944393 0.520170 0.011098
0.992725 0.518191 0.011069
0.066518 0.530796 0.055380
0.103079 0.530221 0.055125
0.139474 0.529239 0.054689
0.175493 0.527505 0.053903
0.212818 0.526027 0.053182
0.269402 0.534599 0.056582
0.337088 0.549100 0.061134
0.418342 0.567148 0.063782
0.511342 0.586545 0.059749
0.617588 0.609700 0.041083
0.722077 0.618218 0.020845
0.818348 0.614345 0.012879
0.870453 0.607851 0.011634
0.909139 0.602803 0.011420
0.947624 0.598523 0.011232
0.996104 0.596156 0.011133
0.075881 0.594324 0.067113
0.112578 0.593779 0.066947
0.149234 0.593083 0.066681
0.185757 0.591724 0.066185
0.222129 0.589800 0.065465
0.270440 0.593724 0.067097
0.332224 0.604907 0.071101
0.404864 0.620020 0.074835
0.489975 0.637878 0.075816
0.585709 0.658733 0.068336
0.695344 0.684145 0.043277
0.802712 0.692728 0.019586
0.872066 0.687759 0.013557
0.911281 0.682490 0.012881
0.949989 0.677930 0.012389
0.998553 0.675188 0.012129
0.080579 0.655168 0.075742
0.117443 0.654741 0.075657
0.154256 0.654039 0.075501
0.191038 0.652932 0.075225
0.227701 0.651272 0.074745
0.267860 0.650949 0.074847
0.326172 0.659704 0.078399
0.392466 0.672302 0.082242
0.470875 0.688338 0.085316
0.560594 0.707592 0.085222
0.659895 0.731351 0.074220
0.775093 0.760028 0.041970
0.868480 0.766557 0.019503
0.912316 0.761554 0.016837
0.951330 0.756985 0.015711
0.999884 0.754023 0.015137
0.081941 0.704792 0.079653
0.118864 0.705068 0.079759
0.155826 0.705361 0.079886
0.192775 0.705598 0.080020
0.229696 0.705359 0.080033
0.267118 0.705063 0.080070
0.318854 0.711257 0.082783
0.380487 0.722756 0.086743
0.452759 0.737716 0.090543
0.537398 0.756073 0.093677
0.631353 0.777924 0.092840
0.735315 0.805349 0.077693
0.848721 0.834268 0.041533
0.906675 0.835699 0.029056
0.946797 0.832129 0.025869
0.996234 0.829739 0.024204
0.082028 0.742378 0.080070
0.118966 0.742688 0.080187
0.155913 0.743015 0.080313
0.192854 0.743315 0.080441
0.229816 0.743632 0.080602
0.266765 0.743957 0.080750
0.312137 0.747988 0.082488
0.371450 0.759258 0.086594
0.439101 0.774140 0.090749
0.518808 0.792523 0.094629
0.608965 0.814438 0.097672
0.705869 0.841066 0.094173
0.813175 0.872910 0.073737
0.889683 0.889048 0.091997
0.931200 0.889100 0.079876
0.981078 0.888729 0.073006
0.082094 0.779841 0.080445
0.119043 0.780169 0.080552
0.155972 0.780475 0.080695
0.192914 0.780787 0.080804
0.229869 0.781101 0.080937
0.266807 0.781423 0.081102
0.308301 0.783648 0.082130
0.365811 0.793827 0.085990
0.430959 0.807740 0.090114
0.507713 0.825339 0.094037
0.595481 0.845964 0.097589
0.690256 0.871164 0.096959
0.794403 0.901900 0.081715
0.885333 0.925136 0.086834
0.926281 0.926275 0.107531
0.974770 0.926632 0.107620
0.082174 0.817326 0.080813
0.119110 0.817630 0.080932
0.156046 0.817950 0.081059
0.192979 0.818245 0.081186
0.229919 0.818587 0.081304
0.266853 0.818892 0.081449
0.307537 0.820708 0.082333
0.364472 0.830541 0.086092
0.428849 0.844110 0.090187
0.504552 0.861346 0.094051
0.591364 0.881544 0.097682
0.685079 0.905921 0.098119
0.787521 0.936000 0.084922
0.882802 0.961557 0.080881
0.924643 0.962616 0.112303
0.972830 0.962777 0.119423
0.001252 0.002819 0.044013
0.043630 0.003112 0.045307
0.104517 0.002177 0.044067
0.178999 0.003788 0.043839
0.264062 0.008656 0.042450
0.352925 0.013374 0.044321
0.443270 0.019002 0.045825
0.534381 0.025733 0.046309
0.627158 0.032894 0.046372
0.715795 0.039463 0.046202
0.765805 0.041185 0.046031
0.804918 0.041566 0.045979
0.843949 0.041937 0.045860
0.882804 0.042289 0.045744
0.921645 0.042650 0.045633
0.969885 0.042820 0.045561
0.000832 0.041572 0.041303
0.040240 0.040743 0.040531
0.099864 0.040293 0.040133
0.172843 0.041796 0.041032
0.257427 0.046262 0.041273
0.346495 0.050589 0.043481
0.437258 0.056073 0.045545
0.528678 0.062822 0.046484
0.621618 0.070138 0.046554
0.713298 0.077147 0.046493
0.766108 0.079252 0.046263
0.805212 0.079652 0.046211
0.844210 0.080011 0.046107
0.883212 0.080380 0.046006
0.921979 0.080727 0.045903
0.970084 0.080907 0.045841
0.002065 0.090484 0.039316
0.039157 0.089697 0.039007
0.092691 0.093302 0.039894
0.167937 0.095952 0.040357
0.250627 0.097824 0.041066
0.338708 0.098508 0.042809
0.428425 0.099594 0.045324
0.519296 0.102640 0.046739
0.611904 0.108531 0.046956
0.705546 0.114545 0.046832
0.766481 0.117378 0.046484
0.805596 0.117751 0.046442
0.844634 0.118093 0.046361
0.883509 0.118437 0.046258
0.922354 0.118760 0.046156
0.970519 0.118921 0.046096
0.004051 0.145215 0.040794
0.040946 0.144340 0.040705
0.085693 0.145673 0.041062
0.156061 0.157256 0.042252
0.243959 0.164462 0.041766
0.332306 0.164623 0.043141
0.421622 0.164864 0.046013
0.511730 0.165973 0.048040
0.603439 0.168067 0.048780
0.697061 0.170488 0.048713
0.768828 0.170113 0.048107
0.807224 0.165304 0.047577
0.845929 0.163122 0.047261
0.884487 0.161303 0.046970
0.923130 0.160412 0.046768
0.971336 0.160233 0.046683
0.007545 0.204381 0.043446
0.044483 0.203600 0.043336
0.083392 0.202512 0.043314
0.142493 0.210515 0.044610
0.228111 0.228864 0.045313
0.324706 0.238264 0.044816
0.414694 0.237577 0.046757
0.504155 0.237574 0.048721
0.594801 0.238600 0.049978
0.688068 0.240182 0.050609
0.771226 0.240249 0.050502
0.811178 0.234840 0.050161
0.849782 0.231684 0.049976
0.888365 0.228866 0.049756
0.926847 0.226845 0.049538
0.975157 0.226183 0.049447
0.014383 0.266896 0.047307
0.051197 0.266083 0.047198
0.087613 0.264330 0.046865
0.137589 0.267207 0.047793
0.208489 0.282253 0.051058
0.305610 0.305584 0.051401
0.405699 0.315278 0.048888
0.495922 0.313282 0.049319
0.586429 0.311779 0.050280
0.678714 0.311685 0.051069
0.768606 0.311386 0.051384
0.815305 0.306490 0.051254
0.853852 0.302900 0.051163
0.892290 0.299829 0.051022
0.930813 0.297468 0.050919
0.979047 0.296553 0.050861
0.025772 0.331340 0.054712
0.062463 0.330548 0.054486
0.098787 0.328937 0.053968
0.139931 0.328459 0.054039
0.200257 0.339044 0.057791
0.281242 0.359882 0.061843
0.385503 0.384141 0.058190
0.485289 0.392590 0.052091
0.576637 0.389299 0.050702
0.668939 0.386347 0.050933
0.761941 0.384404 0.051156
0.820043 0.379941 0.051132
0.858642 0.375532 0.051139
0.896972 0.372168 0.051114
0.935244 0.369431 0.051081
0.983521 0.368172 0.051057
0.038332 0.397499 0.065603
0.074928 0.396837 0.065339
0.111166 0.395502 0.064861
0.146888 0.393240 0.064038
0.200302 0.399663 0.066485
0.270262 0.416333 0.071308
0.358732 0.437719 0.073375
0.463541 0.460642 0.065660
0.563811 0.468528 0.055153
0.657426 0.464811 0.051603
0.751948 0.460526 0.050806
0.823163 0.455737 0.050465
0.863454 0.450512 0.050493
0.901749 0.446588 0.050529
0.940091 0.443373 0.050548
0.988443 0.441768 0.050553
0.052387 0.464454 0.078168
0.088945 0.463895 0.077912
0.125260 0.462714 0.077402
0.161101 0.460659 0.076495
0.205175 0.462356 0.077174
0.267452 0.474679 0.081661
0.344060 0.492957 0.086183
0.435365 0.513003 0.085369
0.540423 0.535518 0.072972
0.642355 0.543316 0.057792
0.738515 0.539738 0.052016
0.823347 0.534038 0.050207
0.867398 0.528059 0.049915
0.906001 0.523555 0.049839
0.944421 0.519786 0.049790
0.992806 0.517757 0.049760
0.066226 0.530621 0.091819
0.102797 0.530085 0.091555
0.139200 0.529064 0.091114
0.175216 0.527394 0.090316
0.212447 0.525792 0.089580
0.268895 0.534236 0.092990
0.336587 0.548732 0.097618
0.417801 0.566748 0.100416
0.510870 0.586128 0.096644
0.617171 0.609299 0.078506
0.721629 0.617788 0.058972
0.817927 0.613932 0.051429
0.870488 0.607424 0.050272
0.909172 0.602384 0.050056
0.947642 0.598079 0.049871
0.996117 0.595715 0.049772
0.075702 0.594240 0.103645
0.112468 0.593771 0.103479
0.149134 0.593028 0.103205
0.185648 0.591696 0.102709
0.221995 0.589763 0.101972
0.270080 0.593541 0.103571
0.331864 0.604651 0.107611
0.404467 0.619722 0.111433
0.489568 0.637541 0.112612
0.585274 0.658380 0.105410
0.694851 0.683749 0.080897
0.802315 0.692380 0.057850
0.871960 0.687286 0.052056
0.911299 0.681933 0.051397
0.949991 0.677437 0.050919
0.998472 0.674789 0.050664
0.080533 0.655243 0.112368
0.117390 0.654798 0.112281
0.154222 0.654098 0.112125
0.190982 0.653012 0.111844
0.227654 0.651320 0.111352
0.267609 0.650916 0.111413
0.325947 0.659646 0.114990
0.392133 0.672116 0.118887
0.470529 0.688078 0.122020
0.560240 0.707249 0.122144
0.659455 0.730993 0.111489
0.774587 0.759596 0.079842
0.868313 0.766170 0.057762
0.912341 0.761141 0.055094
0.951354 0.756491 0.053995
0.999884 0.753540 0.053434
0.081942 0.705097 0.116381
0.118865 0.705363 0.116495
0.155839 0.705666 0.116626
0.192774 0.705887 0.116755
0.229718 0.705654 0.116766
0.267102 0.705342 0.116802
0.318698 0.711439 0.119456
0.380298 0.722785 0.123417
0.452443 0.737694 0.127302
0.537084 0.755793 0.130504
0.630972 0.777593 0.129920
0.734776 0.804940 0.115209
0.848506 0.833964 0.079446
0.906671 0.835366 0.067124
0.946935 0.831785 0.063957
0.996326 0.829482 0.062318
0.082042 0.742687 0.116792
0.118974 0.742999 0.116917
0.155920 0.743297 0.117047
0.192871 0.743615 0.117169
0.229811 0.743914 0.117329
0.266786 0.744279 0.117489
0.311980 0.748192 0.119183
0.371205 0.759334 0.123290
0.438792 0.774135 0.127506
0.518440 0.792475 0.131458
0.608504 0.814230 0.134717
0.705330 0.840768 0.131565
0.812467 0.872689 0.111629
0.889996 0.889112 0.128766
0.931510 0.889126 0.116569
0.981328 0.888709 0.109803
0.082109 0.780168 0.117152
0.119067 0.780468 0.117289
0.155996 0.780775 0.117419
0.192932 0.781111 0.117548
0.229886 0.781410 0.117675
0.266814 0.781731 0.117841
0.308200 0.783912 0.118840
0.365594 0.793970 0.122693
0.430703 0.807811 0.126862
0.507396 0.825269 0.130848
0.594947 0.845883 0.134558
0.689722 0.870968 0.134237
0.793729 0.901558 0.119498
0.885184 0.925158 0.123984
0.926429 0.926395 0.145467
0.974862 0.926683 0.145560
0.082203 0.817629 0.117539
0.119143 0.817946 0.117672
0.156067 0.818243 0.117804
0.192994 0.818577 0.117925
0.229940 0.818891 0.118039
0.266879 0.819209 0.118182
0.307444 0.821012 0.119036
0.364278 0.830670 0.122779
0.428566 0.844174 0.126908
0.504257 0.861295 0.130867
0.590891 0.881481 0.134639
0.684582 0.905675 0.135377
0.786880 0.935691 0.122677
0.882686 0.961549 0.117723
0.924790 0.962730 0.150236
0.972947 0.962842 0.157354
0.006277 0.014002 0.106874
0.047053 0.017633 0.115901
0.103036 0.014945 0.114427
0.175612 0.007681 0.109799
0.261289 0.004700 0.106385
0.350900 0.005855 0.102970
0.442138 0.012401 0.100343
0.533582 0.022263 0.097356
0.626376 0.031571 0.093553
0.715441 0.038939 0.088402
0.765890 0.040887 0.086973
0.805036 0.041343 0.086024
0.844025 0.041756 0.085370
0.882989 0.042139 0.084698
0.921754 0.042508 0.084241
0.969912 0.042690 0.084096
0.006183 0.052464 0.105851
0.043810 0.051871 0.105944
0.098297 0.049577 0.106969
0.170420 0.043100 0.102594
0.255415 0.041684 0.099187
0.344830 0.044814 0.096581
0.436221 0.051562 0.095201
0.527934 0.060685 0.092735
0.620788 0.069254 0.088529
0.712704 0.076704 0.087453
0.766219 0.079032 0.086093
0.805345 0.079496 0.085280
0.844347 0.079885 0.084739
0.883314 0.080255 0.084308
0.922062 0.080608 0.084177
0.970259 0.080785 0.084097
0.002661 0.098437 0.097763
0.039478 0.096728 0.096001
0.091611 0.095577 0.094250
0.167609 0.093198 0.090271
0.250493 0.093375 0.087737
0.337957 0.094620 0.086932
0.427584 0.096649 0.086776
0.518572 0.101130 0.086518
0.611366 0.107526 0.086265
0.705084 0.113988 0.085690
0.766612 0.117205 0.084836
0.805626 0.117622 0.084719
0.844729 0.118005 0.084671
0.883583 0.118354 0.084567
0.922330 0.118697 0.084470
0.970586 0.118880 0.084409
0.002024 0.146502 0.083721
0.038791 0.145395 0.082739
0.083288 0.145441 0.080924
0.155228 0.156412 0.081911
0.243347 0.162933 0.081131
0.331495 0.162869 0.081945
0.420805 0.163006 0.084597
0.511017 0.164194 0.086223
0.602725 0.166441 0.086794
0.696383 0.169058 0.086803
0.768828 0.168884 0.086322
0.807166 0.164186 0.085781
0.845880 0.162212 0.085513
0.884491 0.160703 0.085256
0.923269 0.160096 0.085087
0.971473 0.160046 0.085009
0.006186 0.203711 0.080850
0.043234 0.202890 0.080492
0.082119 0.201647 0.080058
0.141067 0.209322 0.081309
0.227120 0.227901 0.082403
0.323859 0.237076 0.082393
0.413900 0.236338 0.084563
0.503388 0.236265 0.086690
0.594000 0.237256 0.088065
0.687491 0.238912 0.088858
0.770899 0.239127 0.088811
0.811156 0.233794 0.088472
0.849813 0.230734 0.088289
0.888339 0.228073 0.088051
0.926872 0.226217 0.087843
0.975189 0.225691 0.087748
0.013619 0.266137 0.083658
0.050416 0.265331 0.083554
0.086828 0.263639 0.083273
0.136316 0.266171 0.084078
0.207301 0.281160 0.087441
0.304726 0.304691 0.088296
0.404991 0.314321 0.086616
0.495281 0.312277 0.087372
0.585801 0.310854 0.088514
0.678088 0.310749 0.089433
0.768172 0.310532 0.089796
0.815282 0.305697 0.089687
0.853836 0.302128 0.089595
0.892280 0.299144 0.089471
0.930793 0.296928 0.089361
0.979029 0.296082 0.089307
0.025169 0.330596 0.090945
0.061868 0.329826 0.090733
0.098282 0.328292 0.090247
0.138945 0.327590 0.090239
0.199128 0.337994 0.094021
0.280131 0.358990 0.098367
0.384697 0.383413 0.095235
0.484733 0.391775 0.089964
0.576021 0.388429 0.088985
0.668450 0.385495 0.089376
0.761563 0.383655 0.089700
0.820056 0.379267 0.089686
0.858547 0.374857 0.089670
0.896902 0.371585 0.089642
0.935229 0.368847 0.089601
0.983504 0.367682 0.089574
0.037766 0.396891 0.101891
0.074365 0.396224 0.101641
0.110687 0.394957 0.101158
0.146387 0.392693 0.100332
0.199356 0.398819 0.102687
0.269239 0.415501 0.107672
0.357848 0.437053 0.110056
0.462985 0.460073 0.102829
0.563311 0.467876 0.093110
0.656858 0.464148 0.090003
0.751455 0.459878 0.089405
0.823030 0.455092 0.089107
0.863415 0.449886 0.089126
0.901780 0.446052 0.089157
0.940085 0.442778 0.089174
0.988469 0.441252 0.089172
0.051973 0.464008 0.114478
0.088506 0.463377 0.114196
0.124839 0.462315 0.113737
0.160691 0.460247 0.112832
0.204399 0.461725 0.113413
0.266600 0.473936 0.117972
0.343205 0.492323 0.122679
0.434667 0.512462 0.122146
0.539881 0.535006 0.110248
0.641761 0.542744 0.095828
0.737959 0.539072 0.090487
0.823149 0.533358 0.088862
0.867500 0.527448 0.088620
0.906004 0.522986 0.088551
0.944402 0.519210 0.088500
0.992820 0.517286 0.088471
0.065904 0.530386 0.128229
0.102462 0.529794 0.127946
0.138881 0.528879 0.127512
0.174897 0.527125 0.126698
0.211929 0.525398 0.125900
0.268213 0.533742 0.129324
0.335859 0.548217 0.134058
0.417118 0.566228 0.137019
0.510242 0.585631 0.133524
0.616640 0.608785 0.115878
0.721028 0.617222 0.097077
0.817354 0.613301 0.090006
0.870475 0.606757 0.088928
0.909186 0.601775 0.088717
0.947645 0.597519 0.088542
0.996070 0.595171 0.088444
0.075511 0.594151 0.140150
0.112285 0.593684 0.139987
0.148981 0.592931 0.139699
0.185473 0.591597 0.139199
0.221805 0.589637 0.138448
0.269671 0.593186 0.139997
0.331353 0.604279 0.144079
0.403906 0.619317 0.147988
0.489013 0.637117 0.149344
0.584762 0.657880 0.142445
0.694349 0.683231 0.118523
0.801724 0.691898 0.096149
0.871978 0.686781 0.090562
0.911369 0.681417 0.089948
0.950051 0.676900 0.089509
0.998490 0.674291 0.089276
0.080476 0.655210 0.148983
0.117330 0.654768 0.148896
0.154149 0.654052 0.148715
0.190922 0.653011 0.148434
0.227571 0.651319 0.147929
0.267246 0.650777 0.147948
0.325563 0.659452 0.151536
0.391681 0.671795 0.155458
0.469977 0.687705 0.158707
0.559698 0.706826 0.159067
0.658848 0.730412 0.148746
0.774019 0.759049 0.117725
0.868136 0.765761 0.096021
0.912328 0.760667 0.093373
0.951417 0.756012 0.092345
0.999885 0.752959 0.091807
0.081959 0.705388 0.153114
0.118887 0.705690 0.153245
0.155838 0.705950 0.153354
0.192781 0.706164 0.153486
0.229706 0.705935 0.153506
0.267042 0.705598 0.153507
0.318485 0.711512 0.156124
0.380011 0.722782 0.160082
0.452087 0.737555 0.164046
0.536588 0.755419 0.167290
0.630553 0.777134 0.166969
0.734209 0.804353 0.152629
0.848281 0.833481 0.117415
0.906854 0.834916 0.105134
0.947148 0.831387 0.102020
0.996507 0.829091 0.100400
0.082050 0.743013 0.153510
0.118978 0.743295 0.153652
0.155934 0.743602 0.153789
0.192883 0.743917 0.153910
0.229854 0.744257 0.154077
0.266793 0.744564 0.154221
0.311760 0.748369 0.155869
0.370898 0.759442 0.160003
0.438332 0.774052 0.164228
0.517938 0.792371 0.168284
0.607827 0.814017 0.171695
0.704574 0.840481 0.168911
0.811692 0.872244 0.149561
0.890337 0.889191 0.165025
0.931815 0.889066 0.152624
0.981835 0.888673 0.146061
0.082147 0.780472 0.153890
0.119067 0.780773 0.154027
0.156015 0.781101 0.154153
0.192969 0.781405 0.154292
0.229894 0.781720 0.154410
0.266841 0.782044 0.154566
0.308103 0.784174 0.155545
0.365350 0.794107 0.159383
0.430370 0.807866 0.163608
0.506936 0.825244 0.167658
0.594358 0.845663 0.171536
0.689070 0.870664 0.171537
0.792916 0.901276 0.157339
0.885088 0.925167 0.160960
0.926434 0.926358 0.183422
0.975016 0.926730 0.183488
0.082226 0.817948 0.154259
0.119178 0.818242 0.154401
0.156110 0.818564 0.154543
0.193029 0.818886 0.154671
0.229960 0.819197 0.154805
0.266915 0.819511 0.154925
0.307405 0.821287 0.155765
0.364108 0.830810 0.159488
0.428283 0.844246 0.163647
0.503808 0.861166 0.167663
0.590387 0.881306 0.171604
0.683912 0.905385 0.172609
0.786137 0.935352 0.160409
0.882449 0.961547 0.154802
0.924809 0.962816 0.188182
0.972962 0.962883 0.195294
0.014227 0.034859 0.191587
0.053578 0.037082 0.197644
0.104256 0.038087 0.204895
0.173122 0.027623 0.192777
0.256048 0.016040 0.186353
0.346897 0.006389 0.181785
0.438279 0.004765 0.176405
0.529449 0.007216 0.169219
0.623116 0.016409 0.162364
0.714363 0.029712 0.158807
0.766284 0.035732 0.154963
0.805444 0.038186 0.151296
0.844416 0.039687 0.149047
0.883413 0.040554 0.146060
0.922192 0.041129 0.143689
0.970434 0.041401 0.142970
0.013150 0.070635 0.184573
0.050462 0.070252 0.185591
0.099867 0.072269 0.196223
0.167961 0.062592 0.185850
0.250047 0.050944 0.179364
0.340935 0.042982 0.175148
0.432477 0.042206 0.170069
0.523957 0.044883 0.163204
0.618306 0.056205 0.158061
0.712012 0.069836 0.155517
0.766720 0.075781 0.151912
0.805877 0.077636 0.147576
0.844886 0.078328 0.144601
0.883737 0.078926 0.141837
0.922535 0.079426 0.139786
0.970718 0.079678 0.139123
0.012586 0.116257 0.181178
0.048993 0.114804 0.179886
0.093772 0.114182 0.183148
0.163163 0.104967 0.178000
0.245912 0.093165 0.169581
0.334034 0.086132 0.164002
0.423894 0.083715 0.158964
0.515540 0.087414 0.153466
0.609508 0.098342 0.149774
0.704414 0.110698 0.148286
0.767169 0.115571 0.143744
0.806121 0.116381 0.138938
0.845122 0.116962 0.136674
0.884000 0.117496 0.134430
0.922744 0.117957 0.132805
0.970999 0.118165 0.132348
0.004806 0.166484 0.165199
0.041234 0.164780 0.163531
0.082375 0.162417 0.161194
0.152015 0.161088 0.159592
0.242140 0.159997 0.156665
0.331979 0.155736 0.150421
0.420967 0.153025 0.146643
0.510752 0.154720 0.144416
0.602480 0.160066 0.142193
0.696087 0.165190 0.139033
0.769112 0.166361 0.134413
0.807251 0.162242 0.129657
0.845914 0.160663 0.127931
0.884683 0.159905 0.126910
0.923353 0.159680 0.126394
0.971596 0.159834 0.126332
0.003201 0.212389 0.141611
0.039562 0.210851 0.140174
0.076962 0.207830 0.136811
0.135336 0.211207 0.131316
0.225914 0.227461 0.135710
0.324262 0.234591 0.137601
0.413905 0.232858 0.136658
0.503124 0.232770 0.135591
0.593505 0.234272 0.133610
0.686653 0.236573 0.131777
0.770534 0.237261 0.129635
0.811155 0.232195 0.127613
0.849791 0.229267 0.126999
0.888323 0.226959 0.126613
0.926846 0.225424 0.126368
0.975190 0.225130 0.126296
0.007234 0.266040 0.128329
0.043919 0.265039 0.127391
0.080812 0.262973 0.125877
0.130138 0.263982 0.123640
0.203221 0.278748 0.126866
0.303334 0.303431 0.129641
0.404163 0.312716 0.128493
0.494345 0.310529 0.128379
0.584714 0.309185 0.128189
0.677045 0.309218 0.127999
0.767481 0.309085 0.128202
0.815201 0.304392 0.128088
0.853764 0.300908 0.128001
0.892239 0.298162 0.127915
0.930786 0.296181 0.127795
0.979033 0.295491 0.127744
0.021661 0.329265 0.129099
0.058573 0.328479 0.128524
0.095584 0.327079 0.127538
0.136695 0.326149 0.126955
0.196951 0.336140 0.130525
0.278337 0.357448 0.135158
0.383478 0.382204 0.132298
0.483729 0.390485 0.127795
0.575020 0.387131 0.127212
0.667355 0.384168 0.127805
0.760693 0.382395 0.128253
0.819813 0.378164 0.128219
0.858482 0.373890 0.128203
0.896801 0.370709 0.128177
0.935211 0.368185 0.128119
0.983442 0.367127 0.128086
0.036805 0.395940 0.138351
0.073446 0.395288 0.138021
0.109868 0.394025 0.137399
0.145728 0.391798 0.136485
0.197857 0.397471 0.138705
0.267673 0.414072 0.143866
0.356442 0.435824 0.146552
0.461943 0.459004 0.139887
