src/luts/vivid/1.cube
LUT_3D_SIZE 6
0.000415 0.000471 0.000667
0.179541 0.004837 0.003704
0.443851 0.019410 0.007982
0.716051 0.039649 0.008011
0.843839 0.042074 0.007563
0.969778 0.042958 0.007294
0.004509 0.145538 0.004359
0.156556 0.157711 0.005543
0.421939 0.165660 0.008283
0.697489 0.171233 0.010567
0.845919 0.163670 0.008991
0.971361 0.160507 0.008390
0.026278 0.331782 0.018392
0.140573 0.329036 0.017758
0.385931 0.384591 0.021105
0.669308 0.386828 0.012457
0.858686 0.376018 0.012613
0.983508 0.368603 0.012549
0.066518 0.530796 0.055380
0.175493 0.527505 0.053903
0.337088 0.549100 0.061134
0.617588 0.609700 0.041083
0.870453 0.607851 0.011634
0.996104 0.596156 0.011133
0.081941 0.704792 0.079653
0.192775 0.705598 0.080020
0.318854 0.711257 0.082783
0.537398 0.756073 0.093677
0.848721 0.834268 0.041533
0.996234 0.829739 0.024204
0.082174 0.817326 0.080813
0.192979 0.818245 0.081186
0.307537 0.820708 0.082333
0.504552 0.861346 0.094051
0.787521 0.936000 0.084922
0.972830 0.962777 0.119423
0.014227 0.034859 0.191587
0.173122 0.027623 0.192777
0.438279 0.004765 0.176405
0.714363 0.029712 0.158807
0.844416 0.039687 0.149047
0.970434 0.041401 0.142970
0.004806 0.166484 0.165199
0.152015 0.161088 0.159592
0.420967 0.153025 0.146643
0.696087 0.165190 0.139033
0.845914 0.160663 0.127931
0.971596 0.159834 0.126332
0.021661 0.329265 0.129099
0.136695 0.326149 0.126955
0.383478 0.382204 0.132298
0.667355 0.384168 0.127805
0.858482 0.373890 0.128203
0.983442 0.367127 0.128086
0.065460 0.529824 0.164494
0.174474 0.526623 0.162987
0.334789 0.547351 0.170334
0.615871 0.608097 0.153234
0.870466 0.606043 0.127576
0.996128 0.594600 0.127132
0.081924 0.705702 0.189832
0.192772 0.706453 0.190212
0.318254 0.711595 0.192775
0.536132 0.754908 0.204063
0.847911 0.833000 0.155360
0.996592 0.828567 0.138477
0.082194 0.818249 0.190920
0.193079 0.819200 0.191413
0.307445 0.821631 0.192502
0.503430 0.861140 0.204460
0.785364 0.935000 0.198107
0.973103 0.963002 0.233213
0.024118 0.102797 0.456228
0.159353 0.107646 0.469522
0.425925 0.053928 0.444933
0.691447 0.032212 0.425627
0.827156 0.025392 0.407230
0.954207 0.022234 0.394977
0.020850 0.229991 0.439434
0.143706 0.224965 0.442788
0.404605 0.163743 0.423192
0.675006 0.144833 0.397945
0.832975 0.134574 0.377970
0.958936 0.132297 0.367106
0.008307 0.402907 0.401614
0.117566 0.394591 0.392657
0.375782 0.385444 0.387722
0.666039 0.378693 0.366287
0.861510 0.364341 0.343154
0.986412 0.360796 0.338373
0.040334 0.542659 0.317805
0.148851 0.535311 0.308663
0.318396 0.546920 0.299628
0.612565 0.605341 0.299610
0.871452 0.602359 0.289198
0.997168 0.592970 0.287402
0.079067 0.713498 0.309961
0.191223 0.712928 0.307903
0.317343 0.714219 0.307768
0.533811 0.752575 0.315849
0.845695 0.830046 0.268896
0.997198 0.826627 0.252614
0.081755 0.820849 0.302669
0.193143 0.821294 0.303055
0.308412 0.823294 0.303394
0.502901 0.861347 0.314974
0.782510 0.933741 0.311398
0.973364 0.963234 0.347077
0.100145 0.190440 0.683570
0.229658 0.194969 0.685338
0.456473 0.203084 0.694793
0.689986 0.171605 0.678226
0.816704 0.146757 0.668336
0.938925 0.127752 0.657701
0.081354 0.303674 0.671845
0.197220 0.298639 0.669801
0.420584 0.303365 0.681164
0.665108 0.254510 0.660220
0.814134 0.225478 0.648492
0.937746 0.210498 0.637283
0.097937 0.463486 0.660607
0.199842 0.456348 0.655569
0.369326 0.456757 0.662169
0.649868 0.405122 0.648185
0.836473 0.380460 0.627344
0.962828 0.378700 0.618279
0.070640 0.632889 0.630780
0.177072 0.627408 0.625512
0.330758 0.616471 0.614377
0.603387 0.605624 0.605013
0.867703 0.602253 0.586085
0.992932 0.598630 0.582154
0.077987 0.770714 0.560478
0.185848 0.767852 0.554202
0.298947 0.761523 0.538955
0.540924 0.777113 0.534082
0.846229 0.829786 0.518729
0.999110 0.827825 0.520076
0.069547 0.866911 0.522936
0.178921 0.864269 0.515549
0.290632 0.860728 0.503114
0.504438 0.891154 0.477783
0.783691 0.937690 0.490367
0.980425 0.970160 0.517560
0.119090 0.202466 0.798189
0.258085 0.214145 0.802520
0.473902 0.242974 0.816687
0.701730 0.229967 0.819003
0.832083 0.235584 0.819614
0.954725 0.235916 0.819668
0.124963 0.328935 0.801224
0.247147 0.330016 0.802321
0.447926 0.357015 0.815041
0.683849 0.339017 0.819671
0.832373 0.345458 0.819789
0.954893 0.345767 0.819857
0.148638 0.492327 0.811282
0.255565 0.488527 0.810904
0.426316 0.500300 0.818488
0.665221 0.497216 0.827734
0.842516 0.493908 0.826940
0.964287 0.492433 0.826215
0.184354 0.670195 0.822716
0.294942 0.666882 0.822334
0.436047 0.664136 0.825664
0.637213 0.666713 0.833889
0.855375 0.655403 0.831438
0.975162 0.644123 0.825739
0.139303 0.857263 0.830837
0.247260 0.854841 0.828026
0.362154 0.845486 0.820224
0.578146 0.834821 0.812856
0.844402 0.826430 0.807710
0.992780 0.825196 0.804920
0.135732 0.957010 0.805596
0.244346 0.953762 0.800172
0.352422 0.948292 0.790299
0.546896 0.957210 0.784711
0.817311 0.976170 0.775123
0.998188 0.985535 0.756841
0.131010 0.209710 0.909545
0.266460 0.219854 0.913068
0.473052 0.248999 0.926967
0.696722 0.237121 0.931579
0.833575 0.242864 0.931812
0.956776 0.244314 0.932056
0.136794 0.334272 0.912005
0.258213 0.335944 0.913099
0.446316 0.360665 0.924820
0.678950 0.347563 0.931969
0.833851 0.352802 0.931917
0.956879 0.354179 0.932106
0.156878 0.492966 0.921630
0.265264 0.489881 0.921147
0.432696 0.503210 0.928688
0.661675 0.504153 0.938491
0.843855 0.500294 0.938599
0.966662 0.500960 0.938997
0.196125 0.667712 0.933653
0.308258 0.664992 0.933712
0.448565 0.663863 0.937471
0.643257 0.670737 0.946416
0.860156 0.675674 0.951361
0.982937 0.675244 0.951578
0.176024 0.857314 0.952756
0.287508 0.854764 0.952141
0.409199 0.847654 0.950507
0.609693 0.845275 0.954813
0.861715 0.849440 0.964694
0.997555 0.853278 0.966707
0.168743 0.980090 0.956689
0.279210 0.980089 0.956699
0.390562 0.980088 0.956736
0.589739 0.982236 0.959968
0.841556 0.988394 0.969074
1.000452 0.989451 0.972300
