src/luts/vivid/10.cube
LUT_3D_SIZE 16
-0.000003 0.000050 0.002385
0.043873 0.000025 0.003365
0.088557 0.000021 0.004826
0.150764 0.000418 0.008780
0.235047 0.009469 0.002249
0.321634 0.023533 0.002308
0.408207 0.031956 0.003098
0.494559 0.038097 0.004353
0.579313 0.043993 0.005292
0.653961 0.049270 0.006405
0.712349 0.053192 0.007105
0.760222 0.054799 0.007335
0.807307 0.056320 0.007561
0.853547 0.057897 0.007783
0.900236 0.059627 0.008121
0.946111 0.061283 0.008432
-0.000007 0.044130 0.003874
0.043395 0.043814 0.003394
0.087811 0.043740 0.004930
0.147606 0.044190 0.007478
0.232139 0.054925 0.002076
0.318119 0.068186 0.002170
0.405117 0.076998 0.002866
0.491159 0.083297 0.004049
0.576868 0.088777 0.005114
0.652020 0.093902 0.006232
0.712168 0.098050 0.006957
0.760629 0.099826 0.007232
0.807249 0.101237 0.007399
0.853869 0.102956 0.007783
0.900373 0.104659 0.008025
0.946397 0.106262 0.008344
-0.000054 0.099032 0.009216
0.043378 0.097971 0.008505
0.087046 0.097790 0.007608
0.142110 0.098253 0.003637
0.228528 0.108397 0.002025
0.313808 0.116398 0.001922
0.400731 0.123576 0.001123
0.485789 0.129011 0.003636
0.571981 0.133754 0.004767
0.648415 0.138396 0.005955
0.711989 0.142983 0.006899
0.760911 0.144803 0.007091
0.808079 0.146342 0.007316
0.854034 0.147893 0.007536
0.900679 0.149675 0.007926
0.946682 0.151288 0.008240
-0.000123 0.158218 0.017480
0.043226 0.157521 0.016952
0.086968 0.156881 0.015944
0.132102 0.156929 0.011240
0.223104 0.162772 0.002860
0.310187 0.171594 0.002174
0.397148 0.177608 0.000270
0.482116 0.181557 0.000935
0.568962 0.184766 0.001189
0.645901 0.187964 0.005040
0.713082 0.191532 0.006217
0.762218 0.192412 0.006715
0.808645 0.193093 0.007008
0.855092 0.194439 0.007447
0.901101 0.195642 0.007712
0.947010 0.197156 0.008037
-0.000202 0.220131 0.026913
0.043140 0.219476 0.026435
0.086537 0.217770 0.025340
0.131733 0.218710 0.023893
0.210457 0.220187 0.006919
0.305001 0.229027 0.003144
0.396018 0.236793 0.000873
0.480683 0.240953 0.001040
0.565726 0.242690 0.000837
0.643225 0.242552 0.002109
0.712148 0.243653 0.003981
0.763715 0.244752 0.005715
0.810274 0.245067 0.005919
0.856399 0.245977 0.006289
0.902332 0.246841 0.006678
0.948083 0.248208 0.007050
0.000559 0.287067 0.039006
0.044212 0.286499 0.038521
0.088800 0.285330 0.037561
0.134852 0.284927 0.033644
0.205184 0.287421 0.014607
0.289849 0.290570 0.009642
0.393402 0.301999 0.004224
0.481757 0.306983 0.002578
0.566224 0.308196 0.001074
0.643196 0.306477 0.002455
0.711546 0.303866 0.005019
0.766532 0.302375 0.005502
0.812229 0.301129 0.005960
0.858248 0.301306 0.006160
0.903767 0.301737 0.006512
0.949195 0.302950 0.007002
0.006432 0.360344 0.051077
0.050602 0.359921 0.049860
0.094664 0.359065 0.048558
0.140550 0.358292 0.045136
0.196834 0.361600 0.027643
0.288946 0.366546 0.019869
0.379407 0.372814 0.013302
0.482177 0.382088 0.006774
0.569480 0.383466 0.004395
0.647038 0.379350 0.003286
0.713292 0.373736 0.006320
0.769888 0.370056 0.006634
0.815881 0.366971 0.006659
0.861194 0.365695 0.006784
0.906479 0.365764 0.007265
0.951826 0.367426 0.008004
0.013675 0.438873 0.065898
0.058053 0.438558 0.064554
0.102358 0.438026 0.062939
0.146711 0.436250 0.060405
0.199055 0.439868 0.051540
0.284734 0.444553 0.033687
0.380521 0.451429 0.026349
0.472294 0.459332 0.018511
0.570487 0.463801 0.010133
0.651858 0.459041 0.007619
0.718281 0.450731 0.007304
0.774839 0.442925 0.007501
0.821546 0.438494 0.007544
0.866123 0.436892 0.007780
0.911408 0.436750 0.008378
0.956652 0.438886 0.009425
0.021918 0.522356 0.086287
0.066587 0.522174 0.084833
0.111126 0.522032 0.083227
0.156059 0.519766 0.080474
0.204159 0.520243 0.075158
0.276646 0.527366 0.051180
0.383236 0.530964 0.043189
0.473769 0.536080 0.033343
0.560612 0.540984 0.024565
0.651091 0.538388 0.014170
0.722619 0.529105 0.010158
0.780292 0.519296 0.009033
0.828317 0.512645 0.008913
0.872600 0.510558 0.009201
0.917526 0.509959 0.009958
0.962406 0.512300 0.011693
0.034040 0.607871 0.107619
0.079261 0.607700 0.105906
0.124533 0.607670 0.104023
0.169755 0.605544 0.100903
0.216118 0.604211 0.096786
0.279373 0.609663 0.078630
0.379951 0.613409 0.065680
0.477079 0.615493 0.055244
0.561479 0.617900 0.042504
0.642650 0.617312 0.032340
0.722143 0.608168 0.019837
0.784048 0.595791 0.013734
0.833922 0.588057 0.013409
0.878792 0.586184 0.014374
0.923199 0.585567 0.015720
0.968231 0.587381 0.018735
0.052129 0.688886 0.125411
0.097651 0.688777 0.123763
0.143237 0.688361 0.121800
0.188553 0.687789 0.119649
0.234555 0.686542 0.116816
0.289443 0.687688 0.106485
0.378622 0.691764 0.090954
0.477333 0.693128 0.082013
0.564995 0.693572 0.069502
0.643687 0.693861 0.054740
0.716907 0.687850 0.043596
0.785046 0.673893 0.027903
0.838902 0.662017 0.021542
0.883893 0.659928 0.024611
0.928867 0.659776 0.028317
0.973985 0.661537 0.034056
0.076789 0.762695 0.138073
0.122901 0.762552 0.136544
0.169425 0.762264 0.134765
0.215287 0.761835 0.132539
0.260906 0.760742 0.129782
0.310401 0.760693 0.125928
0.386411 0.762830 0.114820
0.479515 0.764513 0.109002
0.566421 0.764522 0.098772
0.645277 0.763921 0.085206
0.717395 0.762741 0.070115
0.782241 0.753249 0.059718
0.841581 0.737979 0.042945
0.888916 0.733349 0.045114
0.934090 0.733600 0.052854
0.979314 0.735745 0.063468
0.098524 0.824222 0.147135
0.145736 0.824620 0.145951
0.193409 0.825251 0.145189
0.240258 0.825286 0.143503
0.287472 0.825470 0.142432
0.334612 0.825467 0.140766
0.402317 0.826972 0.137112
0.487744 0.828271 0.133405
0.569370 0.828660 0.125889
0.645488 0.827974 0.115788
0.715860 0.826950 0.102053
0.781818 0.824587 0.087667
0.840323 0.813586 0.077692
0.891794 0.806102 0.077814
0.936988 0.805961 0.086451
0.981800 0.807881 0.100877
0.106412 0.872330 0.150324
0.154086 0.872827 0.149429
0.202090 0.873567 0.148699
0.249407 0.874041 0.147254
0.298194 0.874215 0.146675
0.347419 0.875222 0.146649
0.406528 0.876438 0.145429
0.488813 0.878368 0.144651
0.568121 0.879694 0.140536
0.642383 0.880468 0.134601
0.712289 0.880378 0.126608
0.777898 0.880687 0.113631
0.838577 0.877245 0.101639
0.892006 0.871778 0.110297
0.936980 0.871922 0.123861
0.981292 0.873668 0.140639
0.115966 0.919904 0.154917
0.163781 0.920492 0.154216
0.212084 0.920852 0.153714
0.260111 0.921563 0.152674
0.309556 0.921904 0.152778
0.358654 0.922361 0.152362
0.412379 0.923315 0.152379
0.490806 0.924962 0.152097
0.567621 0.926173 0.149281
0.640774 0.927118 0.144749
0.709633 0.927180 0.138428
0.775082 0.927300 0.126207
0.836586 0.925675 0.110328
0.890623 0.920956 0.116434
0.936593 0.922054 0.139551
0.980632 0.923578 0.155765
0.126405 0.967138 0.160335
0.174777 0.967466 0.159958
0.223522 0.967960 0.159974
0.271932 0.968621 0.159304
0.321584 0.968738 0.159987
0.369584 0.969495 0.158897
0.423027 0.969998 0.159636
0.498666 0.971296 0.159895
0.572824 0.972325 0.157956
0.643682 0.973051 0.154380
0.710876 0.973244 0.149060
0.775324 0.973472 0.139257
0.835929 0.972047 0.121903
0.890530 0.968604 0.127330
0.936140 0.969697 0.151900
0.980038 0.970891 0.167474
-0.000011 0.000101 0.050534
0.044041 0.000024 0.051098
0.088807 0.000042 0.051960
0.148759 0.000417 0.054968
0.233966 0.003236 0.052128
0.320757 0.020621 0.046471
0.407515 0.029647 0.047142
0.494056 0.036389 0.048309
0.579041 0.042699 0.049151
0.653785 0.048172 0.050267
0.712311 0.052175 0.050990
0.760490 0.053884 0.051198
0.807582 0.055485 0.051561
0.854110 0.057138 0.051801
0.900419 0.058828 0.052085
0.946366 0.060456 0.052416
-0.000012 0.044197 0.050591
0.043421 0.044318 0.050226
0.087086 0.044153 0.051019
0.148399 0.044270 0.053093
0.232346 0.050719 0.046476
0.318148 0.066344 0.046180
0.404507 0.074898 0.046822
0.490651 0.081335 0.048063
0.576645 0.087496 0.048963
0.651893 0.092840 0.050082
0.712080 0.097078 0.050860
0.760891 0.098929 0.051098
0.807852 0.100503 0.051376
0.854066 0.102104 0.051703
0.900698 0.103850 0.051977
0.946688 0.105464 0.052315
-0.000055 0.099086 0.054055
0.043375 0.098319 0.053710
0.087031 0.097117 0.052063
0.142189 0.098046 0.048935
0.229260 0.106794 0.046040
0.314791 0.115382 0.045614
0.400938 0.122733 0.046204
0.485423 0.127322 0.047518
0.571816 0.132398 0.048646
0.648319 0.137369 0.049784
0.712586 0.142101 0.050668
0.760833 0.143926 0.050955
0.808034 0.145473 0.051190
0.854301 0.147138 0.051510
0.900913 0.148906 0.051865
0.946842 0.150513 0.052200
-0.000124 0.158441 0.062222
0.043225 0.157753 0.061958
0.086968 0.157091 0.061005
0.131943 0.156817 0.057117
0.223694 0.162340 0.046754
0.310755 0.170791 0.045774
0.397283 0.176762 0.044819
0.482209 0.180518 0.045733
0.569195 0.184097 0.046679
0.646041 0.186960 0.048810
0.712637 0.190526 0.050095
0.762148 0.191531 0.050580
0.808775 0.192335 0.050916
0.855264 0.193614 0.051241
0.901226 0.194866 0.051630
0.947243 0.196374 0.051979
-0.000203 0.220439 0.071832
0.043139 0.219648 0.071503
0.086534 0.218100 0.070487
0.131598 0.218080 0.068785
0.209292 0.220221 0.051692
0.305011 0.228486 0.046971
0.396020 0.236187 0.045452
0.480657 0.240268 0.045748
0.565915 0.241889 0.045583
0.643322 0.241630 0.046934
0.712389 0.242932 0.048909
0.764564 0.244200 0.049317
0.810470 0.244435 0.049687
0.856688 0.245362 0.050079
0.902527 0.246274 0.050513
0.948282 0.247598 0.050945
0.000568 0.287422 0.084133
0.044177 0.286619 0.083697
0.088685 0.285272 0.082680
0.134517 0.284999 0.079496
0.201838 0.287703 0.059743
0.289093 0.290435 0.054060
0.393296 0.301502 0.047933
0.481757 0.306338 0.047382
0.566294 0.307493 0.045856
0.643111 0.305639 0.047288
0.711233 0.302822 0.049172
0.766526 0.301503 0.049368
0.812243 0.300344 0.049483
0.858027 0.300471 0.049691
0.903945 0.301068 0.050164
0.949289 0.302229 0.050747
0.006417 0.360716 0.096666
0.050455 0.359885 0.095535
0.094383 0.358920 0.094297
0.140162 0.358223 0.091209
0.196000 0.361303 0.076922
0.286478 0.365911 0.065539
0.378336 0.372366 0.058015
0.481787 0.381542 0.050607
0.569632 0.382855 0.048935
0.647088 0.378664 0.048029
0.713396 0.373029 0.049815
0.769993 0.369256 0.050134
0.816234 0.366175 0.050190
0.861616 0.364923 0.050340
0.906533 0.365074 0.050939
0.951924 0.366727 0.051782
0.013480 0.439016 0.112078
0.057836 0.438521 0.110913
0.102146 0.437726 0.109310
0.146468 0.436228 0.107015
0.198455 0.439220 0.099102
0.280425 0.444641 0.079857
0.378768 0.451423 0.072023
0.471206 0.458944 0.063418
0.570428 0.463366 0.054024
0.651975 0.458472 0.051204
0.718100 0.449963 0.050795
0.774679 0.442199 0.051044
0.821537 0.437813 0.051188
0.866213 0.436104 0.051297
0.911469 0.436310 0.052083
0.956714 0.438453 0.053240
0.021532 0.522297 0.132739
0.066252 0.522080 0.131524
0.110991 0.521443 0.129848
0.155405 0.519640 0.127324
0.203323 0.519722 0.122375
0.269280 0.527028 0.099014
0.379482 0.531222 0.089750
0.472139 0.536235 0.079143
0.559942 0.541025 0.069755
0.651025 0.538171 0.058259
0.722756 0.528779 0.053878
0.780437 0.518791 0.052648
0.828289 0.512134 0.052719
0.872865 0.510197 0.052884
0.917483 0.509524 0.053734
0.962486 0.511817 0.055566
0.033369 0.607761 0.154625
0.078660 0.607622 0.153105
0.123860 0.607075 0.151170
0.169063 0.605969 0.148681
0.214894 0.604048 0.144497
0.277923 0.609216 0.129017
0.375156 0.613662 0.112685
0.474696 0.615790 0.101882
0.560609 0.618223 0.088513
0.642388 0.617487 0.077637
0.722026 0.607981 0.064017
0.784381 0.595555 0.057327
0.834072 0.587661 0.057115
0.878622 0.585711 0.058417
0.923437 0.585297 0.059799
0.968414 0.587166 0.062999
0.051428 0.688887 0.172600
0.096879 0.688742 0.171063
0.142453 0.688790 0.169481
0.187790 0.687256 0.167132
0.233083 0.685976 0.164321
0.288895 0.687207 0.155613
0.373098 0.691642 0.138107
0.473904 0.693366 0.129189
0.563660 0.693873 0.116284
0.643049 0.694110 0.100891
0.716886 0.688068 0.089261
0.784496 0.673354 0.071951
0.838914 0.661788 0.065785
0.884361 0.659925 0.069197
0.929081 0.659666 0.073040
0.974232 0.661471 0.079028
0.076159 0.762748 0.185141
0.121959 0.762527 0.183685
0.168223 0.762348 0.182022
0.214285 0.761737 0.179938
0.259206 0.761185 0.177052
0.309312 0.760071 0.173350
0.382810 0.762881 0.161590
0.476267 0.764419 0.156024
0.564710 0.764696 0.145794
0.644524 0.764056 0.131907
0.717067 0.762938 0.116328
0.782268 0.753377 0.105164
0.841482 0.737781 0.087722
0.889376 0.733528 0.090647
0.934311 0.733674 0.098612
0.979493 0.735890 0.109263
0.098141 0.824228 0.193867
0.144956 0.824554 0.192958
0.191945 0.824921 0.191736
0.239378 0.825541 0.190730
0.286453 0.825098 0.189458
0.334352 0.824976 0.188434
0.400601 0.827153 0.183904
0.486462 0.828506 0.180613
0.568273 0.828829 0.173014
0.644779 0.828091 0.162666
0.715462 0.827106 0.149206
0.781477 0.824607 0.133940
0.840140 0.813584 0.123493
0.892160 0.806503 0.124296
0.937102 0.806169 0.133000
0.981912 0.808127 0.147339
0.106027 0.872404 0.196899
0.153477 0.872870 0.196275
0.201720 0.873399 0.195677
0.249402 0.873811 0.194514
0.298451 0.874616 0.194553
0.346782 0.875033 0.193410
0.405739 0.876619 0.192607
0.487976 0.878683 0.191709
0.567369 0.879977 0.187664
0.641934 0.880679 0.181791
0.712453 0.881115 0.173452
0.777395 0.880619 0.160499
0.838503 0.877650 0.147772
0.891734 0.871960 0.157551
0.937032 0.872238 0.170996
0.981232 0.873955 0.187708
0.115464 0.920029 0.201394
0.163299 0.920447 0.200934
0.212127 0.921193 0.200931
0.260793 0.921652 0.200367
0.308169 0.922036 0.198902
0.357807 0.922689 0.198994
0.411760 0.923426 0.199186
0.490191 0.925267 0.199252
0.566977 0.926463 0.196378
0.640370 0.927353 0.191997
0.709386 0.927660 0.185373
0.774457 0.927297 0.173855
0.836363 0.925841 0.156187
0.890666 0.921298 0.162865
0.936459 0.922591 0.187662
0.980645 0.923915 0.203174
0.125823 0.967178 0.206859
0.174353 0.967568 0.206583
0.222278 0.968275 0.205973
0.271638 0.968454 0.206218
0.320803 0.968798 0.206387
0.369617 0.969258 0.206246
0.422459 0.970086 0.206415
0.498057 0.971485 0.206810
0.572366 0.972568 0.205244
0.643471 0.973237 0.201544
0.710455 0.973501 0.195622
0.774552 0.973220 0.186581
0.835425 0.972045 0.169079
0.890407 0.968964 0.174012
0.935972 0.970054 0.199783
0.979990 0.971227 0.214958
-0.000027 0.000347 0.104244
0.044174 0.000068 0.104887
0.089202 0.000195 0.106182
0.144443 0.000576 0.107211
0.228979 0.003830 0.111882
0.318195 0.006601 0.106762
0.405895 0.016869 0.094535
0.493172 0.029162 0.094431
0.578952 0.038404 0.094437
0.653632 0.045738 0.094893
0.712595 0.050685 0.095072
0.760590 0.052667 0.095445
0.807507 0.054247 0.095646
0.854484 0.056091 0.095991
0.900667 0.057789 0.096221
0.946745 0.059471 0.096564
-0.000029 0.045875 0.104972
0.043436 0.045887 0.104242
0.086984 0.046121 0.105281
0.143141 0.044862 0.105596
0.228179 0.047939 0.109134
0.315689 0.050443 0.099896
0.403019 0.066365 0.093356
0.489705 0.076249 0.093514
0.576333 0.084561 0.093665
0.651750 0.091227 0.094292
0.712456 0.095918 0.095089
0.761160 0.097827 0.095232
0.808084 0.099467 0.095484
0.854228 0.101124 0.095709
0.900937 0.102931 0.096041
0.946894 0.104585 0.096376
-0.000070 0.101834 0.105616
0.043311 0.101143 0.105104
0.087126 0.100521 0.104509
0.136335 0.099972 0.103803
0.230457 0.097395 0.095339
0.314939 0.109287 0.091748
0.399787 0.118584 0.091125
0.484386 0.124508 0.091946
0.571371 0.130577 0.092785
0.648031 0.135989 0.093843
0.712221 0.140962 0.094792
0.761655 0.143086 0.094965
0.808609 0.144674 0.095267
0.855122 0.146394 0.095591
0.901102 0.148058 0.095909
0.947070 0.149616 0.096240
-0.000128 0.159104 0.110238
0.043219 0.158588 0.109783
0.086897 0.157752 0.109039
0.131661 0.156622 0.105112
0.223444 0.160929 0.092227
0.310844 0.168908 0.089691
0.397434 0.175063 0.089616
0.482213 0.178965 0.090449
0.569182 0.182575 0.091394
0.646005 0.185694 0.092722
0.712375 0.189390 0.094002
0.762344 0.190613 0.094614
0.808978 0.191426 0.094957
0.855858 0.192769 0.095285
0.901424 0.193941 0.095663
0.947374 0.195449 0.096007
-0.000205 0.220725 0.117541
0.043137 0.219973 0.117003
0.086531 0.218750 0.116311
0.131540 0.218395 0.114587
0.206836 0.219289 0.097130
0.304853 0.227714 0.091109
0.395771 0.235168 0.089865
0.480235 0.239014 0.090512
0.565886 0.240612 0.090620
0.643506 0.240354 0.091786
0.712660 0.241935 0.092515
0.764737 0.243412 0.093114
0.811089 0.243769 0.093610
0.856834 0.244639 0.093993
0.902866 0.245600 0.094488
0.948592 0.246890 0.094946
0.000584 0.287676 0.129326
0.044146 0.286813 0.128867
0.088455 0.285518 0.128093
0.134036 0.284764 0.125200
0.197190 0.287404 0.105932
0.287799 0.290045 0.098781
0.392677 0.300618 0.091747
0.481463 0.305329 0.091125
0.566201 0.306426 0.090941
0.643068 0.304458 0.092072
0.711621 0.301769 0.092698
0.766952 0.300566 0.092973
0.812420 0.299414 0.093091
0.858424 0.299726 0.093329
0.904111 0.300195 0.093862
0.949490 0.301452 0.094572
0.006307 0.360941 0.142301
0.050305 0.360061 0.141277
0.094116 0.358646 0.140047
0.139623 0.357897 0.137301
0.195194 0.361292 0.125526
0.283701 0.365636 0.110943
0.376697 0.371655 0.102924
0.481112 0.380769 0.094565
0.569505 0.381950 0.092488
0.646903 0.377737 0.092659
0.713085 0.371986 0.093409
0.769948 0.368202 0.093703
0.815692 0.364968 0.093732
0.861687 0.363936 0.093973
0.906736 0.364112 0.094654
0.952063 0.365926 0.095686
0.013325 0.439127 0.158170
0.057611 0.438647 0.157062
0.102174 0.437858 0.155811
0.146237 0.435704 0.153375
0.198355 0.438453 0.146451
0.275144 0.445158 0.126150
0.376677 0.451269 0.117783
0.469790 0.458330 0.108461
0.570002 0.462788 0.098026
0.651962 0.457815 0.094826
0.718100 0.449184 0.094392
0.774696 0.441342 0.094628
0.821602 0.437065 0.094763
0.866250 0.435468 0.095078
0.911565 0.435592 0.095821
0.956858 0.437913 0.097172
0.021231 0.522345 0.179202
0.065790 0.521857 0.177975
0.110158 0.521447 0.176661
0.154881 0.519382 0.174212
0.202700 0.519008 0.169586
0.267520 0.526268 0.150906
0.375270 0.531360 0.136479
0.470351 0.536288 0.125176
0.559072 0.540834 0.115032
0.651040 0.537888 0.102405
0.722911 0.528230 0.097523
0.780149 0.517832 0.096067
0.828283 0.511547 0.096343
0.873046 0.509715 0.096884
0.917555 0.509232 0.097727
0.962666 0.511568 0.099767
0.032794 0.607643 0.201475
0.077935 0.607422 0.200027
0.123214 0.606941 0.198483
0.167936 0.605692 0.196015
0.214126 0.604351 0.192516
0.275794 0.607998 0.178563
0.369418 0.613789 0.159919
0.471817 0.615947 0.148762
0.559608 0.618488 0.134778
0.642045 0.617688 0.123173
0.721752 0.607702 0.108280
0.783812 0.594708 0.100968
0.834074 0.587173 0.100901
0.878720 0.585313 0.102230
0.923478 0.584922 0.104012
0.968600 0.586973 0.107510
0.050637 0.688740 0.219594
0.096055 0.688693 0.218286
0.141674 0.688202 0.216745
0.186910 0.687152 0.214724
0.232078 0.685579 0.211999
0.287286 0.686526 0.203940
0.367672 0.691486 0.185192
0.470284 0.693547 0.176637
0.562085 0.694133 0.163406
0.642443 0.694367 0.147315
0.716537 0.688115 0.135242
0.784814 0.673333 0.116103
0.838824 0.661386 0.109759
0.884575 0.659765 0.113926
0.929324 0.659549 0.117934
0.974512 0.661410 0.124151
0.075406 0.762695 0.232002
0.121280 0.762414 0.230586
0.166562 0.762150 0.229154
0.212532 0.761646 0.227209
0.258503 0.760597 0.224999
0.307144 0.759685 0.221041
0.379582 0.762721 0.209088
0.473112 0.764532 0.203322
0.563064 0.764805 0.192931
0.643733 0.764192 0.178876
0.716467 0.763007 0.162054
0.782013 0.753326 0.150886
0.841595 0.737704 0.132208
0.889518 0.733501 0.135731
0.934598 0.733720 0.144470
0.979831 0.735958 0.155245
0.097643 0.824454 0.240602
0.144476 0.824711 0.239855
0.191486 0.824794 0.238975
0.238927 0.825397 0.238164
0.285916 0.825124 0.236700
0.333141 0.825269 0.235509
0.399491 0.827148 0.231333
0.485016 0.828713 0.228008
0.566917 0.828961 0.220248
0.643838 0.828319 0.209722
0.714945 0.827115 0.195427
0.780990 0.824587 0.179854
0.840138 0.813659 0.168934
0.892066 0.806588 0.170486
0.937220 0.806454 0.179692
0.981986 0.808394 0.193986
0.105728 0.872539 0.243716
0.153121 0.873063 0.242963
0.200870 0.873512 0.242397
0.248945 0.874328 0.241778
0.297539 0.874685 0.241286
0.346535 0.875052 0.240675
0.404764 0.876588 0.239633
0.487050 0.878809 0.238888
0.566414 0.880148 0.235018
0.641238 0.880972 0.229203
0.711609 0.881044 0.220752
0.776820 0.880776 0.208146
0.838422 0.877874 0.193552
0.891775 0.872425 0.204492
0.937025 0.872441 0.218337
0.981234 0.874227 0.234996
0.115048 0.920165 0.247969
0.162952 0.920594 0.247503
0.210529 0.921038 0.246738
0.259233 0.921486 0.246292
0.308120 0.922011 0.246059
0.358196 0.922814 0.246675
0.411190 0.923481 0.245995
0.489465 0.925489 0.246216
0.566322 0.926714 0.243661
0.639968 0.927610 0.239233
0.708928 0.927882 0.231843
0.774320 0.927752 0.221551
0.836073 0.926070 0.204428
0.890283 0.921664 0.210265
0.936373 0.923125 0.235565
0.980459 0.924384 0.250884
0.125472 0.967252 0.253326
0.173752 0.967765 0.253071
0.221958 0.968125 0.252809
0.270953 0.968800 0.252904
0.320050 0.969109 0.252913
0.368781 0.969594 0.252702
0.421923 0.970196 0.253333
0.497504 0.971653 0.253955
0.571867 0.972791 0.252629
0.643042 0.973455 0.249020
0.709907 0.973473 0.242905
0.774433 0.973637 0.233179
0.835311 0.972500 0.216179
0.890128 0.969161 0.221044
0.935864 0.970592 0.247797
0.979763 0.971680 0.262805
-0.000047 0.002288 0.160924
0.043497 0.002579 0.161217
0.087105 0.002639 0.162620
0.136736 0.001695 0.165113
0.219921 0.004909 0.168297
0.309223 0.007628 0.170695
0.400138 0.010241 0.167697
0.490145 0.012769 0.161476
0.579354 0.015277 0.147214
0.655730 0.032413 0.145225
0.714999 0.041279 0.144822
0.762596 0.045310 0.143795
0.809682 0.048041 0.143522
0.856228 0.050582 0.143532
0.902381 0.052980 0.143657
0.948514 0.054783 0.144146
-0.000055 0.050619 0.161533
0.043415 0.049988 0.160636
0.087109 0.050384 0.160885
0.132394 0.050853 0.164180
0.217939 0.049334 0.166582
0.307226 0.051930 0.167573
0.398184 0.054050 0.163464
0.487542 0.056467 0.155131
0.576804 0.066663 0.144226
0.653458 0.079995 0.143960
0.715005 0.088337 0.143662
0.762695 0.091871 0.142692
0.809172 0.094441 0.142634
0.855707 0.096802 0.142641
0.902222 0.099165 0.142774
0.948284 0.100901 0.143220
-0.000099 0.107376 0.163047
0.043257 0.106634 0.162512
0.087123 0.105843 0.161688
0.131387 0.106197 0.162335
0.218181 0.099833 0.164504
0.307782 0.097544 0.161074
0.396402 0.098490 0.153474
0.482862 0.104204 0.142707
0.571485 0.118428 0.142006
0.649217 0.127980 0.141911
0.714049 0.135743 0.141922
0.762616 0.139154 0.141461
0.809323 0.141409 0.141313
0.856093 0.143522 0.141472
0.902034 0.145489 0.141596
0.948030 0.147200 0.142014
-0.000142 0.161708 0.164042
0.043203 0.161227 0.163542
0.086889 0.160442 0.162659
0.131313 0.159989 0.161858
0.217383 0.157614 0.156666
0.309693 0.158610 0.144571
0.398414 0.164525 0.138896
0.483346 0.170121 0.138203
0.569614 0.176010 0.138325
0.646392 0.181070 0.138988
0.713712 0.186382 0.139722
0.762788 0.188257 0.139599
0.809090 0.189439 0.139723
0.856245 0.191093 0.139986
0.901858 0.192477 0.140215
0.947796 0.194059 0.140590
-0.000215 0.222368 0.170829
0.043126 0.221923 0.170346
0.086511 0.220778 0.169203
0.131539 0.219919 0.168127
0.197449 0.220984 0.154119
0.304013 0.224586 0.140399
0.397246 0.231328 0.135198
0.481548 0.234305 0.135167
0.567084 0.236375 0.135261
0.644111 0.237332 0.135862
0.712615 0.240183 0.136642
0.765286 0.242233 0.137245
0.811408 0.242684 0.137721
0.857374 0.243652 0.138075
0.903153 0.244605 0.138607
0.948822 0.245908 0.139094
0.000498 0.289181 0.180632
0.044043 0.288577 0.180049
0.088111 0.287435 0.178905
0.133439 0.285587 0.176414
0.190792 0.287232 0.164252
0.285270 0.290000 0.147988
0.391788 0.298717 0.136654
0.481412 0.303300 0.135060
0.566116 0.304576 0.135124
0.642861 0.302505 0.135734
0.711177 0.299891 0.136412
0.766469 0.298979 0.136646
0.813124 0.298273 0.136779
0.858593 0.298530 0.137000
0.904234 0.299122 0.137616
0.949660 0.300415 0.138427
0.006162 0.362094 0.191483
0.050144 0.361272 0.190370
0.093928 0.359328 0.188478
0.139074 0.357652 0.185542
0.193955 0.360941 0.176054
0.279154 0.364981 0.158178
0.374404 0.370599 0.148500
0.479981 0.379396 0.138644
0.569163 0.380583 0.136105
0.646646 0.376323 0.136223
0.713153 0.370776 0.137013
0.770036 0.366831 0.137350
0.815737 0.363576 0.137370
0.861444 0.362500 0.137598
0.906848 0.362858 0.138417
0.952200 0.364711 0.139591
0.013146 0.439541 0.205152
0.057359 0.438730 0.203921
0.101575 0.437677 0.202410
0.145952 0.435837 0.200350
0.197417 0.438235 0.194173
0.268151 0.445313 0.172862
0.373633 0.450764 0.163921
