src/luts/vivid/10.cube
LUT_3D_SIZE 6
-0.000003 0.000050 0.002385
0.150764 0.000418 0.008780
0.408207 0.031956 0.003098
0.653961 0.049270 0.006405
0.807307 0.056320 0.007561
0.946111 0.061283 0.008432
-0.000123 0.158218 0.017480
0.132102 0.156929 0.011240
0.397148 0.177608 0.000270
0.645901 0.187964 0.005040
0.808645 0.193093 0.007008
0.947010 0.197156 0.008037
0.006432 0.360344 0.051077
0.140550 0.358292 0.045136
0.379407 0.372814 0.013302
0.647038 0.379350 0.003286
0.815881 0.366971 0.006659
0.951826 0.367426 0.008004
0.034040 0.607871 0.107619
0.169755 0.605544 0.100903
0.379951 0.613409 0.065680
0.642650 0.617312 0.032340
0.833922 0.588057 0.013409
0.968231 0.587381 0.018735
0.098524 0.824222 0.147135
0.240258 0.825286 0.143503
0.402317 0.826972 0.137112
0.645488 0.827974 0.115788
0.840323 0.813586 0.077692
0.981800 0.807881 0.100877
0.126405 0.967138 0.160335
0.271932 0.968621 0.159304
0.423027 0.969998 0.159636
0.643682 0.973051 0.154380
0.835929 0.972047 0.121903
0.980038 0.970891 0.167474
-0.000047 0.002288 0.160924
0.136736 0.001695 0.165113
0.400138 0.010241 0.167697
0.655730 0.032413 0.145225
0.809682 0.048041 0.143522
0.948514 0.054783 0.144146
-0.000142 0.161708 0.164042
0.131313 0.159989 0.161858
0.398414 0.164525 0.138896
0.646392 0.181070 0.138988
0.809090 0.189439 0.139723
0.947796 0.194059 0.140590
0.006162 0.362094 0.191483
0.139074 0.357652 0.185542
0.374404 0.370599 0.148500
0.646646 0.376323 0.136223
0.815737 0.363576 0.137370
0.952200 0.364711 0.139591
0.032357 0.607486 0.248235
0.167455 0.605336 0.243413
0.362551 0.613565 0.207205
0.641410 0.617694 0.168876
0.833897 0.586396 0.144607
0.968843 0.586716 0.152060
0.097222 0.824485 0.287407
0.237772 0.825512 0.284804
0.398253 0.827097 0.278480
0.642838 0.828425 0.256836
0.840128 0.813909 0.215562
0.982050 0.808650 0.240907
0.125065 0.967445 0.299962
0.271060 0.968661 0.299804
0.421220 0.970221 0.300028
0.642771 0.973639 0.296537
0.834773 0.972628 0.264135
0.979656 0.972040 0.310855
-0.000173 0.028300 0.346846
0.131794 0.030373 0.348791
0.368303 0.021447 0.367599
0.658171 0.038131 0.386714
0.823842 0.050183 0.379811
0.965326 0.054346 0.375286
-0.000257 0.181948 0.353952
0.131533 0.178510 0.348667
0.352968 0.167982 0.363313
0.648316 0.167441 0.367305
0.824959 0.178207 0.357443
0.965655 0.182234 0.352614
0.003532 0.372418 0.377095
0.135512 0.368717 0.372483
0.313229 0.376253 0.374640
0.660175 0.363446 0.315838
0.829900 0.346050 0.299148
0.966682 0.354048 0.305926
0.029772 0.611823 0.426863
0.163489 0.609240 0.421962
0.322357 0.611964 0.411415
0.637253 0.623270 0.344944
0.836510 0.584590 0.285877
0.973167 0.587886 0.301760
0.095321 0.825923 0.441429
0.235056 0.826591 0.438228
0.389645 0.826738 0.430089
0.638011 0.828651 0.404853
0.839670 0.814338 0.355461
0.982389 0.808881 0.381842
0.124957 0.968292 0.446090
0.268936 0.969248 0.443656
0.418252 0.970354 0.441822
0.640866 0.974180 0.439987
0.833336 0.973495 0.409654
0.978932 0.973342 0.455211
-0.000325 0.053440 0.552570
0.138565 0.048988 0.558906
0.362388 0.040367 0.597655
0.646637 0.062622 0.631530
0.823337 0.084564 0.635482
0.967718 0.096013 0.635743
0.000357 0.206916 0.563669
0.136431 0.201518 0.561051
0.335400 0.186661 0.592318
0.631644 0.199173 0.618453
0.825381 0.218298 0.620489
0.969447 0.228051 0.620937
0.009268 0.401596 0.602137
0.142049 0.398316 0.598539
0.303464 0.398270 0.607007
0.616629 0.411962 0.628022
0.837918 0.404680 0.607154
0.974511 0.405509 0.601168
0.024078 0.617011 0.629258
0.157344 0.615552 0.626634
0.311986 0.620110 0.627399
0.596505 0.637729 0.628774
0.846668 0.624617 0.596743
0.981325 0.621785 0.593686
0.093144 0.828744 0.642898
0.231041 0.829095 0.641126
0.377161 0.828786 0.635892
0.627315 0.832611 0.638390
0.836077 0.827416 0.611774
0.979911 0.821894 0.612897
0.125680 0.970679 0.644893
0.269219 0.971766 0.643502
0.415555 0.972789 0.640185
0.641486 0.976086 0.649704
0.827851 0.977392 0.632163
0.974288 0.977412 0.651868
-0.000217 0.060703 0.706682
0.142301 0.054577 0.718877
0.355001 0.047816 0.763872
0.637205 0.074738 0.798893
0.823196 0.100711 0.816471
0.966547 0.115409 0.818848
0.004024 0.215337 0.728742
0.140861 0.209454 0.731643
0.325894 0.196717 0.774393
0.617655 0.215593 0.801589
0.824759 0.239708 0.819118
0.967058 0.254005 0.820030
0.014939 0.410905 0.782442
0.148376 0.408606 0.782941
0.308859 0.409181 0.799377
0.591816 0.423496 0.823411
0.830170 0.438503 0.832037
0.970216 0.440543 0.830188
0.032244 0.620186 0.819387
0.168011 0.619646 0.820741
0.325032 0.623297 0.828975
0.582740 0.638487 0.841989
0.831787 0.648523 0.839005
0.971648 0.647774 0.837282
0.078327 0.823900 0.836912
0.216217 0.825293 0.837462
0.357696 0.824914 0.836458
0.604510 0.834004 0.836910
0.822563 0.834932 0.831893
0.971204 0.833346 0.828536
0.111789 0.971814 0.835777
0.254799 0.973181 0.834790
0.402177 0.974172 0.832101
0.633685 0.978087 0.830081
0.823178 0.979105 0.830984
0.970253 0.979483 0.831633
0.001916 0.065779 0.855719
0.144845 0.058652 0.869518
0.350452 0.052409 0.912465
0.632725 0.081952 0.944564
0.820941 0.107287 0.959971
0.966091 0.120823 0.963717
0.006104 0.218504 0.876687
0.143364 0.213270 0.880721
0.324097 0.202673 0.920394
0.613019 0.222071 0.947029
0.821876 0.247927 0.961925
0.966574 0.260436 0.964926
0.016809 0.412524 0.924968
0.150496 0.410583 0.926164
0.311056 0.410986 0.944329
0.590477 0.427106 0.963857
0.826421 0.440979 0.971445
0.968736 0.444670 0.971809
0.034527 0.619458 0.957467
0.170555 0.618945 0.958973
0.327024 0.622459 0.967251
0.579171 0.637286 0.978894
0.828995 0.648336 0.977591
0.969152 0.648491 0.976681
0.086224 0.822845 0.975394
0.224486 0.823763 0.976257
0.364950 0.822275 0.977273
0.595589 0.830044 0.980537
0.820130 0.834764 0.977510
0.968441 0.834736 0.976893
0.115942 0.969366 0.978003
0.258964 0.971101 0.978812
0.403915 0.972476 0.979162
0.628697 0.978234 0.978946
0.821071 0.979398 0.976956
0.969699 0.980326 0.977454
