src/luts/vivid/11.cube
LUT_3D_SIZE 16
0.000000 0.000000 0.000000
0.047235 0.000353 0.000078
0.107733 0.001954 0.000405
0.178695 0.005702 0.000943
0.258910 0.010468 0.001680
0.344132 0.016242 0.002682
0.434999 0.023178 0.003953
0.526352 0.029184 0.005414
0.611283 0.036068 0.007032
0.687043 0.042227 0.008660
0.745193 0.045946 0.009768
0.793376 0.046920 0.010077
0.840548 0.048283 0.010408
0.887400 0.049616 0.010784
0.933953 0.050528 0.011219
0.980313 0.051369 0.011605
0.000319 0.045619 0.000076
0.046068 0.045696 0.000097
0.104516 0.048856 0.000388
0.174487 0.052815 0.000893
0.253136 0.057376 0.001597
0.339507 0.063580 0.002585
0.429499 0.070853 0.003823
0.521534 0.076867 0.005287
0.607515 0.084408 0.006901
0.684380 0.090352 0.008523
0.745069 0.094110 0.009633
0.793503 0.095254 0.010152
0.840363 0.096426 0.010405
0.887273 0.097706 0.010783
0.934092 0.098650 0.011214
0.980435 0.099453 0.011604
0.001478 0.100080 0.000398
0.047943 0.100127 0.000452
0.100413 0.099421 0.000488
0.168504 0.105917 0.000954
0.245434 0.111154 0.001562
0.331046 0.116380 0.002457
0.421302 0.122109 0.003672
0.513620 0.126460 0.005079
0.601157 0.132861 0.006669
0.679448 0.138428 0.008282
0.744552 0.142283 0.009690
0.793575 0.143230 0.010119
0.840490 0.144440 0.010411
0.887301 0.145683 0.010783
0.934204 0.146594 0.011216
0.980471 0.147311 0.011599
0.005592 0.162795 0.001094
0.052093 0.162738 0.001142
0.103464 0.161757 0.001160
0.162657 0.159927 0.001180
0.237535 0.167898 0.001701
0.322436 0.175234 0.002535
0.411073 0.181933 0.003652
0.504511 0.188477 0.004999
0.593607 0.193903 0.006524
0.673591 0.197138 0.008093
0.743279 0.198712 0.009690
0.793121 0.196784 0.010314
0.840188 0.196371 0.010554
0.886941 0.196644 0.010908
0.934067 0.196557 0.011243
0.980550 0.197100 0.011609
0.011211 0.231468 0.001987
0.057787 0.231475 0.002047
0.105354 0.231098 0.002109
0.165581 0.227670 0.002013
0.230360 0.225571 0.002043
0.312867 0.235378 0.002747
0.401179 0.243801 0.003765
0.494123 0.251343 0.005034
0.584552 0.257057 0.006485
0.666634 0.259588 0.008021
0.739441 0.261804 0.009694
0.793041 0.260258 0.010329
0.840395 0.258368 0.010761
0.887259 0.257910 0.011142
0.933986 0.257509 0.011451
0.980594 0.258012 0.011839
0.015779 0.305663 0.003124
0.063301 0.305395 0.003170
0.111265 0.304861 0.003186
0.169113 0.305808 0.003373
0.232331 0.297369 0.002948
0.303228 0.295880 0.003132
0.390386 0.306397 0.004070
0.483338 0.315612 0.005249
0.575090 0.322077 0.006627
0.658752 0.325286 0.008053
0.734177 0.325602 0.009689
0.793128 0.324304 0.010729
0.840168 0.322261 0.010927
0.887103 0.321268 0.011375
0.933917 0.320499 0.011709
0.980283 0.320667 0.012062
0.023028 0.383445 0.004483
0.069996 0.383234 0.004552
0.117217 0.383043 0.004616
0.169689 0.383242 0.004762
0.236748 0.380014 0.004636
0.303664 0.369848 0.004113
0.380230 0.369618 0.004557
0.471798 0.380652 0.005627
0.564252 0.388863 0.006893
0.650494 0.392450 0.008255
0.727801 0.392580 0.009718
0.791476 0.389996 0.010977
0.840014 0.387179 0.011366
0.887209 0.385841 0.011739
0.933890 0.384406 0.012035
0.980272 0.383991 0.012414
0.029123 0.464998 0.006179
0.076586 0.464785 0.006210
0.124219 0.464533 0.006232
0.172971 0.463512 0.006307
0.239409 0.466404 0.006641
0.307002 0.454278 0.005782
0.378687 0.445454 0.005616
0.460377 0.446601 0.006213
0.553017 0.456476 0.007367
0.641034 0.461301 0.008643
0.720484 0.461100 0.010087
0.788971 0.457717 0.011427
0.840218 0.454251 0.011892
0.886814 0.452290 0.012119
0.933830 0.450486 0.012546
0.980180 0.449741 0.012898
0.037221 0.548403 0.008060
0.085058 0.547688 0.008092
0.133355 0.547566 0.008182
0.181486 0.546372 0.008075
0.238602 0.547374 0.008358
0.311394 0.546376 0.008517
0.382053 0.532725 0.007438
0.457006 0.523774 0.007377
0.541903 0.525209 0.008059
0.631047 0.530408 0.009216
0.712176 0.531101 0.010450
0.785068 0.526936 0.011899
0.840122 0.521943 0.012644
0.886928 0.519519 0.012879
0.933750 0.517192 0.013181
0.980213 0.516280 0.013543
0.047469 0.628005 0.010121
0.094928 0.627457 0.010145
0.143096 0.627578 0.010201
0.190874 0.626692 0.010297
0.240880 0.626294 0.010345
0.312555 0.629431 0.010930
0.384772 0.621968 0.010136
0.458488 0.610256 0.009266
0.535987 0.602527 0.009320
0.620264 0.601826 0.010017
0.703690 0.601636 0.011115
0.779121 0.597125 0.012405
0.839696 0.590702 0.013491
0.887000 0.587546 0.013901
0.933836 0.584655 0.014137
0.980322 0.583355 0.014459
0.056031 0.703667 0.012339
0.103697 0.702987 0.012381
0.151591 0.701871 0.012410
0.199736 0.701524 0.012455
0.247862 0.701251 0.012437
0.309077 0.702238 0.012895
0.384370 0.704752 0.013538
0.456900 0.692291 0.011758
0.533308 0.683765 0.011213
0.612312 0.677266 0.011390
0.695146 0.674189 0.012131
0.772267 0.668685 0.013312
0.838862 0.659867 0.014594
0.887391 0.655433 0.014885
0.934041 0.652708 0.015131
0.980430 0.651057 0.015449
0.063357 0.774049 0.014719
0.111023 0.773677 0.014774
0.159093 0.773370 0.014822
0.206961 0.772693 0.014981
0.254572 0.772038 0.014993
0.305775 0.771797 0.015023
0.378167 0.774320 0.015956
0.452803 0.772011 0.015657
0.527057 0.760877 0.013679
0.604792 0.753854 0.013284
0.685366 0.748743 0.013637
0.764662 0.741536 0.014350
0.835239 0.730193 0.015612
0.887624 0.723598 0.016079
0.934340 0.720678 0.016388
0.980541 0.718722 0.016656
0.068245 0.834464 0.016856
0.115460 0.834495 0.016963
0.162626 0.834774 0.016986
0.210791 0.835337 0.017214
0.258793 0.835210 0.017269
0.307179 0.835146 0.017389
0.370391 0.837178 0.018299
0.443709 0.839895 0.019927
0.517549 0.833679 0.017593
0.593518 0.825796 0.015890
0.672888 0.820088 0.015442
0.755163 0.816030 0.015986
0.829794 0.804665 0.016851
0.887889 0.793442 0.017427
0.934630 0.789386 0.017843
0.980876 0.787082 0.018125
0.069727 0.882332 0.017489
0.116934 0.882459 0.017613
0.164056 0.882621 0.017860
0.211696 0.883316 0.018125
0.259740 0.884117 0.018276
0.307878 0.884650 0.018432
0.363320 0.886325 0.019211
0.434378 0.889012 0.021762
0.508830 0.889305 0.022913
0.582892 0.883474 0.018213
0.660510 0.879960 0.017417
0.740603 0.877509 0.017589
0.821619 0.876026 0.018385
0.887828 0.863169 0.019537
0.934982 0.857093 0.019538
0.981333 0.853776 0.019870
0.070713 0.929624 0.018208
0.118443 0.929702 0.018313
0.165580 0.929859 0.018467
0.212892 0.930835 0.018838
0.260083 0.931336 0.018977
0.308191 0.931786 0.019343
0.359189 0.932704 0.019930
0.428942 0.935034 0.023090
0.503199 0.937314 0.028067
0.577455 0.931981 0.020820
0.654582 0.929203 0.018963
0.733970 0.927492 0.018555
0.814860 0.927031 0.019503
0.887302 0.920782 0.021087
0.937127 0.914826 0.021886
0.983434 0.911959 0.022291
0.070787 0.976454 0.018964
0.118495 0.976613 0.019071
0.166485 0.976916 0.019234
0.213670 0.977097 0.019480
0.259844 0.978026 0.019906
0.307171 0.978516 0.020214
0.358421 0.978859 0.021022
0.427861 0.981039 0.025007
0.501602 0.983425 0.031127
0.576881 0.979263 0.023614
0.653701 0.976687 0.021303
0.733244 0.975549 0.020913
0.813651 0.975653 0.022014
0.888525 0.972748 0.025116
0.939004 0.967373 0.026525
0.985095 0.964972 0.027341
0.000253 0.000047 0.046178
0.046441 0.000093 0.045578
0.106149 0.000537 0.047844
0.177894 0.001380 0.047568
0.258738 0.008144 0.045398
0.344708 0.014940 0.046318
0.435744 0.021421 0.047688
0.526953 0.027702 0.049231
0.611630 0.034520 0.050982
0.687567 0.040633 0.052741
0.746040 0.044926 0.053796
0.794103 0.046029 0.054262
0.840999 0.047212 0.054689
0.887818 0.048491 0.055005
0.934543 0.049372 0.055446
0.980970 0.050283 0.055882
0.000134 0.045383 0.044974
0.046777 0.046420 0.044600
0.105368 0.048654 0.044285
0.174835 0.052163 0.044581
0.253307 0.056881 0.045184
0.339495 0.063189 0.046252
0.430166 0.069849 0.047536
0.522386 0.075957 0.049096
0.608063 0.083382 0.050850
0.684858 0.089157 0.052590
0.745871 0.093515 0.053872
0.793760 0.094526 0.054331
0.840990 0.095546 0.054624
0.887833 0.096888 0.055054
0.934644 0.097770 0.055492
0.981039 0.098599 0.055929
0.000494 0.099762 0.045682
0.047554 0.100728 0.044108
0.100767 0.100003 0.044126
0.168877 0.106366 0.044570
0.245898 0.111768 0.045138
0.331382 0.116877 0.046064
0.421843 0.122015 0.047360
0.514423 0.125877 0.048876
0.601916 0.132231 0.050586
0.680069 0.137352 0.052349
0.745112 0.141806 0.053801
0.794093 0.142856 0.054314
0.841070 0.143768 0.054681
0.888151 0.145097 0.055211
0.934757 0.145904 0.055550
0.981035 0.146674 0.055963
0.003058 0.162009 0.044660
0.051141 0.163802 0.044874
0.103025 0.162007 0.044721
0.162448 0.160209 0.044708
0.238587 0.168967 0.045287
0.322326 0.175852 0.046145
0.411885 0.182822 0.047331
0.505284 0.188913 0.048796
0.594287 0.193666 0.050432
0.674102 0.196590 0.052136
0.743282 0.198471 0.053705
0.793923 0.196782 0.054409
0.841067 0.195882 0.054837
0.887733 0.196052 0.055221
0.934681 0.195925 0.055585
0.981115 0.196523 0.055972
0.008436 0.230536 0.045596
0.056495 0.232361 0.045794
0.104494 0.231314 0.045814
0.165171 0.227808 0.045524
0.230279 0.225939 0.045613
0.312776 0.235696 0.046348
0.401546 0.244354 0.047432
0.494932 0.252116 0.048816
0.585089 0.257577 0.050371
0.667314 0.260315 0.052030
0.739972 0.261749 0.053696
0.793921 0.260425 0.054609
0.840916 0.258759 0.054902
0.887810 0.258077 0.055308
0.934637 0.257314 0.055753
0.981222 0.257739 0.056172
0.013396 0.304432 0.046772
0.061783 0.306474 0.046955
0.110199 0.305245 0.046899
0.168626 0.306471 0.047039
0.231978 0.297442 0.046528
0.302903 0.295885 0.046731
0.390523 0.306761 0.047721
0.483448 0.316048 0.048992
0.575382 0.322612 0.050473
0.659253 0.326003 0.052033
0.735205 0.326514 0.053851
0.793639 0.324901 0.054899
0.840834 0.322660 0.055234
0.887508 0.321642 0.055590
0.934456 0.320766 0.055960
0.980788 0.321015 0.056328
0.019700 0.382608 0.048201
0.068255 0.384259 0.048379
0.115801 0.383457 0.048401
0.168381 0.382969 0.048488
0.235811 0.379510 0.048315
0.303722 0.370515 0.047786
0.380153 0.369850 0.048215
0.471624 0.380712 0.049341
0.564227 0.389043 0.050702
0.650632 0.392795 0.052181
0.727846 0.393178 0.053813
0.791979 0.390624 0.055098
0.840574 0.388025 0.055527
0.887303 0.386624 0.055916
0.934292 0.385409 0.056363
0.980716 0.384918 0.056769
0.026069 0.464175 0.049913
0.074314 0.465964 0.050110
0.122552 0.465475 0.050146
0.171634 0.464599 0.050163
0.238329 0.466479 0.050441
0.306676 0.454922 0.049495
0.378629 0.445996 0.049319
0.460150 0.446707 0.049946
0.552885 0.456527 0.051166
0.640935 0.461232 0.052529
0.720788 0.461347 0.053971
0.789050 0.457989 0.055619
0.840610 0.454533 0.056149
0.887317 0.452599 0.056403
0.934293 0.450894 0.056862
0.980640 0.450216 0.057250
0.033998 0.547322 0.051886
0.082828 0.548647 0.052067
0.131368 0.547773 0.052055
0.179937 0.546908 0.052044
0.237259 0.547784 0.052325
0.311103 0.547711 0.052419
0.381695 0.533184 0.051231
0.456874 0.524338 0.051164
0.541724 0.525406 0.051874
0.630852 0.530385 0.053104
0.712047 0.531122 0.054497
0.784762 0.526677 0.055971
0.840487 0.522022 0.056734
0.887259 0.519524 0.057114
0.934040 0.517101 0.057430
0.980491 0.516172 0.057832
0.044071 0.627409 0.054087
0.092736 0.628022 0.054205
0.141125 0.627818 0.054279
0.189167 0.627287 0.054289
0.239187 0.626328 0.054357
0.311472 0.629835 0.054950
0.384131 0.622353 0.054120
0.458132 0.610648 0.053148
0.535860 0.602956 0.053201
0.620112 0.602084 0.053939
0.703625 0.601778 0.055289
0.779086 0.597181 0.056589
0.839895 0.590697 0.057806
0.887138 0.587392 0.058018
0.934051 0.584563 0.058387
0.980474 0.583264 0.058738
0.053281 0.702948 0.056380
0.101370 0.703333 0.056512
0.149634 0.702222 0.056681
0.197957 0.701883 0.056600
0.246342 0.701574 0.056681
0.307791 0.702919 0.057044
0.383459 0.705214 0.057754
0.456419 0.692646 0.055805
0.532965 0.684122 0.055189
0.612172 0.677575 0.055364
0.695102 0.674439 0.056166
0.771912 0.668535 0.057304
0.839071 0.659870 0.058824
0.887538 0.655457 0.059144
0.934223 0.652663 0.059413
0.980592 0.650970 0.059751
0.060718 0.773733 0.058894
0.108754 0.773639 0.059001
0.157117 0.773358 0.059245
0.205126 0.772984 0.059232
0.252893 0.772611 0.059056
0.304166 0.771760 0.059303
0.376957 0.774525 0.060305
0.451998 0.772358 0.059974
0.526508 0.761260 0.057812
0.604430 0.754172 0.057367
0.685182 0.749137 0.057757
0.764543 0.741728 0.058499
0.835331 0.730443 0.059873
0.888080 0.723819 0.060516
0.934441 0.720795 0.060708
0.980771 0.718804 0.060997
0.065543 0.834287 0.061152
0.113268 0.834643 0.061288
0.160856 0.835211 0.061546
0.209095 0.835787 0.061683
0.257194 0.835270 0.061811
0.305617 0.835597 0.061890
0.369026 0.837491 0.062766
0.442652 0.840218 0.064557
0.516865 0.834074 0.061989
0.593000 0.826068 0.060131
0.672477 0.820421 0.059690
0.754824 0.816266 0.060216
0.829589 0.804730 0.061123
0.888014 0.793447 0.061993
0.934690 0.789445 0.062200
0.980943 0.787076 0.062493
0.067199 0.882210 0.061818
0.114787 0.882582 0.061968
0.162191 0.883032 0.062217
0.209886 0.884065 0.062509
0.257982 0.884330 0.062770
0.306385 0.885198 0.063071
0.361686 0.886801 0.063753
0.433128 0.889352 0.066594
0.507811 0.889735 0.067881
0.582511 0.883938 0.062707
0.660048 0.880338 0.061649
0.740331 0.878233 0.061895
0.821586 0.877061 0.062776
0.887671 0.863500 0.063859
0.935175 0.857626 0.064009
0.981447 0.854490 0.064363
0.068314 0.929588 0.062539
0.116390 0.929914 0.062699
0.164024 0.930716 0.063085
0.211206 0.931340 0.063249
0.258427 0.931584 0.063401
0.306406 0.932445 0.063785
0.357462 0.932959 0.064535
0.427561 0.935377 0.068024
0.502027 0.937649 0.073421
0.576649 0.932517 0.065616
0.654023 0.929536 0.063717
0.733656 0.928010 0.063182
0.814556 0.927567 0.064041
0.887306 0.921729 0.065939
0.937488 0.915836 0.066862
0.983754 0.912893 0.067235
0.068371 0.976414 0.063324
0.116495 0.976745 0.063491
0.164834 0.977188 0.063750
0.211736 0.977821 0.064193
0.257860 0.978354 0.064745
0.305241 0.978666 0.064973
0.356774 0.979145 0.065776
0.426291 0.981374 0.070056
0.500273 0.983828 0.076653
0.576177 0.979714 0.068707
0.653194 0.977260 0.066092
0.732723 0.976295 0.065924
0.813031 0.976059 0.067080
0.888807 0.973803 0.070481
0.939273 0.968142 0.072231
0.985443 0.965883 0.073216
0.001829 0.000190 0.101965
0.048717 0.000196 0.099485
0.101731 0.000485 0.098335
0.171141 0.001369 0.103218
0.251178 0.002432 0.106306
0.339791 0.004096 0.107664
0.436289 0.006706 0.106062
0.529421 0.014434 0.095640
0.613453 0.027892 0.096457
0.688382 0.037721 0.097700
0.746890 0.043060 0.098407
0.794896 0.044904 0.098874
0.841887 0.045898 0.099068
0.888560 0.047166 0.099503
0.935359 0.048100 0.099867
0.981679 0.048991 0.100307
0.000508 0.048138 0.100349
0.045917 0.045937 0.100907
0.102075 0.045673 0.097930
0.170892 0.046066 0.100899
0.250762 0.047036 0.101933
0.339080 0.048747 0.099318
0.432757 0.058313 0.093618
0.524262 0.070510 0.094455
0.609178 0.080198 0.095674
0.685383 0.087477 0.097054
0.746328 0.092254 0.098301
0.794612 0.093721 0.098690
0.841960 0.094853 0.099169
0.888585 0.095929 0.099470
0.935297 0.096786 0.099838
0.981689 0.097587 0.100275
0.000665 0.098073 0.095709
0.045183 0.099138 0.095956
0.103810 0.104041 0.095788
0.172534 0.106625 0.092881
0.249460 0.110629 0.091331
0.333355 0.115363 0.091407
0.423571 0.119770 0.091991
0.515277 0.124252 0.093094
0.602415 0.130898 0.094775
0.680629 0.136087 0.096605
0.745382 0.141021 0.098235
0.794639 0.142378 0.098591
0.841612 0.143225 0.098953
0.888503 0.144261 0.099396
0.935274 0.145149 0.099880
0.981651 0.145880 0.100330
0.001471 0.160095 0.097369
0.045676 0.161458 0.095856
0.101687 0.165797 0.091042
0.164262 0.163324 0.089820
0.239492 0.170416 0.089599
0.322444 0.176809 0.090061
0.412494 0.183337 0.091255
0.505878 0.189116 0.092775
0.594907 0.193155 0.094452
0.674525 0.196056 0.096245
0.743861 0.197844 0.098056
0.794726 0.196710 0.098797
0.841614 0.195460 0.099148
0.888323 0.195187 0.099465
0.935327 0.195023 0.099944
0.981719 0.195630 0.100402
0.002709 0.229203 0.094470
0.051121 0.230934 0.089843
0.102626 0.233025 0.090036
0.165438 0.230128 0.089648
0.230964 0.227566 0.089461
0.313500 0.237164 0.090079
0.401961 0.245401 0.091229
0.495328 0.252826 0.092686
0.585598 0.257744 0.094346
0.667609 0.260469 0.096112
0.740464 0.261519 0.097880
0.794378 0.260313 0.098863
0.841341 0.258697 0.099226
0.888449 0.258109 0.099673
0.935296 0.257289 0.100144
0.981808 0.257474 0.100602
0.008307 0.302860 0.090648
0.058574 0.304904 0.090831
0.108532 0.307326 0.091075
0.167490 0.306500 0.090813
0.232614 0.299446 0.090400
0.303787 0.297713 0.090501
0.390945 0.308034 0.091526
0.484067 0.317436 0.092883
0.575798 0.323709 0.094421
0.659814 0.326659 0.096104
0.734951 0.326586 0.098001
0.793858 0.325381 0.099162
0.841285 0.323144 0.099569
0.888169 0.322106 0.100072
0.934957 0.321065 0.100350
0.981471 0.321050 0.100729
0.014623 0.381002 0.092055
0.064182 0.382991 0.092277
0.113937 0.385644 0.092657
0.167081 0.384249 0.092535
0.235612 0.380958 0.092183
0.303808 0.371650 0.091566
0.380640 0.371383 0.092041
0.472088 0.382336 0.093224
0.564880 0.390541 0.094689
0.650987 0.394170 0.096270
0.728441 0.394483 0.098011
0.792704 0.391571 0.099636
0.841408 0.388884 0.100003
0.888159 0.387495 0.100395
0.934789 0.386133 0.100779
0.981193 0.385949 0.101184
0.021357 0.462703 0.093763
0.070463 0.464763 0.093990
0.119883 0.468005 0.094414
0.169460 0.465660 0.094173
0.237194 0.467069 0.094399
0.306335 0.455736 0.093477
0.378878 0.447373 0.093171
0.460515 0.448098 0.093834
0.553458 0.457759 0.095127
0.641445 0.462614 0.096593
0.720640 0.462644 0.098211
0.789554 0.459044 0.099899
0.840840 0.455243 0.100534
0.887904 0.453431 0.100835
0.934810 0.451647 0.101303
0.981289 0.450974 0.101745
0.029561 0.545582 0.095790
0.079029 0.547153 0.096009
0.129127 0.550270 0.096487
0.178225 0.548863 0.096399
0.235498 0.547895 0.096207
0.309928 0.547567 0.096485
0.381234 0.533653 0.095106
0.457081 0.525420 0.095055
0.541845 0.526453 0.095811
0.631113 0.531519 0.097155
0.712531 0.532331 0.098589
0.785385 0.527947 0.100218
0.841021 0.523139 0.101160
0.888110 0.520859 0.101619
0.934704 0.518038 0.101921
0.981188 0.516756 0.102392
0.039322 0.626145 0.098183
0.088635 0.627023 0.098342
0.138968 0.629673 0.098733
0.187231 0.628271 0.098668
0.237320 0.626660 0.098544
0.310174 0.629892 0.099260
0.383313 0.622628 0.098176
0.457755 0.611081 0.097106
0.535782 0.603537 0.097164
0.620061 0.602680 0.097951
0.703627 0.602431 0.099182
0.779415 0.598131 0.100783
0.840324 0.591462 0.102052
0.887712 0.588229 0.102460
0.934498 0.585307 0.102812
0.981014 0.583857 0.103238
0.049706 0.701442 0.100482
0.098264 0.702048 0.100655
0.147449 0.704377 0.101190
0.196192 0.703492 0.101124
0.244409 0.701868 0.100805
0.305901 0.702563 0.101248
0.382362 0.705422 0.102043
0.455799 0.693017 0.099922
0.532603 0.684422 0.099236
0.611974 0.677903 0.099415
0.694526 0.674371 0.100158
0.771928 0.668892 0.101588
0.839307 0.660217 0.103076
0.888074 0.656102 0.103451
0.934511 0.653181 0.103838
0.980855 0.651372 0.104229
0.057228 0.772569 0.103142
0.105718 0.773006 0.103321
0.155103 0.774948 0.103916
0.203163 0.774055 0.103713
0.251049 0.772611 0.103651
0.302548 0.772389 0.103678
0.375627 0.774776 0.104729
0.451053 0.772583 0.104371
0.525819 0.761421 0.102010
0.603945 0.754446 0.101507
0.684915 0.749352 0.101943
0.764705 0.742161 0.102711
0.835209 0.730508 0.104213
0.888176 0.723830 0.104903
0.934643 0.720734 0.105111
0.980978 0.718886 0.105422
0.061676 0.833878 0.105517
0.109923 0.834357 0.105716
0.159094 0.836177 0.106350
0.207295 0.836422 0.106280
0.255371 0.835692 0.106311
0.303781 0.835926 0.106326
0.367513 0.837952 0.107313
0.441466 0.840487 0.109254
0.516074 0.834195 0.106446
0.592437 0.826306 0.104434
0.672298 0.820859 0.103889
0.753945 0.815900 0.104497
0.829663 0.805186 0.105475
0.888074 0.793651 0.106279
0.934800 0.789580 0.106630
0.981089 0.787143 0.106943
0.063745 0.881842 0.106215
0.111908 0.882413 0.106445
0.160407 0.883977 0.107064
0.208027 0.884569 0.107155
0.256188 0.884861 0.107362
0.304581 0.885769 0.107525
0.359903 0.887131 0.108389
0.431683 0.889685 0.111537
0.506780 0.889998 0.112978
0.581832 0.884364 0.107362
0.659230 0.880643 0.106211
0.739896 0.878624 0.106478
0.821361 0.877833 0.107371
0.887805 0.863990 0.108509
0.935347 0.858199 0.108561
0.981521 0.854955 0.108908
0.065128 0.929204 0.106953
0.113521 0.929775 0.107194
0.162204 0.931091 0.107958
0.209475 0.931681 0.107917
0.256692 0.932296 0.108028
0.304467 0.932654 0.108434
0.355650 0.933361 0.109221
0.425947 0.935727 0.113044
0.500620 0.938034 0.118862
0.575780 0.932959 0.110541
0.653366 0.929844 0.108432
0.733332 0.928442 0.108059
0.813847 0.927816 0.108564
0.887372 0.922844 0.110784
0.937887 0.916739 0.112010
0.984085 0.913700 0.112503
0.065153 0.976175 0.107631
0.113849 0.976702 0.107887
0.162775 0.977504 0.108218
0.209361 0.978010 0.108765
0.255659 0.978617 0.109377
0.303188 0.979145 0.109705
0.354975 0.979448 0.110622
0.424594 0.981712 0.115220
0.498881 0.984245 0.122285
0.575300 0.980116 0.113942
0.652481 0.977829 0.111099
0.731736 0.976460 0.110668
0.812423 0.976649 0.112072
0.888597 0.974776 0.116077
0.939597 0.969134 0.118223
0.985765 0.966788 0.119390
0.004697 0.000454 0.166749
0.052159 0.000430 0.163268
0.105506 0.000596 0.158662
0.164926 0.001130 0.157253
0.242405 0.002365 0.164058
0.329171 0.003773 0.169462
0.422228 0.005938 0.173415
0.519029 0.008591 0.175205
0.609311 0.012160 0.172592
0.691271 0.017926 0.162726
0.751388 0.023892 0.150531
0.798995 0.031611 0.149506
0.845913 0.034789 0.149177
0.892231 0.037531 0.149056
0.938724 0.040788 0.148846
0.985077 0.042674 0.149334
0.001046 0.051246 0.166088
0.048696 0.045350 0.164378
0.104664 0.045268 0.158719
0.164486 0.045849 0.156848
0.241637 0.046922 0.162368
0.328210 0.048532 0.166481
0.421455 0.050810 0.169020
0.518261 0.053683 0.168985
0.609099 0.057701 0.163509
0.689895 0.066455 0.149296
0.750574 0.080748 0.148755
0.798419 0.086055 0.148281
0.845119 0.088132 0.147887
0.891785 0.090253 0.148007
0.938072 0.092284 0.147821
0.984424 0.093729 0.148287
0.001441 0.104161 0.158871
0.046114 0.104269 0.159654
0.102773 0.103490 0.163561
0.170042 0.102044 0.158021
0.246149 0.098906 0.157281
0.331045 0.097948 0.156675
0.421651 0.098319 0.156373
0.516079 0.099670 0.154488
0.606109 0.110540 0.145505
0.684099 0.125527 0.146016
0.749192 0.135086 0.146786
0.797263 0.138671 0.146296
0.843997 0.140372 0.146093
0.890799 0.141453 0.146229
0.937160 0.142647 0.146382
0.983545 0.143709 0.146836
0.001670 0.156488 0.151688
0.046241 0.157711 0.152163
0.095369 0.161574 0.153062
0.168296 0.170012 0.153028
0.246231 0.171952 0.147378
0.330578 0.175961 0.143836
0.419136 0.180924 0.142228
0.511288 0.185805 0.142035
0.598331 0.190488 0.142497
0.676914 0.194001 0.143392
0.746144 0.195844 0.144546
0.796181 0.194642 0.144506
0.842969 0.193926 0.144455
0.889596 0.193762 0.144649
0.936237 0.193659 0.144890
0.982673 0.194406 0.145374
0.002752 0.224256 0.154234
0.046968 0.225684 0.153500
0.092463 0.228569 0.151600
0.162761 0.238420 0.143114
0.235354 0.234923 0.140900
0.317485 0.241557 0.139015
0.405461 0.248492 0.138728
0.498128 0.254831 0.139154
0.587426 0.258796 0.140084
0.668862 0.260913 0.141369
0.741352 0.261550 0.142980
0.795078 0.259948 0.143638
0.842371 0.258304 0.143960
0.889248 0.257642 0.144155
0.936003 0.256842 0.144670
0.982447 0.257122 0.145151
0.004448 0.299752 0.153752
0.048760 0.301250 0.151251
0.093725 0.303963 0.146278
0.162392 0.312450 0.139387
0.233861 0.305789 0.137445
0.305570 0.302250 0.136422
0.392425 0.310993 0.136728
0.484860 0.319475 0.137582
0.576058 0.325055 0.138805
0.660245 0.327437 0.140477
0.735953 0.327068 0.142325
0.794584 0.325338 0.143384
0.841894 0.323053 0.143900
0.888822 0.322096 0.144441
0.935613 0.321173 0.144876
0.982202 0.321089 0.145282
0.006242 0.378532 0.147975
0.050608 0.380253 0.141239
0.105221 0.383255 0.137492
0.162888 0.387927 0.138121
0.235308 0.384706 0.137173
0.304619 0.374886 0.136140
0.380914 0.373295 0.136296
0.472491 0.383936 0.137330
0.565040 0.391819 0.138756
0.651057 0.395147 0.140448
0.728699 0.395200 0.142163
0.793408 0.392261 0.144048
0.841780 0.389358 0.144533
0.888753 0.387843 0.144801
0.935405 0.386611 0.145228
0.981807 0.386482 0.145635
0.012264 0.460613 0.138173
0.064405 0.462400 0.138229
0.115275 0.465898 0.138630
0.166939 0.468987 0.138994
0.235412 0.467763 0.138743
0.306258 0.458161 0.137691
0.379603 0.449725 0.137375
0.460933 0.449726 0.137882
