src/luts/vivid/11.cube
LUT_3D_SIZE 6
0.000000 0.000000 0.000000
0.178695 0.005702 0.000943
0.434999 0.023178 0.003953
0.687043 0.042227 0.008660
0.840548 0.048283 0.010408
0.980313 0.051369 0.011605
0.005592 0.162795 0.001094
0.162657 0.159927 0.001180
0.411073 0.181933 0.003652
0.673591 0.197138 0.008093
0.840188 0.196371 0.010554
0.980550 0.197100 0.011609
0.023028 0.383445 0.004483
0.169689 0.383242 0.004762
0.380230 0.369618 0.004557
0.650494 0.392450 0.008255
0.840014 0.387179 0.011366
0.980272 0.383991 0.012414
0.047469 0.628005 0.010121
0.190874 0.626692 0.010297
0.384772 0.621968 0.010136
0.620264 0.601826 0.010017
0.839696 0.590702 0.013491
0.980322 0.583355 0.014459
0.068245 0.834464 0.016856
0.210791 0.835337 0.017214
0.370391 0.837178 0.018299
0.593518 0.825796 0.015890
0.829794 0.804665 0.016851
0.980876 0.787082 0.018125
0.070787 0.976454 0.018964
0.213670 0.977097 0.019480
0.358421 0.978859 0.021022
0.576881 0.979263 0.023614
0.813651 0.975653 0.022014
0.985095 0.964972 0.027341
0.004697 0.000454 0.166749
0.164926 0.001130 0.157253
0.422228 0.005938 0.173415
0.691271 0.017926 0.162726
0.845913 0.034789 0.149177
0.985077 0.042674 0.149334
0.001670 0.156488 0.151688
0.168296 0.170012 0.153028
0.419136 0.180924 0.142228
0.676914 0.194001 0.143392
0.842969 0.193926 0.144455
0.982673 0.194406 0.145374
0.006242 0.378532 0.147975
0.162888 0.387927 0.138121
0.380914 0.373295 0.136296
0.651057 0.395147 0.140448
0.841780 0.389358 0.144533
0.981807 0.386482 0.145635
0.033844 0.624608 0.142355
0.184910 0.630567 0.143542
0.382259 0.623078 0.142381
0.620554 0.604558 0.142176
0.840884 0.592353 0.146421
0.981602 0.584842 0.147837
0.057647 0.833350 0.149948
0.204831 0.837399 0.151716
0.365801 0.838363 0.151936
0.591828 0.826590 0.148806
0.829549 0.805842 0.149780
0.981615 0.787940 0.151631
0.060998 0.975896 0.152160
0.206747 0.978592 0.153497
0.352875 0.979829 0.155586
0.574160 0.980530 0.159355
0.811960 0.977349 0.157511
0.986037 0.967625 0.165848
0.011262 0.001801 0.409373
0.180426 0.001837 0.388266
0.388577 0.004616 0.366238
0.665466 0.013697 0.381290
0.832180 0.018782 0.372475
0.976194 0.021927 0.367607
0.005221 0.186585 0.403613
0.158776 0.165521 0.409347
0.394853 0.158552 0.369660
0.666845 0.159373 0.369604
0.842310 0.161086 0.357361
0.985512 0.164788 0.351665
0.006053 0.358921 0.346231
0.143118 0.364588 0.348368
0.403426 0.407686 0.358475
0.674824 0.404744 0.337280
0.861092 0.394759 0.325205
0.995258 0.394508 0.332602
0.014151 0.610198 0.348094
0.150050 0.615372 0.342049
0.363557 0.645247 0.315131
0.628020 0.624339 0.296839
0.846718 0.602060 0.294439
0.986733 0.593116 0.293644
0.027579 0.830589 0.314536
0.169293 0.834874 0.294291
0.351129 0.843835 0.298068
0.589547 0.831802 0.286940
0.829969 0.810406 0.284994
0.982994 0.791010 0.286511
0.034051 0.974879 0.290383
0.192407 0.977747 0.291265
0.343902 0.980887 0.292100
0.569687 0.981969 0.296740
0.809886 0.978834 0.294332
0.986936 0.971075 0.307185
0.019244 0.004311 0.664384
0.188663 0.003851 0.650883
0.394851 0.005165 0.636007
0.636769 0.010747 0.605858
0.813819 0.015611 0.596637
0.960737 0.018299 0.590101
0.009098 0.193918 0.670165
0.156535 0.153852 0.671909
0.394178 0.151079 0.642383
0.634264 0.152924 0.603169
0.824007 0.156677 0.589024
0.969994 0.160053 0.581722
0.013672 0.403373 0.640954
0.150774 0.400952 0.642326
0.385346 0.406892 0.669837
0.655088 0.397265 0.623252
0.854345 0.400496 0.590996
0.991307 0.403932 0.584219
0.012399 0.590555 0.574644
0.148387 0.594163 0.575370
0.337961 0.621415 0.589642
0.639640 0.657884 0.612510
0.860733 0.645277 0.602278
0.995987 0.641024 0.601767
0.023462 0.816525 0.551765
0.160486 0.820917 0.548355
0.313838 0.832932 0.543834
0.588358 0.855668 0.559003
0.837641 0.840684 0.522259
0.993945 0.818430 0.519489
0.029105 0.965908 0.540139
0.168578 0.970774 0.536205
0.311930 0.975461 0.528092
0.570753 0.994518 0.538722
0.804826 0.988710 0.499776
0.991027 0.985781 0.531035
0.022979 0.004991 0.814450
0.189168 0.004644 0.806166
0.389373 0.005579 0.799592
0.628299 0.010436 0.781082
0.803928 0.014195 0.771504
0.951617 0.016399 0.768525
0.011032 0.186581 0.827451
0.163501 0.151632 0.831963
0.387334 0.148196 0.816001
0.621431 0.150181 0.794273
0.810565 0.153521 0.778540
0.958890 0.156901 0.774680
0.019731 0.402766 0.832618
0.158272 0.399710 0.838396
0.383437 0.399779 0.852867
0.626378 0.393887 0.841513
0.844441 0.384261 0.813257
0.984452 0.387491 0.801235
0.023871 0.608981 0.819052
0.161761 0.607914 0.822865
0.345489 0.614693 0.842528
0.632906 0.653791 0.852213
0.852051 0.653087 0.830347
0.990842 0.652354 0.821222
0.022401 0.804483 0.789927
0.160262 0.808739 0.791992
0.307975 0.814129 0.793810
0.586049 0.843553 0.809643
0.841252 0.857028 0.826732
0.994498 0.853330 0.822682
0.024449 0.955436 0.774464
0.163986 0.960592 0.773818
0.305774 0.966518 0.770104
0.580471 0.991697 0.782402
0.831507 0.998685 0.817383
0.989840 0.998582 0.817867
0.027741 0.005572 0.957620
0.189958 0.005105 0.951067
0.386414 0.005871 0.945977
0.622952 0.010552 0.930183
0.801219 0.013596 0.921981
0.948714 0.015880 0.916025
0.012206 0.182300 0.969373
0.168928 0.150478 0.972845
0.383759 0.147534 0.959767
0.615031 0.149585 0.942269
0.807749 0.153150 0.929237
0.954963 0.155947 0.922857
0.022472 0.400272 0.976226
0.161604 0.397348 0.982518
0.384458 0.398252 0.989100
0.616820 0.394851 0.981858
0.840698 0.378894 0.967188
0.982239 0.381899 0.951937
0.026767 0.605106 0.965002
0.165286 0.604203 0.968925
0.349200 0.609815 0.986350
0.632978 0.652417 0.990221
0.848070 0.650489 0.978838
0.989066 0.648745 0.968289
0.027980 0.806253 0.948355
0.166172 0.807854 0.951313
0.313250 0.808915 0.957315
0.589628 0.836316 0.976416
0.840037 0.855922 0.982718
0.992122 0.855999 0.980044
0.026379 0.951187 0.940360
0.167090 0.957001 0.944028
0.310295 0.962107 0.947933
0.580320 0.988275 0.963593
0.837040 0.998192 0.977489
0.992450 0.999998 0.986868
