src/luts/vivid/12.cube
LUT_3D_SIZE 6
0.000509 0.001103 0.000463
0.170807 0.006103 0.000885
0.454047 0.025073 0.003675
0.689336 0.037562 0.005805
0.835324 0.038277 0.006295
0.972341 0.038753 0.006420
0.000732 0.149712 0.001542
0.149676 0.151152 0.000798
0.406267 0.176576 0.003094
0.673862 0.196073 0.005774
0.835587 0.187509 0.006371
0.972855 0.185883 0.006507
0.002370 0.332687 0.005120
0.145776 0.333226 0.002432
0.367433 0.350888 0.002405
0.641844 0.379576 0.003207
0.823709 0.382065 0.004377
0.963565 0.381432 0.004704
0.005036 0.540684 0.005747
0.150640 0.541367 0.004926
0.345754 0.548098 0.001029
0.612169 0.567531 0.001041
0.817069 0.570526 0.001324
0.957443 0.567403 0.001348
0.016414 0.750310 0.007470
0.159707 0.752838 0.005473
0.331020 0.756665 0.001701
0.579855 0.762110 0.001080
0.798963 0.764976 0.001389
0.950171 0.759709 0.001381
0.018904 0.898530 0.007960
0.163632 0.902155 0.004964
0.320054 0.905836 0.002118
0.565313 0.911986 0.001155
0.783814 0.924585 0.001265
0.946870 0.923536 0.001447
0.002712 0.001456 0.151963
0.160784 0.001271 0.152826
0.440820 0.005124 0.168725
0.682662 0.009208 0.165437
0.831541 0.010262 0.156553
0.968358 0.010641 0.149661
0.000992 0.150078 0.145800
0.155318 0.156646 0.145096
0.457001 0.183203 0.140991
0.688106 0.190183 0.139843
0.840503 0.184215 0.139049
0.976116 0.182398 0.138995
0.002377 0.331222 0.146528
0.138303 0.336307 0.134118
0.375429 0.352509 0.133954
0.648386 0.381821 0.136246
0.828217 0.382503 0.137217
0.968111 0.382369 0.137496
0.004992 0.539801 0.149716
0.143460 0.544998 0.136026
0.350807 0.548687 0.133753
0.618716 0.571268 0.133596
0.821015 0.571183 0.133903
0.960967 0.568262 0.134321
0.007907 0.749314 0.148888
0.163040 0.758312 0.138017
0.341552 0.761201 0.134976
0.583254 0.764172 0.132260
0.801941 0.766611 0.132580
0.953281 0.760443 0.132581
0.008602 0.898075 0.148121
0.168880 0.907080 0.138510
0.332677 0.910353 0.136252
0.569938 0.915353 0.132383
0.787084 0.926821 0.132681
0.949797 0.926437 0.132682
0.010828 0.002219 0.333504
0.167245 0.001875 0.335221
0.400200 0.003119 0.343655
0.663642 0.007092 0.357305
0.809505 0.007388 0.351107
0.949988 0.007892 0.349485
0.004085 0.165502 0.332826
0.154740 0.169290 0.374751
0.434847 0.141545 0.358363
0.679319 0.144737 0.355143
0.829975 0.143188 0.347219
0.968107 0.143543 0.344438
0.004382 0.337607 0.328017
0.137992 0.344462 0.333972
0.421834 0.400447 0.346749
0.697528 0.410532 0.330567
0.860330 0.399801 0.312127
0.994886 0.395815 0.309065
0.006049 0.541127 0.330535
0.137858 0.544726 0.328571
0.337537 0.578400 0.283874
0.629050 0.581271 0.271720
0.829738 0.580915 0.271580
0.969318 0.575123 0.271263
0.007784 0.744441 0.309483
0.139700 0.754738 0.298481
0.340038 0.765179 0.270021
0.588532 0.765345 0.264444
0.803976 0.766523 0.263825
0.956793 0.760685 0.263827
0.008631 0.896819 0.298542
0.140867 0.906396 0.276252
0.330291 0.913229 0.269628
0.575349 0.917854 0.263591
0.789863 0.930715 0.263739
0.952859 0.928857 0.263933
0.023893 0.002100 0.510405
0.174636 0.002169 0.509469
0.402174 0.004230 0.546521
0.664648 0.007007 0.551456
0.810813 0.007364 0.544390
0.947950 0.007451 0.542224
0.009684 0.170161 0.532209
0.164501 0.156151 0.572767
0.392188 0.140702 0.548005
0.659817 0.140387 0.544501
0.815221 0.140030 0.538276
0.951870 0.139973 0.535434
0.009788 0.357271 0.531844
0.144444 0.366933 0.542878
0.387549 0.421728 0.616835
0.709568 0.372204 0.576627
0.864009 0.389371 0.558199
0.996096 0.397588 0.558364
0.010971 0.553928 0.535959
0.143975 0.558722 0.540239
0.301740 0.597532 0.562978
0.664505 0.643795 0.569304
0.864659 0.630186 0.564834
0.997223 0.628471 0.568761
0.013272 0.763738 0.545037
0.146016 0.771283 0.546578
0.282330 0.784786 0.545691
0.563038 0.829127 0.514532
0.830977 0.805712 0.447052
0.981946 0.790694 0.445523
0.012695 0.907082 0.532559
0.145346 0.916418 0.532954
0.278317 0.924585 0.527559
0.499686 0.969580 0.486215
0.797259 0.955736 0.416101
0.969572 0.950714 0.417200
0.025692 0.002030 0.649299
0.175348 0.002217 0.649799
0.390786 0.004184 0.691287
0.667023 0.007016 0.702944
0.813768 0.007237 0.700201
0.950359 0.007398 0.698979
0.010784 0.163732 0.677404
0.169347 0.150651 0.710234
0.372761 0.139931 0.698057
0.661898 0.139676 0.704445
0.815467 0.139456 0.700633
0.951935 0.139526 0.699316
0.013230 0.367599 0.703999
0.148422 0.374503 0.716166
0.354036 0.420182 0.799393
0.692281 0.313812 0.756653
0.858384 0.311592 0.730194
0.993906 0.334929 0.730335
0.015788 0.565443 0.722968
0.149782 0.570877 0.730362
0.304790 0.608502 0.768809
0.653890 0.661645 0.802572
0.865709 0.653300 0.788752
0.998061 0.657551 0.791134
0.018942 0.769854 0.741417
0.152296 0.774377 0.745370
0.289147 0.780934 0.749711
0.538009 0.833298 0.768048
0.857274 0.841642 0.783390
0.999217 0.835909 0.794411
0.019743 0.920553 0.741150
0.152795 0.925092 0.742846
0.287205 0.933783 0.744437
0.483422 0.977687 0.753275
0.836482 0.991806 0.771555
0.996414 0.980620 0.749428
0.027443 0.002073 0.787442
0.176629 0.002192 0.788252
0.383026 0.004157 0.829515
0.666384 0.006986 0.840841
0.814377 0.007249 0.838044
0.950929 0.007404 0.836586
0.011503 0.160025 0.815674
0.171211 0.151173 0.852841
0.371941 0.140151 0.841432
0.660117 0.139399 0.842789
0.815766 0.139488 0.838238
0.952908 0.139554 0.837052
0.014254 0.369034 0.845861
0.149976 0.376600 0.858702
0.353624 0.426219 0.940044
0.695582 0.325472 0.906717
0.861526 0.324789 0.872918
0.993735 0.334109 0.870516
0.017297 0.569688 0.867438
0.151220 0.574855 0.874580
0.305982 0.608939 0.911012
0.654964 0.666133 0.944965
0.865546 0.658741 0.930550
0.998220 0.657617 0.929274
0.020269 0.770245 0.884687
0.153769 0.774149 0.888786
0.290951 0.781707 0.897871
0.535536 0.834910 0.928791
0.859149 0.848276 0.946390
0.999524 0.843396 0.952657
0.021651 0.921527 0.890348
0.155323 0.926202 0.893889
0.289656 0.932813 0.898616
0.491202 0.977309 0.919347
0.837621 0.992895 0.943254
0.999915 0.990666 0.956569
