src/luts/vivid/12.cube
LUT_3D_SIZE 16
0.000509 0.001103 0.000463
0.047189 0.001636 0.000336
0.101464 0.003229 0.000417
0.170807 0.006103 0.000885
0.260129 0.011007 0.001786
0.358545 0.018278 0.002719
0.454047 0.025073 0.003675
0.543233 0.030321 0.004642
0.622062 0.034584 0.005321
0.689336 0.037562 0.005805
0.743219 0.038258 0.006135
0.789427 0.038190 0.006150
0.835324 0.038277 0.006295
0.881117 0.038350 0.006312
0.926875 0.038526 0.006368
0.972341 0.038753 0.006420
0.000291 0.047003 0.000720
0.046113 0.046866 0.000350
0.098824 0.048492 0.000469
0.164396 0.051425 0.000725
0.249864 0.056468 0.001605
0.345249 0.063878 0.002545
0.443716 0.071404 0.003516
0.534650 0.077191 0.004490
0.617223 0.082144 0.005223
0.687282 0.084974 0.005742
0.743382 0.086034 0.006070
0.789741 0.086285 0.006189
0.836124 0.086357 0.006327
0.882009 0.086532 0.006377
0.927331 0.086576 0.006435
0.972792 0.086755 0.006478
0.000479 0.096684 0.000840
0.046156 0.096559 0.000489
0.095701 0.096939 0.000520
0.156164 0.100983 0.000685
0.235616 0.107223 0.001371
0.325140 0.113706 0.002296
0.426362 0.121212 0.003298
0.523348 0.126602 0.004320
0.609117 0.130780 0.005091
0.683013 0.133158 0.005654
0.742692 0.133923 0.006107
0.790181 0.134098 0.006231
0.836120 0.134437 0.006350
0.881992 0.134614 0.006407
0.927739 0.134812 0.006464
0.973132 0.134931 0.006515
0.000732 0.149712 0.001542
0.046667 0.149580 0.000758
0.094788 0.149712 0.000750
0.149676 0.151152 0.000798
0.224590 0.159704 0.001312
0.311863 0.168686 0.002164
0.406267 0.176576 0.003094
0.505312 0.186522 0.004132
0.595723 0.195442 0.005025
0.673862 0.196073 0.005774
0.740056 0.193481 0.006232
0.789289 0.189727 0.006360
0.835587 0.187509 0.006371
0.881597 0.186574 0.006406
0.927457 0.185725 0.006475
0.972855 0.185883 0.006507
0.001044 0.206495 0.003118
0.046196 0.206548 0.001162
0.092958 0.206134 0.001161
0.148293 0.208754 0.001204
0.211199 0.211154 0.001106
0.299701 0.223411 0.002178
0.392905 0.233345 0.002837
0.488748 0.243301 0.003916
0.579902 0.252848 0.004774
0.660172 0.259888 0.005261
0.730450 0.261999 0.006179
0.783486 0.260349 0.006316
0.830948 0.258063 0.006372
0.877235 0.257018 0.006439
0.923617 0.255815 0.006500
0.969394 0.255844 0.006539
0.001656 0.268102 0.004143
0.047454 0.268314 0.001763
0.094351 0.268106 0.001740
0.146914 0.269511 0.001762
0.208647 0.272525 0.001761
0.283764 0.277375 0.001818
0.379573 0.292224 0.002345
0.477242 0.303555 0.002879
0.567658 0.311518 0.003961
0.649291 0.318852 0.003858
0.722159 0.322182 0.005085
0.778812 0.322110 0.005579
0.826065 0.320666 0.005687
0.873139 0.320440 0.006055
0.919837 0.320329 0.005891
0.966224 0.320897 0.006049
0.002370 0.332687 0.005120
0.049155 0.333228 0.002477
0.096459 0.333116 0.002459
0.145776 0.333226 0.002432
0.205823 0.337535 0.002418
0.277828 0.338868 0.002105
0.367433 0.350888 0.002405
0.471170 0.365861 0.002872
0.559833 0.373155 0.003260
0.641844 0.379576 0.003207
0.713656 0.382493 0.003591
0.775631 0.383259 0.004281
0.823709 0.382065 0.004377
0.870179 0.381409 0.004328
0.917067 0.380937 0.004567
0.963565 0.381432 0.004704
0.003133 0.399552 0.006835
0.049783 0.400141 0.003292
0.097853 0.400462 0.003273
0.145383 0.400137 0.003237
0.202925 0.404105 0.003135
0.272813 0.405901 0.001988
0.354609 0.410901 0.002001
0.458995 0.427166 0.002422
0.552072 0.435985 0.002651
0.633972 0.441311 0.002849
0.706517 0.445036 0.002789
0.770630 0.445307 0.002826
0.821092 0.443594 0.003220
0.867982 0.442776 0.003245
0.914592 0.441988 0.003397
0.960859 0.442134 0.003419
0.004044 0.469803 0.008985
0.051376 0.470503 0.004227
0.099962 0.470759 0.004177
0.147416 0.469984 0.004120
0.200073 0.471263 0.004046
0.266398 0.473626 0.002493
0.346586 0.476877 0.001296
0.436061 0.481555 0.001688
0.539281 0.498056 0.001804
0.624435 0.504350 0.001924
0.698359 0.507875 0.001746
0.765673 0.509031 0.001714
0.819574 0.506818 0.001947
0.866650 0.505555 0.002106
0.913018 0.504565 0.002112
0.959154 0.504638 0.002103
0.005036 0.540684 0.005747
0.055532 0.541374 0.005036
0.103508 0.541613 0.004988
0.150640 0.541367 0.004926
0.199227 0.541788 0.004740
0.263622 0.545350 0.002923
0.345754 0.548098 0.001029
0.427868 0.550155 0.000840
0.522170 0.557315 0.001024
0.612169 0.567531 0.001041
0.689562 0.571465 0.001071
0.758354 0.572576 0.001310
0.817069 0.570526 0.001324
0.864464 0.568915 0.001352
0.911158 0.567704 0.001321
0.957443 0.567403 0.001348
0.009977 0.612041 0.005886
0.058603 0.613185 0.005879
0.106528 0.613511 0.005845
0.153493 0.614662 0.005504
0.200412 0.614283 0.005343
0.260285 0.616536 0.004000
0.343082 0.620043 0.001135
0.423975 0.620988 0.000767
0.511937 0.622232 0.000915
0.600078 0.630944 0.001055
0.678099 0.634351 0.000970
0.749358 0.636598 0.001149
0.812784 0.635131 0.001343
0.862208 0.633500 0.001366
0.908614 0.631963 0.001340
0.954986 0.631662 0.001363
0.014226 0.684622 0.006746
0.062497 0.685438 0.006503
0.109737 0.686436 0.005885
0.156854 0.686841 0.005269
0.203814 0.686056 0.005119
0.255496 0.685565 0.004537
0.337314 0.689278 0.001382
0.418964 0.689199 0.000840
0.504014 0.690044 0.000929
0.591532 0.697806 0.001096
0.669146 0.700824 0.001001
0.739558 0.700644 0.001211
0.807464 0.700911 0.001148
0.859017 0.697749 0.001370
0.905836 0.696059 0.001341
0.952387 0.695394 0.001369
0.016414 0.750310 0.007470
0.065028 0.751149 0.006939
0.112555 0.751581 0.006166
0.159707 0.752838 0.005473
0.207774 0.753698 0.004760
0.255646 0.753573 0.004405
0.331020 0.756665 0.001701
0.414261 0.757390 0.001008
0.498578 0.757003 0.001026
0.579855 0.762110 0.001080
0.658698 0.767037 0.001121
0.730307 0.767158 0.001197
0.798963 0.764976 0.001389
0.856993 0.762772 0.001379
0.904036 0.760819 0.001381
0.950171 0.759709 0.001381
0.017776 0.800071 0.007668
0.065406 0.801369 0.007124
0.113186 0.802225 0.006282
0.160218 0.803495 0.005440
0.209423 0.804733 0.004705
0.258697 0.805584 0.003793
0.322462 0.808466 0.002157
0.405715 0.811386 0.001122
0.490889 0.811960 0.001098
0.569593 0.816046 0.001108
0.647202 0.822677 0.001200
0.720405 0.826643 0.001408
0.790293 0.827717 0.001240
0.853804 0.826184 0.001441
0.901988 0.825264 0.001425
0.948548 0.824947 0.001436
0.018326 0.849506 0.007855
0.065887 0.850787 0.007221
0.114456 0.851943 0.006178
0.161836 0.853266 0.005327
0.211035 0.854109 0.004612
0.261054 0.854869 0.003856
0.318034 0.856999 0.002411
0.400303 0.860175 0.001175
0.485293 0.860691 0.001135
0.565056 0.863829 0.001130
0.639764 0.868978 0.001254
0.714323 0.874201 0.001243
0.784841 0.876426 0.001258
0.850557 0.875759 0.001452
0.900937 0.875684 0.001438
0.947620 0.875714 0.001441
0.018904 0.898530 0.007960
0.066538 0.899785 0.007250
0.114814 0.900975 0.006423
0.163632 0.902155 0.004964
0.213181 0.903440 0.004104
0.263158 0.904196 0.003191
0.320054 0.905836 0.002118
0.401044 0.908507 0.001207
0.485558 0.909105 0.001164
0.565313 0.911986 0.001155
0.638436 0.916462 0.001291
0.712738 0.921771 0.001272
0.783814 0.924585 0.001265
0.850086 0.924057 0.001457
0.900612 0.923642 0.001444
0.946870 0.923536 0.001447
0.000719 0.001208 0.046478
0.047389 0.000965 0.046338
0.101248 0.000902 0.046629
0.170565 0.003413 0.044615
0.261440 0.008795 0.045493
0.360018 0.016907 0.046369
0.455369 0.023548 0.047243
0.542923 0.027854 0.048222
0.621670 0.032025 0.048984
0.689252 0.034685 0.049589
0.743098 0.035181 0.049919
0.789585 0.035394 0.050091
0.835312 0.035383 0.050134
0.880824 0.035610 0.050187
0.926387 0.035778 0.050250
0.971883 0.035989 0.050304
0.000346 0.046830 0.045688
0.045946 0.046962 0.044933
0.099242 0.048133 0.044399
0.166814 0.051196 0.044336
0.258862 0.057045 0.045436
0.356743 0.064897 0.046348
0.454432 0.072172 0.047293
0.542458 0.077092 0.048285
0.621488 0.081001 0.049060
0.689251 0.083958 0.049524
0.744537 0.085150 0.049874
0.791415 0.085376 0.049990
0.836905 0.085352 0.050135
0.882537 0.085522 0.050202
0.928089 0.085752 0.050251
0.973459 0.086012 0.050316
0.000510 0.096523 0.045781
0.045147 0.096716 0.044236
0.095795 0.097035 0.044193
0.157423 0.101222 0.044257
0.240846 0.107901 0.045062
0.332381 0.114768 0.045954
0.434337 0.121972 0.047020
0.530668 0.126370 0.048077
0.613834 0.129836 0.048880
0.685261 0.132440 0.049393
0.744482 0.133620 0.049885
0.791588 0.133833 0.050003
0.837416 0.133964 0.050104
0.883026 0.134004 0.050179
0.928528 0.134258 0.050271
0.973993 0.134435 0.050345
0.000767 0.149436 0.046592
0.044391 0.150068 0.044622
0.094636 0.149762 0.044388
0.150117 0.151313 0.044278
0.226824 0.160315 0.044868
0.316528 0.169471 0.045833
0.412204 0.177902 0.046792
0.510151 0.187642 0.047847
0.599868 0.195553 0.048718
0.676374 0.195313 0.049439
0.742193 0.192646 0.049988
0.791035 0.189188 0.050112
0.837181 0.187266 0.050168
0.883122 0.186275 0.050216
0.928534 0.185211 0.050273
0.973918 0.185318 0.050317
0.001081 0.206232 0.048099
0.044645 0.207247 0.046520
0.092231 0.206976 0.044695
0.148357 0.209092 0.044703
0.213157 0.212134 0.044846
0.304217 0.224841 0.045742
0.398525 0.235052 0.046615
0.493662 0.245082 0.047649
0.584533 0.254596 0.048569
0.663883 0.260973 0.049261
0.732777 0.262327 0.049860
0.785823 0.260147 0.050088
0.832689 0.257717 0.050120
0.879283 0.256739 0.050175
0.925153 0.255293 0.050221
0.970863 0.255207 0.050272
0.001657 0.267932 0.049735
0.045287 0.269263 0.046762
0.093126 0.268748 0.045334
0.146793 0.270458 0.045349
0.209216 0.273200 0.045360
0.286288 0.278263 0.045681
0.383443 0.293289 0.046611
0.481549 0.304919 0.047456
0.571180 0.313144 0.048418
0.652035 0.319931 0.048640
0.723572 0.322444 0.049643
0.780455 0.322419 0.049898
0.827928 0.320975 0.049950
0.874943 0.320755 0.050019
0.921558 0.320559 0.050105
0.967919 0.321120 0.050176
0.002384 0.332377 0.051122
0.046043 0.334012 0.046846
0.094849 0.333672 0.046036
0.145019 0.334452 0.046044
0.206200 0.337944 0.046041
0.279135 0.339042 0.046099
0.369777 0.351295 0.046658
0.473373 0.366189 0.047239
0.562877 0.374024 0.047794
0.644094 0.380336 0.047752
0.715642 0.383013 0.048756
0.776716 0.383426 0.049121
0.825125 0.382264 0.049208
0.871775 0.381629 0.049415
0.918564 0.381149 0.049622
0.964976 0.381501 0.049826
0.003124 0.399286 0.053623
0.046842 0.401224 0.049492
0.095691 0.401528 0.046950
0.144081 0.401225 0.046869
0.202746 0.404325 0.046799
0.274408 0.406372 0.046100
0.356534 0.411179 0.046196
0.461263 0.427536 0.046759
0.554795 0.436904 0.047074
0.635925 0.442091 0.047309
0.708563 0.445625 0.047234
0.772180 0.445620 0.047669
0.822938 0.444063 0.047917
0.869283 0.442943 0.047804
0.916013 0.442268 0.048110
0.962286 0.442350 0.048189
0.004041 0.469577 0.055988
0.047783 0.471689 0.050694
0.098036 0.471962 0.047868
0.146054 0.471684 0.047727
0.199485 0.471951 0.047619
0.268174 0.474633 0.046790
0.348895 0.477607 0.045476
0.439368 0.482766 0.045926
0.541970 0.499229 0.046072
0.626556 0.505537 0.046210
0.700358 0.508866 0.046037
0.767272 0.509424 0.046009
0.821486 0.507367 0.046446
0.867928 0.505932 0.046647
0.914385 0.505037 0.046622
0.960414 0.505113 0.046645
0.005013 0.540556 0.055511
0.051955 0.542279 0.048661
0.101296 0.543012 0.048642
0.149185 0.542272 0.048545
0.197925 0.542599 0.048476
0.264781 0.545672 0.047492
0.347428 0.548414 0.045124
0.430657 0.550999 0.044790
0.525247 0.559046 0.045053
0.614587 0.569101 0.044964
0.690879 0.572180 0.044812
0.759516 0.573040 0.045079
0.818408 0.570902 0.045118
0.865895 0.569300 0.045141
0.912407 0.568056 0.045288
0.958730 0.567762 0.045307
0.006026 0.611632 0.053880
0.055088 0.614110 0.049505
0.104276 0.615077 0.049471
0.151884 0.615528 0.049402
0.199694 0.615348 0.049369
0.260998 0.617596 0.048735
0.344793 0.620119 0.045223
0.426445 0.621391 0.044496
0.514941 0.623642 0.044638
0.602757 0.632649 0.044782
0.680127 0.635754 0.044890
0.750538 0.637058 0.045067
0.813952 0.635435 0.044900
0.862811 0.633271 0.045099
0.909576 0.632075 0.045074
0.956104 0.631773 0.045096
0.007703 0.683909 0.050358
0.059859 0.686579 0.050320
0.108033 0.687102 0.050238
0.155808 0.687494 0.050163
0.203761 0.687111 0.050120
0.256070 0.686471 0.049332
0.339602 0.690294 0.045556
0.421793 0.690089 0.044593
0.506029 0.690748 0.044661
0.593265 0.698527 0.044830
0.670815 0.701624 0.044934
0.741142 0.701448 0.044953
0.807966 0.700828 0.045084
0.860003 0.697676 0.045102
0.906908 0.696045 0.045083
0.953269 0.695346 0.045098
0.011251 0.749960 0.051098
0.062988 0.752766 0.050994
0.112287 0.754225 0.050917
0.160314 0.754963 0.050103
0.210593 0.755348 0.049548
0.260072 0.755468 0.048809
0.334132 0.758296 0.045918
0.417116 0.758815 0.044783
0.500417 0.758201 0.044785
0.580822 0.762888 0.044822
0.659903 0.767256 0.044896
0.732040 0.767911 0.045122
0.800429 0.766095 0.044945
0.858246 0.763418 0.045123
0.904972 0.761082 0.045125
0.951174 0.760091 0.045125
0.012563 0.800013 0.051305
0.063162 0.802972 0.051213
0.112659 0.803836 0.050924
0.162045 0.805122 0.050077
0.212316 0.806506 0.049285
0.262280 0.807258 0.048747
0.326481 0.810273 0.046572
0.408797 0.812985 0.044880
0.493057 0.813292 0.044858
0.570860 0.817079 0.044860
0.647745 0.822740 0.044978
0.722096 0.827628 0.044782
0.791614 0.828798 0.045194
0.854782 0.827184 0.045188
0.903098 0.826147 0.045182
0.949502 0.825652 0.045185
0.013969 0.849289 0.051485
0.065236 0.852510 0.051362
0.114626 0.852929 0.051037
0.163856 0.854901 0.050142
0.213834 0.855706 0.049361
0.264652 0.856488 0.048416
0.322644 0.858584 0.046999
0.403248 0.861708 0.044936
0.487792 0.862085 0.044900
0.566447 0.864933 0.044890
0.641072 0.870206 0.044840
0.715948 0.875215 0.045007
0.786151 0.877414 0.045211
0.851458 0.876830 0.045211
0.901996 0.876735 0.045191
0.948611 0.876707 0.045203
0.013579 0.898453 0.051674
0.066348 0.901517 0.051521
0.115401 0.902511 0.051000
0.165480 0.903916 0.049929
0.215978 0.904971 0.049040
0.266899 0.906139 0.048276
0.324793 0.907304 0.046715
0.404024 0.910084 0.044966
0.488198 0.910412 0.044928
0.566730 0.913096 0.044920
0.639736 0.917699 0.044873
0.714082 0.922481 0.045045
0.784627 0.925166 0.045211
0.850930 0.925007 0.045025
0.901556 0.924685 0.045190
0.947872 0.924582 0.045203
0.000858 0.001874 0.096746
0.048738 0.000931 0.096445
0.100216 0.000935 0.097021
0.166472 0.001342 0.099950
0.257003 0.002572 0.103208
0.358375 0.004167 0.103128
0.453265 0.005824 0.096106
0.541719 0.014460 0.093315
0.620060 0.022524 0.093662
0.687639 0.027827 0.094036
0.742348 0.030476 0.094141
0.789148 0.031003 0.094284
0.834632 0.031264 0.094276
0.880245 0.031758 0.094327
0.925515 0.032167 0.094326
0.970972 0.032445 0.094375
0.000639 0.048029 0.094806
0.046542 0.047158 0.095998
0.099150 0.045923 0.095741
0.165211 0.045716 0.096862
0.259904 0.047141 0.098377
0.360168 0.053014 0.091715
0.456711 0.063802 0.092234
0.543268 0.069582 0.092967
0.621611 0.075180 0.093436
0.688964 0.079789 0.093685
0.744641 0.081352 0.093944
0.791245 0.081758 0.094157
0.837305 0.082134 0.094243
0.882693 0.082197 0.094243
0.927878 0.082674 0.094290
0.973230 0.082930 0.094361
0.000596 0.096592 0.093939
0.044628 0.096749 0.093696
0.096475 0.097999 0.092056
0.163983 0.101558 0.090021
0.257980 0.108833 0.090698
0.358416 0.116913 0.091207
0.453176 0.122451 0.091645
0.540134 0.125188 0.092299
0.618753 0.128261 0.093006
0.687760 0.130721 0.093476
0.745948 0.132462 0.093906
0.792835 0.132958 0.093972
0.838908 0.133120 0.094088
0.884141 0.133178 0.094203
0.929377 0.133328 0.094271
0.974808 0.133613 0.094390
0.000785 0.149604 0.094338
0.044576 0.149669 0.093425
0.092668 0.150991 0.089322
0.151650 0.152501 0.088531
0.231580 0.161505 0.088789
0.323086 0.170608 0.089724
0.419304 0.179320 0.090763
0.516284 0.188401 0.091825
0.604177 0.194672 0.092538
0.678812 0.193962 0.093214
0.743846 0.191917 0.093877
0.792818 0.188727 0.094006
0.838462 0.186790 0.094154
0.884453 0.185693 0.094215
0.929623 0.184466 0.094264
0.974905 0.184522 0.094321
0.001103 0.205924 0.093766
0.044691 0.206789 0.092690
0.088946 0.207428 0.088559
0.148093 0.209391 0.088498
0.214580 0.212767 0.088400
0.307252 0.225226 0.089324
0.404061 0.236460 0.090314
0.498335 0.246376 0.091410
0.589146 0.256115 0.092355
0.667736 0.261744 0.093091
0.734664 0.262319 0.093655
0.787384 0.259408 0.093850
0.834233 0.256766 0.094032
0.880699 0.255635 0.094017
0.926632 0.254299 0.094082
0.972365 0.254171 0.094125
0.001650 0.267428 0.095224
0.045273 0.268855 0.093742
0.089943 0.269868 0.089050
0.146205 0.270860 0.088929
0.209448 0.273550 0.088933
0.288527 0.278893 0.089206
0.387618 0.294435 0.090183
0.485987 0.306105 0.091179
0.574655 0.314654 0.092057
0.654844 0.320968 0.092648
0.725742 0.322899 0.093281
0.782482 0.322697 0.093538
0.829459 0.321072 0.093624
0.876394 0.320876 0.093793
0.923086 0.320850 0.093846
0.969129 0.321402 0.093921
0.002376 0.331947 0.097177
0.046021 0.333776 0.095153
0.090836 0.334558 0.089775
0.143644 0.335087 0.089700
0.206309 0.338856 0.089603
0.280533 0.339455 0.089594
0.372312 0.351755 0.090308
0.475499 0.366337 0.091293
0.565763 0.374978 0.092069
0.646308 0.381131 0.092521
0.717206 0.383256 0.093139
0.778299 0.383708 0.093507
0.826466 0.382413 0.093529
0.873406 0.381833 0.093592
0.920231 0.381403 0.093707
0.966452 0.381803 0.093776
0.003104 0.398947 0.100060
0.046812 0.400874 0.097698
0.090595 0.402127 0.091855
0.141623 0.401784 0.090660
0.201902 0.404975 0.090407
0.276236 0.407564 0.090180
0.358305 0.411352 0.090518
0.463279 0.427639 0.091201
0.557208 0.437501 0.091596
0.637934 0.442869 0.091938
0.709682 0.445785 0.092181
0.774153 0.446019 0.092328
0.824540 0.444529 0.092884
0.871062 0.443356 0.092790
0.917595 0.442442 0.093095
0.963878 0.442607 0.093206
0.004037 0.469332 0.102468
0.047793 0.471349 0.098825
0.093611 0.473090 0.091549
0.144134 0.472281 0.091425
0.198436 0.472974 0.091334
0.269216 0.474898 0.090927
0.351026 0.478098 0.089715
0.442929 0.484141 0.090276
0.544568 0.500319 0.090447
0.628578 0.506544 0.090649
0.701653 0.509234 0.090608
0.768494 0.509549 0.090633
0.822666 0.507544 0.090932
0.869240 0.506303 0.091173
0.915631 0.505374 0.091317
0.961618 0.505535 0.091363
0.005020 0.540227 0.102597
0.048790 0.542072 0.097556
0.097262 0.544114 0.092300
0.146943 0.543965 0.092286
0.196825 0.543259 0.092177
0.265903 0.546377 0.091815
0.349196 0.548594 0.089356
0.433288 0.551729 0.089016
0.528252 0.560516 0.089288
0.616789 0.570262 0.089216
0.692551 0.573173 0.089073
0.760938 0.573382 0.088845
0.819909 0.571185 0.089291
0.867157 0.569440 0.089465
0.913773 0.568226 0.089642
0.959896 0.568032 0.089641
0.006020 0.611273 0.102556
0.049759 0.613779 0.096073
0.101495 0.615656 0.093172
0.149635 0.616615 0.093088
0.198553 0.616102 0.093014
0.261286 0.617748 0.092762
0.346448 0.619917 0.089517
0.428700 0.621674 0.088247
0.517931 0.625011 0.088404
0.605542 0.634307 0.088510
0.681404 0.636681 0.088678
0.751312 0.637313 0.088639
0.815489 0.636010 0.088799
0.863885 0.633505 0.088822
0.910723 0.632260 0.088798
0.957144 0.631876 0.088820
0.007050 0.683033 0.100801
0.054729 0.685819 0.093994
0.105311 0.688056 0.093909
0.154119 0.688541 0.093855
0.203419 0.688010 0.093734
0.257086 0.687737 0.093573
0.341740 0.691166 0.090016
0.424509 0.690902 0.088313
0.508480 0.691384 0.088372
0.595454 0.699351 0.088535
0.672483 0.702465 0.088655
0.742061 0.701827 0.088847
0.809447 0.701367 0.088799
0.861178 0.697736 0.088646
0.907876 0.695924 0.088800
0.954287 0.695248 0.088822
0.007914 0.749706 0.099721
0.057987 0.752695 0.094672
0.111543 0.755655 0.094565
0.160952 0.756562 0.094407
0.212273 0.757276 0.094367
0.264393 0.757284 0.093898
0.337663 0.759754 0.090405
0.420128 0.760266 0.088512
0.502240 0.759187 0.088509
0.581905 0.763526 0.088543
0.661424 0.767917 0.088811
0.732990 0.767855 0.088673
0.800744 0.765950 0.088849
0.859283 0.763908 0.088849
0.905980 0.761322 0.088845
0.952192 0.760323 0.088851
0.008196 0.799760 0.098631
0.059018 0.802801 0.094882
0.112499 0.805577 0.094736
0.163480 0.806966 0.094567
0.215075 0.808219 0.094060
0.267017 0.809209 0.093639
0.330477 0.811871 0.091159
0.411805 0.814501 0.088639
0.495303 0.814596 0.088598
0.572084 0.818127 0.088590
0.648778 0.823645 0.088730
0.723127 0.827882 0.088716
0.792757 0.829778 0.088743
0.855853 0.828084 0.088929
0.904049 0.826915 0.088916
0.950470 0.826365 0.088927
0.008391 0.849223 0.098833
0.061028 0.852326 0.095038
0.113463 0.855371 0.094872
0.164950 0.856360 0.094678
0.217291 0.857290 0.093995
0.269028 0.858121 0.093271
0.326425 0.860029 0.091690
0.406980 0.863347 0.088675
0.490328 0.863332 0.088634
0.567871 0.866046 0.088623
0.642121 0.871065 0.088769
0.717259 0.875982 0.088752
0.787450 0.878480 0.088758
0.852775 0.878322 0.088942
0.902957 0.877668 0.088927
0.949493 0.877738 0.088936
0.008597 0.898148 0.098233
0.062177 0.901398 0.095193
0.115750 0.904198 0.094979
0.167047 0.905403 0.094469
0.219443 0.906613 0.093908
0.271084 0.908071 0.093109
0.328564 0.908885 0.091420
0.407864 0.911602 0.088706
0.490752 0.911749 0.088661
0.568255 0.914237 0.088648
0.640025 0.917847 0.088629
0.715393 0.923166 0.088784
0.786320 0.926331 0.088761
0.851959 0.926262 0.088949
0.902556 0.925645 0.088930
0.948848 0.925521 0.088944
0.002712 0.001456 0.151963
0.051383 0.001248 0.151826
0.102779 0.001157 0.151700
0.160784 0.001271 0.152826
0.242161 0.001995 0.159004
0.338929 0.003556 0.164689
0.440820 0.005124 0.168725
0.534105 0.006670 0.169018
0.614402 0.008086 0.166277
0.682662 0.009208 0.165437
0.737296 0.009583 0.162635
0.784868 0.010023 0.158744
0.831541 0.010262 0.156553
0.877257 0.010366 0.153668
0.923029 0.010548 0.150513
0.968358 0.010641 0.149661
0.001421 0.049686 0.149548
0.047173 0.047290 0.152331
0.101350 0.045995 0.151467
0.160695 0.045456 0.152433
0.245714 0.046112 0.158216
0.346308 0.048120 0.163187
0.448202 0.049875 0.166279
0.538876 0.051525 0.164552
0.618398 0.052893 0.160816
0.686014 0.054083 0.158369
0.741422 0.054791 0.152259
0.788963 0.055128 0.144440
0.835481 0.059464 0.141656
0.881239 0.063596 0.141192
0.926594 0.066950 0.140866
0.971574 0.067652 0.140835
0.001052 0.099379 0.147033
0.045327 0.099342 0.147411
0.096981 0.099698 0.151919
0.163001 0.095562 0.152765
0.257872 0.095052 0.154267
0.362800 0.096340 0.154057
0.457811 0.096698 0.154594
0.542370 0.097266 0.149690
0.620465 0.100522 0.141530
0.688365 0.107168 0.141858
0.745156 0.114846 0.141331
0.792422 0.119291 0.140707
0.838430 0.121583 0.140309
0.884102 0.122872 0.140225
0.929390 0.124046 0.139994
0.974495 0.124536 0.140024
0.000992 0.150078 0.145800
0.044843 0.150428 0.145914
0.090859 0.151884 0.146206
0.155318 0.156646 0.145096
0.247795 0.162995 0.141405
0.353834 0.174039 0.140775
0.457001 0.183203 0.140991
0.544684 0.187834 0.140848
0.620388 0.191193 0.140191
0.688106 0.190183 0.139843
0.747858 0.188641 0.139700
0.795153 0.185891 0.139227
0.840503 0.184215 0.139049
0.885700 0.183185 0.138967
0.930906 0.182266 0.138884
0.976116 0.182398 0.138995
0.001189 0.206738 0.147044
0.044831 0.207387 0.147003
0.088938 0.207172 0.145904
0.143601 0.213470 0.138046
0.221666 0.217999 0.135230
0.322211 0.230424 0.135735
0.421509 0.242654 0.136340
0.512814 0.251758 0.137253
0.599099 0.259523 0.137723
0.673261 0.262515 0.137834
0.737924 0.261551 0.137968
0.789460 0.258115 0.138019
0.836205 0.255116 0.138028
0.882710 0.253958 0.138096
0.928441 0.252678 0.138146
0.973823 0.252530 0.138209
0.001679 0.267099 0.147398
0.045318 0.267761 0.146841
0.089035 0.267945 0.145559
0.138288 0.273227 0.135054
0.210252 0.276434 0.134091
0.294364 0.281714 0.133597
0.396301 0.297364 0.134374
0.492504 0.308110 0.135259
0.579684 0.317038 0.135977
0.658414 0.322248 0.136524
0.727852 0.323256 0.137126
0.784720 0.322790 0.137362
0.831835 0.321326 0.137487
0.878135 0.320904 0.137571
0.924734 0.320855 0.137732
0.970629 0.321607 0.137825
0.002377 0.331222 0.146528
0.046037 0.332794 0.145413
0.089779 0.333802 0.142873
0.138303 0.336307 0.134118
0.205608 0.339627 0.133708
0.282207 0.340401 0.133256
0.375429 0.352509 0.133954
0.477960 0.366550 0.134914
0.568310 0.375626 0.135681
0.648386 0.381821 0.136246
0.718502 0.383433 0.136771
0.779989 0.383873 0.137126
0.828217 0.382503 0.137217
0.874901 0.381945 0.137366
0.921820 0.381744 0.137425
0.968111 0.382369 0.137496
0.003095 0.398290 0.146729
0.046785 0.400268 0.145316
0.090671 0.401913 0.142038
0.137271 0.403464 0.134599
0.200942 0.405269 0.134186
0.277066 0.407497 0.133731
0.359780 0.411154 0.134033
0.464888 0.427371 0.134992
