src/luts/vivid/13.cube
LUT_3D_SIZE 6
0.000628 0.000618 0.000583
0.175309 0.001376 0.005388
0.450744 0.005704 0.017976
0.701414 0.013645 0.030483
0.849568 0.016607 0.030597
0.987329 0.018611 0.030457
0.001282 0.162476 0.003631
0.155884 0.159259 0.001183
0.422560 0.183564 0.005245
0.692550 0.192962 0.014229
0.852119 0.182333 0.019344
0.989838 0.180188 0.021415
0.003458 0.367925 0.011198
0.148868 0.365346 0.003732
0.398826 0.372930 0.005017
0.673297 0.398299 0.011737
0.852481 0.395826 0.018577
0.989885 0.394361 0.020442
0.006566 0.590245 0.022443
0.145780 0.587771 0.007331
0.378023 0.596698 0.007612
0.653894 0.599031 0.011290
0.853088 0.595427 0.019312
0.989705 0.591389 0.021686
0.010275 0.804022 0.035649
0.142715 0.805279 0.014169
0.337989 0.812982 0.012777
0.618105 0.826837 0.015250
0.845760 0.804969 0.020524
0.989723 0.792997 0.024222
0.011418 0.950959 0.037769
0.144344 0.953033 0.014808
0.317069 0.958063 0.014394
0.597644 0.974982 0.016836
0.832813 0.978371 0.021006
0.989723 0.961874 0.025700
0.000726 0.004793 0.169979
0.162759 0.001376 0.166320
0.428688 0.005194 0.196082
0.699704 0.013657 0.205323
0.849256 0.016716 0.198221
0.987082 0.018479 0.195058
0.001185 0.160982 0.159569
0.147005 0.162626 0.160072
0.436437 0.161281 0.152907
0.699907 0.168458 0.156556
0.857002 0.161329 0.158838
0.993920 0.161729 0.160173
0.003289 0.371623 0.165447
0.135178 0.366769 0.153996
0.398106 0.372309 0.137620
0.675223 0.397561 0.146209
0.855111 0.395984 0.155092
0.992408 0.394727 0.157390
0.006694 0.593007 0.170970
0.137971 0.590606 0.162702
0.372941 0.598360 0.140088
0.655025 0.601396 0.145121
0.854279 0.597102 0.155920
0.991370 0.592857 0.159099
0.010507 0.806611 0.184619
0.143144 0.807632 0.173627
0.325510 0.815237 0.147198
0.615952 0.828009 0.149423
0.845760 0.807155 0.156347
0.990572 0.794997 0.161002
0.011626 0.952885 0.186567
0.144648 0.954626 0.174603
0.300537 0.960793 0.149509
0.594275 0.976329 0.151474
0.830754 0.979765 0.156818
0.990251 0.964395 0.162493
0.002140 0.024359 0.391881
0.173079 0.004551 0.386705
0.384066 0.004469 0.378308
0.683471 0.012026 0.407637
0.843516 0.017732 0.403932
0.984460 0.020913 0.401790
0.002549 0.191974 0.380570
0.141627 0.188671 0.388967
0.386469 0.157662 0.380872
0.687652 0.161022 0.400522
0.855588 0.164787 0.396021
0.995241 0.167983 0.393378
0.003772 0.372002 0.366222
0.135302 0.370633 0.364915
0.338009 0.388854 0.377167
0.697733 0.412273 0.376346
0.864735 0.421166 0.397234
0.997037 0.421984 0.399755
0.007932 0.612798 0.391232
0.139845 0.611832 0.387386
0.294079 0.612662 0.348723
0.657616 0.614971 0.304231
0.860863 0.604130 0.318868
0.996787 0.598881 0.325826
0.011768 0.816847 0.364252
0.144176 0.815557 0.353404
0.284922 0.815876 0.317112
0.612236 0.829127 0.287801
0.845493 0.808579 0.294446
0.991708 0.795781 0.299809
0.012262 0.957954 0.346107
0.145159 0.958147 0.335042
0.281590 0.961276 0.312294
0.589632 0.977858 0.288468
0.827420 0.981365 0.293769
0.990673 0.967021 0.301742
0.004625 0.040110 0.627300
0.179173 0.010190 0.628831
0.387632 0.008950 0.623468
0.658578 0.013586 0.617509
0.834123 0.018444 0.612584
0.979427 0.022108 0.610752
0.004862 0.218888 0.626796
0.145262 0.210042 0.636917
0.372029 0.161074 0.634259
0.655164 0.158043 0.613762
0.845444 0.162475 0.609125
0.988535 0.168400 0.607846
0.006045 0.409779 0.613771
0.138337 0.409076 0.614794
0.328481 0.417179 0.654994
0.673974 0.417550 0.647080
0.863207 0.436007 0.636595
0.996354 0.442032 0.634964
0.007943 0.605474 0.600391
0.139961 0.605056 0.599822
0.292115 0.615157 0.609912
0.625391 0.656151 0.638136
0.863371 0.662337 0.650822
0.997193 0.662366 0.653259
0.015844 0.830598 0.613702
0.150907 0.833305 0.613446
0.292539 0.835828 0.609961
0.551702 0.851322 0.594296
0.848887 0.836367 0.550859
0.996316 0.823678 0.583806
0.019321 0.977480 0.604560
0.155042 0.979953 0.602108
0.292419 0.982157 0.595795
0.524146 0.993606 0.569105
0.815095 0.992335 0.511541
0.993222 0.981020 0.507241
0.005058 0.043925 0.780491
0.176949 0.012627 0.786522
0.384523 0.010822 0.789973
0.639781 0.015003 0.784369
0.830421 0.021264 0.786346
0.975379 0.024426 0.785770
0.005969 0.222222 0.790569
0.146664 0.212783 0.804946
0.368901 0.167010 0.816294
0.627981 0.160319 0.798245
0.838479 0.167348 0.797060
0.982605 0.170548 0.795224
0.008227 0.424247 0.807905
0.141687 0.423493 0.812702
0.342732 0.427931 0.851603
0.618362 0.413164 0.846203
0.858819 0.423104 0.828936
0.994430 0.432310 0.821909
0.011142 0.621293 0.820076
0.144767 0.620598 0.822953
0.303533 0.624646 0.838540
0.603081 0.650779 0.858581
0.860368 0.668869 0.850324
0.995849 0.670082 0.845100
0.015681 0.824266 0.829355
0.150470 0.825684 0.830912
0.289536 0.825331 0.830423
0.528770 0.841889 0.842995
0.842531 0.853101 0.840386
0.994482 0.850363 0.839691
0.017469 0.971200 0.818798
0.152784 0.973070 0.817721
0.289464 0.975364 0.814216
0.504672 0.989568 0.815297
0.830422 0.997867 0.830059
0.990869 0.996639 0.816967
0.005648 0.046359 0.927673
0.175928 0.014081 0.935302
0.383543 0.012235 0.937446
0.631338 0.016362 0.932756
0.829166 0.022829 0.933540
0.974401 0.026195 0.932742
0.007077 0.224572 0.937644
0.147978 0.216185 0.953462
0.368351 0.172258 0.966762
0.620119 0.163250 0.948736
0.837190 0.170127 0.945206
0.981999 0.173645 0.942838
0.009049 0.426357 0.953471
0.142584 0.425448 0.957592
0.357168 0.430128 0.989050
0.609969 0.421882 0.986837
0.858525 0.426109 0.975799
0.993977 0.432186 0.966693
0.012058 0.621160 0.963739
0.146074 0.620428 0.966302
0.308802 0.623060 0.981255
0.605175 0.649435 0.994186
0.858265 0.667951 0.992317
0.995761 0.668266 0.987011
0.017706 0.820032 0.973550
0.152934 0.820746 0.975354
0.293124 0.818685 0.978098
0.546579 0.830021 0.993442
0.841185 0.853028 0.993738
0.993686 0.852067 0.992941
0.019946 0.970657 0.976459
0.155480 0.972471 0.978003
0.292717 0.974179 0.979625
0.507792 0.987670 0.991743
0.828327 0.997918 0.991728
0.991159 0.998303 0.991281
