src/luts/vivid/13.cube
LUT_3D_SIZE 16
0.000628 0.000618 0.000583
0.047762 0.000340 0.000912
0.103132 0.000522 0.002428
0.175309 0.001376 0.005388
0.261349 0.002522 0.008216
0.355160 0.003981 0.013600
0.450744 0.005704 0.017976
0.543264 0.007758 0.023324
0.630000 0.010554 0.028614
0.701414 0.013645 0.030483
0.756469 0.015595 0.030629
0.803463 0.016316 0.030792
0.849568 0.016607 0.030597
0.895761 0.017432 0.030428
0.941636 0.017979 0.030402
0.987329 0.018611 0.030457
0.000452 0.047002 0.000354
0.046121 0.046520 0.000331
0.099965 0.048175 0.000566
0.169754 0.050520 0.001503
0.254833 0.053309 0.002733
0.347928 0.053002 0.004362
0.444686 0.051637 0.006382
0.538290 0.052128 0.010737
0.627244 0.055251 0.018161
0.700702 0.058911 0.019009
0.757888 0.061622 0.018193
0.804891 0.063404 0.018947
0.851227 0.063860 0.019371
0.897441 0.065127 0.019912
0.943127 0.065931 0.020459
0.988819 0.066950 0.021061
0.000682 0.101719 0.001848
0.046985 0.101033 0.000723
0.097008 0.099742 0.000595
0.161928 0.104841 0.001230
0.244916 0.111267 0.002310
0.337006 0.114950 0.003890
0.433904 0.116513 0.005809
0.529909 0.115417 0.008165
0.620885 0.113395 0.011551
0.697294 0.116689 0.015106
0.757672 0.120316 0.017748
0.805068 0.120824 0.018576
0.851350 0.121024 0.019035
0.897552 0.121355 0.019654
0.943525 0.122147 0.020453
0.989218 0.122937 0.021084
0.001282 0.162476 0.003631
0.048298 0.161760 0.001378
0.098456 0.160678 0.001289
0.155884 0.159259 0.001183
0.236814 0.168551 0.002189
0.327985 0.177063 0.003537
0.422560 0.183564 0.005245
0.520301 0.188683 0.007473
0.613689 0.191319 0.010818
0.692550 0.192962 0.014229
0.757125 0.190103 0.017448
0.805975 0.185293 0.018924
0.852119 0.182333 0.019344
0.898180 0.180947 0.019972
0.944107 0.179706 0.020785
0.989838 0.180188 0.021415
0.001967 0.228009 0.006308
0.048593 0.227348 0.002173
0.096876 0.225988 0.002140
0.155055 0.226127 0.002042
0.225610 0.224363 0.002102
0.319889 0.237087 0.003370
0.413702 0.247360 0.004958
0.509994 0.255249 0.006945
0.603366 0.260919 0.009796
0.685828 0.264662 0.013024
0.754585 0.263933 0.016773
0.806040 0.261340 0.018260
0.852144 0.258714 0.019097
0.898427 0.257623 0.019941
0.944443 0.256293 0.020493
0.990173 0.256693 0.021147
0.002669 0.296881 0.009065
0.046538 0.296195 0.002967
0.096790 0.294725 0.002952
0.152547 0.294870 0.002906
0.220989 0.295592 0.002898
0.308903 0.296626 0.003302
0.406140 0.310166 0.004892
0.501662 0.320581 0.006743
0.593678 0.327097 0.009137
0.679105 0.331843 0.012191
0.750710 0.332143 0.015768
0.806062 0.330865 0.018129
0.852226 0.328645 0.018774
0.898168 0.327642 0.019461
0.944423 0.326946 0.020131
0.990118 0.327296 0.020812
0.003458 0.367925 0.011198
0.047063 0.367195 0.005984
0.096959 0.366107 0.003726
0.148868 0.365346 0.003732
0.214503 0.367455 0.003776
0.302411 0.365363 0.003821
0.398826 0.372930 0.005017
0.496070 0.385844 0.006859
0.586736 0.393064 0.008924
0.673297 0.398299 0.011737
0.746481 0.398982 0.014863
0.805612 0.397919 0.017660
0.852481 0.395826 0.018577
0.898436 0.394826 0.019130
0.944412 0.393959 0.019887
0.989885 0.394361 0.020442
0.004380 0.440489 0.014510
0.048001 0.439687 0.010039
0.096060 0.439036 0.004831
0.146263 0.437308 0.004777
0.209861 0.438677 0.004767
0.294014 0.442417 0.004926
0.389253 0.438300 0.005293
0.489606 0.450318 0.007006
0.581227 0.459030 0.008947
0.667231 0.464694 0.011439
0.741470 0.465819 0.014443
0.803757 0.464873 0.017344
0.852527 0.462402 0.018465
0.898711 0.461251 0.019011
0.944285 0.460154 0.019726
0.989707 0.460351 0.020280
0.005457 0.514726 0.018416
0.049054 0.514181 0.014368
0.092911 0.513318 0.006075
0.145962 0.511310 0.005990
0.204052 0.511847 0.006001
0.282749 0.517495 0.006020
0.385769 0.518704 0.006348
0.479006 0.515326 0.007108
0.574641 0.525071 0.008971
0.660907 0.531404 0.011331
0.736304 0.533372 0.013986
0.801420 0.532444 0.017215
0.853046 0.529348 0.018761
0.898583 0.527429 0.019276
0.944297 0.526191 0.020003
0.989708 0.525998 0.020697
0.006566 0.590245 0.022443
0.050194 0.589646 0.018440
0.093986 0.589324 0.011743
0.145780 0.587771 0.007331
0.198916 0.586467 0.007284
0.273918 0.591482 0.007367
0.378023 0.596698 0.007612
0.475573 0.596108 0.008089
0.566290 0.593377 0.009143
0.653894 0.599031 0.011290
0.730618 0.601618 0.013582
0.797820 0.600078 0.016808
0.853088 0.595427 0.019312
0.898953 0.593396 0.020253
0.944385 0.591931 0.020896
0.989705 0.591389 0.021686
0.007721 0.664885 0.027018
0.051410 0.664417 0.022928
0.095243 0.664056 0.016728
0.144140 0.663220 0.008903
0.196917 0.661651 0.008767
0.263900 0.663824 0.008955
0.365372 0.671491 0.008986
0.470885 0.675655 0.009590
0.558503 0.673712 0.010264
0.645357 0.671153 0.011594
0.724742 0.671026 0.013660
0.793958 0.668539 0.016659
0.852460 0.662575 0.020026
0.899258 0.659641 0.021204
0.944584 0.657840 0.021946
0.989873 0.657245 0.022629
0.009028 0.738295 0.032077
0.052825 0.737879 0.027773
0.096736 0.737595 0.021798
0.141262 0.737096 0.010803
0.197058 0.736221 0.010674
0.254520 0.735789 0.010816
0.350361 0.744592 0.010680
0.461185 0.749319 0.011150
0.549105 0.754185 0.012218
0.633210 0.753407 0.013026
0.717602 0.747164 0.014185
0.789009 0.740372 0.016506
0.850076 0.732551 0.020322
0.899181 0.727445 0.022233
0.944546 0.725195 0.022712
0.989698 0.724281 0.023296
0.010275 0.804022 0.035649
0.054245 0.804263 0.031051
0.098390 0.804412 0.024776
0.142715 0.805279 0.014169
0.198731 0.805750 0.012706
0.252236 0.806131 0.012802
0.337989 0.812982 0.012777
0.447469 0.819427 0.013087
0.538048 0.823652 0.014056
0.618105 0.826837 0.015250
0.700687 0.825278 0.015385
0.781939 0.818004 0.017170
0.845760 0.804969 0.020524
0.899077 0.797059 0.023000
0.944533 0.794288 0.023684
0.989723 0.792997 0.024222
0.010688 0.853686 0.036433
0.054707 0.854158 0.031803
0.098900 0.854681 0.025402
0.143279 0.855900 0.014414
0.200065 0.856950 0.013358
0.253744 0.858616 0.013560
0.324179 0.863037 0.013482
0.432216 0.871676 0.013984
0.525668 0.876427 0.014738
0.605830 0.881051 0.016128
0.683788 0.884157 0.016862
0.764918 0.883555 0.018087
0.840636 0.877280 0.020763
0.898237 0.865699 0.023967
0.944516 0.862533 0.024638
0.989739 0.861095 0.025182
0.011068 0.902636 0.037113
0.055123 0.903090 0.032352
0.099256 0.903588 0.025786
0.143772 0.904704 0.014377
0.201043 0.905738 0.013809
0.254961 0.907421 0.014046
0.315810 0.909869 0.013994
0.422707 0.919169 0.014425
0.518066 0.923565 0.015061
0.599256 0.927893 0.016382
0.676190 0.931585 0.017716
0.755087 0.932518 0.018770
0.835401 0.929741 0.020790
0.896672 0.918552 0.023789
0.944506 0.914598 0.024966
0.989695 0.913186 0.025528
0.011418 0.950959 0.037769
0.055524 0.951436 0.032953
0.099852 0.951908 0.026453
0.144344 0.953033 0.014808
0.202297 0.954144 0.014318
0.256669 0.955688 0.014486
0.317069 0.958063 0.014394
0.422811 0.966944 0.014957
0.517041 0.970859 0.015572
0.597644 0.974982 0.016836
0.674167 0.978384 0.018155
0.751636 0.979501 0.019651
0.832813 0.978371 0.021006
0.896365 0.967733 0.024137
0.944523 0.963501 0.025178
0.989723 0.961874 0.025700
0.000339 0.000600 0.048331
0.047378 0.000332 0.047824
0.101680 0.000443 0.050162
0.173549 0.001301 0.055093
0.260299 0.002536 0.059126
0.354421 0.003865 0.063798
0.450923 0.005734 0.068428
0.542977 0.007717 0.073776
0.629883 0.010493 0.079257
0.701287 0.013543 0.081559
0.756431 0.015513 0.081732
0.803299 0.015996 0.081910
0.849566 0.016665 0.081743
0.895514 0.017487 0.081621
0.941490 0.017835 0.081586
0.987166 0.018461 0.081694
0.000322 0.046782 0.046755
0.045760 0.046505 0.046610
0.100595 0.045327 0.046293
0.169937 0.045761 0.048425
0.256814 0.047021 0.051712
0.349680 0.048142 0.057307
0.447535 0.050065 0.061557
0.540573 0.052328 0.066412
0.628538 0.055397 0.072221
0.701119 0.058979 0.073595
0.758341 0.061737 0.073098
0.805568 0.062316 0.073104
0.851458 0.062942 0.073172
0.897644 0.063410 0.073107
0.943463 0.064234 0.073380
0.989225 0.064936 0.073455
0.000639 0.101264 0.048285
0.044522 0.100790 0.046744
0.096787 0.099887 0.044778
0.161407 0.103996 0.045387
0.246012 0.109978 0.046753
0.338551 0.112315 0.048334
0.436109 0.112231 0.050385
0.532346 0.107793 0.052857
0.623079 0.102281 0.056934
0.698635 0.107327 0.060677
0.758821 0.112703 0.063283
0.806343 0.113602 0.064238
0.852612 0.113839 0.064643
0.898656 0.114643 0.065432
0.944640 0.115507 0.066157
0.990331 0.116721 0.066831
0.001247 0.162319 0.051090
0.045027 0.161811 0.048930
0.096824 0.160572 0.045308
0.155412 0.159292 0.045140
0.236170 0.167973 0.046334
0.328327 0.176453 0.047882
0.423725 0.182530 0.049630
0.521618 0.186780 0.051994
0.615189 0.188784 0.055701
0.693658 0.190065 0.059350
0.758453 0.187115 0.063130
0.806997 0.181625 0.064212
0.853345 0.178537 0.064813
0.899387 0.177232 0.065724
0.945194 0.175721 0.066352
0.990962 0.176422 0.067039
0.001941 0.228229 0.054401
0.045655 0.227611 0.051894
0.092251 0.226261 0.046141
0.153768 0.226390 0.046032
0.225420 0.224478 0.045896
0.320390 0.237199 0.047431
0.414503 0.247128 0.049161
0.511067 0.254609 0.051298
0.604966 0.260175 0.054476
0.687113 0.263768 0.057968
0.755454 0.262957 0.061885
0.807072 0.260417 0.063861
0.853535 0.257851 0.064558
0.899449 0.256591 0.065272
0.945496 0.255301 0.066067
0.991284 0.255687 0.066773
0.002664 0.297320 0.057411
0.046293 0.296674 0.054826
0.090066 0.295193 0.049530
0.150560 0.294993 0.046875
0.219751 0.295815 0.046693
0.309001 0.296858 0.047164
0.406523 0.310083 0.048928
0.502339 0.320302 0.050958
0.594794 0.326774 0.053603
0.680072 0.331431 0.056954
0.751475 0.331858 0.060828
0.806997 0.330709 0.063398
0.853208 0.328546 0.063976
0.899310 0.327674 0.064884
0.945323 0.326949 0.065634
0.991003 0.327360 0.066331
0.003326 0.368542 0.059968
0.047061 0.367933 0.057334
0.090705 0.366724 0.052731
0.144993 0.365233 0.047679
0.212699 0.367615 0.047715
0.302506 0.366429 0.047586
0.398816 0.372908 0.048935
0.496223 0.385709 0.050962
0.587581 0.392909 0.053271
0.674089 0.398194 0.056374
0.746863 0.398977 0.059926
0.806234 0.398185 0.062991
0.853363 0.396185 0.064100
0.899427 0.395164 0.064671
0.945273 0.394184 0.065312
0.990639 0.394595 0.065875
0.004266 0.441012 0.063671
0.048007 0.440501 0.061063
0.091650 0.439159 0.056886
0.137908 0.437684 0.048795
0.207152 0.438665 0.048718
0.292583 0.442738 0.048733
0.389276 0.438750 0.049161
0.489834 0.450415 0.051041
0.581918 0.459154 0.053205
0.667791 0.464861 0.055982
0.742072 0.466191 0.059058
0.804316 0.465263 0.062403
0.853452 0.463085 0.063770
0.899235 0.461778 0.064389
0.944967 0.460661 0.065140
0.990335 0.460781 0.065753
0.005464 0.515381 0.067687
0.049058 0.514833 0.064953
0.092791 0.513897 0.060940
0.136609 0.512435 0.053705
0.199763 0.511602 0.050004
0.280529 0.517235 0.049956
0.385433 0.519379 0.050223
0.479587 0.516059 0.051102
0.575316 0.525494 0.053152
0.661520 0.531914 0.055819
0.736674 0.534100 0.058667
0.801681 0.533099 0.062246
0.853668 0.529867 0.064013
0.899387 0.528181 0.064754
0.944868 0.526866 0.065549
0.990214 0.526571 0.066297
0.006599 0.591099 0.072023
0.050228 0.590576 0.069077
0.094000 0.589285 0.064938
0.137765 0.587858 0.058164
0.192153 0.587065 0.051481
0.271367 0.591998 0.051440
0.376637 0.597292 0.051579
0.475548 0.597070 0.052109
0.566979 0.594368 0.053352
0.654392 0.599911 0.055731
0.731061 0.602617 0.058309
0.798099 0.600874 0.061787
0.853502 0.596027 0.064724
0.899391 0.593910 0.065738
0.944864 0.592408 0.066442
0.990278 0.591898 0.067297
0.007770 0.665739 0.076924
0.051470 0.665446 0.073734
0.095231 0.664437 0.069381
0.139195 0.663355 0.063027
0.186520 0.662382 0.053015
0.260015 0.664982 0.053229
0.363064 0.672150 0.053077
0.469897 0.676357 0.053717
0.558502 0.675071 0.054566
0.645821 0.672657 0.056066
0.725033 0.672143 0.058285
0.793942 0.669459 0.061540
0.852524 0.663213 0.065328
0.899304 0.660062 0.066612
0.944916 0.658499 0.067422
0.990299 0.657834 0.068156
0.009072 0.738964 0.081947
0.052890 0.738716 0.078536
0.096860 0.738201 0.073972
0.140813 0.737279 0.067691
0.185039 0.736649 0.056781
0.248330 0.736419 0.055157
0.347711 0.744898 0.055035
0.459782 0.749873 0.055396
0.548701 0.754984 0.056624
0.632937 0.754407 0.057570
0.717600 0.748466 0.058820
0.788633 0.741132 0.061317
0.849794 0.732946 0.065726
0.899490 0.728109 0.067437
0.944844 0.725939 0.068143
0.990067 0.724909 0.068787
0.010338 0.804742 0.085576
0.054333 0.805221 0.081845
0.098479 0.805503 0.076964
0.142716 0.805669 0.070424
0.187290 0.806769 0.058445
0.245577 0.807266 0.057399
0.334312 0.813624 0.057424
0.446007 0.820194 0.057605
0.537054 0.824108 0.058546
0.617446 0.827270 0.059833
0.700217 0.826290 0.060099
0.781547 0.818796 0.061786
0.845850 0.805837 0.065834
0.899296 0.797832 0.068711
0.944809 0.794927 0.069103
0.990013 0.793773 0.069670
0.010756 0.854511 0.086422
0.054805 0.855155 0.082695
0.098979 0.855432 0.077692
0.143279 0.856093 0.070823
0.188042 0.857334 0.058369
0.246928 0.858941 0.058217
0.319889 0.863755 0.058122
0.430484 0.872558 0.058609
0.524312 0.876918 0.059322
0.604931 0.881635 0.060774
0.682964 0.884628 0.061739
0.763893 0.884141 0.063139
0.840654 0.878583 0.065978
0.898586 0.866789 0.069262
0.944687 0.863444 0.070019
0.989960 0.861868 0.070581
0.011125 0.903174 0.087004
0.055218 0.903751 0.083086
0.099425 0.904457 0.078108
0.143768 0.904889 0.071076
0.189543 0.906429 0.058581
0.248397 0.908178 0.058726
0.311118 0.910804 0.058812
0.420385 0.920085 0.059073
0.516862 0.924160 0.059714
0.598252 0.928407 0.061043
0.675587 0.932055 0.062300
0.754472 0.932945 0.063871
0.835064 0.930670 0.065812
0.896636 0.919359 0.069064
0.944598 0.915580 0.070330
0.989843 0.914074 0.070929
0.011481 0.951514 0.087572
0.055618 0.952270 0.083587
0.099847 0.952731 0.078501
0.144447 0.953200 0.071321
0.191508 0.954585 0.059104
0.250307 0.956174 0.059262
0.312420 0.958992 0.059295
0.419605 0.967488 0.059592
0.515734 0.971484 0.060265
0.596633 0.975400 0.061534
0.673231 0.978519 0.062888
0.751333 0.980209 0.064843
0.832134 0.978949 0.066199
0.896537 0.968927 0.069267
0.944622 0.964412 0.070564
0.989936 0.962708 0.071125
0.000338 0.001390 0.104741
0.049538 0.000398 0.104053
0.101151 0.000509 0.103590
0.167744 0.001241 0.109414
0.252725 0.002442 0.118251
0.345833 0.003934 0.126167
0.445399 0.005640 0.131693
0.541432 0.007657 0.134976
0.628909 0.010362 0.137210
0.700711 0.013429 0.135963
0.756441 0.015518 0.133210
0.803445 0.016065 0.132924
0.849424 0.016385 0.132546
0.895538 0.017190 0.132257
0.941398 0.017746 0.131957
0.987058 0.018364 0.131997
0.000368 0.049302 0.102354
0.044877 0.047364 0.102750
0.099123 0.045188 0.101827
0.164858 0.045714 0.106404
0.251295 0.046964 0.114563
0.344824 0.048324 0.121288
0.445560 0.050110 0.125981
0.540219 0.052287 0.127659
0.628274 0.055273 0.129509
0.700739 0.058825 0.127533
0.758064 0.061360 0.126627
0.805170 0.061929 0.126032
0.851395 0.062572 0.125791
0.897263 0.063257 0.125426
0.943380 0.064087 0.125288
0.988970 0.064770 0.125339
0.000545 0.100034 0.099679
0.044340 0.099704 0.099324
0.094390 0.099852 0.099148
0.162468 0.099599 0.097159
0.249984 0.098669 0.096631
0.343893 0.096348 0.099782
0.441705 0.096781 0.103340
0.535300 0.097777 0.108634
0.624433 0.100626 0.115582
0.699134 0.104547 0.116716
0.759519 0.107973 0.115576
0.807289 0.108821 0.115198
0.853417 0.109527 0.115397
0.899388 0.110126 0.115859
0.945430 0.110949 0.116097
0.991159 0.111802 0.116224
0.001187 0.161962 0.103181
0.044922 0.161403 0.102023
0.090482 0.160728 0.097651
0.154239 0.160083 0.091463
0.236690 0.167348 0.091793
0.328517 0.174808 0.092938
0.424881 0.180410 0.094669
0.523181 0.183737 0.096984
0.616758 0.184937 0.100913
0.694672 0.186040 0.104714
0.759387 0.182780 0.108284
0.808555 0.177219 0.109923
0.854588 0.173850 0.110743
0.900664 0.172222 0.111479
0.946437 0.170383 0.112156
0.992071 0.171201 0.112882
0.001917 0.228552 0.103722
0.045608 0.227862 0.101758
0.089654 0.226606 0.098563
0.151300 0.226363 0.090675
0.224586 0.224240 0.090324
0.319745 0.236497 0.091963
0.415139 0.246439 0.093655
0.511880 0.253471 0.095855
0.606518 0.259009 0.099372
0.688240 0.262475 0.103148
0.756562 0.261563 0.107183
0.808321 0.259118 0.109510
0.854456 0.256338 0.110263
0.900598 0.255152 0.111021
0.946632 0.253839 0.111875
0.992428 0.254272 0.112633
0.002657 0.297719 0.105814
0.046271 0.297053 0.103939
0.090083 0.295602 0.101065
0.146937 0.294989 0.091133
0.217903 0.295476 0.090722
0.308855 0.296865 0.091180
0.406671 0.309739 0.093186
0.502818 0.319788 0.095352
0.595795 0.326237 0.098261
0.680976 0.330900 0.101919
0.752079 0.331284 0.106092
0.807858 0.330299 0.108875
0.854127 0.328256 0.109755
0.900216 0.327463 0.110471
0.946393 0.326646 0.111311
0.992022 0.327173 0.112026
0.003204 0.369032 0.108547
0.047050 0.368379 0.106613
0.090785 0.367233 0.103813
0.135126 0.365737 0.092486
0.210117 0.367597 0.091735
0.301119 0.365926 0.091575
0.398612 0.372695 0.093043
0.496197 0.385284 0.095209
0.588285 0.392699 0.097795
0.674824 0.398075 0.101195
0.747403 0.398828 0.105196
0.807211 0.398296 0.108335
0.854108 0.396142 0.109395
0.900304 0.395327 0.110441
0.946054 0.394275 0.110900
0.991460 0.394704 0.111509
0.004182 0.441577 0.112390
0.048005 0.441018 0.110514
0.091691 0.439649 0.107735
0.135582 0.438293 0.103199
0.203450 0.438987 0.093032
0.290882 0.443299 0.092880
0.389038 0.439016 0.093207
0.489819 0.450333 0.095226
0.582345 0.459160 0.097658
0.668245 0.465000 0.100706
0.742458 0.466297 0.104207
0.805272 0.465897 0.107843
0.854069 0.463352 0.109163
0.899967 0.461991 0.109862
0.945701 0.461073 0.110848
0.991157 0.461129 0.111558
0.005494 0.516157 0.116718
0.049086 0.515591 0.114574
0.092711 0.514258 0.111662
0.136626 0.512739 0.107378
0.193003 0.511713 0.094172
0.277796 0.517518 0.094159
0.384711 0.519906 0.094284
0.479893 0.516579 0.095269
0.575765 0.525752 0.097554
0.661948 0.532377 0.100476
0.736878 0.534609 0.103605
0.801985 0.533540 0.107260
0.854067 0.530281 0.109483
0.899866 0.528620 0.110514
0.945523 0.527397 0.111349
0.990893 0.527109 0.112192
0.006646 0.592077 0.121389
0.050279 0.591563 0.119020
0.094001 0.590231 0.115848
0.137894 0.588842 0.111287
0.182268 0.587616 0.101173
0.268029 0.592505 0.095847
0.375117 0.597785 0.095726
0.475267 0.597976 0.096328
0.567429 0.595327 0.097766
0.654707 0.600754 0.100340
0.731201 0.603474 0.103101
0.798348 0.601512 0.106949
0.853945 0.596647 0.110336
0.899826 0.594440 0.111227
0.945410 0.592884 0.112202
0.990808 0.592416 0.113110
0.007816 0.666575 0.126529
0.051518 0.666171 0.123913
0.095361 0.665758 0.120483
0.139331 0.664123 0.115823
0.183352 0.662483 0.109117
0.254653 0.665254 0.097693
0.360261 0.672727 0.097340
0.468542 0.676974 0.098010
0.558383 0.676543 0.099059
0.646216 0.674122 0.100713
0.725628 0.673478 0.102932
0.794125 0.670412 0.106565
0.852792 0.663953 0.110799
0.899789 0.660905 0.112196
0.945293 0.659078 0.113067
0.990711 0.658433 0.113863
0.009118 0.739597 0.131475
0.052942 0.739388 0.128616
0.096844 0.738915 0.124925
0.140966 0.738323 0.120107
0.185128 0.736502 0.113369
0.238868 0.737030 0.099708
0.344037 0.745269 0.099707
0.458039 0.750363 0.099843
0.548221 0.755548 0.101204
0.632623 0.755620 0.102236
0.717532 0.749721 0.103366
0.788706 0.742186 0.106056
0.850107 0.733748 0.110907
0.899797 0.728769 0.112965
0.945173 0.726431 0.113723
0.990372 0.725506 0.114417
0.010412 0.805588 0.135035
0.054421 0.806099 0.131853
0.098578 0.806946 0.127820
0.142931 0.806837 0.122657
0.187424 0.806630 0.115025
0.234855 0.807548 0.102200
0.330402 0.814398 0.102220
0.444411 0.820997 0.102331
0.535868 0.824499 0.103167
0.616642 0.827655 0.104560
0.699197 0.826631 0.104814
0.781590 0.819937 0.106948
0.845960 0.806751 0.110935
0.899415 0.798368 0.114042
0.945117 0.795710 0.114630
0.990288 0.794527 0.115275
0.010837 0.855269 0.135797
0.054893 0.855948 0.132614
0.099181 0.856696 0.128421
0.143493 0.856962 0.122916
0.188278 0.857851 0.115016
0.236825 0.859843 0.102928
0.314423 0.864450 0.103049
0.427980 0.873385 0.103408
0.522955 0.877493 0.104049
0.603942 0.882023 0.105555
0.682304 0.885293 0.106765
0.763160 0.884710 0.108360
0.840789 0.879782 0.111216
0.898555 0.867587 0.114578
0.944865 0.864230 0.115575
0.990057 0.862678 0.116203
0.011195 0.903946 0.136420
0.055292 0.904602 0.133095
0.099604 0.905306 0.128873
0.143965 0.905547 0.123237
0.188801 0.906885 0.114794
0.238900 0.908674 0.103564
0.305915 0.911636 0.103737
0.417227 0.920621 0.103874
0.515326 0.924645 0.104501
0.597117 0.928909 0.105851
0.674564 0.932350 0.107399
0.753619 0.933396 0.109164
0.834650 0.931470 0.111066
0.896799 0.920562 0.114561
0.944745 0.916582 0.115921
0.990011 0.915085 0.116574
0.011542 0.952109 0.137067
0.055693 0.952747 0.133620
0.100025 0.953649 0.129174
0.144653 0.953741 0.123447
0.189405 0.955095 0.114377
0.241490 0.956954 0.104033
0.307418 0.959757 0.104253
0.416286 0.968050 0.104459
0.514279 0.971985 0.105111
0.595469 0.975798 0.106370
0.672317 0.978839 0.108053
0.750585 0.980352 0.110044
0.831547 0.979426 0.111279
0.896449 0.969904 0.114750
0.944796 0.965363 0.116151
0.990088 0.963557 0.116757
0.000726 0.004793 0.169979
0.051985 0.001055 0.169332
0.106216 0.001086 0.167912
0.162759 0.001376 0.166320
0.243703 0.002205 0.175292
0.332867 0.003466 0.185866
0.428688 0.005194 0.196082
0.530006 0.007426 0.203504
0.624167 0.010242 0.206316
0.699704 0.013657 0.205323
0.755723 0.015556 0.202658
0.802964 0.016131 0.199836
0.849256 0.016716 0.198221
0.895275 0.017303 0.196653
0.941311 0.017891 0.195213
0.987082 0.018479 0.195058
0.000726 0.053995 0.166632
0.045025 0.051178 0.166979
0.103478 0.045842 0.166628
0.160584 0.045845 0.164763
0.241841 0.046661 0.172997
0.332057 0.048158 0.183224
0.429223 0.049850 0.193097
0.531422 0.052224 0.199598
0.625008 0.055182 0.202009
0.700065 0.058928 0.200568
0.757331 0.061237 0.197314
0.804987 0.062036 0.194096
0.851480 0.062954 0.192133
0.897526 0.063599 0.190419
0.943236 0.064016 0.188893
0.988902 0.064664 0.188829
0.000916 0.107203 0.163058
0.044746 0.106438 0.162786
0.093434 0.104033 0.164836
0.157480 0.099507 0.165032
0.242360 0.097363 0.169041
0.335679 0.097062 0.177691
0.431467 0.096898 0.185729
0.531061 0.097686 0.191285
0.623719 0.100518 0.193478
0.698836 0.104430 0.191401
0.759203 0.107347 0.187665
0.806947 0.108453 0.183989
0.853234 0.109246 0.181760
0.899251 0.109750 0.180520
0.945261 0.110657 0.179292
0.990891 0.111423 0.179233
0.001185 0.160982 0.159569
0.044924 0.160709 0.159306
0.090316 0.160386 0.158895
0.147005 0.162626 0.160072
0.237243 0.162731 0.155904
0.337152 0.161539 0.153908
0.436437 0.161281 0.152907
0.535629 0.159140 0.152672
0.625473 0.162153 0.154704
0.699907 0.168458 0.156556
0.763388 0.168208 0.159309
0.811502 0.164080 0.159245
0.857002 0.161329 0.158838
0.902782 0.161055 0.159444
0.948290 0.160043 0.159460
0.993920 0.161729 0.160173
0.001968 0.229795 0.166259
0.045664 0.229702 0.165748
0.089678 0.228648 0.164091
0.139177 0.229392 0.158549
0.221244 0.228100 0.144663
0.320883 0.235098 0.144307
0.418781 0.243798 0.144548
0.516059 0.250014 0.145205
0.610658 0.255662 0.148035
0.690460 0.259523 0.150777
0.758271 0.259293 0.154602
0.810055 0.256969 0.156231
0.855971 0.253892 0.156635
0.902097 0.252610 0.157159
0.948059 0.251389 0.158132
0.993819 0.251882 0.158889
0.002707 0.301076 0.168623
0.046336 0.300592 0.167382
0.090044 0.299369 0.164993
0.136105 0.297722 0.156943
0.210990 0.296953 0.138966
0.307968 0.296869 0.138005
0.407506 0.309290 0.139507
0.503967 0.318934 0.141081
0.597220 0.325420 0.143787
0.682071 0.329962 0.147505
0.752985 0.330374 0.151369
0.809098 0.329833 0.154818
0.855343 0.327652 0.155564
0.901446 0.326824 0.156329
0.947522 0.326057 0.157243
0.993047 0.326672 0.157980
0.003289 0.371623 0.165447
0.047135 0.370817 0.163623
0.090801 0.368869 0.160395
0.135178 0.366769 0.153996
0.204837 0.368146 0.137234
0.299183 0.366265 0.136150
0.398106 0.372309 0.137620
0.496004 0.384665 0.139792
0.588661 0.392117 0.142591
0.675223 0.397561 0.146209
0.748436 0.398661 0.150220
0.808052 0.398230 0.154089
0.855111 0.395984 0.155092
0.901059 0.395042 0.155789
0.947049 0.394170 0.156703
0.992408 0.394727 0.157390
0.004306 0.442733 0.162965
0.048054 0.442027 0.161239
0.091695 0.440380 0.158730
0.135498 0.438761 0.155121
0.197289 0.438770 0.137573
0.288353 0.443670 0.137140
0.388288 0.439083 0.137455
0.489389 0.449908 0.139606
