src/luts/vivid/14.cube
LUT_3D_SIZE 6
-0.000002 -0.000002 0.001246
0.160931 0.014609 0.002614
0.391580 0.053865 0.009385
0.652290 0.089699 0.032768
0.814192 0.102810 0.039286
0.959488 0.110905 0.042510
-0.000150 0.165036 0.002518
0.151562 0.162148 0.001564
0.378858 0.195039 0.006756
0.637311 0.228761 0.026646
0.814457 0.242293 0.037069
0.959136 0.248673 0.040597
-0.000447 0.364549 0.000855
0.133455 0.366578 -0.000454
0.375449 0.368721 0.006323
0.640496 0.410635 0.018222
0.822026 0.442378 0.023263
0.957894 0.445363 0.023622
-0.000791 0.575063 -0.000791
0.135947 0.575475 -0.000793
0.360963 0.583732 -0.000854
0.625816 0.619946 0.013760
0.827296 0.623574 0.018516
0.958996 0.622308 0.018509
-0.001140 0.795001 -0.001176
0.142915 0.796275 -0.001181
0.327912 0.802677 -0.001216
0.572943 0.833996 -0.001397
0.810768 0.844678 0.017394
0.957566 0.828233 0.021266
-0.001352 0.966306 -0.001352
0.131712 0.968183 -0.001360
0.280214 0.972161 -0.001378
0.554914 0.985051 -0.001472
0.760934 0.992271 -0.001551
0.930187 0.992613 -0.001586
-0.000093 0.019819 0.158472
0.183623 0.019061 0.158837
0.415594 0.047603 0.149905
0.655311 0.083410 0.169810
0.816868 0.096803 0.176470
0.961383 0.104206 0.178929
-0.000148 0.163699 0.157622
0.140653 0.164718 0.156018
0.386690 0.192134 0.141296
0.638042 0.222357 0.160913
0.815770 0.238536 0.170462
0.960319 0.245611 0.173728
-0.000442 0.363437 0.137887
0.130277 0.364305 0.135065
0.376328 0.369803 0.137151
0.637870 0.410003 0.148515
0.820083 0.441675 0.153592
0.957080 0.445113 0.154283
-0.000789 0.574438 0.136769
0.131400 0.575481 0.129243
0.359505 0.583551 0.129226
0.625467 0.620308 0.144333
0.827321 0.625063 0.149343
0.959050 0.623459 0.149337
-0.001187 0.797765 0.131327
0.136360 0.798485 0.128836
0.325811 0.802284 0.128812
0.571974 0.833591 0.128628
0.810855 0.844123 0.148007
0.957624 0.827349 0.152043
-0.001362 0.968662 0.131070
0.129257 0.969199 0.128650
0.277933 0.972510 0.128643
0.552258 0.985651 0.128547
0.759903 0.992251 0.128469
0.929362 0.992914 0.128433
-0.000315 0.067521 0.354806
0.141786 0.061032 0.353337
0.471502 0.076924 0.328108
0.689317 0.104039 0.331132
0.842760 0.114732 0.333544
0.980780 0.120147 0.334495
-0.000310 0.197577 0.344545
0.132328 0.201942 0.351292
0.441621 0.210529 0.328489
0.676183 0.232619 0.326113
0.840288 0.243110 0.325638
0.978199 0.249529 0.325505
-0.000514 0.376689 0.357860
0.129652 0.379334 0.358168
0.350779 0.395553 0.354182
0.648487 0.401268 0.327172
0.833115 0.414992 0.313373
0.972772 0.419242 0.310108
-0.000835 0.583513 0.356198
0.129263 0.573098 0.344224
0.328694 0.594514 0.272611
0.622146 0.625875 0.278159
0.826706 0.629655 0.281631
0.959035 0.629038 0.281622
-0.001170 0.793537 0.295957
0.128851 0.796030 0.284494
0.304681 0.805781 0.261060
0.568999 0.831269 0.258988
0.809880 0.842431 0.278852
0.957463 0.825101 0.282859
-0.001372 0.970937 0.264156
0.128651 0.972417 0.263439
0.267278 0.974160 0.258857
0.547561 0.986403 0.258707
0.758633 0.992702 0.258610
0.928032 0.993469 0.258577
-0.000558 0.118309 0.566220
0.133731 0.114695 0.553237
0.441669 0.126933 0.533857
0.705159 0.148013 0.552699
0.850125 0.156079 0.558895
0.982228 0.166454 0.569374
-0.000564 0.250110 0.563967
0.131237 0.249546 0.563425
0.394342 0.240419 0.550494
0.696447 0.269528 0.528409
0.849710 0.281275 0.540687
0.982207 0.294633 0.557944
-0.000638 0.399562 0.562028
0.129476 0.401843 0.564500
0.279368 0.407828 0.595504
0.672171 0.425445 0.551000
0.849292 0.440397 0.562753
0.982471 0.450592 0.572975
-0.000956 0.604718 0.597962
0.129078 0.606501 0.595602
0.263349 0.621055 0.607208
0.626286 0.641006 0.604718
0.852633 0.641631 0.589179
0.987632 0.639627 0.585368
-0.001395 0.839425 0.616729
0.128654 0.836084 0.599649
0.261103 0.824795 0.569743
0.537618 0.841745 0.435803
0.819200 0.842434 0.454898
0.975029 0.824640 0.488008
-0.001449 0.985370 0.561001
0.128587 0.984221 0.545620
0.259043 0.982840 0.527478
0.507796 1.000003 0.421868
0.775068 0.997088 0.411632
0.941742 0.996415 0.411552
-0.000628 0.132611 0.720796
0.131836 0.132217 0.710017
0.417162 0.133532 0.707216
0.698719 0.169096 0.736972
0.855680 0.184561 0.764762
0.992512 0.194909 0.781433
-0.000666 0.270391 0.734019
0.131037 0.271429 0.734260
0.338532 0.261911 0.724814
0.686230 0.298240 0.733765
0.856471 0.317444 0.766987
0.993323 0.326911 0.782888
-0.000766 0.424063 0.750963
0.129321 0.426281 0.755635
0.266640 0.426912 0.782455
0.674744 0.414740 0.801453
0.867480 0.449421 0.790429
0.998243 0.465602 0.798144
-0.000991 0.604392 0.803681
0.129036 0.606858 0.807392
0.263149 0.613678 0.817533
0.513337 0.606750 0.857440
0.868178 0.632733 0.829071
0.998156 0.646870 0.824081
-0.001275 0.801655 0.839827
0.128744 0.804910 0.840170
0.260857 0.806645 0.837064
0.404878 0.822120 0.841272
0.839908 0.848715 0.830975
0.993249 0.847664 0.830430
-0.001389 0.959490 0.845738
0.128612 0.966389 0.844742
0.258973 0.974769 0.841800
0.396680 0.995977 0.829206
0.801980 1.000011 0.774717
0.976874 0.999942 0.779841
-0.000683 0.143724 0.871253
0.131815 0.143578 0.858936
0.383391 0.136556 0.872800
0.705801 0.168798 0.890939
0.864641 0.177744 0.913216
0.997625 0.189502 0.924767
-0.000718 0.280890 0.884954
0.130842 0.281636 0.884567
0.322411 0.273912 0.868056
0.698016 0.293879 0.889912
0.866039 0.308822 0.915335
0.998152 0.321030 0.926612
-0.000802 0.430702 0.898794
0.129281 0.432417 0.903549
0.266595 0.433888 0.931236
0.642155 0.413752 0.964012
0.868681 0.447524 0.941853
0.999048 0.466098 0.947547
-0.001013 0.608173 0.946731
0.129013 0.610631 0.950201
0.263075 0.615846 0.958573
0.495241 0.605642 0.992910
0.867905 0.630851 0.980879
0.998921 0.641502 0.976563
-0.001238 0.791435 0.978009
0.128779 0.794212 0.979525
0.260796 0.794104 0.980315
0.403294 0.797624 0.985067
0.833046 0.839776 0.991275
0.997859 0.839955 0.990901
-0.001320 0.941247 0.985868
0.128693 0.945282 0.987268
0.259131 0.948371 0.988178
0.396560 0.963099 0.992275
0.783309 0.994408 0.997550
0.994968 1.000008 0.995175
