src/luts/vivid/14.cube
LUT_3D_SIZE 16
-0.000002 -0.000002 0.001246
0.043556 0.000717 0.001651
0.095761 0.004545 0.001525
0.160931 0.014609 0.002614
0.233209 0.026595 0.003601
0.309803 0.039864 0.005335
0.391580 0.053865 0.009385
0.481647 0.065808 0.016151
0.570049 0.077090 0.024677
0.652290 0.089699 0.032768
0.715828 0.097810 0.036802
0.765617 0.100595 0.038279
0.814192 0.102810 0.039286
0.863028 0.105574 0.040857
0.911474 0.108442 0.041519
0.959488 0.110905 0.042510
-0.000012 0.046210 0.001390
0.043442 0.045839 0.001628
0.093383 0.048560 0.001342
0.157410 0.056690 0.002332
0.229246 0.069048 0.003396
0.305891 0.082038 0.005094
0.387060 0.095999 0.008956
0.476785 0.108722 0.015390
0.565964 0.120633 0.023720
0.649006 0.133653 0.031723
0.715466 0.142208 0.036617
0.765782 0.145763 0.038108
0.814368 0.148507 0.038883
0.863137 0.151044 0.040082
0.911340 0.153647 0.041156
0.959364 0.156183 0.042055
-0.000065 0.101950 0.002870
0.043431 0.101330 0.003066
0.088537 0.101146 0.001054
0.154593 0.104449 0.001874
0.225560 0.115928 0.003326
0.301991 0.125999 0.004903
0.381671 0.139120 0.008366
0.469624 0.151864 0.014242
0.559314 0.164030 0.022145
0.643133 0.177206 0.030059
0.714300 0.188377 0.035817
0.765421 0.191654 0.037736
0.814127 0.193907 0.038686
0.863273 0.196901 0.039536
0.911319 0.199150 0.040630
0.959214 0.201516 0.041581
-0.000150 0.165036 0.002518
0.043217 0.165308 0.002263
0.088629 0.167902 0.000266
0.151562 0.162148 0.001564
0.224891 0.166777 0.002647
0.300094 0.181152 0.003985
0.378858 0.195039 0.006756
0.466145 0.206728 0.012092
0.554325 0.217786 0.019094
0.637311 0.228761 0.026646
0.713215 0.238901 0.033516
0.766143 0.241166 0.036251
0.814457 0.242293 0.037069
0.862604 0.244024 0.038924
0.911185 0.246243 0.039681
0.959136 0.248673 0.040597
-0.000248 0.231409 0.001773
0.043100 0.232128 0.000821
0.087746 0.232956 -0.000253
0.147227 0.234043 -0.000176
0.221017 0.226075 0.002591
0.299369 0.232899 0.003699
0.382476 0.249331 0.006476
0.467353 0.264630 0.010636
0.552369 0.279702 0.015511
0.634365 0.292615 0.021584
0.711069 0.302742 0.028142
0.767301 0.304266 0.031567
0.815254 0.303753 0.033050
0.863490 0.304483 0.034308
0.911319 0.305860 0.035568
0.959074 0.307915 0.036509
-0.000345 0.297397 0.001654
0.042998 0.297619 0.000669
0.087800 0.298596 -0.000348
0.136653 0.304137 -0.000372
0.218736 0.298517 0.001528
0.294017 0.292747 0.004404
0.380956 0.302046 0.005883
0.475273 0.320422 0.010836
0.559298 0.337514 0.015145
0.636639 0.353020 0.019329
0.710361 0.369260 0.022910
0.769687 0.377282 0.025219
0.816792 0.376814 0.026359
0.864762 0.377259 0.027608
0.912013 0.377727 0.028556
0.958283 0.378830 0.029187
-0.000447 0.364549 0.000855
0.042912 0.364054 -0.000438
0.087840 0.363719 -0.000442
0.133455 0.366578 -0.000454
0.210536 0.372969 -0.000487
0.291972 0.368920 0.001125
0.375449 0.368721 0.006323
0.471063 0.377701 0.008933
0.562429 0.394828 0.014028
0.640496 0.410635 0.018222
0.711681 0.426507 0.021087
0.774038 0.439979 0.022749
0.822026 0.442378 0.023263
0.868576 0.444630 0.023304
0.913759 0.445586 0.023557
0.957894 0.445363 0.023622
-0.000544 0.430535 0.004179
0.042796 0.430256 0.003450
0.086145 0.430055 0.001839
0.131905 0.431104 -0.000546
0.203701 0.439130 -0.000583
0.288682 0.442792 -0.000615
0.374754 0.450024 0.004376
0.465843 0.451865 0.008746
0.556663 0.456446 0.011030
0.638457 0.468365 0.015480
0.712372 0.484257 0.018863
0.776171 0.499212 0.020319
0.826392 0.503901 0.020580
0.872060 0.506053 0.020604
0.916550 0.505970 0.020721
0.960417 0.505740 0.020755
-0.000657 0.500350 0.001791
0.042678 0.501009 0.000594
0.087861 0.502169 -0.000665
0.132311 0.503181 -0.000669
0.197480 0.505259 -0.000679
0.285432 0.513324 -0.000726
0.365744 0.517154 -0.000762
0.462505 0.534067 0.007310
0.551032 0.535883 0.011166
0.632757 0.534495 0.012794
0.707214 0.542279 0.015680
0.775539 0.557238 0.017590
0.827727 0.564879 0.018435
0.871538 0.566212 0.018297
0.915558 0.565430 0.018298
0.959414 0.565243 0.018296
-0.000791 0.575063 -0.000791
0.042965 0.575475 -0.000793
0.087875 0.575947 -0.000795
0.135947 0.575475 -0.000793
0.192579 0.575968 -0.000796
0.279708 0.581451 -0.000828
0.360963 0.583732 -0.000854
0.446288 0.599713 -0.000881
0.542120 0.619122 0.008948
0.625816 0.619946 0.013760
0.702347 0.611768 0.015367
0.772680 0.615498 0.017484
0.827296 0.623574 0.018516
0.870887 0.623294 0.018509
0.915078 0.622603 0.018514
0.958996 0.622308 0.018509
0.002077 0.638204 0.007208
0.045999 0.638038 0.002964
0.097957 0.638204 0.001627
0.148982 0.638453 0.001207
0.200115 0.639183 -0.000119
0.271024 0.643880 -0.000882
0.356831 0.649168 -0.000852
0.436730 0.660213 -0.001010
0.522384 0.681418 -0.001116
0.609097 0.699313 0.005768
0.693023 0.702155 0.014826
0.767404 0.687208 0.018079
0.826403 0.685157 0.018871
0.870736 0.683790 0.018861
0.914637 0.682296 0.018862
0.958599 0.682146 0.018857
0.008757 0.715807 0.002023
0.055875 0.714245 0.002395
0.105756 0.712999 0.002444
0.156490 0.711895 0.002542
0.207599 0.710481 0.002641
0.264366 0.711209 0.002021
0.347647 0.720988 -0.000997
0.429009 0.731161 -0.001119
0.508830 0.745849 -0.001200
0.587464 0.760886 -0.001286
0.664253 0.775125 -0.001363
0.753277 0.777094 0.015293
0.823849 0.758673 0.020525
0.869657 0.750984 0.020090
0.913541 0.749045 0.019957
0.957545 0.748949 0.019952
-0.001140 0.795001 -0.001176
0.045200 0.794846 -0.001175
0.091177 0.795239 -0.001177
0.142915 0.796275 -0.001181
0.198538 0.797018 -0.001185
0.252671 0.796996 -0.001186
0.327912 0.802677 -0.001216
0.410093 0.816540 -0.001286
0.495357 0.828540 -0.001354
0.572943 0.833996 -0.001397
0.644729 0.838687 -0.001435
0.714413 0.844420 -0.001478
0.810768 0.844678 0.017394
0.868944 0.830052 0.021397
0.913660 0.827921 0.021233
0.957566 0.828233 0.021266
-0.001244 0.854239 -0.001244
0.042289 0.854458 -0.001245
0.087454 0.854944 -0.001247
0.131838 0.856380 -0.001253
0.179040 0.858017 -0.001260
0.238616 0.860068 -0.001269
0.309917 0.864251 -0.001290
0.395271 0.876024 -0.001349
0.481985 0.887831 -0.001414
0.561177 0.895062 -0.001462
0.632712 0.897931 -0.001491
0.701358 0.900523 -0.001519
0.767597 0.905446 -0.001556
0.853663 0.899255 0.012956
0.903406 0.896722 0.016730
0.947283 0.896829 0.016293
-0.001303 0.911358 -0.001303
0.042208 0.911641 -0.001304
0.087319 0.912247 -0.001307
0.131776 0.913117 -0.001310
0.176271 0.914235 -0.001315
0.222292 0.915668 -0.001321
0.292460 0.918288 -0.001333
0.386736 0.927392 -0.001381
0.473876 0.936771 -0.001434
0.555338 0.941169 -0.001470
0.627683 0.943287 -0.001496
0.696268 0.945485 -0.001522
0.761141 0.948641 -0.001551
0.835216 0.951106 -0.001585
0.888827 0.948051 -0.001583
0.932693 0.948083 -0.001583
-0.001352 0.966306 -0.001352
0.042150 0.966466 -0.001353
0.087105 0.967436 -0.001357
0.131712 0.968183 -0.001360
0.176189 0.969272 -0.001365
0.220315 0.970393 -0.001370
0.280214 0.972161 -0.001378
0.384141 0.978549 -0.001413
0.472908 0.982103 -0.001442
0.554914 0.985051 -0.001472
0.627557 0.987156 -0.001498
0.696112 0.989211 -0.001523
0.760934 0.992271 -0.001551
0.831824 0.995822 -0.001588
0.886204 0.992615 -0.001585
0.930187 0.992613 -0.001586
-0.000009 0.001702 0.047506
0.043510 0.002260 0.048332
0.098020 0.002263 0.047543
0.161321 0.010800 0.046462
0.232999 0.025942 0.047300
0.309602 0.039498 0.048930
0.391391 0.052716 0.053124
0.481499 0.064789 0.060006
0.569908 0.076075 0.068644
0.652337 0.088732 0.076861
0.716201 0.097208 0.081144
0.766004 0.100183 0.082374
0.814749 0.102855 0.083757
0.863664 0.105346 0.084623
0.911688 0.107713 0.085749
0.959601 0.110103 0.086676
-0.000014 0.046420 0.047098
0.043448 0.046143 0.047011
0.093474 0.048974 0.046437
0.157532 0.057673 0.046509
0.229506 0.069674 0.047368
0.306180 0.082808 0.048761
0.386822 0.096861 0.052344
0.476664 0.108889 0.058967
0.565957 0.120314 0.067499
0.648970 0.133024 0.075672
0.715508 0.142453 0.080467
0.766231 0.145472 0.082415
0.815292 0.148194 0.083532
0.863487 0.150782 0.084456
0.911735 0.153166 0.085245
0.959675 0.155611 0.086160
-0.000065 0.101792 0.046948
0.043430 0.101203 0.047666
0.087983 0.101003 0.047184
0.154366 0.104869 0.045953
0.225814 0.115063 0.047164
0.302319 0.126241 0.048584
0.381428 0.139419 0.051852
0.469560 0.151822 0.057822
0.559369 0.163680 0.065938
0.643254 0.176535 0.074004
0.714538 0.187882 0.079994
0.766067 0.190626 0.081436
0.814734 0.193020 0.082497
0.863226 0.196376 0.083686
0.911674 0.198644 0.084739
0.959526 0.201017 0.085708
-0.000148 0.164717 0.046701
0.043219 0.165016 0.047399
0.087372 0.167938 0.045931
0.151438 0.162580 0.045273
0.225058 0.167012 0.046306
0.299483 0.180819 0.047641
0.379055 0.194525 0.050376
0.465957 0.205993 0.055783
0.554235 0.217045 0.062911
0.637263 0.227973 0.070545
0.712618 0.238136 0.077531
0.765988 0.240524 0.079982
0.814762 0.241588 0.081446
0.863159 0.243679 0.082441
0.911453 0.245701 0.083775
0.959394 0.248104 0.084734
-0.000246 0.230862 0.046591
0.043101 0.231774 0.046268
0.086583 0.232415 0.044996
0.146042 0.234103 0.043943
0.221639 0.226524 0.046182
0.300164 0.233250 0.047156
0.381678 0.249285 0.049871
0.466546 0.264461 0.054077
0.551943 0.279262 0.059138
0.634051 0.291844 0.065368
0.710953 0.301259 0.072156
0.767543 0.303756 0.075682
0.815380 0.302616 0.076795
0.863591 0.303851 0.078281
0.911584 0.305042 0.079594
0.959222 0.307250 0.080541
-0.000345 0.297339 0.046193
0.042999 0.297403 0.045489
0.087396 0.298121 0.043026
0.136344 0.304719 0.042965
0.217984 0.298830 0.045168
0.295135 0.293829 0.048076
0.382775 0.302825 0.049527
0.475345 0.320633 0.054368
0.558423 0.337402 0.058578
0.635845 0.352857 0.062809
0.709739 0.369098 0.066748
0.769433 0.376664 0.068946
0.816893 0.375596 0.070337
0.864729 0.376553 0.071612
0.912039 0.376891 0.072565
0.958579 0.378066 0.073186
-0.000447 0.364461 0.045163
0.042898 0.363889 0.044558
0.087725 0.363188 0.042899
0.133093 0.365982 0.042889
0.209558 0.373192 0.042855
0.292097 0.369637 0.044841
0.377028 0.369909 0.049872
0.473693 0.378896 0.052725
0.563893 0.395508 0.057817
0.640056 0.410587 0.061713
0.711571 0.426831 0.064814
0.773899 0.439961 0.066237
0.821280 0.442230 0.066720
0.868185 0.444490 0.066894
0.913330 0.445765 0.066992
0.957486 0.445620 0.067044
-0.000543 0.430409 0.048154
0.042797 0.430051 0.047409
0.086146 0.429936 0.045885
0.131815 0.430917 0.042796
0.202776 0.439148 0.042758
0.288430 0.442671 0.042724
0.374455 0.450020 0.047884
0.467647 0.453167 0.052344
0.558858 0.457527 0.054764
0.640223 0.469318 0.059294
0.712237 0.484547 0.062446
0.775962 0.499531 0.063565
0.826008 0.504106 0.063925
0.871899 0.505837 0.064089
0.916390 0.506100 0.064220
0.960268 0.505881 0.064239
-0.000659 0.500863 0.045578
0.042678 0.501033 0.044707
0.087717 0.502196 0.042673
0.132226 0.502834 0.042672
0.196606 0.504766 0.042660
0.284651 0.513648 0.042610
0.365543 0.517118 0.042575
0.461996 0.533856 0.050655
0.552503 0.537230 0.054774
0.634259 0.535647 0.056467
0.708480 0.543402 0.059367
0.775830 0.557932 0.061200
0.827782 0.565153 0.062040
0.871543 0.566070 0.061898
0.915573 0.565722 0.061903
0.959398 0.565488 0.061897
-0.000793 0.575503 0.042798
0.042635 0.575594 0.042543
0.087743 0.575953 0.042542
0.135572 0.575594 0.042543
0.192040 0.575635 0.042543
0.278463 0.581396 0.042509
0.360801 0.583853 0.042482
0.446100 0.599683 0.042504
0.541821 0.619032 0.052317
0.626245 0.620477 0.057345
0.704144 0.613068 0.059052
0.773687 0.616613 0.060993
0.827277 0.623861 0.062119
0.871191 0.623615 0.062253
0.915098 0.622843 0.062117
0.958997 0.622655 0.062118
0.002294 0.638294 0.050554
0.046588 0.638042 0.046175
0.097807 0.638294 0.045236
0.148692 0.638472 0.044682
0.199647 0.639174 0.044077
0.270385 0.643787 0.042524
0.356424 0.649148 0.042694
0.436840 0.660135 0.042324
0.522001 0.681274 0.042242
0.608882 0.699270 0.049332
0.692965 0.702068 0.058344
0.768460 0.687754 0.061966
0.826451 0.685597 0.062465
0.870760 0.683469 0.062457
0.914643 0.682304 0.062456
0.958636 0.682131 0.062455
0.009439 0.715854 0.045688
0.056604 0.714278 0.046035
0.105912 0.712724 0.046404
0.156153 0.711497 0.046181
0.207915 0.710097 0.046420
0.264283 0.710083 0.045694
0.347339 0.720252 0.042462
0.429026 0.730912 0.042230
0.508543 0.745767 0.042134
0.587328 0.760863 0.042047
0.664063 0.774317 0.042004
0.753216 0.777120 0.058900
0.824212 0.759691 0.064256
0.869686 0.751055 0.063679
0.913580 0.748948 0.063542
0.957547 0.748897 0.063541
-0.001045 0.795419 0.042156
0.045571 0.795334 0.042156
0.090939 0.795783 0.042154
0.142203 0.796644 0.042150
0.198505 0.797022 0.042148
0.253085 0.796939 0.042148
0.327529 0.802464 0.042119
0.409466 0.815852 0.042051
0.494900 0.828173 0.041981
0.572647 0.834105 0.041937
0.644335 0.838425 0.041900
0.713917 0.843831 0.041858
0.810748 0.844641 0.060936
0.868878 0.830074 0.064999
0.913565 0.827896 0.064835
0.957579 0.828013 0.064849
-0.001246 0.854881 0.042223
0.042142 0.854913 0.042087
0.087168 0.855524 0.042084
0.131751 0.856843 0.042079
0.179232 0.858420 0.042072
0.238721 0.859701 0.042066
0.309426 0.864077 0.042044
0.394699 0.875638 0.041986
0.481221 0.887473 0.041921
0.560859 0.895139 0.041871
0.632832 0.898248 0.041841
0.700946 0.900567 0.041815
0.767339 0.905235 0.041778
0.853425 0.899101 0.056638
0.903851 0.896449 0.060706
0.947362 0.896713 0.060083
-0.001305 0.911862 0.042152
0.042076 0.911978 0.042028
0.086795 0.912480 0.042026
0.131692 0.913513 0.042022
0.175910 0.914450 0.042017
0.222231 0.915661 0.042012
0.291822 0.918321 0.042000
0.386007 0.927159 0.041954
0.473025 0.936644 0.041900
0.554778 0.941363 0.041862
0.627471 0.943474 0.041837
0.695939 0.945798 0.041811
0.760577 0.948399 0.041784
0.834177 0.951344 0.041748
0.888810 0.948004 0.041757
0.932524 0.948089 0.041750
-0.001354 0.966634 0.042098
0.042025 0.966745 0.041979
0.086204 0.967226 0.041977
0.131626 0.968117 0.041973
0.176116 0.969276 0.041968
0.220119 0.970239 0.041964
0.279824 0.972270 0.041955
0.383279 0.978585 0.041920
0.472020 0.982265 0.041891
0.554289 0.985260 0.041861
0.627288 0.987376 0.041835
0.695489 0.989448 0.041810
0.760442 0.992191 0.041783
0.830672 0.996100 0.041745
0.885996 0.992705 0.041748
0.929998 0.992738 0.041747
-0.000041 0.008638 0.100405
0.043633 0.008067 0.099692
0.103374 0.007768 0.102909
0.172237 0.010768 0.098310
0.243753 0.018690 0.095852
0.313143 0.027765 0.095722
0.394320 0.043453 0.099908
0.483127 0.057874 0.106819
0.570222 0.071182 0.114875
0.652332 0.086252 0.121962
0.716707 0.095517 0.126160
0.766551 0.098478 0.127198
0.815207 0.101498 0.128202
0.863705 0.103629 0.129121
0.912133 0.106412 0.130214
0.959970 0.108919 0.131145
-0.000040 0.051822 0.098737
0.043505 0.052138 0.098956
0.096813 0.051243 0.102472
0.166345 0.054305 0.096355
0.236348 0.061435 0.094105
0.309365 0.076337 0.094322
0.388851 0.091139 0.097859
0.477885 0.104848 0.104448
0.566187 0.117387 0.112618
0.648939 0.131265 0.120184
0.715861 0.141126 0.124955
0.766354 0.144468 0.126670
0.815662 0.146585 0.127899
0.863800 0.149464 0.128504
0.912127 0.152128 0.129608
0.960032 0.154672 0.130516
-0.000064 0.101191 0.099498
0.043429 0.100875 0.099061
0.087898 0.100395 0.098730
0.155560 0.106584 0.095169
0.227252 0.116479 0.093510
0.303431 0.128354 0.092971
0.381538 0.140929 0.095440
0.469430 0.151723 0.101604
0.559265 0.162862 0.109922
0.643215 0.175402 0.118200
0.714907 0.186592 0.124137
0.766600 0.189890 0.125953
0.815275 0.192733 0.126611
0.863661 0.195303 0.127850
0.912032 0.197937 0.128908
0.959968 0.200428 0.129866
-0.000153 0.165649 0.097891
0.043220 0.164627 0.096598
0.087263 0.166362 0.097247
0.149151 0.163001 0.090325
0.224943 0.167286 0.091088
0.299157 0.180674 0.091763
0.379231 0.193333 0.094158
0.465601 0.204715 0.099585
0.553868 0.215710 0.106816
0.637075 0.226773 0.114518
0.713136 0.236688 0.121613
0.766553 0.239749 0.124024
0.815183 0.240753 0.125638
0.863777 0.242707 0.126597
0.911931 0.244884 0.127983
0.959820 0.247210 0.128917
-0.000242 0.229967 0.091861
0.043108 0.230189 0.092119
0.086591 0.231912 0.091827
0.143348 0.234022 0.088473
0.220926 0.226488 0.090088
0.300048 0.232947 0.090846
0.380318 0.249076 0.093193
0.465094 0.264110 0.097433
0.551168 0.278467 0.102731
0.633446 0.290351 0.109205
0.710555 0.300024 0.116130
0.767439 0.301927 0.119397
0.815062 0.301488 0.121248
0.863897 0.302810 0.122406
0.911790 0.303956 0.123790
0.959496 0.306210 0.124666
-0.000343 0.296776 0.090770
0.043003 0.296578 0.091098
0.086407 0.297189 0.090152
0.135681 0.304699 0.086352
0.217155 0.299524 0.089173
0.294968 0.294079 0.091750
0.383359 0.303117 0.093069
0.474279 0.320471 0.097746
0.557144 0.337084 0.101961
0.634719 0.352581 0.106186
0.708698 0.368068 0.110166
0.768932 0.375072 0.112767
0.816682 0.374501 0.114314
0.864259 0.375104 0.115431
0.911877 0.375366 0.116578
0.958781 0.376922 0.117229
-0.000446 0.364192 0.090446
0.042899 0.363725 0.090269
0.086253 0.362522 0.089557
0.132643 0.365411 0.086256
0.207674 0.373600 0.086200
0.291499 0.369209 0.088992
0.377458 0.370271 0.093446
0.475648 0.379798 0.096449
0.564082 0.395693 0.101397
0.639274 0.410444 0.105166
0.711036 0.426261 0.108107
0.773276 0.439812 0.109710
0.821253 0.442460 0.110215
0.867504 0.444479 0.110424
0.912929 0.445641 0.110507
0.957132 0.445670 0.110568
-0.000543 0.430256 0.093783
0.042798 0.429884 0.093031
0.086148 0.429366 0.091581
0.130490 0.430788 0.086267
0.200249 0.439927 0.086101
0.287943 0.443348 0.086108
0.373891 0.449943 0.091249
0.468223 0.453823 0.095894
0.560122 0.458305 0.098424
0.640996 0.469853 0.102967
0.711660 0.484058 0.105932
0.775368 0.499728 0.107119
0.825768 0.504705 0.107391
0.871692 0.506331 0.107596
0.916241 0.506323 0.107691
0.960129 0.506032 0.107753
-0.000657 0.500439 0.091325
0.042679 0.500742 0.089804
0.086019 0.501806 0.086227
0.131725 0.502536 0.086016
0.193932 0.505153 0.086006
0.283908 0.514071 0.085950
0.365260 0.517082 0.085920
0.461564 0.533875 0.094002
0.552491 0.537568 0.098343
0.634486 0.535959 0.100056
0.709195 0.544027 0.103009
0.775839 0.557925 0.104711
0.827485 0.565470 0.105511
0.871598 0.566297 0.105513
0.915579 0.565962 0.105513
0.959486 0.565723 0.105513
-0.000793 0.575557 0.088163
0.042543 0.575604 0.087135
0.086396 0.576005 0.085875
0.133695 0.575604 0.085888
0.190566 0.575968 0.085878
0.277151 0.581400 0.085847
0.360372 0.583725 0.085826
0.445846 0.599610 0.085916
0.541447 0.618888 0.095684
0.626000 0.620532 0.100842
0.703806 0.613203 0.102606
0.774085 0.617274 0.104935
0.827283 0.624555 0.105725
0.870937 0.624006 0.105725
0.915120 0.623201 0.105726
0.959062 0.622993 0.105723
0.002303 0.638354 0.097153
0.046244 0.638105 0.093982
0.096213 0.637949 0.089450
0.147259 0.638105 0.088587
0.198441 0.638878 0.087968
0.269333 0.643612 0.086323
0.355692 0.648865 0.087478
0.436923 0.659936 0.085685
0.521718 0.681292 0.085610
0.608546 0.699061 0.092766
0.692322 0.701667 0.101943
0.768463 0.688291 0.105379
0.826441 0.685662 0.106071
0.870792 0.683553 0.106059
0.914667 0.682386 0.106063
0.958655 0.682248 0.106056
0.005760 0.716204 0.089862
0.054672 0.714560 0.090124
0.104549 0.712680 0.090310
0.155316 0.711384 0.090276
0.206857 0.709469 0.090303
0.263559 0.709748 0.089963
0.346857 0.718839 0.087313
0.428886 0.729775 0.085602
0.508212 0.745599 0.085476
0.587134 0.760844 0.085389
0.663637 0.774503 0.085408
0.753319 0.776840 0.102515
0.824198 0.760178 0.107844
0.869694 0.750730 0.107262
0.913631 0.748747 0.107135
0.957597 0.748605 0.107119
-0.001183 0.796659 0.086259
0.044456 0.796458 0.085493
0.090276 0.796872 0.085492
0.139364 0.797451 0.085489
0.197010 0.797863 0.085487
0.251798 0.797511 0.085488
0.326773 0.802304 0.085462
0.408646 0.814472 0.085398
0.494362 0.827132 0.085326
0.572394 0.833853 0.085279
0.644393 0.838202 0.085241
0.714085 0.843390 0.085200
0.810428 0.844393 0.104465
0.868974 0.829776 0.108449
0.913621 0.827562 0.108424
0.957624 0.827717 0.108442
-0.001250 0.855742 0.086129
0.042087 0.855927 0.085757
0.085602 0.856389 0.085418
0.131496 0.857197 0.085419
0.178017 0.858817 0.085412
0.236343 0.859877 0.085407
0.308312 0.864092 0.085386
0.393858 0.874808 0.085331
0.480175 0.886643 0.085265
0.560224 0.895061 0.085212
0.632393 0.898122 0.085182
0.700708 0.900543 0.085155
0.766736 0.904933 0.085120
0.853592 0.898866 0.100235
0.904206 0.896132 0.105103
0.947846 0.896508 0.104376
-0.001308 0.912636 0.085962
0.042024 0.912840 0.085664
0.085533 0.913125 0.085357
0.131427 0.913769 0.085362
0.176052 0.915019 0.085356
0.221396 0.916156 0.085351
0.290274 0.918539 0.085340
0.384997 0.926570 0.085297
0.471778 0.935958 0.085244
0.553945 0.941520 0.085202
0.627068 0.943735 0.085176
0.695509 0.945857 0.085150
0.760835 0.948461 0.085124
0.833421 0.951636 0.085087
0.888765 0.948030 0.085103
0.932266 0.948195 0.085096
-0.001357 0.967527 0.085851
0.041977 0.967399 0.085598
0.085468 0.967767 0.085308
0.131352 0.968488 0.085313
0.175854 0.969426 0.085308
0.219969 0.970635 0.085303
0.278966 0.972421 0.085295
0.382256 0.978452 0.085261
0.470543 0.982399 0.085231
0.553309 0.985505 0.085200
0.626851 0.987482 0.085175
0.695216 0.989645 0.085149
0.760211 0.992098 0.085123
0.829878 0.996368 0.085084
0.885767 0.992793 0.085088
0.929761 0.992788 0.085087
-0.000093 0.019819 0.158472
0.043597 0.019032 0.157493
0.092251 0.018517 0.160388
0.183623 0.019061 0.158837
0.258254 0.023751 0.151874
0.336894 0.034376 0.149481
0.415594 0.047603 0.149905
0.495328 0.059652 0.154988
0.576731 0.071229 0.162369
0.655311 0.083410 0.169810
0.718718 0.090901 0.174036
0.767835 0.093510 0.175157
0.816868 0.096803 0.176470
0.865194 0.099072 0.177150
0.913293 0.101729 0.177894
0.961383 0.104206 0.178929
-0.000090 0.062694 0.156638
0.043474 0.062565 0.156332
0.089393 0.061441 0.157117
0.177730 0.061695 0.157632
0.251769 0.067474 0.149888
0.330057 0.077212 0.147618
0.408678 0.090212 0.148239
0.489262 0.102414 0.153517
0.571959 0.114173 0.161122
0.651481 0.126619 0.168696
0.717783 0.134773 0.173364
0.767976 0.138818 0.174246
0.816337 0.141989 0.175118
0.864961 0.145014 0.176068
0.913226 0.147715 0.176825
0.961147 0.150064 0.177798
-0.000091 0.106682 0.153528
0.043401 0.106903 0.153618
0.087605 0.109568 0.155920
0.164597 0.109756 0.157248
0.241620 0.114932 0.148700
0.319822 0.121641 0.144830
0.397707 0.132795 0.145719
0.478695 0.143962 0.151210
0.563534 0.156269 0.158917
0.644766 0.169190 0.166536
0.716070 0.181018 0.172182
0.767640 0.185528 0.173014
0.816413 0.188938 0.173461
0.864757 0.191402 0.174742
0.912842 0.194563 0.175173
0.960795 0.196999 0.176100
-0.000148 0.163699 0.157622
0.043218 0.164145 0.157559
0.087158 0.164048 0.157278
0.140653 0.164718 0.156018
0.226847 0.172006 0.147633
0.305762 0.181266 0.142373
0.386690 0.192134 0.141296
0.469018 0.201966 0.145516
0.555653 0.211392 0.153192
0.638042 0.222357 0.160913
0.713633 0.233668 0.167639
0.767126 0.237477 0.169510
0.815770 0.238536 0.170462
0.864325 0.240928 0.171677
0.912466 0.243167 0.172810
0.960319 0.245611 0.173728
-0.000273 0.236789 0.159348
0.043082 0.235204 0.157082
0.086576 0.232485 0.153630
0.132453 0.235998 0.151446
0.220045 0.230441 0.138751
0.299844 0.234894 0.138250
0.380137 0.249424 0.138311
0.464037 0.262883 0.141527
0.550244 0.275491 0.147212
0.632518 0.287146 0.153741
0.709730 0.297043 0.160589
0.767517 0.300033 0.163883
0.815907 0.300025 0.165459
0.863806 0.300908 0.166715
0.912004 0.302563 0.168077
0.959704 0.304831 0.168986
-0.000352 0.298959 0.145049
0.042998 0.297648 0.143025
0.086413 0.296142 0.141464
0.131160 0.302110 0.139940
0.213270 0.302838 0.133272
0.295039 0.294654 0.136698
0.381666 0.303171 0.136708
0.471328 0.320140 0.140974
0.554981 0.336625 0.145227
0.632707 0.351800 0.149490
0.707280 0.366480 0.153645
0.768419 0.373763 0.156883
0.816517 0.372528 0.158443
0.864269 0.372829 0.159481
0.911687 0.373378 0.160772
0.958863 0.374952 0.161545
-0.000442 0.363437 0.137887
0.042902 0.363029 0.137420
0.086254 0.362172 0.137062
0.130277 0.364305 0.135065
0.203976 0.375395 0.129674
0.290448 0.368919 0.133538
0.376328 0.369803 0.137151
0.474405 0.379350 0.139874
0.562771 0.395260 0.144789
0.637870 0.410003 0.148515
0.709282 0.425905 0.151694
0.772440 0.439110 0.153056
0.820083 0.441675 0.153592
0.866849 0.444171 0.153959
0.912804 0.445096 0.154227
0.957080 0.445113 0.154283
-0.000540 0.429528 0.139651
0.042800 0.429366 0.139302
0.086149 0.429089 0.138273
