src/luts/vivid/15.cube
LUT_3D_SIZE 6
0.001875 0.008772 0.009388
0.183414 0.020773 0.009605
0.439568 0.058087 0.004765
0.701509 0.062916 0.031414
0.853042 0.067475 0.035798
0.991945 0.070307 0.037729
0.003350 0.178536 0.008728
0.179092 0.172814 0.003120
0.428698 0.200594 0.004259
0.692315 0.212707 0.025791
0.853703 0.212090 0.032760
0.992238 0.213093 0.035216
0.026145 0.381549 0.004421
0.170107 0.383405 0.002787
0.452736 0.381879 0.002917
0.696203 0.390543 0.017558
0.859194 0.398311 0.021118
0.992768 0.400132 0.021126
0.049693 0.601289 -0.000908
0.195584 0.601495 -0.000914
0.436383 0.605891 0.007765
0.709169 0.592042 0.009213
0.860227 0.582817 0.011528
0.991767 0.583100 0.011620
0.075633 0.820558 -0.001293
0.222821 0.822799 -0.001307
0.398840 0.827093 -0.001343
0.682054 0.842592 0.005490
0.861301 0.803085 0.006512
0.993452 0.784009 0.010988
0.086029 0.975962 -0.001404
0.223079 0.977962 -0.001414
0.378696 0.980590 -0.001433
0.655031 0.987378 0.005404
0.860104 0.989662 0.005438
0.993399 0.976540 0.005448
0.000184 0.027391 0.178236
0.198730 0.018550 0.182394
0.451517 0.037763 0.146708
0.703817 0.045190 0.173404
0.856324 0.053461 0.177191
0.993684 0.060793 0.182537
-0.000189 0.173312 0.170649
0.150475 0.173302 0.167770
0.426853 0.195378 0.137318
0.690848 0.200752 0.163256
0.855086 0.205194 0.168794
0.994157 0.207377 0.170702
0.015308 0.379003 0.136527
0.163200 0.380744 0.134941
0.448314 0.380992 0.135116
0.691986 0.389729 0.148181
0.858707 0.396414 0.153485
0.993651 0.398050 0.154195
0.048027 0.600229 0.130985
0.192885 0.599960 0.130983
0.432369 0.604658 0.138708
0.708593 0.592541 0.139969
0.860433 0.583291 0.142684
0.991867 0.583565 0.142744
0.075077 0.820926 0.130061
0.221866 0.822236 0.129803
0.395924 0.825278 0.129620
0.680801 0.841840 0.138473
0.861261 0.803020 0.139376
0.993497 0.782140 0.141734
0.086137 0.976289 0.129383
0.222624 0.978082 0.129359
0.376691 0.980383 0.129676
0.652372 0.987694 0.138385
0.859869 0.989268 0.138426
0.993399 0.976925 0.138433
0.000608 0.063095 0.373257
0.134209 0.062616 0.378993
0.511852 0.049104 0.363760
0.728216 0.061552 0.362914
0.864510 0.082905 0.367094
0.997326 0.091907 0.370053
-0.000232 0.199021 0.357950
0.133120 0.199377 0.360644
0.482652 0.189412 0.357151
0.715732 0.195536 0.353390
0.864744 0.213807 0.357442
0.997432 0.221410 0.360087
-0.000519 0.377776 0.358987
0.131497 0.376912 0.357449
0.384222 0.391160 0.363141
0.692958 0.380699 0.327046
0.865937 0.381644 0.342920
0.997589 0.385416 0.346265
0.003095 0.583424 0.340792
0.136719 0.576584 0.332169
0.397529 0.605621 0.279503
0.701601 0.597073 0.274409
0.861319 0.586154 0.277793
0.992806 0.585865 0.277362
0.068647 0.818463 0.269095
0.208936 0.821845 0.267719
0.385130 0.822228 0.265592
0.677349 0.839689 0.271612
0.861188 0.800549 0.271133
0.993588 0.779358 0.272765
0.086846 0.978239 0.264710
0.222500 0.979261 0.264378
0.372253 0.980481 0.263524
0.647115 0.988168 0.271479
0.859708 0.988769 0.271702
0.993399 0.977321 0.271711
0.001091 0.104284 0.581343
0.135007 0.103146 0.582486
0.469284 0.091888 0.604585
0.731256 0.115333 0.579682
0.867485 0.125381 0.572140
0.998047 0.138126 0.582021
0.000773 0.244814 0.574002
0.134315 0.240254 0.569475
0.403695 0.226902 0.608473
0.727856 0.240829 0.561429
0.867575 0.256166 0.560748
0.998128 0.269584 0.572344
-0.000610 0.393698 0.552794
0.131370 0.393174 0.552893
0.268320 0.403111 0.576576
0.714472 0.397226 0.559222
0.867481 0.419757 0.569861
0.997999 0.427681 0.575853
-0.000938 0.602431 0.575065
0.130938 0.601754 0.573883
0.267983 0.610471 0.580294
0.657360 0.632901 0.598551
0.866416 0.626032 0.587169
0.997730 0.621396 0.585401
-0.001316 0.825197 0.535024
0.129838 0.822034 0.526809
0.267753 0.812212 0.516564
0.634452 0.834560 0.446147
0.862035 0.795008 0.417944
0.998158 0.786830 0.504302
0.013206 0.979114 0.500190
0.148136 0.978992 0.489681
0.286386 0.979089 0.464427
0.608735 0.994246 0.412654
0.859911 0.988016 0.426832
0.994151 0.966917 0.419364
0.001387 0.113325 0.727658
0.135088 0.113054 0.729446
0.419054 0.106655 0.781843
0.725099 0.124831 0.765306
0.867075 0.146751 0.770858
0.997740 0.157118 0.775890
0.001029 0.259601 0.732105
0.134823 0.256815 0.730564
0.305600 0.256860 0.773624
0.715940 0.256659 0.770042
0.867050 0.283825 0.773505
0.997676 0.293704 0.778224
-0.000564 0.412105 0.728504
0.132250 0.412236 0.731110
0.268365 0.417452 0.747170
0.685865 0.400520 0.807672
0.867280 0.439829 0.790460
0.997730 0.450171 0.789917
-0.000964 0.603879 0.753040
0.130871 0.605160 0.755870
0.267812 0.609578 0.764527
0.408681 0.617192 0.817125
0.866050 0.625922 0.818365
0.997299 0.632664 0.812259
-0.001286 0.810687 0.778135
0.129803 0.811448 0.778736
0.264551 0.810306 0.777644
0.404279 0.822118 0.786414
0.852365 0.838639 0.816550
0.996828 0.837449 0.818471
-0.001380 0.963602 0.777408
0.129423 0.966241 0.777032
0.263217 0.970434 0.776521
0.403682 0.984636 0.758610
0.835990 0.995339 0.751939
0.997189 0.975910 0.729634
0.001671 0.120249 0.870326
0.135323 0.120064 0.871559
0.360677 0.117517 0.939312
0.723003 0.125469 0.922703
0.867204 0.145648 0.918551
0.997971 0.159342 0.929393
0.001349 0.266684 0.875338
0.135073 0.263430 0.873032
0.282933 0.266558 0.906227
0.713393 0.256491 0.929042
0.867176 0.281882 0.920902
0.997987 0.295469 0.931468
-0.000474 0.420490 0.874771
0.132326 0.420388 0.877171
0.268462 0.424922 0.891628
0.650577 0.407596 0.967727
0.867288 0.435098 0.936105
0.997976 0.450670 0.944650
-0.000987 0.608272 0.895381
0.130839 0.609290 0.897936
0.267895 0.612984 0.905468
0.405027 0.616724 0.946908
0.865922 0.614126 0.968723
0.997633 0.625931 0.962275
-0.001274 0.807024 0.917411
0.129818 0.808225 0.919117
0.264259 0.806439 0.920710
0.403508 0.809416 0.929706
0.829329 0.834820 0.987747
0.994517 0.835520 0.982720
-0.001354 0.956312 0.921166
0.129470 0.957620 0.921995
0.263136 0.959038 0.923060
0.402623 0.967766 0.928744
0.762442 0.995348 0.981180
0.994056 0.992362 0.976837
