src/luts/vivid/15.cube
LUT_3D_SIZE 16
0.001875 0.008772 0.009388
0.047768 0.010167 0.010250
0.111435 0.013070 0.010305
0.183414 0.020773 0.009605
0.262928 0.033405 0.005255
0.350729 0.046350 0.003346
0.439568 0.058087 0.004765
0.533636 0.063263 0.011123
0.623590 0.061214 0.023035
0.701509 0.062916 0.031414
0.758348 0.065393 0.033871
0.805917 0.066427 0.034847
0.853042 0.067475 0.035798
0.899405 0.068459 0.036456
0.945855 0.069374 0.037035
0.991945 0.070307 0.037729
0.001762 0.057258 0.010154
0.046420 0.056652 0.010421
0.107636 0.058497 0.010317
0.179203 0.064766 0.010290
0.258441 0.076701 0.005872
0.346044 0.089600 0.003227
0.435198 0.101481 0.004607
0.529461 0.108175 0.010341
0.620006 0.107416 0.021788
0.699612 0.109584 0.030464
0.758519 0.112269 0.033109
0.806192 0.113567 0.034357
0.852726 0.114316 0.034852
0.899472 0.115363 0.035799
0.945925 0.116294 0.036398
0.992006 0.117205 0.037054
0.001876 0.114964 0.012380
0.045755 0.114136 0.011881
0.106234 0.112474 0.006626
0.175982 0.115485 0.008334
0.254540 0.124189 0.006053
0.341628 0.135204 0.003163
0.430128 0.146497 0.004412
0.522865 0.154078 0.009028
0.614147 0.154544 0.019684
0.695590 0.156280 0.029123
0.757857 0.159449 0.032668
0.806354 0.160544 0.033673
0.852972 0.161522 0.034491
0.899562 0.162372 0.035103
0.945985 0.163278 0.035715
0.992113 0.164217 0.036337
0.003350 0.178536 0.008728
0.047831 0.178990 0.004034
0.105518 0.179327 0.003789
0.179092 0.172814 0.003120
0.256864 0.179015 0.002686
0.339342 0.188798 0.003021
0.428698 0.200594 0.004259
0.520853 0.209598 0.006780
0.610811 0.212083 0.015909
0.692315 0.212707 0.025791
0.758014 0.213949 0.030455
0.807135 0.212946 0.032060
0.853703 0.212090 0.032760
0.899919 0.212428 0.033971
0.946273 0.212360 0.034608
0.992238 0.213093 0.035216
0.011154 0.245379 0.004074
0.058743 0.246041 0.003883
0.106801 0.246136 0.003529
0.175457 0.243564 0.004236
0.262073 0.239759 0.001496
0.345830 0.246938 0.003284
0.430575 0.257340 0.004279
0.521428 0.265809 0.005682
0.609445 0.272237 0.010942
0.690636 0.274710 0.020779
0.757838 0.275819 0.026275
0.808874 0.274965 0.028245
0.854824 0.273598 0.029229
0.901183 0.273368 0.030346
0.947119 0.273133 0.030978
0.992802 0.274036 0.031549
0.018538 0.312546 0.004283
0.065253 0.313040 0.004106
0.112187 0.313385 0.003925
0.173100 0.316444 0.003645
0.255135 0.308256 0.004222
0.350834 0.308543 0.001308
0.444029 0.316571 0.004695
0.533698 0.322578 0.006096
0.613623 0.328233 0.009508
0.690671 0.333911 0.017114
0.757669 0.337902 0.022519
0.810893 0.339587 0.024214
0.856523 0.338482 0.024921
0.902473 0.338198 0.025543
0.947821 0.338036 0.026251
0.993308 0.338826 0.026613
0.026145 0.381549 0.004421
0.071723 0.381165 0.004329
0.118192 0.381538 0.004089
0.170107 0.383405 0.002787
0.253732 0.385918 0.004586
0.349044 0.382714 0.000864
0.452736 0.381879 0.002917
0.550233 0.384060 0.006867
0.627760 0.388520 0.011960
0.696203 0.390543 0.017558
0.759274 0.394709 0.020273
0.813084 0.398182 0.020698
0.859194 0.398311 0.021118
0.904102 0.398395 0.021335
0.948770 0.398864 0.021493
0.992768 0.400132 0.021126
0.032008 0.451241 0.004287
0.078097 0.451770 0.002905
0.124664 0.453110 0.001314
0.172729 0.453161 -0.000515
0.251476 0.458410 0.001657
0.345992 0.457493 0.005726
0.455098 0.466273 -0.000788
0.555316 0.453719 0.006699
0.636489 0.451678 0.011318
0.704393 0.453102 0.014824
0.763182 0.453258 0.016894
0.815788 0.454645 0.017974
0.860337 0.455456 0.017374
0.904036 0.456243 0.017133
0.948052 0.457087 0.016896
0.991774 0.458644 0.016370
0.040978 0.526984 -0.000771
0.088174 0.527401 -0.000777
0.136141 0.526984 -0.000777
0.184987 0.526540 -0.000777
0.248503 0.528383 -0.000788
0.344436 0.531602 0.006348
0.446721 0.537786 0.004370
0.551649 0.544881 0.006541
0.638943 0.524062 0.008603
0.707712 0.517049 0.010977
0.766810 0.516098 0.012592
0.814953 0.517826 0.012998
0.860099 0.517003 0.013380
0.903764 0.516478 0.013247
0.947548 0.516936 0.013146
0.991365 0.517838 0.012924
0.049693 0.601289 -0.000908
0.097483 0.601495 -0.000910
0.146152 0.601751 -0.000913
0.195584 0.601495 -0.000914
0.248792 0.601554 -0.000914
0.337789 0.602251 0.002087
0.436383 0.605891 0.007765
0.543470 0.620304 0.005132
0.633385 0.621125 0.006566
0.709169 0.592042 0.009213
0.767045 0.580763 0.011224
0.814591 0.581305 0.011752
0.860227 0.582817 0.011528
0.904274 0.582577 0.011608
0.947958 0.582313 0.011622
0.991767 0.583100 0.011620
0.058702 0.665550 -0.000865
0.106809 0.666069 -0.000942
0.155532 0.666335 -0.000978
0.205070 0.666930 -0.001004
0.255355 0.667677 -0.001015
0.328370 0.669615 -0.000805
0.427516 0.672977 0.008661
0.529768 0.685536 0.006182
0.627211 0.697537 0.005267
0.703381 0.693343 0.006282
0.767157 0.659329 0.009617
0.814431 0.648211 0.010665
0.860655 0.646872 0.010891
0.904665 0.645650 0.011048
0.948371 0.644850 0.011012
0.992134 0.644518 0.010965
0.071850 0.748482 -0.001077
0.119601 0.748278 -0.001058
0.167502 0.747399 -0.001108
0.216501 0.746432 -0.001143
0.265770 0.745831 -0.001161
0.321858 0.745049 -0.001158
0.417283 0.749023 0.001226
0.516774 0.756017 0.003218
0.613992 0.766529 0.005293
0.698180 0.770157 0.005455
0.764093 0.761357 0.005689
0.815017 0.732064 0.009418
0.860911 0.717184 0.010773
0.905130 0.711522 0.010817
0.948974 0.709079 0.010812
0.992734 0.708382 0.010827
0.075633 0.820558 -0.001293
0.124317 0.821364 -0.001298
0.173244 0.821779 -0.001301
0.222821 0.822799 -0.001307
0.272389 0.822414 -0.001308
0.322833 0.822400 -0.001310
0.398840 0.827093 -0.001343
0.496404 0.835768 -0.001403
0.593217 0.840872 0.003842
0.682054 0.842592 0.005490
0.759818 0.838182 0.005410
0.814628 0.829324 0.005286
0.861301 0.803085 0.006512
0.906142 0.786954 0.010493
0.949928 0.784238 0.010788
0.993452 0.784009 0.010988
0.078700 0.874814 -0.001340
0.124370 0.875794 -0.001345
0.172404 0.876706 -0.001350
0.222336 0.877928 -0.001357
0.272108 0.878396 -0.001361
0.322489 0.879512 -0.001368
0.385274 0.882543 -0.001388
0.479442 0.890124 -0.001258
0.575770 0.896375 0.005238
0.663858 0.898364 0.005415
0.746607 0.899406 0.005423
0.813219 0.893375 0.005405
0.860612 0.892523 0.005410
0.906732 0.872667 0.005697
0.950115 0.868705 0.005634
0.993400 0.868759 0.005902
0.082360 0.926025 -0.001374
0.127737 0.926713 -0.001378
0.173538 0.927733 -0.001383
0.222064 0.928160 -0.001386
0.272353 0.929181 -0.001393
0.322661 0.929870 -0.001398
0.378829 0.931564 -0.001409
0.469630 0.937465 0.000189
0.566663 0.941582 0.005271
0.656060 0.943331 0.005404
0.738492 0.944808 0.005455
0.811971 0.943256 0.005388
0.860055 0.943790 0.005446
0.906479 0.932358 0.005455
0.950065 0.929448 0.005457
0.993399 0.928846 0.005458
0.086029 0.975962 -0.001404
0.131429 0.976646 -0.001407
0.176805 0.977357 -0.001411
0.223079 0.977962 -0.001414
0.272387 0.978616 -0.001418
0.323095 0.979485 -0.001424
0.378696 0.980590 -0.001433
0.468559 0.983618 0.001979
0.565567 0.985742 0.005282
0.655031 0.987378 0.005404
0.737404 0.988815 0.005467
0.811244 0.987607 0.005387
0.860104 0.989662 0.005438
0.906480 0.982021 0.005444
0.950065 0.977728 0.005447
0.993399 0.976540 0.005448
0.001055 0.011400 0.058391
0.046901 0.011293 0.058635
0.110648 0.010867 0.058967
0.181928 0.015868 0.056099
0.261932 0.032138 0.050016
0.349329 0.045753 0.046854
0.438422 0.057073 0.048390
0.532522 0.061815 0.055039
0.623124 0.059113 0.067511
0.701537 0.060673 0.076247
0.759157 0.063795 0.079199
0.806494 0.064715 0.080025
0.853257 0.065319 0.080495
0.899881 0.066515 0.081474
0.946376 0.067465 0.082096
0.992494 0.068498 0.082763
0.001212 0.056864 0.056539
0.045519 0.056508 0.056427
0.105770 0.058306 0.056739
0.177679 0.064313 0.055868
0.257777 0.076095 0.050986
0.344688 0.089798 0.046718
0.434907 0.102301 0.048112
0.528556 0.108336 0.053728
0.619733 0.106432 0.065879
0.699700 0.107874 0.075131
0.759199 0.110776 0.077985
0.806689 0.111908 0.079075
0.853621 0.113061 0.080012
0.900074 0.113882 0.080663
0.946486 0.114840 0.081290
0.992661 0.115776 0.081919
0.001795 0.114276 0.057114
0.045507 0.113492 0.057244
0.103108 0.112327 0.052881
0.174422 0.114993 0.054444
0.252899 0.122893 0.051256
0.340299 0.135226 0.046739
0.429870 0.146534 0.047964
0.521978 0.153911 0.052492
0.613585 0.153485 0.063740
0.695643 0.154611 0.073671
0.758862 0.158085 0.077512
0.806940 0.159013 0.078279
0.853450 0.159980 0.078998
0.900391 0.161198 0.080181
0.946592 0.161870 0.080586
0.992639 0.162870 0.081144
0.003152 0.177634 0.055298
0.047099 0.178078 0.053792
0.101929 0.178894 0.048226
0.177421 0.172537 0.047901
0.255764 0.178963 0.047235
0.338997 0.188220 0.046522
0.428183 0.199588 0.047789
0.519739 0.208536 0.050467
0.610118 0.210751 0.060015
0.692138 0.211056 0.070255
0.758335 0.212457 0.075218
0.807638 0.211493 0.076891
0.853933 0.210727 0.077836
0.900410 0.210924 0.078744
0.946718 0.210878 0.079420
0.992821 0.211667 0.080027
0.005392 0.244515 0.048044
0.055412 0.245066 0.047848
0.104315 0.245324 0.047557
0.173632 0.243842 0.048162
0.260654 0.239153 0.045660
0.344444 0.246337 0.046681
0.429411 0.257060 0.047733
0.520155 0.265469 0.049204
0.608496 0.271323 0.054738
0.690084 0.273356 0.064999
0.757935 0.274475 0.071296
0.809137 0.273420 0.072886
0.855160 0.272063 0.073902
0.901607 0.271815 0.075040
0.947527 0.271683 0.075703
0.993239 0.272545 0.076253
0.016547 0.311971 0.048008
0.063731 0.312433 0.047801
0.110970 0.313234 0.047524
0.171603 0.315802 0.047158
0.253875 0.308227 0.048141
0.350732 0.308675 0.045334
0.442130 0.316280 0.048113
0.532018 0.322487 0.049565
0.612202 0.328055 0.052949
0.689630 0.333479 0.060709
0.757496 0.337159 0.066539
0.810880 0.338541 0.068568
0.856686 0.337198 0.069354
0.902433 0.336947 0.070014
0.948066 0.336778 0.070730
0.993488 0.337615 0.071121
0.025093 0.380972 0.047994
0.070797 0.380637 0.047893
0.117462 0.380955 0.047583
0.169036 0.382406 0.047021
0.251795 0.384863 0.048120
0.348245 0.382502 0.045085
0.453049 0.382061 0.047013
0.548403 0.383822 0.050301
0.626499 0.388422 0.055423
0.695289 0.390334 0.061239
0.758907 0.394769 0.064006
0.813052 0.398104 0.064594
0.858977 0.397889 0.065231
0.904246 0.398108 0.065470
0.948909 0.398418 0.065599
0.992982 0.399664 0.065443
0.031362 0.450654 0.048178
0.077550 0.451094 0.047267
0.124301 0.452953 0.045428
0.172367 0.453404 0.044055
0.250008 0.457612 0.045858
0.344454 0.456944 0.049318
0.454321 0.465901 0.042860
0.555955 0.453954 0.050244
0.635538 0.451531 0.054905
0.703698 0.453229 0.058453
0.762704 0.453534 0.060598
0.815421 0.454669 0.061469
0.860432 0.455481 0.061116
0.904185 0.456340 0.061027
0.948134 0.457072 0.060625
0.991886 0.458645 0.060081
0.040707 0.526447 0.042690
0.087968 0.527023 0.042603
0.135911 0.526869 0.042634
0.184548 0.526142 0.042604
0.247533 0.527992 0.042643
0.342690 0.530684 0.049824
0.445537 0.537313 0.048785
0.551304 0.544833 0.050874
0.639540 0.524584 0.052217
0.707120 0.517210 0.054647
0.766410 0.516176 0.056211
0.815049 0.518005 0.056627
0.860083 0.517394 0.056955
0.903816 0.516834 0.056947
0.947657 0.517004 0.056834
0.991474 0.517850 0.056611
0.049508 0.601034 0.042463
0.097229 0.601069 0.042462
0.145858 0.601478 0.042459
0.195160 0.601069 0.042459
0.248046 0.600440 0.042477
0.337083 0.602758 0.046023
0.435464 0.605642 0.051332
0.542713 0.619943 0.049393
0.633297 0.621020 0.050896
0.709602 0.592513 0.052790
0.767256 0.580839 0.054974
0.814525 0.581272 0.055423
0.860243 0.583017 0.055322
0.904103 0.582575 0.055408
0.948006 0.582363 0.055322
0.991793 0.583358 0.055326
0.058362 0.665252 0.043665
0.106496 0.665796 0.042769
0.155309 0.666474 0.042562
0.204583 0.666594 0.042374
0.254679 0.667005 0.042359
0.327023 0.669119 0.043604
0.426544 0.672729 0.052247
0.528880 0.684998 0.050825
0.626886 0.697343 0.049543
0.703381 0.693263 0.050572
0.767493 0.659990 0.053114
0.814641 0.648126 0.054240
0.860479 0.646730 0.054588
0.904801 0.645893 0.054552
0.948419 0.645166 0.054651
0.992213 0.644875 0.054620
0.071520 0.748071 0.042832
0.119088 0.747424 0.042988
0.167453 0.746323 0.042619
0.216451 0.745799 0.042341
0.265477 0.744926 0.042296
0.321132 0.744053 0.042270
0.416344 0.748858 0.045494
0.516072 0.755527 0.047565
0.613454 0.766180 0.049577
0.697896 0.770039 0.049743
0.764232 0.761468 0.049990
0.814859 0.732174 0.053430
0.860922 0.716927 0.054273
0.905226 0.711284 0.054457
0.949020 0.708978 0.054395
0.992746 0.708369 0.054412
0.075561 0.820496 0.042064
0.124309 0.821210 0.042060
0.173435 0.822020 0.042055
0.222830 0.822416 0.042051
0.272441 0.822651 0.042048
0.322873 0.822613 0.042054
0.398061 0.826660 0.042015
0.495535 0.835345 0.041999
0.592673 0.840676 0.047979
0.681748 0.842503 0.049786
0.759456 0.837892 0.049814
0.814614 0.829184 0.049786
0.861312 0.803243 0.050645
0.906175 0.786196 0.054048
0.949937 0.783791 0.054322
0.993477 0.783417 0.054538
0.078697 0.874985 0.042015
0.124373 0.875870 0.042011
0.172524 0.876848 0.042005
0.222233 0.877927 0.041999
0.272172 0.878579 0.041994
0.322538 0.879563 0.041987
0.384677 0.882456 0.041968
0.478293 0.889882 0.042575
0.574960 0.896256 0.049507
0.663454 0.898474 0.049715
0.746239 0.899462 0.049702
0.813071 0.893122 0.049922
0.860598 0.892551 0.049921
0.906732 0.872167 0.049823
0.950109 0.868223 0.049936
0.993400 0.868347 0.050248
0.082344 0.926077 0.041981
0.127739 0.926723 0.041977
0.173441 0.927533 0.041973
0.221774 0.928221 0.041969
0.272115 0.928917 0.041964
0.322420 0.929964 0.041957
0.378245 0.931531 0.041946
0.468634 0.937373 0.044770
0.565515 0.941742 0.049554
0.655486 0.943480 0.049697
0.738085 0.944681 0.049752
0.811751 0.943381 0.049901
0.860040 0.943827 0.049743
0.906480 0.932120 0.049751
0.950065 0.929414 0.049753
0.993399 0.929017 0.049753
0.086032 0.976070 0.041951
0.131347 0.976618 0.041948
0.176778 0.977251 0.041945
0.222948 0.977999 0.041941
0.272279 0.978315 0.041945
0.322955 0.979341 0.041945
0.378312 0.980552 0.041950
0.467497 0.983679 0.046189
0.564515 0.985802 0.049567
0.654451 0.987432 0.049697
0.737049 0.988915 0.049762
0.811041 0.988080 0.049901
0.860105 0.989750 0.049734
0.906480 0.982197 0.049738
0.950065 0.977829 0.049741
0.993399 0.976578 0.049742
0.000147 0.018916 0.116980
0.044504 0.017711 0.115118
0.115086 0.013679 0.118929
0.189080 0.014785 0.116817
0.264882 0.015412 0.109502
0.347299 0.034742 0.094221
0.435678 0.046236 0.094943
0.530602 0.049632 0.103273
0.620986 0.050380 0.114855
0.701494 0.055667 0.122600
0.759596 0.060503 0.124685
0.807233 0.061522 0.125077
0.853858 0.062866 0.126118
0.900450 0.063853 0.126794
0.946784 0.065009 0.127428
0.993048 0.066121 0.128108
0.000462 0.062554 0.112897
0.044164 0.062336 0.112804
0.106298 0.059013 0.115551
0.181685 0.059747 0.113361
0.258595 0.060972 0.102938
0.343326 0.084165 0.092406
0.432360 0.095692 0.093109
0.527032 0.101155 0.100098
0.618335 0.101205 0.111822
0.699436 0.104522 0.120550
0.759564 0.108438 0.123761
0.807275 0.109511 0.124180
0.853688 0.110555 0.124781
0.900629 0.111811 0.125747
0.947051 0.112838 0.126377
0.993191 0.113883 0.127029
0.000660 0.112634 0.111378
0.044281 0.112020 0.110707
0.093796 0.111457 0.109491
0.171270 0.113939 0.107656
0.251436 0.120755 0.101649
0.338801 0.135655 0.091624
0.429184 0.146903 0.091804
0.520699 0.153316 0.096126
0.612817 0.151657 0.108107
0.695520 0.152349 0.118516
0.759020 0.155974 0.122190
0.807396 0.157401 0.123171
0.854222 0.158397 0.123852
0.900660 0.159242 0.124469
0.947152 0.160368 0.125460
0.993270 0.161404 0.126068
0.002286 0.176478 0.107597
0.046109 0.175585 0.106140
0.091741 0.177044 0.104169
0.172016 0.171292 0.096424
0.252145 0.177513 0.094031
0.337131 0.186934 0.090381
0.427029 0.197981 0.091387
0.517961 0.206907 0.094263
0.608975 0.208730 0.104297
0.691759 0.209003 0.114809
0.758526 0.210554 0.119953
0.808216 0.209789 0.121881
0.854633 0.208988 0.122705
0.901067 0.209162 0.123674
0.947298 0.209131 0.124333
0.993367 0.209954 0.124989
0.004397 0.242652 0.099724
0.048436 0.243419 0.096507
0.098020 0.243922 0.092016
0.170157 0.243403 0.092464
0.257982 0.238046 0.089521
0.343185 0.245713 0.090133
0.428277 0.256403 0.091222
0.518199 0.264628 0.092725
0.607064 0.269792 0.098697
0.689060 0.271519 0.109327
0.758257 0.272518 0.115610
0.809657 0.271755 0.117947
0.855758 0.270302 0.118700
0.902019 0.270172 0.119850
0.947893 0.269945 0.120531
0.993777 0.270852 0.121101
0.011926 0.311015 0.092031
0.059756 0.311294 0.091881
0.107821 0.311846 0.091675
0.168997 0.315507 0.090819
0.251791 0.307625 0.091975
0.349191 0.308156 0.089507
0.439810 0.315811 0.091531
0.529845 0.322254 0.093011
0.610422 0.327638 0.096290
0.688295 0.332775 0.104269
0.757412 0.336206 0.111062
0.810963 0.337157 0.113148
0.856819 0.335661 0.113708
0.902486 0.335408 0.114693
0.948318 0.335298 0.115366
0.993862 0.336062 0.115807
0.022925 0.380336 0.091793
0.068924 0.379900 0.091667
0.115697 0.379885 0.091356
0.167501 0.382086 0.090788
0.249705 0.384708 0.091653
0.345947 0.381309 0.089314
0.451173 0.381732 0.091095
0.546500 0.383560 0.093719
0.624990 0.388261 0.098749
0.693980 0.390153 0.104783
0.757783 0.394393 0.107749
0.812921 0.397731 0.108564
0.858881 0.397422 0.109398
0.904039 0.397506 0.109548
0.948954 0.397847 0.109782
0.993278 0.399063 0.109706
0.030035 0.450052 0.091753
0.076476 0.450359 0.091541
0.123263 0.451381 0.090058
0.171039 0.452158 0.088338
0.248282 0.458058 0.089598
0.342928 0.456719 0.093005
0.452887 0.465316 0.087624
0.555595 0.454081 0.093739
0.634520 0.451375 0.098519
0.703039 0.453130 0.102056
0.762516 0.453773 0.104181
0.815123 0.454596 0.104943
0.860558 0.455443 0.105004
0.904268 0.456151 0.104629
0.948227 0.456911 0.104334
0.991946 0.458516 0.103823
0.040125 0.525798 0.087576
0.087201 0.526446 0.086498
0.135058 0.526691 0.086916
0.183377 0.525043 0.086521
0.245602 0.527424 0.087185
0.341434 0.530944 0.093332
0.444180 0.536731 0.093287
0.550627 0.544624 0.094442
0.639267 0.524646 0.095850
0.706463 0.517108 0.098279
0.766320 0.516308 0.099861
0.815010 0.518010 0.100448
0.860173 0.517813 0.100650
0.903855 0.517103 0.100611
0.947685 0.517133 0.100648
0.991472 0.517876 0.100382
0.049057 0.600674 0.086112
0.096603 0.600697 0.086110
0.144962 0.600674 0.086108
0.194066 0.600269 0.086108
0.246710 0.600001 0.086121
0.334925 0.601853 0.090156
0.434166 0.605206 0.094984
0.541919 0.619476 0.093692
0.632639 0.620769 0.095253
0.709229 0.592607 0.096379
0.767098 0.580717 0.098647
0.814638 0.581364 0.099013
0.860324 0.583186 0.098985
0.904342 0.582897 0.099044
0.948078 0.582624 0.098985
0.991884 0.583493 0.098958
0.057832 0.664987 0.088101
0.105870 0.665426 0.087824
0.154741 0.666650 0.087317
0.203941 0.666656 0.086089
0.253578 0.666556 0.085935
0.325195 0.668666 0.088203
0.425178 0.672349 0.095850
0.527929 0.684614 0.095597
0.626396 0.697134 0.093849
0.702940 0.693061 0.094929
0.767246 0.659861 0.096651
0.814593 0.647832 0.097914
0.860529 0.646605 0.098267
0.904721 0.645872 0.098198
0.948474 0.645392 0.098260
0.992202 0.645303 0.098280
0.070715 0.747252 0.088151
0.118196 0.746544 0.088062
0.166253 0.745794 0.087553
0.215294 0.745185 0.087441
0.264306 0.743543 0.086562
0.320061 0.743444 0.087142
0.414784 0.747887 0.089723
0.515104 0.754868 0.091914
0.612834 0.765786 0.093882
0.697420 0.769724 0.094065
0.763650 0.760840 0.094764
0.815105 0.732390 0.096922
0.860991 0.716559 0.097879
0.905205 0.711237 0.098057
0.949041 0.709012 0.098035
0.992763 0.708261 0.098014
0.075475 0.820522 0.085563
0.123693 0.821150 0.085559
0.172909 0.821737 0.085554
0.222484 0.822668 0.085547
0.272023 0.822656 0.085545
0.322201 0.822050 0.085535
0.397017 0.825946 0.085510
0.494401 0.834425 0.085585
0.592047 0.840249 0.092097
0.681312 0.842107 0.094117
0.759436 0.837678 0.094219
0.814680 0.828779 0.094116
0.861479 0.803432 0.095345
0.906176 0.785569 0.097567
0.949899 0.783122 0.097899
0.993464 0.782510 0.098120
0.078676 0.875016 0.085505
0.124335 0.876015 0.085500
0.172140 0.876933 0.085494
0.222004 0.877873 0.085487
0.271739 0.878660 0.085481
0.322085 0.879904 0.085455
0.383932 0.882350 0.085452
0.476889 0.889261 0.087677
0.573743 0.895861 0.093780
0.662536 0.898521 0.094036
0.745807 0.899434 0.093986
0.813151 0.893159 0.094029
0.860527 0.892445 0.094035
0.906732 0.871157 0.094183
0.950063 0.867233 0.094270
0.993399 0.867474 0.094621
0.082405 0.926290 0.085465
0.127843 0.926942 0.085461
0.173450 0.927540 0.085457
0.221551 0.928365 0.085451
0.271697 0.929293 0.085453
0.322045 0.929959 0.085447
0.377710 0.931446 0.085435
0.467168 0.936887 0.088632
0.564231 0.941744 0.093873
0.654728 0.943510 0.094024
0.737486 0.944928 0.094300
0.811498 0.943301 0.094013
0.860053 0.943628 0.094078
0.906479 0.932158 0.094084
0.950072 0.929030 0.094086
0.993399 0.929035 0.094086
0.086097 0.976214 0.085431
0.131423 0.976753 0.085428
0.176815 0.977331 0.085424
0.222753 0.977926 0.085420
0.271566 0.978276 0.085441
0.322403 0.979415 0.085441
0.377580 0.980498 0.085490
0.466041 0.983737 0.090322
0.563129 0.985892 0.093889
0.653547 0.987535 0.094023
0.736328 0.988911 0.094106
0.810784 0.988109 0.094012
0.860081 0.989629 0.094067
0.906282 0.982312 0.094071
0.950065 0.977902 0.094073
0.993399 0.976699 0.094074
0.000184 0.027391 0.178236
0.044361 0.026919 0.177643
0.092521 0.025820 0.180702
0.198730 0.018550 0.182394
0.282762 0.020117 0.177105
0.364550 0.021555 0.155547
0.451517 0.037763 0.146708
0.538516 0.042348 0.153174
0.625189 0.041631 0.164834
0.703817 0.045190 0.173404
0.762894 0.049715 0.176012
0.810075 0.051766 0.176474
0.856324 0.053461 0.177191
0.902666 0.054567 0.177470
0.948832 0.056428 0.177977
0.993684 0.060793 0.182537
-0.000048 0.071421 0.174965
0.044035 0.070797 0.174423
0.090394 0.069876 0.176130
0.192829 0.062960 0.179968
0.274607 0.064654 0.174630
0.358178 0.065370 0.151649
0.445267 0.084521 0.144743
0.532960 0.089510 0.151169
0.620857 0.089444 0.162813
0.700743 0.092290 0.172078
0.761920 0.096695 0.175021
0.809522 0.099664 0.175758
0.856154 0.101695 0.176043
0.902523 0.103320 0.175931
0.948871 0.105144 0.176252
0.994036 0.108424 0.179800
-0.000135 0.117282 0.169519
0.043656 0.117147 0.169474
0.088402 0.118293 0.171357
0.176811 0.114567 0.174550
0.261596 0.113788 0.169374
0.345765 0.117945 0.148941
0.434005 0.132925 0.141607
0.523219 0.137153 0.147906
0.612788 0.137713 0.159353
0.695077 0.139702 0.169588
0.761044 0.146360 0.173452
0.809300 0.149460 0.173259
0.855892 0.151398 0.172970
0.902409 0.153653 0.173921
0.948475 0.154864 0.173555
0.994362 0.156447 0.174982
-0.000189 0.173312 0.170649
0.043581 0.173213 0.170146
0.088149 0.172567 0.169474
0.150475 0.173302 0.167770
0.245796 0.175990 0.162098
0.334862 0.184087 0.143886
0.426853 0.195378 0.137318
0.517363 0.202315 0.140583
0.607283 0.200184 0.152655
0.690848 0.200752 0.163256
0.760013 0.205105 0.168155
0.809061 0.205162 0.168351
0.855086 0.205194 0.168794
0.901857 0.205731 0.169387
0.948066 0.206329 0.170112
0.994157 0.207377 0.170702
0.002530 0.243272 0.166121
0.046164 0.242306 0.164498
0.090036 0.240905 0.161879
0.143217 0.243929 0.149048
0.249853 0.237233 0.142355
0.337793 0.244298 0.135902
0.426015 0.253569 0.135688
0.515749 0.260794 0.137229
0.604148 0.264317 0.144828
0.687558 0.266070 0.155608
0.757928 0.268887 0.161624
0.810145 0.268910 0.163255
0.856071 0.267806 0.164057
0.902613 0.267885 0.165229
0.948410 0.267633 0.165649
0.994209 0.268604 0.166214
0.005450 0.309344 0.150971
0.049325 0.308716 0.149082
0.093106 0.308175 0.147247
0.157245 0.313892 0.136904
0.247161 0.309162 0.137419
0.345522 0.306973 0.133813
0.436843 0.315035 0.135158
0.525736 0.321879 0.136597
0.607484 0.326459 0.139685
0.686244 0.331002 0.148114
0.756725 0.333847 0.155547
0.811112 0.334815 0.157646
0.856820 0.333407 0.158883
0.902913 0.333155 0.159599
0.948665 0.332908 0.160342
0.994247 0.333833 0.160774
0.015308 0.379003 0.136527
0.061851 0.378630 0.136505
0.109282 0.378043 0.136230
0.163200 0.380744 0.134941
0.246341 0.385251 0.135319
0.343579 0.380585 0.134350
0.448314 0.380992 0.135116
0.543670 0.383049 0.137132
0.622923 0.387856 0.141999
0.691986 0.389729 0.148181
0.756729 0.393709 0.151581
0.812507 0.396954 0.153003
0.858707 0.396414 0.153485
0.904249 0.396622 0.154010
0.949247 0.396932 0.154517
0.993651 0.398050 0.154195
0.026746 0.449006 0.135741
0.073737 0.449167 0.135420
0.121071 0.449477 0.134992
0.169352 0.451383 0.133545
0.245261 0.457465 0.133289
0.340361 0.455774 0.136701
