src/luts/vivid/2.cube
LUT_3D_SIZE 6
-0.034779 -0.032713 -0.029136
0.186781 -0.030057 -0.033805
0.368272 0.024034 -0.022087
0.547495 0.044108 0.010214
0.711188 0.060366 0.010867
0.842575 0.070537 0.010754
-0.039473 0.168036 0.021848
0.213744 0.186104 0.010153
0.416335 0.193931 0.012570
0.583388 0.209170 0.012893
0.738499 0.220650 0.011930
0.866363 0.225160 0.012891
-0.041624 0.332849 0.061879
0.068498 0.367460 0.058752
0.491853 0.418827 0.039321
0.650784 0.409179 0.027555
0.791073 0.404513 0.025340
0.912176 0.400759 0.026152
0.009205 0.510770 0.106856
0.144316 0.533305 0.099174
0.371182 0.573420 0.039961
0.716559 0.626272 0.056117
0.846124 0.633628 0.081220
0.957164 0.631115 0.110330
0.023401 0.667459 0.129246
0.152203 0.693272 0.135105
0.288343 0.729572 0.157973
0.692570 0.803357 0.171423
0.838629 0.826919 0.258750
0.953774 0.820146 0.260451
0.028999 0.817033 0.151328
0.149414 0.840695 0.168423
0.306706 0.881391 0.208486
0.674746 0.943427 0.235477
0.840050 0.963663 0.284616
0.961029 0.964299 0.293400
-0.033310 -0.106229 0.134834
0.187443 -0.110614 0.141540
0.377527 -0.123696 0.042804
0.563908 -0.144709 0.027140
0.736546 -0.148046 0.004726
0.861512 -0.147586 0.000153
-0.039821 0.181001 0.186012
0.182235 0.187839 0.191172
0.412589 0.169393 0.149713
0.591903 0.183437 0.143921
0.751375 0.204586 0.139589
0.880978 0.216180 0.142265
-0.038192 0.347434 0.218528
0.122674 0.373402 0.220420
0.479559 0.418272 0.192774
0.651479 0.396103 0.153688
0.799256 0.393415 0.152419
0.929022 0.402402 0.160217
0.013342 0.528166 0.264737
0.148253 0.549766 0.263917
0.278561 0.573465 0.226575
0.717013 0.636254 0.206122
0.837824 0.651601 0.279987
0.951209 0.650705 0.311021
0.029286 0.694291 0.294671
0.156080 0.707660 0.294267
0.299877 0.741084 0.311657
0.694203 0.812706 0.336337
0.838918 0.826623 0.382714
0.953952 0.820966 0.383109
0.034487 0.843834 0.314788
0.155397 0.853710 0.319586
0.303052 0.883072 0.339157
0.684488 0.947262 0.366438
0.839913 0.961328 0.399903
0.959380 0.961993 0.407321
-0.029150 -0.112756 0.302767
0.178922 -0.112662 0.349446
0.375548 -0.126945 0.315610
0.568457 -0.147013 0.257875
0.756487 -0.147955 0.158291
0.881470 -0.148062 0.134582
-0.036996 0.204953 0.338436
0.162820 0.200214 0.367168
0.417717 0.192494 0.369290
0.615693 0.188773 0.328177
0.781268 0.205492 0.308375
0.903870 0.220264 0.308167
-0.027921 0.367707 0.371577
0.137038 0.397272 0.405277
0.384452 0.432071 0.438224
0.641684 0.376690 0.306788
0.804980 0.383191 0.305520
0.941621 0.445639 0.377634
0.021815 0.548267 0.422236
0.160960 0.583537 0.454581
0.280286 0.582596 0.412497
0.695196 0.650997 0.407390
0.837690 0.661788 0.452897
0.953367 0.664988 0.477447
0.039255 0.728261 0.466170
0.166837 0.741398 0.471427
0.317331 0.763346 0.473446
0.688199 0.824071 0.497666
0.838798 0.832196 0.522786
0.954172 0.828251 0.523774
0.041848 0.867948 0.474914
0.164564 0.872687 0.473785
0.342176 0.908650 0.495925
0.692536 0.958660 0.523962
0.840689 0.966135 0.540030
0.958889 0.966011 0.543270
-0.019192 -0.118267 0.483209
0.176327 -0.121592 0.523063
0.341597 -0.142263 0.517959
0.553485 -0.151812 0.485287
0.728144 -0.151548 0.468476
0.862770 -0.150217 0.433182
-0.033688 0.217291 0.502752
0.161758 0.195349 0.554875
0.370207 0.171333 0.585574
0.593700 0.185073 0.542173
0.750487 0.202674 0.517061
0.887261 0.228362 0.508643
0.007892 0.392020 0.533939
0.141880 0.412330 0.570752
0.284567 0.398931 0.586204
0.619042 0.379967 0.598926
0.785564 0.400210 0.567156
0.936746 0.473785 0.598043
0.031939 0.571456 0.582964
0.169398 0.609962 0.624308
0.322964 0.627867 0.640152
0.642554 0.663852 0.651874
0.831063 0.647651 0.613777
0.951789 0.680084 0.654230
0.045414 0.751022 0.619217
0.174973 0.761719 0.631243
0.401295 0.811580 0.670923
0.615753 0.815135 0.654648
0.832565 0.833509 0.656365
0.953355 0.827004 0.669592
0.047213 0.882840 0.623299
0.174971 0.891109 0.631638
0.454046 0.950957 0.689153
0.702904 0.971909 0.705719
0.832048 0.973623 0.702426
0.961337 0.978283 0.716318
-0.011907 -0.120611 0.648794
0.173497 -0.127534 0.674871
0.327595 -0.150419 0.670149
0.540096 -0.155022 0.659109
0.720726 -0.152655 0.647798
0.844547 -0.151880 0.624774
-0.029849 0.222347 0.658210
0.159036 0.208235 0.708471
0.360765 0.182931 0.739422
0.582621 0.181708 0.715858
0.740146 0.197334 0.685212
0.865508 0.217792 0.672063
0.012757 0.402983 0.679455
0.143076 0.413859 0.710748
0.278705 0.400752 0.736874
0.588637 0.355809 0.773217
0.796020 0.434446 0.771785
0.927937 0.472873 0.773104
0.034328 0.580303 0.727967
0.164393 0.596004 0.755920
0.339321 0.634095 0.793390
0.645464 0.672067 0.822323
0.825440 0.673721 0.819624
0.951642 0.700609 0.820019
0.051144 0.760406 0.771308
0.189693 0.772819 0.784137
0.449768 0.820491 0.824862
0.649604 0.831488 0.829750
0.821562 0.836358 0.825090
0.955432 0.836168 0.822928
0.055279 0.893262 0.776744
0.194944 0.905445 0.789477
0.507886 0.960841 0.838504
0.705779 0.975869 0.837406
0.834309 0.977892 0.838114
0.962918 0.980168 0.839891
0.011259 -0.119850 0.777045
0.171946 -0.128955 0.801640
0.312647 -0.151214 0.803473
0.515755 -0.156144 0.798615
0.710221 -0.154914 0.780004
0.842004 -0.153214 0.768562
-0.025756 0.222589 0.786299
0.160674 0.214857 0.834476
0.350159 0.197092 0.869717
0.563551 0.178822 0.852917
0.736556 0.192036 0.824829
0.861566 0.212891 0.815407
0.012136 0.398926 0.804657
0.141494 0.405749 0.834785
0.287865 0.408773 0.874536
0.589387 0.396858 0.923852
0.802096 0.467377 0.913468
0.939216 0.500276 0.920450
0.031825 0.570926 0.841642
0.161470 0.583005 0.869837
0.378190 0.646282 0.922999
0.687027 0.703890 0.948335
0.824609 0.705347 0.949787
0.953227 0.715101 0.953292
0.048019 0.745590 0.887252
0.186876 0.756965 0.898935
0.445149 0.804250 0.938857
0.674072 0.828399 0.950680
0.825954 0.838452 0.955087
0.954809 0.840120 0.955746
0.057772 0.883495 0.896437
0.201021 0.896731 0.908094
0.509446 0.947701 0.951927
0.693622 0.961185 0.953592
0.828990 0.964732 0.957784
0.956963 0.966578 0.959334
