src/luts/vivid/2.cube
LUT_3D_SIZE 16
-0.034779 -0.032713 -0.029136
0.070345 -0.032383 -0.031132
0.123840 -0.032605 -0.034260
0.186781 -0.030057 -0.033805
0.246647 -0.023931 -0.031192
0.306235 0.010584 -0.026622
0.368272 0.024034 -0.022087
0.427822 0.033155 -0.014392
0.487598 0.039902 0.008045
0.547495 0.044108 0.010214
0.605011 0.047805 0.010941
0.659724 0.053126 0.011165
0.711188 0.060366 0.010867
0.758036 0.065135 0.010849
0.801282 0.068327 0.010828
0.842575 0.070537 0.010754
-0.033184 0.072225 -0.028467
0.071074 0.072678 -0.029921
0.127407 0.072653 -0.033939
0.190083 0.075588 -0.033051
0.250070 0.081053 -0.029553
0.309510 0.085934 -0.024575
0.371139 0.089957 -0.019331
0.431778 0.095750 0.004032
0.492423 0.100184 0.009497
0.552642 0.104473 0.011390
0.610646 0.108142 0.011827
0.664800 0.113106 0.011750
0.715595 0.119323 0.011311
0.762183 0.123633 0.011156
0.805309 0.126307 0.011069
0.846833 0.128423 0.011005
-0.032176 0.116633 -0.021330
0.071996 0.117793 -0.022888
0.135444 0.125680 -0.028164
0.204705 0.128373 -0.024784
0.268632 0.130616 -0.019876
0.332997 0.134516 -0.010880
0.394897 0.138807 0.009462
0.454659 0.143062 0.010905
0.511641 0.148298 0.011962
0.567454 0.153388 0.012439
0.622298 0.157519 0.012414
0.676129 0.162670 0.011967
0.726593 0.168280 0.011342
0.771834 0.171936 0.011255
0.813719 0.173921 0.011346
0.854450 0.175286 0.011380
-0.039473 0.168036 0.021848
0.062085 0.169915 0.015945
0.125126 0.173840 0.004984
0.213744 0.186104 0.010153
0.291439 0.187010 0.012411
0.355282 0.189000 0.012188
0.416335 0.193931 0.012570
0.474136 0.198553 0.012891
0.528735 0.203728 0.013098
0.583388 0.209170 0.012893
0.638029 0.212927 0.012496
0.690350 0.216824 0.011782
0.738499 0.220650 0.011930
0.783290 0.222938 0.012350
0.825319 0.224282 0.012694
0.866363 0.225160 0.012891
-0.040030 0.217769 0.034118
0.053677 0.219915 0.029903
0.092799 0.228475 0.025062
0.198202 0.240107 0.009975
0.310799 0.258039 0.016299
0.381144 0.258893 0.015806
0.437461 0.263384 0.014927
0.492643 0.267212 0.014897
0.546003 0.269638 0.014877
0.597452 0.271978 0.014818
0.647902 0.274261 0.015057
0.697921 0.276090 0.015050
0.745726 0.277048 0.015179
0.790780 0.277681 0.015354
0.832741 0.277559 0.015512
0.874052 0.277776 0.015733
-0.041283 0.272640 0.046916
0.054188 0.274295 0.044637
0.052073 0.289540 0.046414
0.146246 0.300414 0.024103
0.304392 0.335461 0.019142
0.407303 0.342993 0.023576
0.469304 0.341459 0.021916
0.520319 0.339102 0.020718
0.570310 0.338597 0.020955
0.619231 0.338674 0.020820
0.667651 0.338247 0.020374
0.715703 0.337131 0.019822
0.761928 0.337048 0.019824
0.805275 0.337238 0.020244
0.845974 0.336361 0.020348
0.886205 0.335977 0.020632
-0.041624 0.332849 0.061879
0.054145 0.334815 0.060059
0.083503 0.352375 0.063734
0.068498 0.367460 0.058752
0.251923 0.385420 0.024965
0.405094 0.416438 0.038182
0.491853 0.418827 0.039321
0.550223 0.414725 0.032052
0.600781 0.410392 0.028972
0.650784 0.409179 0.027555
0.699455 0.408566 0.026473
0.746576 0.406504 0.025640
0.791073 0.404513 0.025340
0.832787 0.403112 0.025567
0.872849 0.401890 0.025975
0.912176 0.400759 0.026152
-0.038119 0.394473 0.078606
0.054890 0.397229 0.077760
0.090786 0.412355 0.081297
0.094023 0.422887 0.078217
0.108208 0.438046 0.050171
0.362548 0.467462 0.041828
0.488988 0.486628 0.050431
0.571902 0.486493 0.042031
0.630897 0.484763 0.036408
0.682580 0.482908 0.033524
0.729457 0.480268 0.031557
0.774540 0.478063 0.030454
0.818847 0.477118 0.031163
0.860169 0.475903 0.032190
0.899067 0.473876 0.032852
0.938388 0.473288 0.033917
-0.030422 0.454626 0.094293
0.056344 0.456636 0.092420
0.095308 0.467318 0.093680
0.137115 0.478577 0.090114
0.128159 0.484502 0.075600
0.267235 0.509048 0.049211
0.452908 0.538964 0.050123
0.571356 0.551096 0.045756
0.650304 0.554574 0.043140
0.705790 0.556070 0.040827
0.753128 0.555489 0.038952
0.797789 0.555595 0.038844
0.840587 0.556017 0.040466
0.880924 0.554951 0.041392
0.919159 0.551881 0.041852
0.958079 0.551542 0.044171
0.009205 0.510770 0.106856
0.060666 0.512851 0.104024
0.101278 0.520015 0.103384
0.144316 0.533305 0.099174
0.182242 0.538731 0.091733
0.211510 0.552983 0.071698
0.371182 0.573420 0.039961
0.551029 0.603490 0.044417
0.651695 0.617821 0.049104
0.716559 0.626272 0.056117
0.764061 0.630875 0.063132
0.806728 0.631890 0.067200
0.846124 0.633628 0.081220
0.882992 0.634117 0.096012
0.919415 0.631405 0.103234
0.957164 0.631115 0.110330
0.014087 0.562712 0.113204
0.066443 0.564700 0.110194
0.106504 0.571851 0.110160
0.148035 0.586800 0.108098
0.188343 0.595207 0.103836
0.223190 0.602047 0.104021
0.303743 0.619054 0.068972
0.521005 0.647507 0.039048
0.645777 0.675952 0.053228
0.715036 0.688680 0.076264
0.762831 0.701878 0.108993
0.799864 0.706688 0.136803
0.836115 0.708384 0.161003
0.874945 0.708309 0.176792
0.912889 0.706420 0.184318
0.951352 0.705960 0.191589
0.019859 0.615450 0.121877
0.071088 0.618182 0.119174
0.110241 0.624979 0.118450
0.150560 0.640425 0.120484
0.190265 0.652567 0.122438
0.230678 0.658006 0.125023
0.273046 0.676542 0.122605
0.482497 0.694180 0.048518
0.639482 0.726331 0.052250
0.709942 0.746495 0.097511
0.751735 0.761863 0.165187
0.797083 0.773076 0.206051
0.838272 0.774030 0.223442
0.877031 0.771631 0.230765
0.915043 0.767579 0.228492
0.953455 0.765612 0.229712
0.023401 0.667459 0.129246
0.074093 0.670587 0.127008
0.112670 0.677667 0.127936
0.152203 0.693272 0.135105
0.192850 0.705925 0.142848
0.235150 0.711764 0.148214
0.288343 0.729572 0.157973
0.419651 0.744880 0.119536
0.613725 0.773348 0.097046
0.692570 0.803357 0.171423
0.747020 0.816276 0.219388
0.794787 0.822924 0.244323
0.838629 0.826919 0.258750
0.877461 0.824852 0.261775
0.915272 0.822306 0.262178
0.953774 0.820146 0.260451
0.025127 0.716365 0.135632
0.075489 0.719455 0.133774
0.113874 0.727293 0.138169
0.153822 0.741773 0.148402
0.195488 0.752462 0.157992
0.238998 0.758820 0.165216
0.300376 0.776704 0.176797
0.401030 0.794121 0.167694
0.590106 0.820285 0.146830
0.684684 0.848742 0.208206
0.744198 0.861432 0.243188
0.791235 0.866578 0.260710
0.835656 0.868400 0.270750
0.876900 0.869549 0.276079
0.914948 0.867732 0.276701
0.953473 0.866705 0.277144
0.025998 0.761530 0.140827
0.076099 0.764488 0.139115
0.114484 0.771899 0.144763
0.154824 0.785938 0.156756
0.196715 0.794970 0.166956
0.242533 0.801992 0.176637
0.307347 0.821526 0.189926
0.393373 0.839539 0.192880
0.571573 0.861891 0.176865
0.676675 0.887962 0.218312
0.740033 0.900689 0.248630
0.788722 0.905349 0.263755
0.833132 0.907833 0.274486
0.874801 0.908407 0.279548
0.914697 0.908447 0.281641
0.953252 0.907331 0.282006
0.028999 0.817033 0.151328
0.076942 0.820034 0.150011
0.113044 0.826979 0.155676
0.149414 0.840695 0.168423
0.187114 0.848674 0.179134
0.232295 0.857157 0.191361
0.306706 0.881391 0.208486
0.401371 0.901317 0.219230
0.564604 0.921440 0.211689
0.674746 0.943427 0.235477
0.745105 0.956558 0.261301
0.795954 0.960846 0.273741
0.840050 0.963663 0.284616
0.882104 0.964483 0.290625
0.921457 0.964298 0.292638
0.961029 0.964299 0.293400
-0.035669 -0.102831 -0.007614
0.070245 -0.103844 -0.008511
0.125890 -0.106959 -0.014317
0.191036 -0.110267 -0.018624
0.252342 -0.112885 -0.022391
0.312324 -0.116367 -0.026398
0.377478 -0.123053 -0.032607
0.437898 -0.130256 -0.036213
0.494027 -0.137360 -0.039297
0.548244 -0.144100 -0.046816
0.602069 -0.148023 -0.055038
0.655553 -0.148807 -0.060957
0.706050 -0.147872 -0.064845
0.752993 -0.146774 -0.067223
0.795959 -0.145871 -0.068295
0.837090 -0.145108 -0.068684
-0.033516 0.073182 0.073896
0.070257 0.074140 0.074330
0.127007 0.072032 0.066773
0.193658 0.070886 0.062580
0.255074 0.074150 0.061946
0.315833 0.077262 0.062418
0.379402 0.080284 0.062391
0.441567 0.085325 0.063189
0.501966 0.090445 0.064281
0.561161 0.094646 0.064368
0.617935 0.099001 0.063730
0.672090 0.105678 0.062526
0.722037 0.112889 0.061785
0.768359 0.117511 0.061318
0.811237 0.120448 0.061057
0.852389 0.122280 0.060840
-0.035125 0.118559 0.079160
0.069215 0.119068 0.078441
0.132465 0.125217 0.071793
0.207232 0.123801 0.066156
0.271148 0.124186 0.065449
0.336265 0.127211 0.065059
0.398138 0.131194 0.065217
0.457914 0.135516 0.065621
0.515614 0.140981 0.065505
0.572174 0.145901 0.064746
0.627370 0.150610 0.063693
0.681404 0.156805 0.062316
0.731049 0.162858 0.061414
0.776348 0.166544 0.061032
0.818528 0.168745 0.060888
0.859533 0.170566 0.060716
-0.039719 0.170651 0.087642
0.053841 0.172414 0.086353
0.117670 0.175111 0.083359
0.212781 0.183808 0.071572
0.291797 0.182495 0.070257
0.357222 0.183379 0.068312
0.419105 0.188055 0.067283
0.477270 0.192725 0.066263
0.531857 0.197624 0.065220
0.586617 0.202850 0.064026
0.641641 0.207159 0.062747
0.694311 0.211045 0.061356
0.742878 0.215383 0.060888
0.787432 0.218044 0.060943
0.829201 0.219658 0.061110
0.870005 0.220809 0.061219
-0.040508 0.221698 0.095038
0.053479 0.222602 0.093082
0.058007 0.230053 0.093755
0.187466 0.237177 0.078115
0.308377 0.255450 0.071579
0.382162 0.253650 0.069431
0.438961 0.258330 0.067170
0.494278 0.262292 0.066044
0.547846 0.264890 0.065182
0.599895 0.267002 0.064444
0.652111 0.268830 0.063776
0.703162 0.270891 0.063175
0.751118 0.272157 0.063006
0.796171 0.273266 0.063041
0.838121 0.273275 0.063080
0.879169 0.273746 0.063297
-0.041368 0.276845 0.105824
0.054048 0.277346 0.103640
0.057397 0.290509 0.105604
0.081086 0.300142 0.093471
0.293494 0.331380 0.074142
0.405798 0.341132 0.075321
0.469357 0.338506 0.071958
0.520957 0.335786 0.069787
0.571965 0.335027 0.069484
0.621235 0.334959 0.069029
0.670047 0.334631 0.068277
0.718311 0.333392 0.067407
0.765053 0.333375 0.067229
0.808820 0.333761 0.067617
0.849988 0.333177 0.067769
0.890492 0.332786 0.067984
-0.041276 0.336968 0.119473
0.053852 0.337892 0.116899
0.086315 0.354204 0.119795
0.073731 0.368035 0.119258
0.225631 0.382958 0.089421
0.400506 0.414862 0.091545
0.490924 0.417831 0.092210
0.551577 0.413758 0.082992
0.602658 0.408519 0.077671
0.652989 0.406426 0.075413
0.701825 0.405856 0.073973
0.749437 0.404061 0.072905
0.794238 0.401908 0.072486
0.836174 0.400715 0.072767
0.876552 0.399778 0.073315
0.915994 0.399090 0.073673
-0.037058 0.398109 0.134950
0.054612 0.399500 0.132932
0.091136 0.414134 0.136646
0.120462 0.423800 0.133854
0.099133 0.438273 0.122122
0.348594 0.464436 0.096805
0.486013 0.487384 0.108318
0.572774 0.487320 0.095045
0.632720 0.484877 0.085778
0.685187 0.482634 0.081638
0.732645 0.479853 0.078993
0.777833 0.477385 0.077659
0.822260 0.476741 0.078653
0.863818 0.476020 0.080185
0.902922 0.474351 0.081286
0.942251 0.473890 0.082653
-0.028187 0.457975 0.149690
0.056269 0.458932 0.147160
0.095649 0.469079 0.148513
0.137848 0.480154 0.145718
0.155369 0.484863 0.135837
0.246135 0.508523 0.109907
0.445297 0.539968 0.107035
0.570733 0.552389 0.098366
0.651846 0.555506 0.092579
0.708538 0.557311 0.089713
0.755733 0.556639 0.087788
0.800303 0.556735 0.088166
0.842838 0.557104 0.090941
0.883096 0.556120 0.093153
0.921419 0.553435 0.094904
0.960203 0.553177 0.098258
0.010100 0.514326 0.161678
0.060767 0.515233 0.158530
0.101656 0.521911 0.158323
0.144653 0.534924 0.154678
0.183363 0.539943 0.147920
0.214822 0.554064 0.139131
0.353181 0.574075 0.097768
0.547948 0.604525 0.096089
0.652510 0.618969 0.098587
0.717154 0.627827 0.109370
0.765005 0.632439 0.117980
0.807787 0.633458 0.123772
0.846258 0.635863 0.141902
0.882656 0.636710 0.158468
0.918948 0.634259 0.166566
0.956386 0.634090 0.174359
0.015605 0.566289 0.168205
0.066719 0.567133 0.164607
0.106900 0.573709 0.164847
0.148288 0.588434 0.163494
0.188588 0.597082 0.159001
0.225805 0.603482 0.161114
0.293077 0.621043 0.128555
0.513164 0.648452 0.092815
0.645635 0.677316 0.103348
0.715908 0.690413 0.131271
0.761640 0.704363 0.168736
0.798785 0.708848 0.196656
0.835470 0.710301 0.219892
0.874895 0.709948 0.233854
0.912871 0.707885 0.240008
0.951573 0.707174 0.246524
0.020986 0.619422 0.177047
0.071398 0.621154 0.174020
0.110602 0.626894 0.172936
0.150943 0.641999 0.174953
0.190576 0.654560 0.177013
0.231306 0.659808 0.179605
0.276789 0.678642 0.182838
0.469064 0.694595 0.108281
0.637350 0.727472 0.105847
0.709019 0.748588 0.156874
0.751358 0.763756 0.223079
0.797457 0.774463 0.260004
0.838452 0.775295 0.275614
0.877042 0.772552 0.281828
0.915019 0.768405 0.279487
0.953417 0.766455 0.280675
0.024193 0.671170 0.183981
0.074379 0.673440 0.181527
0.113047 0.679592 0.181948
0.152591 0.694700 0.188654
0.193287 0.707513 0.196159
0.235452 0.713483 0.201463
0.290292 0.731154 0.213026
0.412377 0.745517 0.178226
0.609360 0.775691 0.160600
0.691724 0.805215 0.230945
0.747179 0.817540 0.272101
0.794741 0.823682 0.293910
0.838581 0.827347 0.307113
0.877347 0.825303 0.309812
0.915260 0.822685 0.310365
0.953705 0.820487 0.308763
0.025799 0.719844 0.189842
0.075827 0.722406 0.188176
0.114253 0.729164 0.191470
0.154213 0.743072 0.201039
0.195832 0.753891 0.210071
0.239163 0.760029 0.216807
0.300772 0.777905 0.228770
0.400206 0.795364 0.221818
0.587720 0.821759 0.205187
0.684825 0.850249 0.262453
0.744135 0.862532 0.293493
0.791085 0.867047 0.308975
0.835559 0.868840 0.318468
0.876824 0.869940 0.323558
0.914873 0.867993 0.324066
0.953420 0.866839 0.324471
0.026663 0.764917 0.194800
0.076551 0.767544 0.193558
0.114949 0.773827 0.197843
0.155229 0.787302 0.208936
0.197056 0.796444 0.218747
0.242634 0.803130 0.227582
0.307326 0.822660 0.240721
0.393366 0.840805 0.244996
0.568656 0.862281 0.231026
0.676133 0.889242 0.270599
0.739822 0.901555 0.298477
0.788573 0.905942 0.312143
0.833033 0.908198 0.322172
0.874723 0.908658 0.327007
0.914629 0.908882 0.329007
0.953222 0.907624 0.329309
0.029574 0.820511 0.205844
0.077630 0.823140 0.204862
0.113777 0.829130 0.209029
0.149975 0.842221 0.221102
0.187333 0.850277 0.231354
0.232163 0.858559 0.242625
0.306208 0.882661 0.259369
0.401543 0.902681 0.270958
0.559999 0.921392 0.264804
0.673568 0.944454 0.287257
0.744230 0.957260 0.311172
0.795111 0.961438 0.322769
0.839269 0.964179 0.332904
0.881197 0.964687 0.338664
0.920673 0.964694 0.340528
0.960281 0.964608 0.341240
-0.034060 -0.103214 0.031458
0.072493 -0.104003 0.031136
0.121793 -0.106226 0.028000
0.191030 -0.110707 0.018744
0.253206 -0.114039 0.012571
0.313507 -0.117735 0.007737
0.378076 -0.123567 0.002023
0.442211 -0.130675 -0.002421
0.501383 -0.137741 -0.005789
0.557817 -0.144544 -0.013212
0.615716 -0.149026 -0.022641
0.670488 -0.149793 -0.029100
0.721005 -0.149040 -0.032796
0.767293 -0.147920 -0.035077
0.809576 -0.147021 -0.036142
0.849715 -0.146475 -0.036514
-0.032093 0.076537 0.124510
0.072050 0.077385 0.126241
0.121106 0.078101 0.125079
0.194899 0.070058 0.116504
0.259851 0.067760 0.110764
0.322698 0.069705 0.107754
0.386146 0.073178 0.105662
0.449489 0.078483 0.105013
0.513481 0.083156 0.104659
0.574310 0.086824 0.103758
0.631645 0.093605 0.102707
0.684840 0.102433 0.101475
0.734409 0.108995 0.100715
0.779918 0.113822 0.100214
0.822003 0.117018 0.099833
0.862489 0.119110 0.099577
-0.036233 0.122087 0.128583
0.068853 0.122504 0.131334
0.119380 0.125956 0.128796
0.202824 0.117732 0.111268
0.269236 0.114667 0.106759
0.333795 0.117904 0.105454
0.396250 0.122088 0.104951
0.459072 0.126489 0.104713
0.519766 0.131548 0.104502
0.579215 0.136080 0.103321
0.636217 0.142398 0.101674
0.689354 0.150711 0.100230
0.738399 0.157261 0.099678
0.783816 0.161610 0.099584
0.826370 0.164724 0.099650
0.867400 0.167397 0.099881
-0.039683 0.175353 0.136182
0.054601 0.177778 0.138238
0.096637 0.181452 0.139308
0.203481 0.182597 0.124346
0.285963 0.175709 0.112290
0.352337 0.175041 0.109372
0.416112 0.179450 0.107803
0.475860 0.184009 0.106517
0.532051 0.188713 0.104979
0.589123 0.193240 0.103288
0.645317 0.198873 0.101603
0.698714 0.204722 0.099912
0.746503 0.209606 0.099571
0.791209 0.213074 0.099735
0.833221 0.215274 0.100065
0.874016 0.217093 0.100533
-0.040919 0.228981 0.146521
0.054122 0.231484 0.147281
0.052268 0.238439 0.146609
0.162890 0.237653 0.141742
0.296040 0.252990 0.118838
0.377303 0.245867 0.112265
0.435726 0.248545 0.108594
0.492910 0.252956 0.106457
0.546699 0.255471 0.104672
0.599648 0.257436 0.103307
0.655243 0.259200 0.101902
0.709412 0.261876 0.100758
0.757968 0.264381 0.100608
0.802353 0.266989 0.101187
0.843834 0.268200 0.101650
0.884349 0.269246 0.102138
-0.041214 0.284399 0.158247
0.054218 0.286611 0.158446
0.078418 0.296632 0.156931
0.074035 0.300759 0.152239
0.253943 0.314953 0.130550
0.397017 0.339326 0.122683
0.465189 0.333252 0.113831
0.517480 0.329345 0.108587
0.569367 0.328118 0.107663
0.620353 0.327717 0.107011
0.670912 0.326946 0.106169
0.720853 0.325886 0.105354
0.769389 0.326936 0.105253
0.814148 0.328367 0.105951
0.856400 0.329224 0.106740
0.897521 0.329807 0.107276
-0.039911 0.342193 0.169575
0.054297 0.344843 0.169267
0.088571 0.359959 0.170748
0.087292 0.367491 0.165214
0.115915 0.380358 0.150552
0.383858 0.410232 0.137494
0.485410 0.416715 0.137841
0.549795 0.411709 0.126107
0.601978 0.405614 0.117785
0.653094 0.402500 0.114938
0.702685 0.400673 0.112761
0.751200 0.398739 0.111525
0.797056 0.398094 0.111859
0.840231 0.398532 0.112893
0.881570 0.399476 0.114326
0.921864 0.400336 0.115764
-0.034482 0.403266 0.185140
0.055317 0.405908 0.184605
0.091972 0.419349 0.185383
0.130728 0.427152 0.180338
0.102253 0.434217 0.174087
0.294582 0.456787 0.150698
0.474775 0.487030 0.159238
0.570495 0.490479 0.147569
0.633792 0.486205 0.128959
0.686615 0.482337 0.122711
0.735486 0.479727 0.119144
0.781847 0.477605 0.117862
0.827197 0.478219 0.119960
0.869318 0.479031 0.122989
0.908997 0.478405 0.124919
0.948890 0.479303 0.126809
-0.023160 0.464008 0.199514
0.057498 0.466159 0.198351
0.096632 0.474482 0.198512
0.139940 0.485068 0.195649
0.173014 0.486511 0.185472
0.158850 0.505117 0.174287
0.417085 0.536866 0.156161
0.563116 0.556473 0.153324
0.651782 0.558279 0.137107
0.711460 0.560243 0.132005
0.758757 0.559262 0.129780
0.803159 0.559735 0.130843
0.845341 0.560820 0.136690
0.885063 0.560724 0.142747
0.922333 0.559791 0.151127
0.960274 0.560883 0.159345
0.011725 0.521753 0.212644
0.063162 0.523187 0.210601
0.103043 0.527567 0.209090
0.146100 0.540262 0.205765
0.185874 0.544357 0.196231
0.210951 0.551898 0.193850
0.315197 0.573369 0.158277
0.531398 0.606440 0.146831
0.649525 0.621686 0.141344
0.717893 0.631400 0.154421
0.765827 0.635904 0.164449
0.807260 0.637641 0.176347
0.842648 0.642486 0.206104
0.878125 0.644119 0.226774
0.914971 0.641835 0.234365
0.952429 0.642292 0.244275
0.018899 0.576161 0.222572
0.069880 0.578512 0.221206
0.108360 0.580953 0.217779
0.149792 0.594102 0.215606
0.189701 0.603984 0.210137
0.228426 0.606930 0.208207
0.279112 0.625356 0.195056
0.483390 0.648033 0.141109
0.642896 0.679815 0.143645
0.715558 0.694585 0.177835
0.758063 0.710123 0.225600
0.796886 0.713943 0.252495
0.835898 0.715104 0.275445
0.875554 0.714513 0.288098
0.913787 0.711622 0.290616
0.952439 0.710313 0.294865
0.023541 0.629710 0.229998
0.074081 0.632575 0.229174
0.112212 0.634613 0.225306
0.152059 0.646498 0.225791
0.191621 0.660935 0.228062
0.231994 0.665678 0.228525
0.278542 0.681860 0.236322
0.433506 0.695557 0.170431
0.630063 0.729026 0.153901
0.703925 0.753605 0.215995
0.751272 0.767968 0.276563
0.798248 0.777880 0.308981
0.838689 0.777734 0.319807
0.877232 0.774854 0.325607
0.915184 0.770746 0.323295
0.953540 0.768343 0.322904
0.026507 0.682411 0.237392
0.076763 0.685243 0.236640
0.114476 0.688011 0.234323
0.153701 0.698488 0.238744
0.194480 0.712290 0.245342
0.236495 0.718020 0.249680
0.293760 0.734959 0.261014
0.406648 0.749960 0.236578
0.602654 0.781181 0.224398
0.692447 0.808789 0.284203
0.748807 0.818936 0.314604
0.795788 0.823746 0.332732
0.838847 0.827056 0.345119
0.877430 0.825535 0.347486
0.915292 0.823322 0.348796
0.953776 0.821312 0.347534
0.028135 0.732064 0.244938
0.078155 0.734590 0.244271
0.115933 0.737980 0.244024
0.155253 0.746140 0.248892
0.196771 0.757451 0.256531
0.239971 0.762613 0.261722
0.303132 0.781117 0.273024
0.402335 0.798716 0.268993
0.588543 0.826141 0.260343
0.686767 0.852996 0.309074
0.745669 0.862910 0.332176
0.792614 0.865988 0.344318
0.836321 0.867835 0.353755
0.877054 0.868942 0.359108
0.915081 0.867270 0.359800
0.953493 0.866676 0.361076
0.029201 0.776997 0.249855
0.079062 0.779431 0.249311
0.117010 0.783500 0.250826
0.156311 0.790355 0.256056
0.198067 0.799396 0.263952
0.243271 0.804983 0.270581
0.307547 0.823682 0.281194
0.396027 0.841757 0.284980
0.573676 0.864198 0.273590
0.679948 0.891122 0.313292
0.741717 0.901518 0.336193
0.790018 0.905257 0.348143
0.833770 0.907039 0.357108
0.875100 0.907747 0.362589
0.914831 0.908203 0.365238
0.953355 0.906986 0.365656
0.031877 0.832248 0.259968
0.079938 0.834693 0.259498
0.116123 0.839551 0.262356
0.151964 0.846330 0.268857
0.189286 0.853332 0.276957
0.233715 0.860799 0.285720
0.304904 0.882477 0.298342
0.401107 0.901554 0.306575
0.566422 0.921247 0.299380
0.679395 0.945590 0.325565
0.746717 0.956744 0.347131
0.795992 0.960948 0.359088
0.839410 0.963350 0.368756
0.880667 0.964038 0.374863
0.920102 0.964300 0.377760
0.959729 0.964275 0.379129
-0.033310 -0.106229 0.134834
0.073778 -0.106974 0.139985
0.126263 -0.108051 0.149570
0.187443 -0.110614 0.141540
0.253229 -0.114109 0.069271
0.315100 -0.118541 0.049764
0.377527 -0.123696 0.042804
0.443379 -0.130571 0.038981
0.504814 -0.137801 0.035451
0.563908 -0.144709 0.027140
0.626139 -0.148684 0.016764
0.685420 -0.149172 0.008593
0.736546 -0.148046 0.004726
0.781888 -0.147344 0.002184
0.822560 -0.147377 0.000768
0.861512 -0.147586 0.000153
-0.031006 0.080487 0.180050
0.071450 0.080686 0.184043
0.123790 0.084520 0.187459
0.186481 0.083966 0.187408
0.260572 0.070747 0.172102
0.324338 0.066736 0.156484
0.387703 0.069865 0.153796
0.453110 0.074316 0.151275
0.519889 0.076622 0.148027
0.582931 0.081142 0.146901
0.643199 0.094511 0.145928
0.698579 0.106043 0.144178
0.748459 0.112553 0.143109
0.793544 0.116666 0.142463
0.834554 0.118109 0.142033
0.873659 0.118317 0.141687
-0.037628 0.129163 0.182208
0.065347 0.129013 0.187555
0.118692 0.130151 0.188486
0.189284 0.131733 0.186309
0.272146 0.112265 0.164433
0.337910 0.110526 0.153063
0.401518 0.115287 0.150239
0.465766 0.120563 0.148884
0.529237 0.124533 0.147490
0.590645 0.130517 0.145707
0.649512 0.142122 0.143651
0.702321 0.150246 0.141765
0.750366 0.156533 0.141107
0.794503 0.161270 0.141091
0.835770 0.164727 0.141275
0.876078 0.167063 0.141306
-0.039821 0.181001 0.186012
0.054233 0.183392 0.189483
0.095247 0.188756 0.198171
0.182235 0.187839 0.191172
0.281009 0.169558 0.161896
0.349253 0.163441 0.150553
0.412589 0.169393 0.149713
0.473601 0.173089 0.148248
0.533064 0.178074 0.146077
0.591903 0.183437 0.143921
0.649989 0.191291 0.141677
0.702514 0.198720 0.140156
0.751375 0.204586 0.139589
0.796829 0.209649 0.140192
0.839605 0.213549 0.141419
0.880978 0.216180 0.142265
-0.040780 0.235595 0.197141
0.054218 0.238167 0.198905
0.070229 0.248031 0.205511
0.085027 0.250615 0.205330
0.282588 0.257283 0.187534
0.372975 0.241113 0.159350
0.432779 0.237332 0.151260
0.490508 0.241249 0.148284
0.545232 0.244133 0.145785
0.599326 0.246228 0.143585
0.657029 0.249743 0.141361
0.711685 0.254182 0.140003
0.760916 0.257911 0.139824
0.805882 0.261698 0.140945
0.848666 0.265198 0.142386
0.890171 0.267795 0.143510
-0.040518 0.289675 0.207254
0.054321 0.292005 0.208204
0.087920 0.306589 0.216283
0.080370 0.310894 0.211359
0.208804 0.310079 0.204720
0.383951 0.338830 0.181962
0.461221 0.329788 0.164020
0.514946 0.323026 0.150329
0.566207 0.319942 0.146955
0.617679 0.318431 0.145413
0.670656 0.316847 0.144047
0.724775 0.316552 0.143028
0.775200 0.319712 0.143739
0.820684 0.323200 0.145377
0.863284 0.326324 0.147432
0.904994 0.328868 0.149271
-0.038192 0.347434 0.218528
0.054713 0.349953 0.219274
0.090894 0.366855 0.227481
0.122674 0.373402 0.220420
0.096549 0.379231 0.213805
0.346309 0.400795 0.196369
0.479559 0.418272 0.192774
0.546733 0.408684 0.171322
0.599398 0.400653 0.157501
0.651479 0.396103 0.153688
0.701664 0.392961 0.151198
0.751134 0.391110 0.150361
0.799256 0.393415 0.152419
0.844466 0.396874 0.155232
0.887052 0.399642 0.157798
0.929022 0.402402 0.160217
-0.031664 0.408291 0.233846
0.055858 0.410723 0.234283
0.093864 0.427638 0.241487
