src/luts/vivid/3.cube
LUT_3D_SIZE 16
-0.001328 -0.001559 0.006074
0.037706 -0.001196 0.005085
0.116204 -0.000767 0.004636
0.198234 0.000418 0.007727
0.279831 0.000684 0.009637
0.362839 0.001255 0.013279
0.445051 0.001835 0.015970
0.525608 0.002673 0.019053
0.608748 0.002513 0.022960
0.684976 0.003099 0.023739
0.737296 0.003312 0.023516
0.786874 0.003547 0.024630
0.836688 0.003713 0.025517
0.887028 0.003388 0.025990
0.936871 0.003140 0.026428
0.987452 0.002863 0.026954
-0.000952 0.039056 0.004560
0.038705 0.039110 0.004293
0.107918 0.040387 0.005554
0.191877 0.042149 0.007469
0.274571 0.043875 0.009239
0.357513 0.047733 0.012939
0.439723 0.048714 0.015548
0.522179 0.049840 0.018795
0.604037 0.049970 0.022557
0.682997 0.050475 0.024953
0.737722 0.050390 0.024171
0.787640 0.050430 0.024678
0.837184 0.050662 0.025608
0.886294 0.050820 0.025738
0.935816 0.050639 0.026121
0.986451 0.050326 0.026666
-0.000685 0.113932 0.008485
0.041030 0.111587 0.006926
0.081385 0.104320 0.003388
0.183964 0.086318 0.007041
0.264885 0.082946 0.010010
0.348802 0.085180 0.012563
0.432508 0.088841 0.014817
0.516438 0.095958 0.018609
0.597418 0.097390 0.022041
0.679816 0.097793 0.024530
0.737713 0.097426 0.025649
0.787846 0.097247 0.025424
0.837977 0.097258 0.025662
0.886948 0.097513 0.025845
0.935581 0.097731 0.026005
0.985497 0.097681 0.026376
0.001165 0.183251 0.015304
0.044135 0.181836 0.014307
0.080949 0.178445 0.009492
0.160899 0.175052 0.001670
0.261277 0.167889 0.009005
0.338427 0.153435 0.014672
0.422690 0.127521 0.016721
0.506990 0.127385 0.018944
0.589689 0.133681 0.022173
0.675257 0.145557 0.024989
0.737283 0.146323 0.025518
0.786687 0.146337 0.026155
0.836993 0.146138 0.026229
0.886906 0.145429 0.026058
0.936106 0.144993 0.026076
0.985824 0.144877 0.026298
0.000737 0.254013 0.020880
0.047989 0.252967 0.020205
0.087028 0.250669 0.019101
0.119337 0.247298 0.009822
0.232342 0.247393 -0.004904
0.340891 0.241912 0.007635
0.412086 0.228569 0.018457
0.493945 0.218777 0.020996
0.578341 0.197108 0.022858
0.665879 0.171358 0.025278
0.739411 0.176680 0.026937
0.788263 0.191711 0.027069
0.837443 0.195102 0.027131
0.886496 0.195909 0.027092
0.935765 0.195836 0.027122
0.985619 0.195624 0.027132
0.001289 0.325485 0.025996
0.048843 0.324673 0.025585
0.096045 0.323192 0.024949
0.130033 0.319492 0.021842
0.157979 0.318164 0.005774
0.298358 0.322782 -0.006904
0.419575 0.319889 -0.005191
0.489779 0.301939 0.019006
0.566322 0.292277 0.026381
0.653772 0.280272 0.027727
0.736677 0.257372 0.028449
0.787135 0.222958 0.028632
0.837537 0.216270 0.028854
0.887094 0.215590 0.028698
0.936176 0.218252 0.028519
0.985646 0.220956 0.028667
0.002321 0.398274 0.031538
0.049470 0.397329 0.030962
0.096255 0.396168 0.030376
0.144022 0.393441 0.028724
0.174008 0.389963 0.024501
0.197181 0.391360 -0.008484
0.367094 0.401225 -0.006376
0.501693 0.401336 -0.007790
0.569599 0.377699 0.017123
0.640860 0.363866 0.031353
0.729221 0.359327 0.032573
0.786500 0.352365 0.031551
0.836373 0.345064 0.031444
0.885665 0.336274 0.031157
0.934926 0.325861 0.030565
0.984527 0.318786 0.030428
0.002325 0.470184 0.035622
0.049564 0.469655 0.035472
0.096725 0.468515 0.035243
0.142949 0.466594 0.035028
0.194749 0.463814 0.032877
0.217106 0.458863 0.023778
0.234865 0.465403 -0.010098
0.443580 0.480076 -0.005233
0.581473 0.483244 -0.008191
0.652258 0.457841 0.010762
0.720936 0.438051 0.034796
0.784563 0.433044 0.036847
0.834469 0.429267 0.035852
0.884189 0.424277 0.035330
0.933423 0.418109 0.034810
0.982976 0.414397 0.034557
0.002580 0.543120 0.042404
0.050268 0.542189 0.041455
0.097474 0.540905 0.040721
0.144294 0.539249 0.040360
0.193601 0.537278 0.039044
0.245548 0.533378 0.033935
0.259375 0.528390 0.017110
0.277128 0.541656 -0.009236
0.516335 0.560054 -0.003750
0.661675 0.565652 -0.007932
0.738260 0.539543 -0.009299
0.795296 0.517599 0.029804
0.838496 0.508350 0.036306
0.885084 0.501504 0.038350
0.932191 0.494673 0.038986
0.981026 0.491061 0.039132
0.002807 0.617574 0.046758
0.050514 0.616490 0.046598
0.097960 0.614921 0.046278
0.145269 0.612890 0.045835
0.192521 0.610727 0.045221
0.244876 0.608826 0.041879
0.296297 0.603617 0.035639
0.302166 0.601926 -0.006282
0.318548 0.620469 -0.008199
0.594140 0.641130 -0.001176
0.742772 0.645021 -0.006293
0.810001 0.616842 -0.010113
0.856201 0.601676 -0.009084
0.901417 0.591379 0.011990
0.945064 0.579917 0.024088
0.991185 0.573359 0.030794
0.002911 0.697466 0.052283
0.050317 0.696352 0.052076
0.097633 0.694941 0.051771
0.144997 0.692816 0.051333
0.191823 0.689949 0.050930
0.242590 0.686602 0.049552
0.295897 0.684379 0.044697
0.346513 0.677919 0.036419
0.345986 0.682242 -0.014565
0.354840 0.700634 -0.006059
0.674831 0.717591 0.002098
0.807786 0.714542 0.001898
0.856932 0.694267 -0.003649
0.902717 0.683386 -0.006413
0.949945 0.671338 -0.008873
0.997119 0.663944 -0.010034
0.004234 0.781697 0.062626
0.051363 0.780560 0.062170
0.098465 0.779123 0.061725
0.145847 0.777404 0.060952
0.193101 0.774474 0.059853
0.240796 0.770891 0.058638
0.293523 0.766950 0.054404
0.346437 0.764889 0.048550
0.399505 0.759507 0.026843
0.386360 0.768890 -0.012673
0.429100 0.780038 -0.002201
0.746006 0.786934 0.002816
0.856616 0.783168 0.003037
0.903863 0.772043 0.002953
0.949606 0.759728 0.002689
0.996670 0.751316 0.002578
0.004333 0.834591 0.064625
0.051504 0.834579 0.064482
0.098554 0.834507 0.064331
0.145988 0.834835 0.063972
0.193529 0.835307 0.063497
0.240661 0.835500 0.063434
0.291084 0.835099 0.061445
0.344417 0.835021 0.057827
0.396650 0.834502 0.050334
0.451718 0.835413 -0.009323
0.423141 0.845222 -0.006301
0.611594 0.850170 0.004054
0.809463 0.851579 0.003888
0.887462 0.845540 0.003437
0.947507 0.840311 0.003303
0.997634 0.834591 0.003457
0.004009 0.884651 0.065263
0.051650 0.885031 0.065476
0.098697 0.884884 0.065296
0.146053 0.884485 0.065054
0.193592 0.884588 0.064615
0.240717 0.884883 0.064328
0.289610 0.885212 0.063271
0.342811 0.885223 0.060685
0.394879 0.885880 0.054477
0.450977 0.886491 0.025895
0.500669 0.895409 -0.011176
0.457844 0.900555 0.004091
0.751816 0.902210 0.004263
0.861830 0.902007 0.004868
0.913313 0.901106 0.004585
0.970950 0.899183 0.004108
0.003766 0.934677 0.065950
0.051469 0.935048 0.066223
0.098829 0.935179 0.066308
0.146128 0.934828 0.066058
0.193629 0.934393 0.065761
0.240909 0.934534 0.065416
0.288177 0.934926 0.065184
0.341044 0.934832 0.062419
0.393482 0.935751 0.057266
0.447152 0.936172 0.041916
0.504029 0.941143 -0.014589
0.482467 0.947835 0.003713
0.678467 0.948561 0.004107
0.850940 0.949673 0.004344
0.908656 0.949092 0.004591
0.961159 0.948761 0.004302
0.003590 0.996350 0.069338
0.042463 0.996716 0.069607
0.079742 0.997155 0.069877
0.115376 0.996995 0.069822
0.149884 0.996523 0.069527
0.183915 0.996138 0.069274
0.217816 0.996460 0.069008
0.252131 0.996481 0.066304
0.287225 0.997873 0.060951
0.325959 0.997997 0.050263
0.370740 1.001470 -0.015325
0.414537 1.007951 -0.009050
0.485192 1.007855 -0.009216
0.825722 1.008967 -0.009412
0.899498 1.008632 -0.009501
0.952827 1.008481 -0.009687
-0.001657 -0.107408 0.024149
0.038702 -0.107509 0.023051
0.119203 -0.107592 0.023055
0.201925 -0.107571 0.023638
0.284752 -0.107439 0.023858
0.368146 -0.107365 0.025438
0.451191 -0.107397 0.027880
0.533852 -0.107555 0.033674
0.617292 -0.107829 0.061429
0.694468 -0.108332 0.067868
0.747538 -0.109558 0.071089
0.797091 -0.110979 0.073322
0.845324 -0.111677 0.074256
0.892343 -0.111872 0.074682
0.939916 -0.111887 0.075112
0.989899 -0.111846 0.075628
-0.001174 0.038976 0.057414
0.038584 0.039322 0.056307
0.108440 0.040515 0.054830
0.192770 0.042222 0.056134
0.274996 0.043959 0.057709
0.358048 0.047406 0.060678
0.440232 0.048867 0.063545
0.522799 0.049873 0.066963
0.604351 0.049989 0.070233
0.683544 0.050229 0.072727
0.737568 0.050506 0.071830
0.787072 0.050766 0.072395
0.836772 0.050951 0.073308
0.886402 0.050673 0.073125
0.936050 0.050485 0.073477
0.986652 0.050187 0.074021
0.000663 0.112703 0.057709
0.040985 0.111488 0.056836
0.081089 0.104128 0.053072
0.184022 0.086002 0.055920
0.265258 0.082973 0.058454
0.349322 0.085240 0.060715
0.433091 0.088974 0.063108
0.516573 0.096014 0.066637
0.597799 0.097103 0.069877
0.680224 0.097606 0.072377
0.737634 0.097555 0.073371
0.787358 0.097654 0.073145
0.837526 0.097619 0.073401
0.887068 0.097385 0.073242
0.935887 0.097524 0.073347
0.985697 0.097484 0.073720
0.001267 0.182414 0.062983
0.044073 0.181390 0.062258
0.080854 0.178205 0.058156
0.161594 0.174658 0.052523
0.261288 0.167096 0.057771
0.338720 0.153099 0.062678
0.422784 0.127453 0.064720
0.507226 0.127586 0.066637
0.589854 0.133911 0.069950
0.675193 0.145839 0.072800
0.737600 0.146477 0.073446
0.786287 0.146435 0.073565
0.836620 0.146253 0.073722
0.886601 0.145644 0.073601
0.935911 0.145173 0.073616
0.985559 0.145044 0.073831
0.000748 0.253587 0.068847
0.048521 0.252876 0.068545
0.087029 0.250602 0.067185
0.119347 0.247367 0.058451
0.231884 0.247295 0.043534
0.340347 0.241403 0.056560
0.412061 0.228002 0.066602
0.494322 0.218073 0.068871
0.578424 0.194278 0.070859
0.665956 0.171472 0.072982
0.739792 0.177053 0.074628
0.788418 0.191963 0.074494
0.837667 0.195103 0.074669
0.886765 0.195862 0.074738
0.936032 0.195907 0.074752
0.985893 0.195733 0.074727
0.001250 0.325239 0.073606
0.048951 0.324477 0.073433
0.096050 0.322926 0.072900
0.130062 0.319668 0.069774
0.158015 0.317879 0.055719
0.298495 0.322561 0.039222
0.419487 0.319463 0.044109
0.489530 0.301339 0.067443
0.566330 0.291947 0.073929
0.654032 0.279457 0.075019
0.737065 0.256314 0.076616
0.787576 0.220603 0.076567
0.838054 0.216099 0.076729
0.887426 0.215752 0.076112
0.936496 0.218487 0.075866
0.985906 0.221167 0.076044
0.002203 0.398159 0.079073
0.049448 0.397275 0.078650
0.096329 0.396034 0.078102
0.144118 0.393703 0.076829
0.173960 0.390286 0.072273
0.197168 0.391156 0.038760
0.367092 0.401389 0.039764
0.501412 0.401070 0.038726
0.569647 0.377177 0.065678
0.641119 0.363836 0.079105
0.729351 0.358857 0.080033
0.786715 0.351728 0.079189
0.836671 0.344375 0.079053
0.885696 0.335622 0.078884
0.934894 0.325102 0.078539
0.984522 0.318173 0.078383
0.001956 0.470159 0.083366
0.049579 0.469561 0.083144
0.096768 0.468402 0.082890
0.142828 0.466622 0.082870
0.194917 0.464010 0.080451
0.217014 0.459031 0.072001
0.234829 0.465310 0.036164
0.443594 0.480010 0.041015
0.581651 0.482983 0.038042
0.652127 0.457499 0.059613
0.720342 0.437822 0.082716
0.784909 0.433318 0.085133
0.834661 0.429272 0.083975
0.884212 0.423934 0.083040
0.933463 0.417886 0.082386
0.983022 0.414228 0.082045
0.002903 0.543098 0.089883
0.050346 0.542244 0.089525
0.097623 0.540870 0.088802
0.144313 0.539242 0.087984
0.193597 0.537094 0.086904
0.245674 0.533515 0.082080
0.259125 0.528365 0.065594
0.277332 0.541638 0.036939
0.516801 0.560117 0.042558
0.661727 0.565329 0.038371
0.737905 0.538885 0.038423
0.795281 0.517361 0.078237
0.838552 0.508215 0.084482
0.884839 0.500860 0.086045
0.932073 0.493959 0.086572
0.980834 0.490470 0.086693
0.002882 0.617543 0.094722
0.050780 0.616583 0.094545
0.098187 0.614972 0.094192
0.145273 0.612878 0.093523
0.192453 0.610833 0.092969
0.244645 0.608948 0.089961
0.296137 0.603887 0.083728
0.302212 0.601687 0.051495
0.318464 0.620386 0.038136
0.593952 0.640920 0.045668
0.742830 0.644672 0.039992
0.809888 0.616327 0.036269
0.856208 0.601099 0.038889
0.901483 0.590658 0.061571
0.945031 0.579165 0.072918
0.991050 0.572651 0.079305
0.002946 0.697392 0.100329
0.050315 0.696510 0.100195
0.097756 0.694947 0.100011
0.145207 0.692824 0.099368
0.192160 0.689985 0.098848
0.242310 0.686641 0.097523
0.295899 0.684431 0.092498
0.346597 0.678156 0.084235
0.346354 0.682182 0.031874
0.354490 0.700438 0.040486
0.674586 0.717393 0.049269
0.808089 0.714445 0.048856
0.857462 0.694395 0.042791
0.902957 0.683156 0.039778
0.950084 0.671016 0.037495
0.997325 0.663459 0.036722
0.003912 0.781231 0.110190
0.051296 0.780508 0.109816
0.098417 0.779172 0.109332
0.145645 0.777201 0.108481
0.192876 0.774217 0.107376
0.240639 0.770522 0.106332
0.293346 0.766889 0.102267
0.346300 0.764336 0.096726
0.399581 0.759515 0.074884
0.386998 0.768880 0.033693
0.427194 0.779958 0.048621
0.746134 0.787127 0.050098
0.856615 0.782959 0.050420
0.903945 0.771543 0.050583
0.949936 0.759420 0.050237
0.997025 0.751177 0.050036
0.004130 0.834449 0.112413
0.051507 0.834663 0.112360
0.098600 0.834612 0.112234
0.145878 0.834876 0.111854
0.193369 0.835328 0.111356
0.240410 0.835274 0.111156
0.291141 0.835129 0.109424
0.344532 0.835033 0.106084
0.396606 0.834838 0.098060
0.451548 0.835619 0.039147
0.423203 0.845449 0.040156
0.611449 0.850049 0.051259
0.809234 0.851196 0.051093
0.887542 0.845146 0.050736
0.947266 0.839827 0.050531
0.997414 0.834113 0.050906
0.004226 0.884685 0.113407
0.051627 0.885157 0.112886
0.098716 0.885018 0.112730
0.145989 0.884876 0.112664
0.193477 0.885134 0.112269
0.240770 0.885172 0.111886
0.289494 0.885215 0.111247
0.342699 0.885437 0.108372
0.395373 0.885827 0.102159
0.450590 0.886900 0.074917
0.500755 0.895949 0.034997
0.457754 0.900530 0.051378
0.750792 0.902267 0.051513
0.861363 0.901706 0.052347
0.913431 0.900602 0.051881
0.971115 0.898777 0.051373
0.004061 0.934757 0.114150
0.051482 0.935215 0.113619
0.098843 0.935355 0.113665
0.146074 0.935225 0.113589
0.193512 0.934967 0.113394
0.240927 0.935101 0.112980
0.288172 0.934986 0.112801
0.340897 0.935021 0.110153
0.393621 0.935853 0.105047
0.446810 0.936112 0.090481
0.504051 0.941570 0.031938
0.482789 0.947931 0.050860
0.678219 0.948812 0.051655
0.849725 0.949566 0.051565
0.908321 0.948858 0.052308
0.960795 0.948481 0.051993
0.003837 0.996438 0.117212
0.042148 0.996901 0.116733
0.080107 0.997336 0.117012
0.115832 0.997383 0.117139
0.149906 0.997169 0.116956
0.183483 0.996659 0.116668
0.217285 0.996474 0.116422
0.251808 0.996640 0.114004
0.287146 0.997971 0.108608
0.325783 0.997942 0.098305
0.370624 1.001823 0.031410
0.414505 1.008277 0.036694
0.485438 1.008134 0.036984
0.824324 1.008890 0.036828
0.899094 1.008465 0.037075
0.952453 1.008202 0.036904
-0.002135 -0.107454 0.117232
0.039426 -0.107570 0.114788
0.120789 -0.107676 0.110079
0.198738 -0.107712 0.106004
0.284036 -0.107636 0.110093
0.369427 -0.107514 0.111105
0.453294 -0.107460 0.109469
0.534947 -0.107585 0.111685
0.617201 -0.107850 0.116272
0.694869 -0.108359 0.119742
0.747966 -0.109646 0.121810
0.797227 -0.111089 0.122590
0.845292 -0.111744 0.122908
0.892374 -0.111866 0.122918
0.939886 -0.111831 0.123071
0.989842 -0.111754 0.123491
-0.001416 0.040009 0.120858
0.038108 0.040227 0.120071
0.110495 0.040941 0.117847
0.191076 0.043333 0.116479
0.275880 0.044040 0.118033
0.359569 0.048139 0.118469
0.441493 0.049158 0.118454
0.523078 0.049795 0.119169
0.603941 0.050221 0.120570
0.683419 0.050373 0.122113
0.737800 0.050427 0.121238
0.787007 0.050502 0.121029
0.836658 0.050681 0.121534
0.886310 0.050490 0.121011
0.935899 0.050422 0.121109
0.986404 0.050260 0.121605
-0.000731 0.108688 0.115866
0.040483 0.107297 0.115334
0.085920 0.104535 0.114286
0.185572 0.097331 0.112710
0.269060 0.083402 0.113192
0.351674 0.085409 0.112819
0.434616 0.088981 0.113351
0.517099 0.095868 0.116080
0.598455 0.096763 0.118259
0.680624 0.097432 0.120473
0.738259 0.097188 0.121148
0.787231 0.097747 0.120792
0.837047 0.097976 0.121107
0.886616 0.097710 0.120968
0.935840 0.097509 0.120859
0.985900 0.097367 0.121081
0.001102 0.180114 0.116895
0.043497 0.179241 0.115895
0.080675 0.177459 0.112523
0.160772 0.174280 0.106555
0.261268 0.165872 0.108813
0.339299 0.151885 0.111885
0.423270 0.126811 0.113144
0.507434 0.128009 0.114545
0.589831 0.134516 0.117610
0.675107 0.145923 0.120266
0.737889 0.146819 0.121653
0.786289 0.146444 0.121300
0.836199 0.146335 0.121370
0.886291 0.145838 0.121425
0.935737 0.145292 0.121268
0.985702 0.145029 0.121268
0.001024 0.252559 0.118621
0.048372 0.251820 0.117995
0.087035 0.250182 0.116690
0.119325 0.247148 0.108591
0.231134 0.247065 0.098398
0.339653 0.240148 0.105582
0.412124 0.226920 0.114667
0.494966 0.216443 0.116764
0.578786 0.178105 0.118835
0.666186 0.171645 0.120897
0.740419 0.178045 0.122657
0.788680 0.192716 0.122318
0.837788 0.195238 0.122435
0.886920 0.195923 0.122526
0.936122 0.196041 0.122430
0.985963 0.195931 0.122394
0.001239 0.324761 0.121333
0.048929 0.324009 0.121109
0.096104 0.322439 0.120868
0.130075 0.319532 0.117587
0.158012 0.317574 0.105200
0.298372 0.321968 0.085490
0.418971 0.318502 0.098804
0.489099 0.300342 0.116056
0.566538 0.291174 0.121506
0.654119 0.277710 0.122458
0.737388 0.253437 0.124601
0.787986 0.218626 0.124505
0.838559 0.215915 0.124424
0.887868 0.215947 0.123773
0.936646 0.218572 0.123364
0.986037 0.221001 0.123553
0.001963 0.397862 0.126525
0.049228 0.397029 0.126188
0.096417 0.395808 0.125867
0.143971 0.393550 0.124934
0.174095 0.390619 0.120082
0.197207 0.390682 0.086832
0.367002 0.401380 0.085880
0.501195 0.400200 0.085294
0.569303 0.376368 0.114801
0.641251 0.363273 0.126561
0.729677 0.357996 0.127747
0.787107 0.350664 0.126982
0.836779 0.343283 0.126845
0.885972 0.334655 0.126791
0.934837 0.324611 0.126492
0.984385 0.318181 0.126306
0.001765 0.470036 0.131165
0.049447 0.469466 0.130967
0.096698 0.468344 0.130518
0.143071 0.466410 0.130311
0.195022 0.464145 0.128111
0.216933 0.459373 0.119919
0.234724 0.465123 0.082487
0.443207 0.479959 0.087240
0.581813 0.482456 0.084294
0.651883 0.456766 0.108000
0.719977 0.437238 0.130520
0.785219 0.433065 0.133103
0.834928 0.428892 0.131986
0.884390 0.423496 0.130964
0.933569 0.417566 0.130148
0.982940 0.414056 0.129837
0.003058 0.542761 0.137349
0.050464 0.541832 0.137068
0.097820 0.540761 0.136712
0.144564 0.539043 0.135896
0.193311 0.537008 0.134712
0.245759 0.533548 0.130232
0.258935 0.528551 0.113817
0.277294 0.541305 0.083168
0.517218 0.560179 0.089012
0.661964 0.564943 0.084693
0.737527 0.538017 0.087402
0.794588 0.516675 0.126616
0.838629 0.507895 0.132910
0.885090 0.500811 0.134232
0.932203 0.493719 0.134488
0.980924 0.490033 0.134372
0.003081 0.617269 0.142631
0.050938 0.616350 0.142512
0.098170 0.615123 0.142154
0.145332 0.613068 0.141576
0.192379 0.610940 0.140862
0.244657 0.608923 0.138041
0.296158 0.604054 0.131956
0.301978 0.601667 0.100324
0.318383 0.620127 0.084480
0.593849 0.640800 0.092330
0.742631 0.644172 0.086324
0.810005 0.615640 0.082836
0.856068 0.600443 0.090362
0.901383 0.590096 0.111119
0.945052 0.578660 0.121668
0.990795 0.572058 0.127640
0.003028 0.697097 0.148640
0.050426 0.696189 0.148536
0.097930 0.694806 0.148284
0.145415 0.692705 0.147581
0.192391 0.689693 0.146650
0.241904 0.686588 0.145181
0.295715 0.684051 0.140513
0.346594 0.678368 0.132384
0.346160 0.682001 0.078324
0.354186 0.700096 0.086960
0.674038 0.717118 0.096251
0.807839 0.714156 0.095444
0.857644 0.694319 0.089121
0.903050 0.682872 0.085807
0.950273 0.670653 0.083845
0.997490 0.663141 0.083911
0.003508 0.780836 0.157573
0.050894 0.780096 0.157241
0.098270 0.779157 0.156851
0.145556 0.777203 0.156116
0.192729 0.774105 0.155084
0.240439 0.770391 0.154019
0.293325 0.766754 0.150563
0.346102 0.763942 0.144784
0.399636 0.759423 0.123703
0.387706 0.768748 0.079935
0.426093 0.779902 0.096846
0.746327 0.787132 0.097504
0.856981 0.782603 0.097858
0.904444 0.771275 0.097916
0.950440 0.759153 0.097478
0.997355 0.751146 0.097164
0.003925 0.834309 0.160193
0.051299 0.834518 0.160173
0.098600 0.834785 0.160184
0.145916 0.834946 0.159826
0.193252 0.835353 0.159267
0.240139 0.835088 0.158950
0.291131 0.835141 0.157469
0.344455 0.834863 0.154118
0.396960 0.834724 0.146101
0.451661 0.835744 0.098718
0.423458 0.845754 0.086570
0.609834 0.849989 0.098554
0.809146 0.850839 0.098282
0.887634 0.844728 0.098268
0.947315 0.839173 0.098104
0.997415 0.833392 0.098479
0.004019 0.884539 0.161149
0.051424 0.885022 0.160638
0.098721 0.885081 0.160643
0.146029 0.885020 0.160604
0.193382 0.885207 0.160174
0.240587 0.885168 0.159746
0.289380 0.885099 0.159458
0.342249 0.885431 0.155888
0.395410 0.886057 0.150202
0.450503 0.887247 0.123342
0.500804 0.896112 0.081258
0.457835 0.900878 0.098598
0.750290 0.902158 0.098484
0.860651 0.901744 0.099233
0.913425 0.900177 0.098944
0.971335 0.898212 0.098631
0.004129 0.934680 0.162111
0.051530 0.935162 0.161523
0.098840 0.935440 0.161246
0.146116 0.935325 0.161222
0.193469 0.935339 0.161141
0.240798 0.935380 0.160716
0.288018 0.934973 0.160651
0.340939 0.935164 0.157976
0.393500 0.936191 0.153104
0.446464 0.936376 0.138964
0.503997 0.941659 0.078534
0.483736 0.948049 0.098028
0.676548 0.948957 0.099060
0.848513 0.949406 0.098804
0.907852 0.948754 0.099662
0.960481 0.948125 0.099433
0.003206 0.996527 0.164065
0.039613 0.996999 0.163563
0.078173 0.997477 0.163354
0.115499 0.997574 0.163564
0.151180 0.997541 0.163708
0.184775 0.997340 0.163541
0.217410 0.996835 0.163157
0.251097 0.996961 0.161216
0.286394 0.998210 0.155779
0.325080 0.998135 0.145658
0.369867 1.001982 0.075584
0.413981 1.008124 0.078874
0.484766 1.008534 0.079680
0.822993 1.008851 0.079956
0.898264 1.008316 0.080706
0.951930 1.008065 0.081026
0.002880 -0.107486 0.197526
0.057689 -0.107599 0.196600
0.129716 -0.107742 0.193439
0.204175 -0.107791 0.188954
0.279608 -0.107756 0.183667
0.362958 -0.107669 0.184874
0.452485 -0.107607 0.189177
0.538003 -0.107700 0.187842
0.619337 -0.107931 0.181727
0.696011 -0.108440 0.182481
0.750179 -0.109665 0.182431
0.799260 -0.111123 0.181450
0.846841 -0.111795 0.180592
0.893873 -0.111881 0.179291
0.941209 -0.111786 0.177883
0.990992 -0.111688 0.177350
-0.003015 0.040528 0.193531
0.037525 0.040640 0.193367
0.120492 0.041168 0.191187
0.195495 0.041584 0.187763
0.270349 0.052190 0.183130
0.354580 0.051458 0.185225
0.443007 0.048369 0.188266
0.526612 0.049317 0.186028
0.605978 0.050178 0.181176
0.684629 0.050274 0.181045
0.739732 0.050541 0.179738
0.788519 0.050707 0.178362
0.837692 0.050684 0.177740
0.887449 0.050539 0.176466
0.937012 0.050535 0.175152
0.987525 0.050408 0.174805
-0.001597 0.106899 0.187737
0.038778 0.105374 0.186964
0.103039 0.101765 0.186619
0.187489 0.092100 0.183659
0.265516 0.104890 0.178747
0.350702 0.089643 0.180924
0.437505 0.088660 0.181632
0.519255 0.096231 0.178995
0.599618 0.097070 0.176637
0.681805 0.097188 0.177807
0.739251 0.097463 0.176681
0.788266 0.097378 0.175842
0.837690 0.097493 0.175445
0.887219 0.097633 0.174443
0.936493 0.097677 0.173533
0.986723 0.097512 0.173218
-0.000358 0.179343 0.182225
0.042259 0.178384 0.181167
0.080586 0.176115 0.180073
0.174484 0.174807 0.179443
0.263522 0.170567 0.176444
0.345757 0.157149 0.174883
0.428136 0.125707 0.172958
0.511138 0.128567 0.172965
0.591841 0.135344 0.172500
0.676232 0.145988 0.173545
0.738685 0.146496 0.172843
0.787400 0.145687 0.172040
0.837193 0.145685 0.171827
0.887055 0.145487 0.171388
0.936428 0.145372 0.171058
0.986361 0.145380 0.170936
0.001052 0.252938 0.181961
0.045700 0.252052 0.181067
0.084845 0.250046 0.178973
0.120083 0.248340 0.174643
0.232849 0.247596 0.166510
0.339647 0.238080 0.167900
0.415303 0.226744 0.170302
0.497694 0.213773 0.169939
0.580632 0.172778 0.169573
0.666952 0.171767 0.171091
0.741015 0.178931 0.172034
0.789189 0.193542 0.171064
0.838100 0.195346 0.170813
0.886980 0.195677 0.170580
0.935986 0.195674 0.170357
0.985890 0.195655 0.170419
0.001502 0.326257 0.180139
0.048654 0.325397 0.179161
0.091893 0.323618 0.177334
0.129391 0.320937 0.173436
0.157448 0.318878 0.162804
0.298588 0.321917 0.145217
0.418229 0.316786 0.153677
0.488809 0.298972 0.166084
0.567052 0.289924 0.170003
0.653934 0.275223 0.170407
0.737601 0.247315 0.172229
0.788241 0.216304 0.172278
0.838641 0.215884 0.172151
0.887856 0.216571 0.172083
0.936642 0.218661 0.171750
0.986173 0.220783 0.171952
0.001869 0.398295 0.178642
0.049266 0.397443 0.177855
0.096438 0.395874 0.176547
0.143505 0.393747 0.174716
0.174046 0.390662 0.170038
0.197047 0.390515 0.135920
0.366919 0.400620 0.131045
0.500598 0.398863 0.131474
0.568421 0.375008 0.163712
0.641256 0.362174 0.174017
0.729798 0.356814 0.175657
0.787572 0.349214 0.174808
0.837185 0.341832 0.174617
0.886332 0.333678 0.174643
0.935236 0.324421 0.174394
0.984403 0.319082 0.174195
0.001794 0.469745 0.179495
0.049188 0.468935 0.179221
0.096647 0.467980 0.178550
0.143344 0.466011 0.177751
