src/luts/vivid/3.cube
LUT_3D_SIZE 6
-0.001328 -0.001559 0.006074
0.198234 0.000418 0.007727
0.445051 0.001835 0.015970
0.684976 0.003099 0.023739
0.836688 0.003713 0.025517
0.987452 0.002863 0.026954
0.001165 0.183251 0.015304
0.160899 0.175052 0.001670
0.422690 0.127521 0.016721
0.675257 0.145557 0.024989
0.836993 0.146138 0.026229
0.985824 0.144877 0.026298
0.002321 0.398274 0.031538
0.144022 0.393441 0.028724
0.367094 0.401225 -0.006376
0.640860 0.363866 0.031353
0.836373 0.345064 0.031444
0.984527 0.318786 0.030428
0.002807 0.617574 0.046758
0.145269 0.612890 0.045835
0.296297 0.603617 0.035639
0.594140 0.641130 -0.001176
0.856201 0.601676 -0.009084
0.991185 0.573359 0.030794
0.004333 0.834591 0.064625
0.145988 0.834835 0.063972
0.291084 0.835099 0.061445
0.451718 0.835413 -0.009323
0.809463 0.851579 0.003888
0.997634 0.834591 0.003457
0.003590 0.996350 0.069338
0.115376 0.996995 0.069822
0.217816 0.996460 0.069008
0.325959 0.997997 0.050263
0.485192 1.007855 -0.009216
0.952827 1.008481 -0.009687
0.002880 -0.107486 0.197526
0.204175 -0.107791 0.188954
0.452485 -0.107607 0.189177
0.696011 -0.108440 0.182481
0.846841 -0.111795 0.180592
0.990992 -0.111688 0.177350
-0.000358 0.179343 0.182225
0.174484 0.174807 0.179443
0.428136 0.125707 0.172958
0.676232 0.145988 0.173545
0.837193 0.145685 0.171827
0.986361 0.145380 0.170936
0.001869 0.398295 0.178642
0.143505 0.393747 0.174716
0.366919 0.400620 0.131045
0.641256 0.362174 0.174017
0.837185 0.341832 0.174617
0.984403 0.319082 0.174195
0.003105 0.617254 0.190464
0.145466 0.613170 0.189472
0.296122 0.604057 0.180218
0.593681 0.640545 0.139696
0.855707 0.599954 0.148869
0.990626 0.572012 0.176844
0.003784 0.834543 0.207961
0.146016 0.835071 0.207677
0.291027 0.835085 0.205404
0.452015 0.836075 0.149357
0.809362 0.850536 0.145492
0.997391 0.832853 0.147180
-0.008014 0.996453 0.208082
0.112638 0.997385 0.208523
0.220313 0.996994 0.209634
0.324166 0.998090 0.189940
0.482915 1.008470 0.117061
0.951769 1.007971 0.120241
0.045215 -0.107337 0.465313
0.228583 -0.107499 0.452750
0.451208 -0.107591 0.433318
0.678717 -0.104395 0.412918
0.836872 -0.111157 0.408061
0.984396 -0.111745 0.399655
0.017787 0.170401 0.433521
0.200743 0.130409 0.431659
0.427331 0.125333 0.412668
0.662800 0.175685 0.395074
0.833704 0.148191 0.391630
0.985826 0.145300 0.384611
0.001987 0.411609 0.406925
0.133254 0.406602 0.402179
0.398382 0.402237 0.399872
0.661508 0.380739 0.387564
0.851507 0.349909 0.377134
0.997264 0.342178 0.375162
0.002734 0.632501 0.384240
0.145144 0.627645 0.379446
0.295951 0.616520 0.363774
0.601158 0.645125 0.315787
0.853626 0.598365 0.352381
0.992765 0.578965 0.358896
0.003571 0.836771 0.364836
0.145608 0.837270 0.362809
0.291042 0.835971 0.358935
0.451932 0.836203 0.303486
0.810429 0.850084 0.270380
0.997995 0.833574 0.304196
-0.020347 0.997016 0.252986
0.104817 0.997531 0.273959
0.215469 0.997683 0.321555
0.330002 0.998969 0.254864
0.496280 1.008383 0.224730
0.954730 1.008639 0.228947
0.079865 -0.109110 0.702717
0.256460 -0.109120 0.701044
0.474697 -0.109280 0.697127
0.704684 -0.110441 0.687532
0.850529 -0.112298 0.672463
0.980108 -0.112343 0.643093
0.070256 0.123497 0.690534
0.231238 0.128942 0.689133
0.450282 0.147236 0.683947
0.683798 0.145056 0.667941
0.836056 0.131941 0.642280
0.974362 0.160850 0.615123
-0.007679 0.392597 0.677584
0.120174 0.388263 0.673221
0.412443 0.383896 0.671865
0.661020 0.366208 0.650354
0.834251 0.375360 0.615632
0.977381 0.378363 0.598000
0.003341 0.652714 0.648116
0.145135 0.649444 0.645492
0.251434 0.643034 0.638629
0.638774 0.644494 0.640210
0.856815 0.615712 0.616835
0.998874 0.612340 0.613847
0.003633 0.848823 0.608914
0.146119 0.848350 0.605891
0.290481 0.847005 0.599190
0.452917 0.846478 0.575095
0.825215 0.852549 0.576328
0.999613 0.839775 0.614586
-0.029502 1.003880 0.562430
0.097428 1.004130 0.558038
0.210027 1.003755 0.555547
0.323505 1.008083 0.545785
0.491660 1.010539 0.347171
0.968043 1.009781 0.536677
0.085242 -0.111639 0.843584
0.256906 -0.111624 0.843385
0.469941 -0.111708 0.842501
0.697454 -0.112097 0.836863
0.854381 -0.112729 0.836690
0.994563 -0.112728 0.832635
0.077617 0.127911 0.840583
0.236278 0.135149 0.840451
0.447874 0.147068 0.838203
0.675907 0.145153 0.833873
0.847214 0.144904 0.832117
0.994441 0.144878 0.829477
0.016040 0.389478 0.838955
0.169633 0.384676 0.839162
0.419873 0.375812 0.842182
0.656303 0.336880 0.838211
0.851413 0.323289 0.834299
0.996727 0.326740 0.832525
0.003951 0.623778 0.834993
0.145738 0.619554 0.836068
0.244874 0.610818 0.837579
0.632730 0.624545 0.839746
0.857102 0.609452 0.837346
0.999138 0.608885 0.832240
0.046525 0.847914 0.830252
0.192099 0.848206 0.829405
0.342735 0.847877 0.828088
0.618560 0.849714 0.829686
0.851157 0.849982 0.828838
0.999759 0.846209 0.826636
0.067884 1.008027 0.813920
0.207817 1.007842 0.811875
0.331879 1.008166 0.809183
0.597668 1.009645 0.812542
0.804565 1.010817 0.811424
0.997640 1.010336 0.818585
0.084604 -0.110328 0.985081
0.252854 -0.110363 0.983963
0.459615 -0.110296 0.982429
0.679896 -0.111513 0.980700
0.844325 -0.112552 0.977400
0.994276 -0.112794 0.978276
0.080807 0.133781 0.983555
0.238127 0.145919 0.984244
0.441435 0.146905 0.983296
0.661730 0.145598 0.980877
0.843981 0.144629 0.977434
0.994274 0.145368 0.978048
0.045183 0.379521 0.983607
0.194490 0.375466 0.983505
0.421584 0.374620 0.985815
0.645066 0.340496 0.983400
0.849227 0.317779 0.981166
0.996808 0.321785 0.980186
0.003801 0.602172 0.980772
0.145588 0.598142 0.981468
0.248964 0.596184 0.982402
0.633123 0.623291 0.983497
0.851903 0.608184 0.981674
0.998842 0.605854 0.981522
0.028792 0.838743 0.974629
0.173997 0.837463 0.974172
0.320442 0.833131 0.974399
0.618320 0.837157 0.977059
0.851309 0.848172 0.978548
0.999520 0.845679 0.978528
0.074971 0.992133 0.972317
0.221304 0.992403 0.972886
0.367473 0.991690 0.972521
0.617666 0.995415 0.975070
0.846166 0.998803 0.978796
1.000045 0.999484 0.976125
