src/luts/vivid/4.cube
LUT_3D_SIZE 6
-0.006441 -0.005157 -0.002067
0.208204 0.007863 0.008957
0.450540 0.022334 0.023339
0.645794 0.067225 0.056826
0.772887 0.076180 0.063922
0.896672 0.080918 0.066559
0.025431 0.183128 0.022014
0.184164 0.183135 0.027373
0.430602 0.178094 0.025995
0.643146 0.196633 0.054072
0.772632 0.204328 0.064178
0.897322 0.206589 0.068272
0.073280 0.375666 0.049184
0.197168 0.371260 0.048358
0.403218 0.385888 0.068790
0.631485 0.385150 0.068598
0.784311 0.388727 0.081697
0.906365 0.382695 0.082380
0.131041 0.580475 0.086004
0.251874 0.575213 0.083486
0.397321 0.567268 0.081305
0.637408 0.614372 0.138423
0.818216 0.611241 0.136878
0.934677 0.594012 0.126645
0.212460 0.798879 0.155342
0.337094 0.800404 0.153745
0.468771 0.798462 0.152214
0.641757 0.803239 0.163431
0.839389 0.827585 0.213768
0.965155 0.818039 0.210988
0.237276 0.950670 0.175609
0.358648 0.949028 0.173826
0.477396 0.948828 0.173177
0.637856 0.952404 0.177860
0.834182 0.971780 0.222667
0.979812 0.979706 0.241246
-0.085808 -0.123657 0.156557
0.050543 -0.126323 0.091683
0.456776 -0.126117 0.141748
0.658710 -0.109444 0.182759
0.776860 -0.113435 0.156255
0.896261 -0.114124 0.091036
-0.010543 0.189690 0.173396
0.177391 0.182141 0.170674
0.435881 0.178521 0.167206
0.647890 0.198355 0.186314
0.776398 0.206560 0.192539
0.901069 0.211061 0.196307
0.073880 0.376834 0.177216
0.196646 0.371605 0.173626
0.402073 0.385930 0.192690
0.632604 0.384546 0.191869
0.787286 0.389612 0.206654
0.909153 0.384778 0.207292
0.132026 0.581019 0.210536
0.252105 0.576137 0.207062
0.397008 0.568420 0.205884
0.638572 0.615685 0.264045
0.820184 0.611828 0.261028
0.937730 0.595358 0.251808
0.216549 0.801952 0.280023
0.339528 0.803136 0.280221
0.469773 0.800800 0.278511
0.642591 0.804811 0.288290
0.841481 0.829915 0.339951
0.967176 0.819424 0.336182
0.236318 0.950599 0.298117
0.362259 0.952652 0.300174
0.478620 0.952755 0.299244
0.636256 0.954795 0.301659
0.833512 0.973544 0.346952
0.980360 0.981827 0.366858
-0.082764 -0.086454 0.418113
0.042514 -0.094591 0.410134
0.410821 -0.108824 0.403548
0.704726 -0.078674 0.424493
0.828892 -0.084376 0.412403
0.946502 -0.076799 0.402019
0.017048 0.229624 0.397928
0.150962 0.219029 0.393583
0.400610 0.203613 0.386786
0.688818 0.223338 0.402115
0.823090 0.237933 0.402092
0.945450 0.246884 0.400153
0.023906 0.406318 0.365088
0.145442 0.400211 0.360065
0.406005 0.395601 0.368852
0.670272 0.408697 0.379542
0.823512 0.417892 0.389996
0.947365 0.420084 0.392891
0.149931 0.602871 0.377326
0.269067 0.596502 0.371342
0.408294 0.583429 0.360364
0.645676 0.624945 0.415729
0.833268 0.619394 0.405448
0.953594 0.609473 0.400934
0.223145 0.812326 0.424846
0.346059 0.811279 0.422026
0.474556 0.807495 0.416926
0.643188 0.806585 0.418059
0.842490 0.830321 0.465295
0.970484 0.821820 0.464803
0.242235 0.956269 0.423103
0.364547 0.955240 0.421270
0.488651 0.956957 0.423208
0.639065 0.958295 0.423450
0.832399 0.975906 0.467911
0.978453 0.983705 0.488390
0.055735 0.164596 0.683093
0.209298 0.163518 0.682872
0.368099 0.138716 0.686052
0.692335 0.131286 0.680868
0.831627 0.095164 0.658549
0.963576 0.071098 0.634343
0.092989 0.322502 0.667915
0.222177 0.316963 0.664404
0.366457 0.296922 0.662707
0.672679 0.282158 0.654738
0.835725 0.265384 0.633196
0.964676 0.268217 0.616822
0.067085 0.462976 0.638504
0.186362 0.456476 0.632634
0.335032 0.440876 0.634405
0.652785 0.424452 0.625072
0.843610 0.431578 0.612624
0.977205 0.435411 0.609901
0.102296 0.647041 0.593750
0.224388 0.642619 0.589685
0.385442 0.634365 0.584398
0.650812 0.633030 0.605883
0.864250 0.650427 0.626790
0.985726 0.649733 0.626367
0.240832 0.839292 0.616763
0.364850 0.838159 0.615367
0.491331 0.833908 0.609061
0.654528 0.824934 0.604582
0.857500 0.846396 0.652104
0.988449 0.841756 0.654667
0.259382 0.979053 0.606145
0.382005 0.977917 0.603417
0.505486 0.977970 0.600559
0.664157 0.980472 0.609090
0.850228 0.992461 0.640864
0.991870 0.996309 0.655634
0.085290 0.180683 0.820322
0.227309 0.180057 0.819743
0.379430 0.171133 0.822662
0.688825 0.164682 0.827371
0.832221 0.164635 0.826144
0.959811 0.157866 0.822192
0.109924 0.342538 0.815012
0.240683 0.340695 0.815036
0.388014 0.335339 0.816011
0.666755 0.319765 0.824386
0.834085 0.322978 0.824690
0.963910 0.319833 0.823094
0.109761 0.486949 0.816337
0.232778 0.485485 0.816308
0.380483 0.484066 0.816213
0.632857 0.458920 0.826109
0.837295 0.466280 0.825480
0.967911 0.461549 0.821363
0.112843 0.676386 0.824403
0.235592 0.672476 0.823400
0.372576 0.663546 0.821565
0.559911 0.641823 0.829302
0.850168 0.636356 0.830686
0.980283 0.631343 0.824519
0.176432 0.858441 0.811832
0.298411 0.857544 0.810284
0.419746 0.853798 0.806278
0.624570 0.847990 0.808220
0.854274 0.846847 0.835279
0.996611 0.852332 0.841835
0.225746 0.994163 0.785566
0.351062 0.994025 0.782732
0.477413 0.994014 0.778792
0.648007 0.996685 0.789026
0.855365 1.002280 0.830593
0.998747 1.007076 0.848659
0.104161 0.192879 0.947779
0.241966 0.192964 0.947854
0.391414 0.191175 0.949536
0.673400 0.173074 0.957547
0.833305 0.182987 0.957600
0.961635 0.180114 0.956680
0.117584 0.353513 0.948048
0.247352 0.352462 0.947145
0.393708 0.349550 0.948076
0.646250 0.327465 0.957209
0.835374 0.337736 0.959334
0.964994 0.334767 0.956949
0.117670 0.496113 0.950031
0.241193 0.495115 0.950369
0.388138 0.495244 0.949880
0.607758 0.470845 0.957613
0.837959 0.480686 0.959536
0.968160 0.478240 0.958199
0.118578 0.666797 0.955072
0.241683 0.663116 0.954555
0.380833 0.656318 0.953785
0.554025 0.645487 0.960200
0.846849 0.640566 0.964442
0.977855 0.636790 0.963027
0.141806 0.865757 0.962498
0.260491 0.865176 0.963649
0.377850 0.861990 0.966387
0.527799 0.859359 0.971265
0.831755 0.842722 0.981180
0.994398 0.842184 0.981401
0.211834 0.993521 0.955405
0.335162 0.993418 0.955331
0.458805 0.993494 0.955224
0.612742 0.992792 0.953216
0.845580 0.995586 0.979869
0.998855 0.998511 0.994638
