src/luts/vivid/4.cube
LUT_3D_SIZE 16
-0.006441 -0.005157 -0.002067
0.047017 -0.005264 -0.002503
0.128516 0.003034 0.005332
0.208204 0.007863 0.008957
0.286257 0.009722 0.010739
0.367804 0.013160 0.015664
0.450540 0.022334 0.023339
0.527448 0.037152 0.034749
0.594619 0.052379 0.044986
0.645794 0.067225 0.056826
0.687610 0.071701 0.059445
0.730374 0.073908 0.061719
0.772887 0.076180 0.063922
0.814250 0.077806 0.064845
0.855376 0.079237 0.065628
0.896672 0.080918 0.066559
-0.005980 0.045578 0.001983
0.027072 0.042768 0.003340
0.121676 0.048514 0.006214
0.201513 0.049355 0.007994
0.281467 0.051432 0.011030
0.361771 0.054993 0.014594
0.445937 0.064142 0.022494
0.523078 0.077865 0.033306
0.592473 0.092636 0.044405
0.645827 0.108049 0.056446
0.688392 0.113795 0.060078
0.730555 0.115638 0.062035
0.773104 0.117918 0.064259
0.814346 0.119572 0.065514
0.855450 0.121003 0.066372
0.896770 0.122659 0.067292
0.013135 0.115671 0.013767
0.051812 0.114383 0.013684
0.110598 0.114979 0.015564
0.192470 0.116034 0.013086
0.272991 0.112133 0.012236
0.354183 0.109203 0.014545
0.438729 0.112250 0.021924
0.517218 0.120206 0.031695
0.588750 0.132511 0.043198
0.644702 0.147396 0.054903
0.689461 0.155242 0.060905
0.731317 0.156918 0.062586
0.773363 0.159042 0.064578
0.814544 0.160794 0.065814
0.855607 0.162326 0.066885
0.896871 0.164076 0.067974
0.025431 0.183128 0.022014
0.066214 0.181909 0.021859
0.113561 0.180301 0.021804
0.184164 0.183135 0.027373
0.264053 0.183039 0.024399
0.346019 0.178690 0.022634
0.430602 0.178094 0.025995
0.510321 0.180076 0.032817
0.583390 0.185832 0.042051
0.643146 0.196633 0.054072
0.689958 0.204007 0.061444
0.730818 0.203508 0.062565
0.772632 0.204328 0.064178
0.814554 0.204962 0.065673
0.855954 0.205374 0.066885
0.897322 0.206589 0.068272
0.040452 0.247305 0.028929
0.082074 0.246781 0.029734
0.122596 0.244950 0.029608
0.182066 0.244198 0.032056
0.252422 0.248376 0.039895
0.334730 0.250224 0.037714
0.417746 0.248172 0.036178
0.501290 0.247826 0.039495
0.575803 0.248216 0.044776
0.641970 0.253178 0.054632
0.692398 0.260936 0.064978
0.733050 0.259375 0.065269
0.774348 0.259386 0.066080
0.815673 0.259222 0.067196
0.856668 0.258941 0.068161
0.898459 0.260056 0.069691
0.055699 0.312424 0.039519
0.096805 0.311338 0.039126
0.136671 0.309925 0.038513
0.184901 0.307146 0.037841
0.251228 0.308347 0.043022
0.325413 0.314758 0.052536
0.408430 0.320116 0.052714
0.488396 0.316729 0.049390
0.566020 0.315459 0.052885
0.638785 0.317907 0.060445
0.694722 0.323172 0.069120
0.736617 0.321703 0.071102
0.777446 0.319844 0.071920
0.818352 0.318647 0.072463
0.859330 0.317492 0.072970
0.900931 0.317934 0.074157
0.073280 0.375666 0.049184
0.114709 0.374870 0.049046
0.155146 0.373318 0.048654
0.197168 0.371260 0.048358
0.251563 0.369197 0.048413
0.322887 0.374407 0.055974
0.403218 0.385888 0.068790
0.485648 0.392957 0.070442
0.557418 0.385849 0.064571
0.631485 0.385150 0.068598
0.699843 0.391585 0.079276
0.744288 0.391688 0.082288
0.784311 0.388727 0.081697
0.825050 0.386428 0.081840
0.865312 0.383300 0.081515
0.906365 0.382695 0.082380
0.089294 0.441228 0.058394
0.130004 0.439973 0.057944
0.171087 0.438843 0.057813
0.210287 0.436732 0.057096
0.260214 0.433995 0.056226
0.320767 0.434445 0.059160
0.396148 0.444586 0.069104
0.481508 0.461084 0.089142
0.560742 0.469160 0.094116
0.627765 0.459849 0.085128
0.699197 0.460049 0.090254
0.754829 0.464532 0.098425
0.794840 0.461232 0.097780
0.834798 0.458036 0.096667
0.874694 0.454478 0.095444
0.915999 0.453781 0.096053
0.107931 0.509253 0.070086
0.148722 0.508084 0.069373
0.189189 0.506709 0.068736
0.228578 0.504683 0.067765
0.272635 0.502360 0.066493
0.326489 0.498770 0.066744
0.393295 0.504040 0.072839
0.472497 0.516743 0.088594
0.560745 0.538240 0.114648
0.636994 0.546955 0.120732
0.702095 0.539345 0.112721
0.763611 0.536662 0.114371
0.804760 0.532613 0.113327
0.844552 0.528852 0.112214
0.884405 0.524775 0.111017
0.925174 0.523440 0.111135
0.131041 0.580475 0.086004
0.171372 0.579028 0.085095
0.212011 0.577386 0.084404
0.251874 0.575213 0.083486
0.291890 0.572918 0.082534
0.341802 0.569348 0.080380
0.397321 0.567268 0.081305
0.470321 0.576089 0.093174
0.552670 0.593254 0.113789
0.637408 0.614372 0.138423
0.710184 0.623484 0.146477
0.773037 0.617632 0.140476
0.818216 0.611241 0.136878
0.856454 0.604184 0.132652
0.894797 0.596971 0.128234
0.934677 0.594012 0.126645
0.163618 0.658002 0.111251
0.204170 0.656478 0.110083
0.244570 0.654632 0.109096
0.283298 0.651872 0.106864
0.321099 0.648716 0.104247
0.365630 0.645073 0.102390
0.418483 0.641692 0.101228
0.477784 0.642953 0.105094
0.553869 0.655291 0.119654
0.632050 0.671173 0.138472
0.709783 0.689051 0.162650
0.778597 0.696629 0.174285
0.829622 0.690774 0.167473
0.868593 0.683930 0.161362
0.907437 0.676392 0.155750
0.947692 0.672521 0.153349
0.202000 0.745409 0.144062
0.243070 0.744505 0.142835
0.284334 0.742942 0.141983
0.323552 0.740507 0.140045
0.360985 0.736964 0.137250
0.399574 0.731727 0.133090
0.450936 0.727629 0.130962
0.501714 0.723706 0.129648
0.564728 0.726957 0.134751
0.635370 0.736851 0.148428
0.706698 0.748262 0.166996
0.777820 0.761276 0.189375
0.836152 0.765082 0.199153
0.877296 0.758718 0.192391
0.916532 0.751282 0.184562
0.957193 0.747421 0.180646
0.212460 0.798879 0.155342
0.254006 0.799526 0.154546
0.295595 0.800249 0.153834
0.337094 0.800404 0.153745
0.378319 0.800345 0.153608
0.418630 0.799933 0.153232
0.468771 0.798462 0.152214
0.522359 0.797863 0.151882
0.577394 0.797155 0.152089
0.641757 0.803239 0.163431
0.708931 0.810827 0.178030
0.775594 0.819120 0.195598
0.839389 0.827585 0.213768
0.884428 0.826541 0.216826
0.924102 0.821198 0.213534
0.965155 0.818039 0.210988
0.217478 0.844680 0.159582
0.258400 0.844242 0.158852
0.299826 0.844872 0.158078
0.341144 0.845017 0.157750
0.382379 0.844970 0.157664
0.423111 0.845004 0.157657
0.469366 0.844673 0.157363
0.523763 0.845152 0.157380
0.578825 0.845961 0.158680
0.640202 0.851373 0.166854
0.706678 0.859332 0.181548
0.773144 0.867840 0.198945
0.836172 0.876616 0.217486
0.889632 0.881058 0.227484
0.929898 0.880178 0.225914
0.970580 0.878740 0.225561
0.222568 0.890749 0.164004
0.263314 0.889961 0.163257
0.304278 0.889900 0.162549
0.345627 0.890097 0.162169
0.386836 0.890061 0.162077
0.427773 0.890040 0.161983
0.470280 0.889737 0.161571
0.524309 0.890651 0.161446
0.578765 0.890968 0.162212
0.636421 0.893964 0.167294
0.701228 0.900634 0.180453
0.767336 0.908365 0.196582
0.830727 0.915865 0.214034
0.888388 0.923014 0.229943
0.931313 0.922830 0.229479
0.972559 0.923374 0.229892
0.237276 0.950670 0.175609
0.277982 0.950051 0.174839
0.318362 0.949311 0.174189
0.358648 0.949028 0.173826
0.398676 0.948984 0.173681
0.437777 0.948984 0.173616
0.477396 0.948828 0.173177
0.527778 0.950190 0.172746
0.581365 0.950287 0.173428
0.637856 0.952404 0.177860
0.703146 0.958406 0.190173
0.770095 0.965204 0.205853
0.834182 0.971780 0.222667
0.893717 0.979406 0.239411
0.938281 0.979768 0.241383
0.979812 0.979706 0.241246
-0.086004 -0.126910 -0.022682
-0.046478 -0.126772 -0.022729
0.004018 -0.126571 -0.022278
0.163995 -0.126418 -0.022075
0.270093 -0.126287 -0.021886
0.360338 -0.126072 -0.021156
0.448194 -0.125428 -0.018952
0.526945 -0.123584 -0.014249
0.595580 -0.119761 -0.006043
0.647045 -0.114443 0.009620
0.687106 -0.114269 0.005170
0.727118 -0.116016 -0.004239
0.767390 -0.117663 -0.012166
0.806889 -0.118842 -0.018120
0.847235 -0.118828 -0.020041
0.888375 -0.117862 -0.019259
-0.006362 0.046925 0.049136
0.026106 0.043397 0.049449
0.121276 0.034868 0.048984
0.202488 0.045776 0.051106
0.281930 0.050592 0.053231
0.362858 0.055899 0.057418
0.446490 0.064664 0.064660
0.523275 0.078468 0.075019
0.593042 0.093324 0.086361
0.646740 0.108701 0.098369
0.689168 0.114451 0.101928
0.730802 0.116168 0.103228
0.773428 0.118452 0.105508
0.814978 0.120500 0.107025
0.856164 0.122053 0.108000
0.897482 0.123745 0.108929
0.012624 0.115759 0.055680
0.050708 0.114424 0.055474
0.110384 0.114476 0.057203
0.192819 0.115553 0.055070
0.273414 0.111410 0.054326
0.354888 0.109370 0.057113
0.438698 0.112463 0.064027
0.517358 0.120279 0.073523
0.589176 0.132951 0.084757
0.645193 0.147939 0.096498
0.690343 0.155984 0.102776
0.731486 0.157528 0.103788
0.773654 0.159653 0.105808
0.815118 0.161764 0.107330
0.856304 0.163381 0.108481
0.897456 0.165130 0.109594
0.025464 0.183160 0.063588
0.066630 0.182078 0.063652
0.113421 0.180089 0.063638
0.183321 0.182714 0.068754
0.264259 0.182741 0.066060
0.346253 0.178822 0.064480
0.431127 0.178092 0.067966
0.510833 0.180004 0.074554
0.583546 0.185988 0.083910
0.643748 0.196586 0.095578
0.690814 0.204426 0.103398
0.731854 0.204049 0.104404
0.773737 0.204916 0.106016
0.815214 0.205911 0.107383
0.856625 0.206478 0.108598
0.898017 0.207812 0.110007
0.040354 0.247655 0.071058
0.081861 0.246364 0.070683
0.122459 0.244780 0.070640
0.181563 0.244220 0.073469
0.252284 0.248247 0.081330
0.334574 0.249884 0.078798
0.417923 0.247943 0.077442
0.501636 0.247815 0.080930
0.576081 0.248142 0.086275
0.642433 0.253288 0.096064
0.693248 0.261421 0.106503
0.733911 0.259695 0.106816
0.775165 0.259670 0.107724
0.816666 0.259900 0.109254
0.857747 0.259676 0.110366
0.899401 0.260806 0.111866
0.055464 0.312293 0.080708
0.096673 0.311266 0.080257
0.136652 0.309761 0.079654
0.184656 0.306839 0.079156
0.250597 0.308030 0.084170
0.325236 0.314578 0.093755
0.408456 0.319996 0.094073
0.488633 0.316779 0.090700
0.566437 0.315592 0.094177
0.639317 0.317913 0.101623
0.695719 0.323607 0.110994
0.737611 0.322238 0.112874
0.778614 0.320471 0.113780
0.819548 0.319314 0.114308
0.860536 0.318231 0.114892
0.902045 0.318727 0.116160
0.073402 0.375601 0.090309
0.114645 0.374890 0.090163
0.155076 0.373329 0.089748
0.196972 0.371322 0.089329
0.251184 0.369036 0.089600
0.322469 0.374313 0.096890
0.403199 0.386158 0.110104
0.485813 0.392778 0.111652
0.557657 0.385902 0.105744
0.632059 0.385344 0.109953
0.700534 0.391845 0.120646
0.745334 0.392061 0.123817
0.785153 0.389164 0.123139
0.825694 0.386895 0.122960
0.865756 0.383702 0.122483
0.906910 0.383119 0.123418
0.089114 0.441234 0.099727
0.130105 0.440330 0.099418
0.171215 0.439144 0.099220
0.210546 0.436956 0.098352
0.260067 0.434331 0.097632
0.320856 0.434804 0.100607
0.396245 0.444741 0.110502
0.481618 0.461221 0.130408
0.561308 0.469449 0.135487
0.628326 0.460158 0.126410
0.699876 0.460213 0.131514
0.755618 0.464881 0.139587
0.795634 0.461587 0.138954
0.836073 0.458388 0.138320
0.876142 0.454879 0.137261
0.917416 0.454206 0.137871
0.108420 0.509610 0.111680
0.149088 0.508531 0.111021
0.189608 0.507188 0.110327
0.228969 0.505052 0.109214
0.272814 0.502552 0.107800
0.326398 0.499168 0.107880
0.393214 0.503982 0.113924
0.472387 0.517009 0.129736
0.561146 0.538709 0.155922
0.637644 0.547324 0.162374
0.702527 0.539516 0.153560
0.764423 0.537024 0.155922
0.806002 0.533268 0.155316
0.845846 0.529459 0.154037
0.885702 0.525477 0.152774
0.926492 0.524235 0.152864
0.131284 0.580776 0.127616
0.171761 0.579743 0.126837
0.212252 0.577964 0.125960
0.252232 0.575465 0.124571
0.291810 0.572796 0.123218
0.342032 0.569589 0.121953
0.397472 0.567784 0.122921
0.470353 0.576374 0.134401
0.553342 0.593762 0.155427
0.638090 0.614982 0.180496
0.710956 0.623892 0.188470
0.773840 0.618021 0.182233
0.819156 0.611542 0.178385
0.857190 0.604514 0.173986
0.895617 0.597330 0.169752
0.935616 0.594364 0.168238
0.164564 0.658635 0.153284
0.204504 0.656952 0.151739
0.244638 0.654986 0.150430
0.284220 0.652650 0.148999
0.322263 0.649636 0.146649
0.366331 0.645668 0.144431
0.418756 0.642117 0.142626
0.477888 0.643111 0.146442
0.554354 0.655737 0.161704
0.632461 0.671753 0.180389
0.710121 0.689824 0.204740
0.779129 0.697116 0.215828
0.829988 0.690953 0.208449
0.869108 0.683798 0.202230
0.908090 0.676399 0.196790
0.948383 0.672592 0.194419
0.203070 0.746113 0.185484
0.243247 0.745210 0.184584
0.284564 0.743934 0.183741
0.323934 0.741270 0.181970
0.361431 0.737522 0.179055
0.399780 0.732219 0.174830
0.451343 0.728767 0.173149
0.502656 0.724267 0.171468
0.564720 0.726846 0.175814
0.635467 0.737276 0.190030
0.706921 0.748504 0.208330
0.778646 0.761750 0.231032
0.836697 0.765331 0.240511
0.878148 0.759390 0.234420
0.917202 0.751888 0.226633
0.957805 0.747898 0.222537
0.214026 0.799916 0.196639
0.254693 0.800423 0.196633
0.296258 0.801066 0.195944
0.337730 0.801342 0.195770
0.378966 0.801249 0.195663
0.419300 0.800470 0.195092
0.468882 0.799009 0.194082
0.522409 0.798633 0.193975
0.577756 0.797862 0.194211
0.642330 0.803954 0.205314
0.709060 0.811206 0.219502
0.776017 0.819661 0.237242
0.840210 0.828747 0.256262
0.884852 0.827094 0.258569
0.924336 0.821546 0.254947
0.965501 0.818385 0.252397
0.217373 0.844504 0.200591
0.259532 0.845694 0.201380
0.300950 0.846124 0.200586
0.341406 0.846171 0.199968
0.382426 0.846144 0.199764
0.423264 0.846212 0.199751
0.469380 0.845455 0.199323
0.524756 0.846226 0.200112
0.579135 0.847109 0.200507
0.640718 0.852259 0.208868
0.706644 0.860047 0.223174
0.773356 0.868876 0.240994
0.836385 0.876905 0.258812
0.890450 0.881831 0.269687
0.930868 0.881056 0.268734
0.971605 0.879631 0.268357
0.221956 0.890234 0.204892
0.264450 0.891423 0.205902
0.305534 0.891303 0.205241
0.346003 0.891396 0.204499
0.386694 0.891271 0.204247
0.427705 0.891234 0.204168
0.470086 0.891067 0.203751
0.525695 0.891777 0.204542
0.579169 0.892048 0.204174
0.636667 0.894861 0.209048
0.701221 0.901440 0.222295
0.767707 0.909327 0.238588
0.831020 0.916319 0.255632
0.888947 0.923716 0.271746
0.931922 0.923422 0.271355
0.973173 0.924029 0.271749
0.236738 0.950161 0.216395
0.279164 0.951386 0.217423
0.319752 0.950830 0.216784
0.359217 0.950317 0.216149
0.398479 0.950207 0.215809
0.437519 0.950161 0.215690
0.477071 0.950016 0.215317
0.528883 0.951151 0.215693
0.581622 0.951426 0.215367
0.637964 0.953274 0.219496
0.703172 0.959374 0.232090
0.770158 0.966243 0.247756
0.834492 0.972431 0.264409
0.894043 0.979972 0.281129
0.938986 0.980448 0.283358
0.980380 0.980375 0.283196
-0.085961 -0.126053 0.027760
-0.046653 -0.126409 0.026654
-0.004377 -0.126738 0.023546
0.096191 -0.126673 0.023507
0.274428 -0.126730 0.024076
0.365302 -0.126342 0.024790
0.452249 -0.125219 0.027990
0.529385 -0.123079 0.033844
0.597755 -0.119338 0.043938
0.649399 -0.113710 0.091884
0.689864 -0.113620 0.059606
0.728832 -0.115498 0.041780
0.768307 -0.117352 0.030768
0.807875 -0.118643 0.023940
0.848058 -0.118556 0.021953
0.889252 -0.117502 0.023051
-0.002984 0.062412 0.116725
0.027658 0.059187 0.115305
0.099104 0.053358 0.111488
0.198085 0.051770 0.111352
0.285164 0.050542 0.111165
0.366615 0.059092 0.112538
0.449766 0.069535 0.117321
0.525162 0.081452 0.123623
0.594432 0.094915 0.131747
0.647865 0.110278 0.142190
0.691143 0.115923 0.145800
0.732214 0.117232 0.146175
0.774215 0.119004 0.147356
0.815523 0.120841 0.148464
0.856699 0.122618 0.149610
0.898025 0.124510 0.150836
-0.009090 0.119322 0.110136
0.027846 0.118438 0.110278
0.106336 0.116003 0.110971
0.195032 0.113744 0.107266
0.276980 0.110591 0.105120
0.357805 0.109594 0.106214
0.440630 0.112820 0.110429
0.518034 0.120682 0.117342
0.589926 0.133345 0.127370
0.645880 0.148543 0.138846
0.691586 0.156862 0.145291
0.732197 0.158231 0.145609
0.773833 0.160228 0.147010
0.815451 0.162336 0.148587
0.856800 0.164259 0.149953
0.898158 0.166250 0.151309
0.026467 0.183583 0.111317
0.067902 0.182683 0.110918
0.113674 0.180606 0.110421
0.182367 0.182009 0.113203
0.264238 0.182577 0.110083
0.346855 0.178670 0.107712
0.431752 0.177686 0.110824
0.511330 0.179412 0.116452
0.583604 0.185537 0.125613
0.644348 0.196150 0.137062
0.691576 0.204270 0.145060
0.732884 0.204165 0.146228
0.774482 0.205243 0.147716
0.815933 0.206408 0.149013
0.857300 0.207430 0.150326
0.898795 0.209121 0.151841
0.040468 0.247897 0.114968
0.081997 0.246559 0.114348
0.122251 0.244697 0.113126
0.180566 0.243719 0.115209
0.251807 0.247847 0.123154
0.334268 0.249306 0.120001
0.418046 0.247272 0.118681
0.501992 0.247211 0.122172
0.576348 0.247251 0.127688
0.642782 0.252894 0.137520
0.693916 0.261561 0.148048
0.734850 0.259817 0.148544
0.776176 0.259724 0.149782
0.817670 0.260143 0.151331
0.858739 0.260379 0.152610
0.900470 0.261791 0.154092
0.055353 0.311841 0.121901
0.096624 0.310855 0.121436
0.136523 0.309346 0.120621
0.183845 0.306506 0.120347
0.249476 0.307530 0.125233
0.324252 0.313951 0.134546
0.408109 0.319438 0.135097
0.488702 0.316237 0.131622
0.566948 0.315264 0.135557
0.639797 0.317394 0.142592
0.696266 0.323510 0.152645
0.738411 0.322434 0.154710
0.779608 0.320812 0.155425
0.820607 0.319824 0.156000
0.861578 0.318989 0.156684
0.903240 0.319764 0.158203
0.073314 0.375384 0.131401
0.114519 0.374671 0.131333
0.154880 0.373288 0.130883
0.196686 0.371066 0.130348
0.250570 0.368690 0.130556
0.321776 0.374059 0.137889
0.402859 0.386144 0.151314
0.485697 0.392465 0.152680
0.557776 0.385778 0.146867
0.632470 0.385252 0.151107
0.701184 0.391704 0.161920
0.746082 0.392196 0.165184
0.786058 0.389337 0.164666
0.826651 0.387291 0.164695
0.866667 0.384216 0.164234
0.907695 0.383705 0.165050
0.089212 0.441309 0.141016
0.130323 0.440431 0.140749
0.171215 0.439221 0.140294
0.210679 0.437167 0.139610
0.259729 0.434355 0.138986
0.320431 0.434844 0.141950
0.396180 0.444670 0.152177
0.481542 0.461328 0.171576
0.561788 0.469485 0.176811
0.628722 0.460062 0.167538
0.700645 0.460258 0.172803
0.756590 0.464957 0.180914
0.796492 0.461628 0.180284
0.837016 0.458611 0.179738
0.877400 0.455190 0.178926
0.918659 0.454714 0.179594
0.108512 0.509858 0.153056
0.149208 0.508810 0.152525
0.189889 0.507539 0.151944
0.229330 0.505314 0.150833
0.272562 0.502685 0.149195
0.326051 0.499569 0.148962
0.392692 0.503664 0.154774
0.472200 0.516963 0.170798
0.561306 0.539068 0.197278
0.638027 0.547484 0.203465
0.702898 0.539483 0.194354
0.765462 0.537269 0.197445
0.807546 0.534054 0.197552
0.847139 0.530234 0.196065
0.886925 0.526195 0.194555
0.927775 0.524945 0.194740
0.131628 0.580969 0.169072
0.172178 0.579914 0.168329
0.212138 0.578246 0.167125
0.252242 0.575890 0.165781
0.291703 0.573021 0.164212
0.341973 0.569839 0.163401
0.397521 0.568428 0.164719
0.470490 0.576671 0.175749
0.553693 0.594010 0.196780
0.638533 0.615467 0.222397
0.711549 0.624118 0.230252
0.774596 0.618292 0.223779
0.819758 0.611810 0.219864
0.857972 0.604752 0.215498
0.896573 0.597686 0.211407
0.936637 0.594681 0.210000
0.165412 0.658871 0.194936
0.205258 0.657147 0.193401
0.244665 0.655487 0.191820
0.284496 0.653377 0.190646
0.323036 0.650262 0.188635
0.366720 0.646022 0.185800
0.418731 0.642312 0.183775
0.477839 0.643121 0.187523
0.554508 0.656023 0.203386
0.632742 0.672030 0.222269
0.710349 0.690445 0.246723
0.779663 0.697650 0.257378
0.830435 0.691085 0.249527
0.869846 0.683896 0.243437
0.908860 0.676397 0.237964
0.948969 0.672553 0.235411
0.203601 0.746674 0.227222
0.243863 0.745855 0.226392
0.284781 0.745060 0.225843
0.324148 0.742429 0.224090
0.361752 0.737992 0.220934
0.400081 0.733150 0.217364
0.451050 0.729165 0.214524
0.503332 0.724693 0.213128
0.564461 0.726844 0.217071
0.635558 0.737718 0.231853
0.706968 0.748670 0.249719
0.779012 0.762057 0.272628
0.837466 0.765792 0.282236
0.878810 0.760019 0.275739
0.917812 0.751993 0.267868
0.958227 0.747634 0.263616
0.215558 0.800968 0.238046
0.256235 0.801452 0.238042
0.296950 0.802011 0.237992
0.338406 0.802227 0.237924
0.379672 0.802153 0.237792
0.420002 0.801244 0.237104
0.469048 0.799596 0.235947
0.522716 0.799484 0.236386
0.577917 0.798721 0.236411
0.642589 0.804358 0.246878
0.709203 0.811499 0.260873
0.776400 0.820041 0.278626
0.841049 0.829691 0.298614
0.885809 0.827442 0.300381
0.925115 0.822076 0.296679
0.966219 0.818944 0.294102
0.218849 0.845592 0.241956
0.261032 0.846601 0.242832
0.301659 0.847117 0.242646
0.342046 0.847080 0.242036
0.383064 0.847014 0.241858
0.423946 0.847034 0.241817
0.469540 0.846575 0.241924
0.525577 0.847742 0.243083
0.579486 0.848340 0.243318
0.641380 0.853111 0.250882
0.706908 0.860614 0.264822
0.773744 0.869861 0.283062
0.836711 0.877415 0.300424
0.891509 0.883052 0.312170
0.931856 0.881999 0.311475
0.972492 0.880476 0.311173
0.222317 0.890368 0.246067
0.264941 0.891740 0.247142
0.306665 0.892585 0.247616
0.346978 0.892573 0.246984
0.387043 0.892323 0.246373
0.427961 0.892356 0.246263
0.470232 0.892066 0.245986
0.526275 0.892677 0.246869
0.579357 0.892950 0.246310
0.637223 0.895799 0.251155
0.701707 0.902380 0.264313
0.768305 0.910058 0.280562
0.831277 0.916826 0.297257
0.889589 0.924376 0.313674
0.932874 0.924454 0.313636
0.974026 0.924917 0.314418
0.236230 0.949763 0.256961
0.278774 0.951049 0.258097
0.320964 0.952100 0.259043
0.360868 0.951863 0.258612
0.399446 0.951617 0.257950
0.437562 0.951506 0.257621
0.476665 0.951333 0.257289
0.529398 0.952324 0.258110
0.581277 0.952333 0.256999
0.637411 0.954125 0.260894
0.703160 0.960250 0.273806
0.770107 0.966732 0.289289
0.834302 0.973059 0.305871
0.894054 0.980435 0.322624
0.939192 0.981039 0.325174
0.980722 0.980981 0.325039
-0.085808 -0.123657 0.156557
-0.046412 -0.124184 0.151501
-0.007040 -0.125642 0.146363
0.050543 -0.126323 0.091683
0.249588 -0.125940 0.093158
0.361570 -0.126458 0.110781
0.456776 -0.126117 0.141748
0.535590 -0.122551 0.156273
0.605651 -0.116861 0.170614
0.658710 -0.109444 0.182759
0.699676 -0.109140 0.179015
0.738021 -0.111387 0.169566
0.776860 -0.113435 0.156255
0.815602 -0.115159 0.104152
0.855153 -0.115380 0.088462
0.896261 -0.114124 0.091036
0.001086 0.076510 0.183776
0.034807 0.075129 0.182915
0.064316 0.067677 0.181027
0.172648 0.063980 0.175632
0.268970 0.067294 0.175464
0.365206 0.062108 0.178093
0.453715 0.067648 0.179730
0.530815 0.085812 0.184857
0.601110 0.101538 0.190988
0.655077 0.117133 0.199419
0.698699 0.122180 0.201448
0.739399 0.123057 0.200814
0.780106 0.124154 0.200413
0.821128 0.125654 0.200528
0.861710 0.126846 0.200198
0.903045 0.128635 0.201330
-0.004239 0.133474 0.184956
0.032582 0.131415 0.183384
0.061023 0.126255 0.183105
0.173384 0.117486 0.174325
0.268319 0.115156 0.170314
0.359688 0.109443 0.171176
0.445224 0.113526 0.173232
0.523225 0.125564 0.177799
0.594959 0.139027 0.184442
0.651434 0.153995 0.193098
0.696610 0.161986 0.196812
0.737209 0.162741 0.196106
0.778564 0.164201 0.196537
0.819350 0.165626 0.196858
0.860073 0.166823 0.196918
0.901534 0.168846 0.198236
-0.010543 0.189690 0.173396
0.030952 0.188447 0.172364
0.086935 0.186685 0.172142
0.177391 0.182141 0.170674
0.265954 0.181497 0.168608
0.352024 0.178511 0.166086
0.435881 0.178521 0.167206
0.514492 0.180890 0.170836
0.587319 0.187594 0.177216
0.647890 0.198355 0.186314
0.694638 0.205942 0.192154
0.735362 0.205572 0.191922
0.776398 0.206560 0.192539
0.817767 0.207618 0.193453
0.859301 0.208906 0.194628
0.901069 0.211061 0.196307
0.035748 0.249763 0.166828
0.079336 0.248750 0.166697
0.121929 0.246916 0.166028
0.179736 0.244268 0.166383
0.250910 0.247418 0.172593
0.334860 0.249641 0.169554
0.420807 0.248086 0.167995
0.503727 0.246869 0.169232
0.578391 0.247384 0.173630
0.644534 0.253249 0.182095
0.695417 0.261604 0.191117
0.736015 0.259893 0.190831
0.777215 0.259920 0.191819
0.818450 0.260490 0.192885
0.859529 0.261036 0.193988
0.901072 0.262775 0.195531
0.057587 0.313277 0.171976
0.098862 0.312318 0.171352
0.138845 0.310594 0.169884
0.184396 0.307740 0.167695
0.247895 0.307274 0.170475
0.323912 0.314095 0.179328
0.408005 0.319062 0.178799
0.489402 0.315771 0.174552
0.567436 0.314500 0.177447
0.640068 0.316437 0.183587
0.696658 0.322852 0.193701
0.739174 0.322230 0.196225
0.780280 0.320771 0.196879
0.821434 0.320030 0.197679
0.862488 0.319485 0.198470
0.904258 0.320616 0.200152
0.073880 0.376834 0.177216
0.115171 0.375748 0.176496
0.155435 0.374015 0.175163
0.196646 0.371605 0.173626
0.249929 0.368654 0.172886
0.320978 0.373684 0.179622
0.402073 0.385930 0.192690
0.485319 0.391932 0.193739
0.557732 0.385276 0.187798
0.632604 0.384546 0.191869
0.701717 0.391144 0.203017
0.747167 0.392271 0.206922
0.787286 0.389612 0.206654
0.827910 0.387541 0.206696
0.868148 0.384984 0.206459
0.909153 0.384778 0.207292
0.089434 0.441400 0.182774
0.130592 0.440461 0.182372
0.171354 0.439265 0.181760
0.210819 0.437247 0.180936
0.259035 0.434202 0.180180
