src/luts/vivid/5.cube
LUT_3D_SIZE 16
0.000474 0.001298 0.000433
0.031454 0.002327 0.000980
0.077942 0.004680 0.002959
0.139054 0.007198 0.003643
0.210966 0.010397 0.003541
0.289546 0.014660 0.002622
0.373827 0.020068 0.001729
0.463697 0.027713 0.000196
0.555611 0.037370 0.000021
0.642324 0.045751 0.000021
0.679985 0.047660 0.000021
0.705739 0.048167 0.000021
0.731484 0.048672 0.000021
0.757238 0.049178 0.000021
0.782975 0.049683 0.000021
0.832156 0.049777 0.000021
0.003410 0.035040 0.004852
0.030915 0.032894 0.003462
0.076267 0.031362 0.003489
0.134694 0.031252 0.003960
0.205512 0.033679 0.003847
0.283512 0.037559 0.002898
0.367435 0.042969 0.001953
0.457414 0.050545 0.000573
0.550538 0.059961 0.000023
0.641503 0.068755 0.000021
0.682719 0.071118 0.000021
0.708516 0.071638 0.000021
0.734262 0.072143 0.000021
0.760016 0.072650 0.000021
0.785753 0.073154 0.000021
0.835087 0.073247 0.000021
0.008935 0.089290 0.014014
0.033494 0.086405 0.012741
0.081966 0.081811 0.008603
0.145422 0.079118 0.006972
0.210817 0.074321 0.006143
0.282816 0.071524 0.004315
0.361435 0.071603 0.002786
0.447584 0.075062 0.001329
0.541231 0.082861 0.000165
0.635503 0.091294 0.000021
0.685430 0.094568 0.000021
0.711256 0.095097 0.000021
0.737041 0.095615 0.000021
0.762794 0.096122 0.000021
0.788531 0.096625 0.000021
0.838017 0.096716 0.000021
0.012772 0.150919 0.021382
0.036300 0.147968 0.020473
0.077600 0.140814 0.015346
0.148182 0.138684 0.010608
0.228020 0.140047 0.009384
0.298982 0.131822 0.007977
0.373534 0.126069 0.005963
0.454451 0.125067 0.004964
0.543967 0.127374 0.003654
0.640058 0.130111 0.001801
0.701131 0.129542 0.000664
0.722653 0.125404 0.000241
0.746237 0.123922 0.000073
0.769665 0.122661 0.000024
0.794828 0.122733 0.000021
0.844603 0.122778 0.000021
0.016021 0.219855 0.027021
0.039679 0.217211 0.026159
0.070535 0.210738 0.023217
0.139263 0.199162 0.016286
0.225279 0.206177 0.013290
0.318477 0.212608 0.011317
0.396784 0.203027 0.010300
0.474942 0.194155 0.008850
0.558278 0.188982 0.008068
0.649575 0.187903 0.006908
0.724551 0.186541 0.005585
0.746937 0.180286 0.004600
0.771004 0.177595 0.004098
0.795309 0.175105 0.003624
0.820808 0.174572 0.003431
0.872085 0.174528 0.003403
0.021012 0.293767 0.034546
0.044475 0.291331 0.033670
0.068406 0.286607 0.032283
0.128699 0.273599 0.024098
0.213616 0.265257 0.019198
0.309800 0.282203 0.016074
0.410928 0.290693 0.013025
0.498300 0.282034 0.012778
0.583131 0.271895 0.012399
0.670655 0.263464 0.011607
0.751738 0.256638 0.010523
0.777686 0.247934 0.009662
0.800376 0.243721 0.009221
0.823592 0.240279 0.008808
0.848574 0.239387 0.008640
0.901273 0.239237 0.008610
0.030462 0.371910 0.043677
0.054102 0.369402 0.042706
0.077267 0.365130 0.041491
0.119626 0.356274 0.035597
0.203323 0.339889 0.026087
0.295807 0.341301 0.022367
0.396971 0.363280 0.018020
0.501539 0.369980 0.015729
0.597180 0.362477 0.016013
0.689764 0.353048 0.015904
0.779061 0.343192 0.015338
0.817291 0.332512 0.014559
0.839410 0.326174 0.014099
0.862293 0.321589 0.013749
0.886967 0.320102 0.013621
0.941715 0.319801 0.013595
0.060101 0.447707 0.048459
0.082564 0.445768 0.048158
0.104352 0.442476 0.047734
0.127626 0.437271 0.046443
0.195964 0.425580 0.035975
0.285655 0.413818 0.029105
0.381678 0.423955 0.025114
0.483111 0.445762 0.019559
0.589865 0.448752 0.018711
0.691832 0.441830 0.019079
0.790896 0.433463 0.019208
0.847886 0.423808 0.018876
0.871954 0.416806 0.018485
0.895845 0.412163 0.018208
0.920898 0.410615 0.018110
0.977581 0.410231 0.018086
0.097396 0.522227 0.048636
0.119259 0.520789 0.048778
0.140493 0.518229 0.048922
0.160757 0.513907 0.049072
0.202532 0.509967 0.046337
0.275409 0.499157 0.036881
0.370886 0.493828 0.031946
0.466440 0.508975 0.026812
0.567263 0.528048 0.021482
0.676684 0.526670 0.021608
0.783196 0.520037 0.022055
0.863342 0.512277 0.022197
0.890695 0.505167 0.021913
0.915659 0.500835 0.021735
0.941179 0.499429 0.021694
0.999086 0.499018 0.021677
0.131197 0.597927 0.049668
0.152849 0.596678 0.049767
0.174094 0.594507 0.049786
0.194414 0.590744 0.049721
0.220217 0.588258 0.050046
0.274217 0.584843 0.045424
0.353128 0.576822 0.038560
0.452934 0.577630 0.033640
0.547288 0.595254 0.027108
0.651628 0.609040 0.024505
0.763681 0.604873 0.024564
0.866182 0.598010 0.024961
0.899524 0.590696 0.024768
0.925151 0.586554 0.024622
0.950996 0.585273 0.024600
1.009529 0.584844 0.024588
0.161842 0.676659 0.052913
0.183625 0.675313 0.053030
0.205040 0.673221 0.053015
0.225582 0.669795 0.052932
0.245580 0.665144 0.052588
0.284955 0.668418 0.051964
0.344717 0.663182 0.046055
0.431425 0.660043 0.040311
0.531536 0.665675 0.034552
0.627845 0.683143 0.027852
0.737553 0.690470 0.027526
0.851227 0.683782 0.027540
0.902779 0.676046 0.027461
0.928732 0.671849 0.027317
0.954760 0.670568 0.027301
1.013551 0.670052 0.027287
0.174303 0.765752 0.050659
0.197324 0.763877 0.050866
0.220142 0.761253 0.051266
0.242689 0.757289 0.051754
0.264949 0.751741 0.052215
0.296066 0.751153 0.052692
0.346689 0.753670 0.050228
0.417226 0.749091 0.044510
0.510102 0.751099 0.039297
0.609668 0.760522 0.032884
0.713365 0.773435 0.031314
0.825730 0.771798 0.030613
0.903423 0.763127 0.030248
0.930110 0.758777 0.030105
0.956255 0.757439 0.030085
1.015162 0.756767 0.030062
0.164552 0.860620 0.044745
0.188818 0.858775 0.044812
0.212958 0.856374 0.045021
0.237138 0.852786 0.045271
0.261434 0.847310 0.045710
0.288715 0.841825 0.046170
0.342192 0.844344 0.045431
0.408629 0.843098 0.042380
0.492531 0.843043 0.037989
0.590146 0.848730 0.034374
0.694904 0.857489 0.038638
0.802270 0.860664 0.038533
0.896313 0.852970 0.033801
0.930614 0.847554 0.033347
0.956819 0.845923 0.033237
1.015773 0.845303 0.033198
0.162713 0.888643 0.044135
0.186384 0.889045 0.043971
0.210054 0.889445 0.043807
0.233565 0.889901 0.043682
0.256965 0.890398 0.043586
0.280979 0.890858 0.043469
0.328000 0.895579 0.042021
0.393492 0.901221 0.039379
0.475761 0.906858 0.036112
0.569106 0.916586 0.035487
0.675170 0.929118 0.039086
0.780742 0.935207 0.059987
0.885877 0.936823 0.044712
0.931731 0.932853 0.043782
0.957741 0.931715 0.042979
1.016722 0.931221 0.042529
0.161168 0.915648 0.043623
0.184839 0.916049 0.043459
0.208509 0.916450 0.043295
0.232177 0.916851 0.043131
0.255674 0.917314 0.043011
0.279206 0.917750 0.042911
0.319545 0.921418 0.041832
0.383701 0.927892 0.039398
0.463351 0.934575 0.036293
0.554552 0.945608 0.035750
0.658822 0.960358 0.037266
0.765000 0.970264 0.059544
0.870930 0.973986 0.067379
0.930796 0.974348 0.067993
0.956710 0.974327 0.067933
1.015616 0.974287 0.067816
0.159651 0.942561 0.043120
0.183319 0.942962 0.042956
0.206988 0.943362 0.042792
0.230655 0.943763 0.042629
0.254324 0.944165 0.042465
0.277931 0.944575 0.042346
0.316529 0.947656 0.041363
0.380505 0.953718 0.038993
0.459451 0.960340 0.036036
0.550214 0.971051 0.035910
0.653639 0.985597 0.037286
0.760147 0.995717 0.058242
0.866445 0.999051 0.071655
0.930493 0.999133 0.075396
0.956184 0.999130 0.075876
1.015066 0.999127 0.075910
0.009186 0.020609 0.044220
0.037649 0.015991 0.040263
0.080860 0.009961 0.034810
0.138319 0.007870 0.029572
0.209437 0.010353 0.027025
0.288149 0.014644 0.025843
0.372728 0.020026 0.024735
0.462754 0.027663 0.023150
0.555775 0.036974 0.022522
0.643927 0.045107 0.021941
0.682076 0.046980 0.021792
0.707915 0.047495 0.021678
0.733662 0.048000 0.021677
0.759415 0.048507 0.021677
0.785152 0.049012 0.021677
0.834453 0.049106 0.021677
0.008316 0.044984 0.040181
0.033693 0.039476 0.035652
0.076543 0.033197 0.030268
0.134048 0.031634 0.027819
0.204371 0.033604 0.027000
0.282405 0.037529 0.025795
0.366468 0.042976 0.024821
0.456525 0.050504 0.023569
0.549884 0.059912 0.022977
0.641794 0.068540 0.022577
0.683666 0.070887 0.022397
0.709651 0.071353 0.022309
0.735397 0.071859 0.022308
0.761152 0.072365 0.022308
0.786888 0.072870 0.022308
0.836287 0.072963 0.022308
0.010419 0.091915 0.041364
0.034595 0.088641 0.039476
0.082220 0.083163 0.034171
0.144570 0.078919 0.030832
0.209428 0.073821 0.028993
0.281512 0.071037 0.027156
0.360186 0.071173 0.025631
0.446725 0.074974 0.024300
0.540421 0.082781 0.023216
0.635451 0.091042 0.022632
0.686307 0.094364 0.022430
0.712330 0.094836 0.022345
0.738116 0.095353 0.022343
0.763870 0.095859 0.022343
0.789607 0.096363 0.022343
0.839154 0.096454 0.022343
0.014188 0.151932 0.047818
0.037343 0.149158 0.046570
0.077899 0.142009 0.040999
0.147926 0.139128 0.035015
0.227147 0.139548 0.033102
0.297771 0.131286 0.031208
0.372381 0.125575 0.029193
0.453356 0.124618 0.028020
0.542883 0.126950 0.026686
0.639048 0.129783 0.024763
0.700759 0.129310 0.023538
0.722943 0.124882 0.022716
0.746567 0.123457 0.022554
0.770070 0.122250 0.022507
0.795410 0.122440 0.022507
0.845229 0.122488 0.022504
0.017999 0.220621 0.054234
0.041188 0.218101 0.053195
0.071633 0.211764 0.050067
0.139090 0.200133 0.041459
0.224868 0.206125 0.037427
0.317657 0.212051 0.035595
0.395677 0.202369 0.034102
0.473819 0.193525 0.032446
0.557222 0.188478 0.031372
0.648596 0.187486 0.029948
0.724044 0.186214 0.028464
0.746606 0.179991 0.027392
0.770679 0.177293 0.026890
0.794993 0.174786 0.026442
0.820498 0.174261 0.026255
0.871752 0.174214 0.026225
0.023338 0.294237 0.062190
0.046640 0.291755 0.061027
0.070440 0.287139 0.059678
0.128881 0.274529 0.050566
0.213139 0.265784 0.043726
0.309271 0.281941 0.040190
0.410180 0.290050 0.037580
0.497393 0.281381 0.036959
0.582119 0.271296 0.036160
0.669682 0.262948 0.034968
0.751181 0.256247 0.033492
0.777401 0.247562 0.032538
0.800082 0.243332 0.032090
0.823286 0.239878 0.031677
0.848260 0.238973 0.031507
0.900943 0.238826 0.031478
0.033352 0.371795 0.071142
0.056412 0.369394 0.070112
0.079554 0.365188 0.068907
0.120379 0.356715 0.062821
0.202565 0.340613 0.051683
0.295299 0.341435 0.046567
0.396410 0.362799 0.042245
0.500935 0.369441 0.040134
0.596469 0.361927 0.040062
0.689002 0.352522 0.039552
0.778540 0.342700 0.038549
0.817041 0.331996 0.037560
0.839188 0.325697 0.037046
0.862038 0.321108 0.036688
0.886705 0.319611 0.036559
0.941425 0.319292 0.036531
0.061164 0.447594 0.075663
0.083251 0.445768 0.075337
0.105154 0.442514 0.074912
0.128364 0.437353 0.073668
0.195309 0.426028 0.062627
0.284956 0.414185 0.054306
0.381220 0.423761 0.049084
0.482609 0.445314 0.043807
0.589413 0.448309 0.042610
0.691325 0.441403 0.042707
0.790417 0.433049 0.042415
0.847883 0.423411 0.041897
0.871932 0.416358 0.041515
0.895814 0.411702 0.041240
0.920864 0.410150 0.041147
0.977547 0.409772 0.041122
0.097117 0.522114 0.075335
0.118890 0.520683 0.075499
0.140187 0.518160 0.075659
0.160620 0.513895 0.075891
0.201897 0.509985 0.073165
0.274644 0.499362 0.062835
0.370372 0.493915 0.056577
0.465987 0.508634 0.050636
0.566851 0.527604 0.045366
0.676346 0.526314 0.044869
0.782856 0.519739 0.044917
0.863513 0.511997 0.044913
0.890924 0.504822 0.044639
0.915873 0.500462 0.044479
0.941393 0.499092 0.044441
0.999308 0.498672 0.044429
0.130596 0.597737 0.075424
0.152251 0.596448 0.075711
0.173520 0.594283 0.075869
0.193855 0.590561 0.075888
0.219417 0.587988 0.076239
0.273512 0.584778 0.071471
0.352494 0.576868 0.063735
0.452439 0.577465 0.057591
0.546869 0.594812 0.050807
0.651296 0.608683 0.047654
0.763471 0.604650 0.046941
0.865992 0.597818 0.047092
0.899934 0.590504 0.046898
0.925550 0.586338 0.046760
0.951393 0.585050 0.046742
1.009946 0.584615 0.046734
0.161566 0.676381 0.077260
0.183277 0.675027 0.077556
0.204656 0.672953 0.077757
0.225168 0.669528 0.077708
0.245182 0.664908 0.077361
0.284343 0.668087 0.077195
0.344185 0.663042 0.070974
0.430930 0.659918 0.064213
0.531193 0.665387 0.057999
0.627430 0.682692 0.051402
0.737341 0.690223 0.049813
0.851035 0.683594 0.049643
0.903248 0.675817 0.049563
0.929200 0.671629 0.049420
0.955227 0.670349 0.049405
1.014044 0.669835 0.049391
0.174380 0.765372 0.074152
0.197376 0.763486 0.074574
0.220190 0.760869 0.075102
0.242717 0.756950 0.075588
0.264968 0.751431 0.076046
0.295840 0.750711 0.076840
0.346359 0.753354 0.074624
0.416838 0.748855 0.068214
0.509665 0.750798 0.062672
0.609239 0.760005 0.056579
0.712867 0.772899 0.055099
0.825521 0.771522 0.052732
0.903814 0.762954 0.052356
0.930591 0.758514 0.052210
0.956733 0.757112 0.052188
1.015667 0.756456 0.052167
0.164603 0.860276 0.068118
0.188885 0.858312 0.068239
0.213004 0.856038 0.068423
0.237168 0.852447 0.068663
0.261440 0.846984 0.069107
0.288665 0.841485 0.069627
0.341961 0.844042 0.069309
0.408321 0.842822 0.066179
0.492120 0.842647 0.061692
0.589750 0.848239 0.058223
0.694273 0.856771 0.063615
0.801584 0.859995 0.063519
0.896410 0.852743 0.055957
0.931087 0.847275 0.055429
0.957294 0.845710 0.055324
1.016275 0.845105 0.055285
0.162558 0.889000 0.067443
0.186225 0.889393 0.067312
0.209895 0.889794 0.067150
0.233405 0.890250 0.067025
0.256806 0.890746 0.066929
0.280779 0.891143 0.066883
0.327610 0.895777 0.065749
0.393241 0.901403 0.063521
0.475444 0.907013 0.059480
0.568905 0.916685 0.058389
0.674575 0.928799 0.064373
0.779915 0.934736 0.086168
0.885431 0.936542 0.069584
0.932028 0.932608 0.066913
0.958042 0.931477 0.066083
1.017045 0.930988 0.065593
0.161013 0.916006 0.066932
0.184680 0.916398 0.066801
0.208350 0.916799 0.066638
0.232018 0.917199 0.066474
0.255515 0.917663 0.066354
0.279055 0.918099 0.066312
0.319129 0.921704 0.065440
0.383406 0.928201 0.063520
0.462951 0.934895 0.059805
0.554286 0.945959 0.058558
0.658213 0.960374 0.062092
0.764140 0.970087 0.085723
0.870173 0.973979 0.093208
0.930865 0.974348 0.093526
0.956779 0.974327 0.093466
1.015689 0.974287 0.093349
0.159495 0.942918 0.066427
0.183162 0.943311 0.066297
0.206829 0.943711 0.066135
0.230496 0.944111 0.065971
0.254164 0.944514 0.065808
0.277780 0.944923 0.065747
0.316092 0.947939 0.064901
0.380214 0.954035 0.063048
0.459002 0.960659 0.059626
0.549951 0.971404 0.058720
0.653036 0.985624 0.062082
0.759331 0.995551 0.084415
0.865612 0.999051 0.097435
0.930562 0.999133 0.100929
0.956253 0.999130 0.101409
1.015139 0.999127 0.101443
0.023826 0.060279 0.115202
0.050782 0.053772 0.109478
0.091583 0.036884 0.096823
0.142676 0.017486 0.077836
0.204882 0.011616 0.065499
0.281617 0.014731 0.061625
0.367791 0.020185 0.060105
0.459190 0.027825 0.056901
0.556663 0.036022 0.051224
0.645917 0.044109 0.046979
0.685272 0.045921 0.045234
0.711295 0.046377 0.044201
0.737115 0.046903 0.043517
0.762358 0.047595 0.043349
0.787880 0.048171 0.043333
0.837317 0.048270 0.043333
0.023264 0.082113 0.111181
0.047328 0.075988 0.105089
0.086592 0.058635 0.091629
0.137494 0.040532 0.074012
0.200186 0.034762 0.062487
0.276780 0.037553 0.058906
0.362552 0.043073 0.057031
0.453607 0.050636 0.053474
0.549297 0.059419 0.049167
0.643633 0.067546 0.046582
0.686842 0.069821 0.044898
0.712620 0.070386 0.044173
0.737855 0.071097 0.044014
0.763285 0.071710 0.043990
0.789022 0.072215 0.043990
0.838537 0.072309 0.043990
0.024199 0.120795 0.114549
0.046887 0.116133 0.109251
0.087385 0.103170 0.093909
0.144054 0.085204 0.074563
0.205703 0.073833 0.061433
0.277109 0.070131 0.055715
0.356869 0.070165 0.052199
0.444590 0.074778 0.049757
0.539067 0.082481 0.047718
0.635476 0.090485 0.045582
0.687315 0.094104 0.044837
0.713351 0.094576 0.044685
0.739298 0.095050 0.044602
0.765052 0.095557 0.044602
0.790789 0.096061 0.044602
0.840405 0.096155 0.044602
0.025813 0.167480 0.109419
0.047561 0.163685 0.104648
0.082601 0.153714 0.090496
0.148708 0.143572 0.071779
0.225093 0.138819 0.061408
0.294986 0.130050 0.056734
0.369833 0.124355 0.053727
0.451262 0.123543 0.051625
0.540865 0.126005 0.049757
0.637245 0.129027 0.047682
0.700435 0.128632 0.046200
0.722859 0.124123 0.045203
0.746514 0.122721 0.045032
0.770490 0.121842 0.044993
0.795936 0.122097 0.044991
0.845808 0.122160 0.044987
0.024243 0.224351 0.093739
0.046353 0.221165 0.090101
0.074600 0.214732 0.084615
0.138853 0.202297 0.071104
0.223950 0.205944 0.063110
0.315892 0.210687 0.060043
0.393662 0.200973 0.057792
0.471709 0.192116 0.055973
0.555210 0.187261 0.054548
0.646898 0.186515 0.052966
0.723103 0.185461 0.051316
0.746073 0.179354 0.050191
0.770169 0.176669 0.049673
0.794521 0.174212 0.049233
0.820030 0.173722 0.049033
0.871262 0.173695 0.049002
0.026500 0.294663 0.092270
0.049532 0.292106 0.090544
0.072598 0.287259 0.087908
0.128527 0.274912 0.077113
0.212015 0.265737 0.068248
0.308168 0.281099 0.064250
0.408807 0.288879 0.062062
0.495818 0.280108 0.061086
0.580474 0.270135 0.059889
0.668108 0.261924 0.058273
0.750240 0.255483 0.056439
0.776888 0.246859 0.055438
0.799546 0.242603 0.054927
0.822810 0.239238 0.054524
0.847827 0.238390 0.054356
0.900496 0.238255 0.054327
0.036098 0.371055 0.098512
0.059096 0.368759 0.097493
0.081698 0.364737 0.096239
0.121023 0.356695 0.090181
0.201359 0.340986 0.077450
0.294301 0.341147 0.070763
0.395436 0.361951 0.066441
0.499971 0.368473 0.064534
0.595336 0.360969 0.064088
0.687836 0.351605 0.063246
0.777712 0.341876 0.061739
0.816695 0.331305 0.060571
0.838795 0.324962 0.059963
0.861615 0.320350 0.059603
0.886246 0.318794 0.059465
0.940966 0.318514 0.059439
0.062071 0.447056 0.102896
0.084240 0.445300 0.102572
0.105916 0.442188 0.102105
0.129115 0.437096 0.100959
0.194375 0.426178 0.089372
0.283893 0.414274 0.079471
0.380533 0.423326 0.073095
0.481851 0.444572 0.068076
0.588716 0.447603 0.066542
0.690525 0.440718 0.066349
0.789675 0.432397 0.065632
0.847760 0.422768 0.064966
0.871817 0.415674 0.064536
0.895672 0.410970 0.064272
0.920695 0.409344 0.064174
0.977377 0.408987 0.064152
0.096734 0.521743 0.102079
0.118518 0.520315 0.102280
0.139921 0.517873 0.102496
0.160345 0.513639 0.102723
0.201027 0.509715 0.100015
0.273609 0.499358 0.088850
0.369556 0.493775 0.081285
0.465336 0.508069 0.074459
0.566186 0.526918 0.069396
0.675770 0.525766 0.068142
0.782251 0.519224 0.067841
0.863589 0.511407 0.067664
0.891109 0.504278 0.067382
0.916040 0.499922 0.067247
0.941546 0.498546 0.067238
0.999470 0.498142 0.067228
0.129905 0.597337 0.101349
0.151534 0.595954 0.101773
0.172856 0.593888 0.102065
0.193179 0.590175 0.102056
0.218400 0.587432 0.102434
0.272571 0.584486 0.097702
0.351671 0.576696 0.088913
0.451824 0.577126 0.081612
0.546174 0.594156 0.074490
0.650773 0.608124 0.070807
0.763065 0.604245 0.069408
0.865723 0.597358 0.069237
0.900314 0.589991 0.069032
0.925926 0.585950 0.068955
0.951763 0.584629 0.068966
1.010338 0.584226 0.068963
0.161117 0.675865 0.101919
0.182825 0.674537 0.102292
0.204140 0.672427 0.102554
0.224656 0.669076 0.102485
0.244666 0.664454 0.102160
0.283539 0.667538 0.102734
0.343532 0.662704 0.095911
0.430252 0.659602 0.088318
0.530686 0.664860 0.081516
0.626767 0.681963 0.074957
0.736910 0.689761 0.072118
0.850703 0.683233 0.071735
0.903709 0.675410 0.071658
0.929655 0.671224 0.071518
0.955680 0.669956 0.071505
1.014521 0.669440 0.071491
0.174460 0.764751 0.098008
0.197437 0.762775 0.098485
0.220211 0.760273 0.098962
0.242733 0.756385 0.099452
0.264949 0.750778 0.099921
0.295488 0.750048 0.101197
0.345849 0.752851 0.099170
0.416303 0.748382 0.091952
0.509087 0.750269 0.086100
0.608643 0.759275 0.080243
0.712162 0.772126 0.078651
0.825159 0.771151 0.074866
0.904166 0.762632 0.074457
0.931060 0.758134 0.074308
0.957198 0.756718 0.074284
1.016157 0.756059 0.074263
0.164790 0.859752 0.091476
0.189036 0.857806 0.091613
0.213094 0.855499 0.091835
0.237231 0.851931 0.092069
0.261497 0.846371 0.092528
0.288673 0.840975 0.093119
0.341655 0.843585 0.093200
0.407885 0.842371 0.090005
0.491543 0.842155 0.085240
0.589169 0.847524 0.081947
0.693483 0.855802 0.088314
0.800783 0.859180 0.088389
0.896458 0.852368 0.077998
0.931564 0.846826 0.077504
0.957775 0.845289 0.077402
1.016783 0.844671 0.077363
0.162403 0.889358 0.090751
0.186069 0.889750 0.090625
0.209735 0.890143 0.090490
0.233246 0.890599 0.090368
0.256646 0.891095 0.090272
0.280561 0.891401 0.090255
0.327107 0.895910 0.089403
0.392853 0.901515 0.087689
0.474949 0.907078 0.083018
0.568467 0.916664 0.081546
0.673820 0.928372 0.089411
0.778946 0.934098 0.112284
0.884858 0.936171 0.094463
0.932374 0.932287 0.089611
0.958409 0.931131 0.088577
1.017437 0.930645 0.088053
0.160859 0.916362 0.090240
0.184525 0.916755 0.090112
0.208191 0.917148 0.089978
0.231859 0.917548 0.089816
0.255355 0.918011 0.089696
0.278896 0.918447 0.089655
0.318591 0.921972 0.089000
0.382965 0.928497 0.087603
0.462298 0.935180 0.083429
0.553841 0.946279 0.081365
0.657423 0.960363 0.086863
0.763081 0.969895 0.111860
0.869251 0.973979 0.118981
0.930934 0.974348 0.119059
0.956848 0.974327 0.118999
1.015761 0.974287 0.118882
0.159341 0.943275 0.089734
0.183007 0.943667 0.089607
0.206673 0.944061 0.089476
0.230338 0.944460 0.089314
0.254006 0.944862 0.089150
0.277622 0.945272 0.089090
0.315567 0.948211 0.088448
0.379815 0.954342 0.087107
0.458411 0.960960 0.083218
0.549518 0.971727 0.081530
0.652312 0.985654 0.086671
0.758315 0.995368 0.110582
0.864594 0.999051 0.123218
0.930631 0.999133 0.126462
0.956322 0.999130 0.126941
1.015211 0.999127 0.126975
0.034971 0.104043 0.201230
0.060214 0.099168 0.194244
0.101026 0.084082 0.180463
0.156203 0.053605 0.156502
0.212842 0.024396 0.127939
0.278615 0.017635 0.113424
0.358710 0.020725 0.108364
0.449082 0.027540 0.107262
0.547481 0.035835 0.106278
0.642821 0.042940 0.103215
0.685091 0.044769 0.097509
0.712220 0.045151 0.092831
0.738881 0.045545 0.090032
0.765532 0.045915 0.087010
0.791822 0.046292 0.085968
0.841593 0.046362 0.085831
0.034855 0.124290 0.195150
0.058175 0.119242 0.188566
0.096236 0.104005 0.174042
0.150086 0.075193 0.151156
0.207032 0.046609 0.123115
0.273042 0.040043 0.108512
0.353524 0.043418 0.104131
0.444115 0.050340 0.103375
0.542375 0.058859 0.102504
0.641077 0.066408 0.099548
0.687440 0.068648 0.093706
0.714528 0.069062 0.088649
0.741146 0.069449 0.085685
0.767670 0.069805 0.083183
0.793816 0.070221 0.082314
0.843664 0.070308 0.082175
0.038317 0.158612 0.198459
0.060428 0.154800 0.193456
0.095781 0.143181 0.178541
0.149175 0.116061 0.152257
0.207758 0.083939 0.120877
0.270890 0.070723 0.103067
0.347275 0.069080 0.097711
0.436019 0.074407 0.096751
0.533037 0.081879 0.095342
0.633987 0.089235 0.091485
0.690396 0.092551 0.085471
0.717269 0.092882 0.080797
0.743695 0.093260 0.078590
0.769912 0.093751 0.076320
0.795920 0.094231 0.075521
0.845870 0.094317 0.075421
0.044224 0.200113 0.200138
0.065766 0.196763 0.196000
0.095733 0.188477 0.183646
0.150340 0.169219 0.156838
0.220726 0.145189 0.126285
0.287725 0.129438 0.105375
0.361944 0.123071 0.097217
0.444489 0.122211 0.093955
0.535107 0.124679 0.090835
0.633156 0.127885 0.085605
0.700130 0.127341 0.078872
0.722640 0.122887 0.074021
0.746571 0.121384 0.072309
0.771864 0.120940 0.071038
0.797623 0.121125 0.070600
0.847642 0.121208 0.070578
0.052379 0.250934 0.196499
0.073749 0.247906 0.192800
0.097139 0.241145 0.183502
0.146344 0.227003 0.158021
0.227092 0.215812 0.128721
0.313224 0.210554 0.113033
0.389048 0.199585 0.100912
0.467575 0.190878 0.093369
0.551646 0.186039 0.087620
0.643751 0.185266 0.082397
0.721488 0.184317 0.077663
0.745152 0.178246 0.074329
0.769271 0.175464 0.072996
0.793701 0.173152 0.072230
0.819198 0.172675 0.071961
0.870402 0.172681 0.071934
0.058373 0.309259 0.183704
0.079369 0.306419 0.179940
0.098781 0.300944 0.172666
0.138755 0.289746 0.151650
0.212731 0.275390 0.121265
0.308166 0.282730 0.105557
0.406839 0.287554 0.098429
0.493178 0.278321 0.091675
0.577771 0.268357 0.086599
0.665542 0.260217 0.082412
0.748426 0.253971 0.079369
0.775871 0.245459 0.078264
0.798540 0.241215 0.077720
0.821894 0.237955 0.077293
0.846941 0.237159 0.077121
0.899593 0.237070 0.077094
0.057430 0.374993 0.160767
0.078284 0.372537 0.157156
0.097536 0.368118 0.150670
0.128368 0.360076 0.137314
0.200143 0.344166 0.114266
0.292954 0.341518 0.099428
0.393882 0.360587 0.092421
0.498219 0.366829 0.089320
0.593416 0.359268 0.088132
0.685736 0.349919 0.086905
0.776045 0.340296 0.084878
0.815886 0.329814 0.083545
0.837918 0.323447 0.082879
0.860774 0.318907 0.082443
0.885431 0.317404 0.082305
0.940127 0.317161 0.082282
0.066248 0.446839 0.138376
0.088061 0.444965 0.136672
0.108839 0.441591 0.133578
0.130429 0.436456 0.130355
0.192921 0.425802 0.116665
0.281983 0.413723 0.104607
0.379025 0.422087 0.097123
0.480343 0.443017 0.092319
