src/luts/vivid/5.cube
LUT_3D_SIZE 6
0.000474 0.001298 0.000433
0.139054 0.007198 0.003643
0.373827 0.020068 0.001729
0.642324 0.045751 0.000021
0.731484 0.048672 0.000021
0.832156 0.049777 0.000021
0.012772 0.150919 0.021382
0.148182 0.138684 0.010608
0.373534 0.126069 0.005963
0.640058 0.130111 0.001801
0.746237 0.123922 0.000073
0.844603 0.122778 0.000021
0.030462 0.371910 0.043677
0.119626 0.356274 0.035597
0.396971 0.363280 0.018020
0.689764 0.353048 0.015904
0.839410 0.326174 0.014099
0.941715 0.319801 0.013595
0.131197 0.597927 0.049668
0.194414 0.590744 0.049721
0.353128 0.576822 0.038560
0.651628 0.609040 0.024505
0.899524 0.590696 0.024768
1.009529 0.584844 0.024588
0.164552 0.860620 0.044745
0.237138 0.852786 0.045271
0.342192 0.844344 0.045431
0.590146 0.848730 0.034374
0.896313 0.852970 0.033801
1.015773 0.845303 0.033198
0.159651 0.942561 0.043120
0.230655 0.943763 0.042629
0.316529 0.947656 0.041363
0.550214 0.971051 0.035910
0.866445 0.999051 0.071655
1.015066 0.999127 0.075910
0.034971 0.104043 0.201230
0.156203 0.053605 0.156502
0.358710 0.020725 0.108364
0.642821 0.042940 0.103215
0.738881 0.045545 0.090032
0.841593 0.046362 0.085831
0.044224 0.200113 0.200138
0.150340 0.169219 0.156838
0.361944 0.123071 0.097217
0.633156 0.127885 0.085605
0.746571 0.121384 0.072309
0.847642 0.121208 0.070578
0.057430 0.374993 0.160767
0.128368 0.360076 0.137314
0.393882 0.360587 0.092421
0.685736 0.349919 0.086905
0.837918 0.323447 0.082879
0.940127 0.317161 0.082282
0.128883 0.596304 0.127464
0.192230 0.589310 0.128216
0.350345 0.576024 0.114114
0.649869 0.607173 0.093974
0.900655 0.589307 0.091307
1.010692 0.583483 0.091212
0.165141 0.858792 0.114854
0.237354 0.851159 0.115489
0.341260 0.842912 0.117101
0.588430 0.846592 0.105699
0.896472 0.851887 0.100031
1.017290 0.844150 0.099435
0.159186 0.943631 0.113037
0.230183 0.944809 0.112650
0.314960 0.948473 0.111994
0.548864 0.971989 0.104426
0.863484 0.999051 0.149002
1.015284 0.999127 0.152497
0.026732 0.238740 0.484512
0.153878 0.217083 0.446194
0.412241 0.144030 0.377419
0.658783 0.081266 0.369931
0.742393 0.063783 0.342131
0.840741 0.060331 0.333623
0.057241 0.318240 0.471374
0.155440 0.303912 0.448648
0.391977 0.220605 0.356271
0.633958 0.150260 0.332180
0.738099 0.125369 0.300163
0.837088 0.123425 0.293069
0.134459 0.452965 0.459643
0.202283 0.442353 0.448066
0.395722 0.399788 0.380626
0.669423 0.354880 0.320976
0.829592 0.324450 0.279221
0.931567 0.317448 0.271419
0.181394 0.623160 0.404139
0.243350 0.614470 0.394977
0.349721 0.597813 0.344134
0.645795 0.603512 0.279667
0.899974 0.583537 0.252707
1.009858 0.577977 0.246492
0.162850 0.859804 0.247685
0.235658 0.851524 0.240529
0.337701 0.841304 0.229751
0.584171 0.842249 0.194262
0.895176 0.847368 0.169602
1.018488 0.839789 0.167842
0.157323 0.946920 0.198784
0.228801 0.947386 0.193689
0.311565 0.949293 0.184958
0.544892 0.972193 0.175934
0.858108 0.998991 0.226345
1.015436 0.999230 0.228751
0.130146 0.344519 0.705816
0.205640 0.338904 0.697105
0.399554 0.305560 0.661376
0.674391 0.324021 0.673566
0.770787 0.304360 0.670291
0.874057 0.296573 0.668507
0.128654 0.420392 0.699155
0.202539 0.415212 0.692897
0.369960 0.377583 0.641854
0.655224 0.370755 0.644361
0.777687 0.340848 0.646194
0.881666 0.333630 0.644226
0.153113 0.528286 0.683396
0.221986 0.520872 0.676442
0.376842 0.510726 0.652708
0.650661 0.491951 0.631206
0.818994 0.452883 0.627629
0.924064 0.443964 0.622582
0.195513 0.678631 0.671248
0.267625 0.671610 0.664823
0.398703 0.669836 0.660468
0.639911 0.648145 0.619484
0.879737 0.602506 0.579953
0.988500 0.596463 0.574056
0.117135 0.885233 0.619186
0.203881 0.875038 0.610221
0.329854 0.857337 0.592344
0.571186 0.847878 0.542335
0.892069 0.840011 0.505495
1.018872 0.832307 0.497338
0.132266 0.967948 0.561671
0.209724 0.966043 0.550715
0.294996 0.964364 0.529778
0.534202 0.978049 0.489850
0.851592 0.998991 0.488930
1.015333 0.999134 0.489767
0.140983 0.352869 0.781694
0.218401 0.353358 0.781270
0.386045 0.335233 0.753860
0.672047 0.362751 0.785952
0.762672 0.376742 0.793641
0.862055 0.379002 0.795630
0.151263 0.439698 0.793582
0.224277 0.439243 0.794167
0.360266 0.417800 0.762841
0.652553 0.423308 0.783023
0.763831 0.445996 0.794932
0.863276 0.448255 0.796914
0.141639 0.559081 0.812758
0.214892 0.554841 0.810962
0.363346 0.545630 0.799006
0.617815 0.545373 0.806180
0.778396 0.569478 0.812696
0.877598 0.569272 0.813512
0.045679 0.703462 0.833735
0.126923 0.700909 0.834543
0.345773 0.688148 0.825150
0.572271 0.693886 0.843458
0.808908 0.713963 0.840917
0.911481 0.711681 0.839446
0.031114 0.858067 0.832640
0.097459 0.854807 0.832057
0.170831 0.860127 0.843037
0.518913 0.866677 0.852648
0.867623 0.858801 0.835171
0.996884 0.850456 0.828709
0.031195 0.951952 0.824728
0.097747 0.954539 0.822317
0.165679 0.960009 0.816875
0.470919 0.997444 0.824466
0.850117 0.999297 0.811097
1.018974 0.999301 0.823104
0.147285 0.357864 0.853156
0.223199 0.358582 0.853081
0.382595 0.341715 0.824987
0.670562 0.366310 0.857956
0.762984 0.381637 0.866023
0.861989 0.384871 0.867767
0.156055 0.443427 0.864395
0.228289 0.443059 0.865052
0.358507 0.422549 0.835555
0.650573 0.426562 0.855288
0.764096 0.450813 0.867266
0.863142 0.454047 0.869000
0.140440 0.561280 0.883910
0.213890 0.557153 0.882096
0.360555 0.547413 0.869743
0.611057 0.546732 0.877274
0.777514 0.570938 0.883575
0.876288 0.571589 0.884171
0.037044 0.700690 0.902126
0.109450 0.702603 0.907343
0.337174 0.687491 0.895679
0.565031 0.691432 0.915427
0.804642 0.714182 0.916384
0.905820 0.713927 0.915808
0.031031 0.855778 0.905169
0.097082 0.851814 0.905248
0.167206 0.850583 0.914469
0.495359 0.865883 0.949256
0.847636 0.866136 0.965871
0.974738 0.863491 0.966458
0.031171 0.953635 0.917779
0.097848 0.956274 0.920499
0.165232 0.960114 0.924422
0.424872 0.999214 0.966180
0.851513 0.999471 0.981013
1.036345 0.999547 0.999187
