src/luts/vivid/6.cube
LUT_3D_SIZE 16
-0.003000 -0.006266 0.000000
0.024282 0.010615 0.000000
0.119312 0.027746 0.000000
0.229078 0.044820 0.000000
0.317052 0.053579 0.000000
0.385147 0.062224 0.000000
0.443952 0.070180 0.000000
0.500873 0.076605 0.000000
0.557181 0.074609 0.000000
0.612427 0.070810 0.000000
0.659544 0.066431 0.000000
0.699348 0.066374 0.000000
0.739296 0.066422 0.000000
0.779296 0.066422 0.000000
0.819296 0.066422 0.000000
0.859301 0.066421 0.000000
-0.001928 0.047432 0.000000
0.025190 0.053311 0.000000
0.103860 0.065424 0.000000
0.214792 0.081317 0.000000
0.310662 0.091468 0.000000
0.380969 0.099690 0.000000
0.441092 0.108228 0.000000
0.498202 0.115742 0.000000
0.555094 0.114886 0.000000
0.610567 0.111377 0.000000
0.659305 0.106660 0.000000
0.699360 0.106350 0.000000
0.739296 0.106422 0.000000
0.779296 0.106422 0.000000
0.819296 0.106422 0.000000
0.859301 0.106421 0.000000
-0.000917 0.105291 0.000000
0.029527 0.103810 0.000000
0.061558 0.114040 0.000000
0.191960 0.125574 0.000000
0.305049 0.141175 0.000000
0.381170 0.150475 0.000000
0.442216 0.155397 0.000000
0.496958 0.156919 0.000000
0.552436 0.155510 0.000000
0.607212 0.151599 0.000000
0.657828 0.146081 0.000000
0.698420 0.145498 0.000000
0.738569 0.145887 0.000000
0.778744 0.146018 0.000000
0.818834 0.146096 0.000000
0.858899 0.146129 0.000000
0.002351 0.161815 -0.004726
0.033683 0.160281 -0.004431
0.061566 0.164243 -0.003579
0.164822 0.175324 -0.002102
0.290070 0.194761 -0.000233
0.382523 0.212756 -0.000000
0.451712 0.218467 0.000000
0.512013 0.217735 0.000000
0.569850 0.216230 0.000000
0.624195 0.209555 0.000000
0.670861 0.196160 0.000000
0.707458 0.190496 0.000000
0.744598 0.188813 0.000000
0.783201 0.188058 0.000000
0.821613 0.187055 0.000000
0.861509 0.187011 0.000000
0.003619 0.221312 0.009789
0.042334 0.220099 0.009094
0.063692 0.218359 0.006212
0.115368 0.234036 -0.007242
0.261364 0.249927 -0.003614
0.375041 0.270986 -0.000414
0.454726 0.282014 0.000000
0.521810 0.282952 0.000000
0.584495 0.281576 0.000000
0.644438 0.278153 0.000000
0.694692 0.265546 0.000000
0.733081 0.257012 0.000000
0.769411 0.253208 0.000000
0.807816 0.251084 0.000000
0.845820 0.248611 0.000000
0.885650 0.248376 0.000000
-0.014920 0.289842 0.028188
0.025697 0.288484 0.027454
0.062131 0.285278 0.026342
0.103668 0.294052 0.014730
0.238686 0.312449 -0.008490
0.355297 0.328630 -0.002717
0.449073 0.345507 0.000000
0.527620 0.349654 0.000000
0.595923 0.347605 0.000000
0.657110 0.345078 0.000000
0.711226 0.337108 0.000000
0.753938 0.326266 0.000000
0.790112 0.322521 0.000000
0.828624 0.320514 0.000000
0.867100 0.318400 0.000000
0.906904 0.318178 0.000000
0.029128 0.364968 0.039788
0.066512 0.363414 0.039478
0.099900 0.360316 0.039222
0.148178 0.360630 0.034401
0.249029 0.378550 0.003429
0.348124 0.395502 -0.006155
0.434103 0.407123 -0.000753
0.523415 0.414945 0.000000
0.601926 0.415509 0.000000
0.667278 0.413861 0.000000
0.724991 0.407858 0.000000
0.772400 0.397016 0.000000
0.810013 0.392290 0.000000
0.848664 0.390169 0.000000
0.887538 0.387906 0.000000
0.927345 0.387628 0.000000
0.090180 0.445446 0.044413
0.127044 0.443854 0.044449
0.161786 0.441303 0.044575
0.192847 0.437322 0.044574
0.282436 0.448089 0.023156
0.360875 0.462493 -0.010828
0.433030 0.475430 -0.003979
0.511250 0.480367 -0.000358
0.599982 0.483184 0.000000
0.673692 0.481627 0.000000
0.734164 0.478024 0.000000
0.785207 0.468126 0.000000
0.824842 0.461265 0.000000
0.863501 0.459345 0.000000
0.902547 0.457310 0.000000
0.942390 0.457087 0.000000
0.147719 0.521911 0.045949
0.186520 0.520635 0.045719
0.224778 0.518838 0.045412
0.260201 0.515369 0.045522
0.310243 0.517454 0.038929
0.377548 0.528424 0.013057
0.442035 0.540696 -0.009273
0.513498 0.549324 -0.002933
0.588686 0.547757 -0.000120
0.673484 0.547634 0.000000
0.741073 0.545564 0.000000
0.797924 0.539338 0.000000
0.840742 0.531388 0.000000
0.878718 0.529126 0.000000
0.917579 0.527150 0.000000
0.957407 0.526821 0.000000
0.174756 0.595280 0.052853
0.213948 0.594138 0.052598
0.252941 0.592748 0.052283
0.290721 0.590171 0.051924
0.330058 0.588008 0.050718
0.394145 0.593787 0.035986
0.458532 0.603451 -0.003494
0.527809 0.612218 -0.006830
0.602323 0.616655 -0.000664
0.667571 0.611040 0.000000
0.741216 0.609690 0.000000
0.804780 0.607382 0.000000
0.854364 0.602067 0.000000
0.892856 0.599113 0.000000
0.932161 0.597083 0.000000
0.971944 0.596753 0.000000
0.197227 0.662799 0.057123
0.236370 0.661798 0.057050
0.275371 0.660694 0.056964
0.313678 0.658939 0.056874
0.350099 0.656188 0.057121
0.405160 0.658171 0.049989
0.473810 0.663985 0.025960
0.541427 0.671006 -0.011518
0.612609 0.678573 -0.002654
0.679890 0.680016 0.000000
0.738582 0.672422 0.000000
0.805978 0.671143 0.000000
0.862477 0.668813 0.000000
0.902639 0.666027 0.000000
0.941756 0.664380 0.000000
0.981725 0.664112 0.000000
0.225497 0.727320 0.058350
0.264499 0.726420 0.058419
0.303321 0.725540 0.058460
0.341659 0.724125 0.058512
0.378486 0.721907 0.058692
0.419593 0.720334 0.058169
0.489460 0.723513 0.042339
0.555012 0.728063 -0.012079
0.621296 0.734914 -0.006814
0.690892 0.741964 -0.000539
0.748892 0.739367 0.000000
0.804639 0.731934 0.000000
0.865296 0.731886 0.000000
0.908270 0.730263 0.000000
0.947767 0.728684 0.000000
0.987839 0.728324 0.000000
0.244506 0.783158 0.054248
0.284267 0.782918 0.054350
0.323936 0.782681 0.054476
0.363502 0.782327 0.054652
0.402363 0.781434 0.055042
0.439243 0.780054 0.055920
0.500807 0.782098 0.051963
0.567796 0.784432 0.027395
0.630900 0.790037 -0.011311
0.698704 0.796012 -0.002383
0.761450 0.800105 0.000000
0.815533 0.795884 0.000000
0.866030 0.789853 0.000000
0.910823 0.789895 0.000000
0.950403 0.788776 0.000000
0.990333 0.788475 0.000000
0.244058 0.822709 0.054217
0.284089 0.822686 0.054210
0.324116 0.822720 0.054200
0.364173 0.822775 0.054183
0.404250 0.822855 0.054161
0.443002 0.822699 0.054378
0.494126 0.824536 0.053286
0.565749 0.828012 0.039895
0.628170 0.833144 -0.010268
0.696872 0.840132 -0.004435
0.761550 0.846654 0.000000
0.820888 0.849021 0.000000
0.868505 0.847327 0.000000
0.912420 0.845433 0.000000
0.952334 0.844776 0.000000
0.992278 0.844629 0.000000
0.243950 0.862612 0.054250
0.283950 0.862612 0.054250
0.323950 0.862612 0.054250
0.363950 0.862612 0.054250
0.403962 0.862613 0.054249
0.443209 0.862487 0.054362
0.487327 0.863282 0.053954
0.559914 0.867112 0.046002
0.622478 0.871403 0.008874
0.690949 0.878475 -0.005894
0.756453 0.885360 0.000000
0.817822 0.888721 0.000000
0.867366 0.887892 0.000000
0.912153 0.886253 0.000000
0.952568 0.886194 0.000000
0.992499 0.886238 0.000000
0.253356 0.914267 0.056341
0.293325 0.914264 0.056341
0.332988 0.914226 0.056341
0.372021 0.914159 0.056341
0.410417 0.914119 0.056341
0.448381 0.913956 0.056406
0.491418 0.914675 0.055803
0.564023 0.918594 0.047910
0.627545 0.922935 0.013075
0.696744 0.930264 -0.005702
0.763444 0.937310 0.000000
0.825927 0.940916 0.000000
0.876406 0.940194 0.000000
0.921503 0.938347 0.000000
0.962151 0.938273 0.000000
1.002108 0.938287 0.000000
-0.091894 -0.113984 0.019566
-0.052184 -0.113832 0.019576
-0.007018 -0.112415 0.019574
0.180130 -0.109234 0.019566
0.299426 -0.105641 0.019567
0.376030 -0.101357 0.019653
0.437178 -0.096860 0.020499
0.493867 -0.093333 0.023660
0.548930 -0.097129 0.029626
0.602531 -0.102703 0.036344
0.647216 -0.107939 0.040000
0.684070 -0.109460 0.040000
0.721996 -0.109527 0.040000
0.761034 -0.109098 0.040000
0.800734 -0.108890 0.040000
0.840701 -0.108867 0.040000
-0.001568 0.050150 0.039757
0.026256 0.053383 0.039682
0.102728 0.065349 0.039700
0.212103 0.080440 0.039785
0.309221 0.091071 0.040000
0.380308 0.099324 0.040000
0.440901 0.108167 0.040000
0.498028 0.115735 0.040000
0.554944 0.114942 0.040000
0.610402 0.111437 0.040000
0.659294 0.106695 0.040000
0.699364 0.106348 0.040000
0.739296 0.106422 0.040000
0.779296 0.106422 0.040000
0.819296 0.106422 0.040000
0.859301 0.106421 0.040000
-0.000838 0.105218 0.039958
0.029919 0.103620 0.039934
0.061774 0.113708 0.039934
0.190578 0.125045 0.039958
0.304302 0.140621 0.040000
0.380639 0.149826 0.040000
0.441780 0.154860 0.040000
0.496427 0.156516 0.040000
0.552234 0.155508 0.040000
0.606976 0.151553 0.040000
0.657745 0.146071 0.040000
0.698458 0.145518 0.040000
0.738610 0.145910 0.040000
0.778762 0.146040 0.040000
0.818876 0.146118 0.040000
0.858914 0.146155 0.040000
0.002157 0.161472 0.035351
0.033801 0.159983 0.035646
0.061690 0.163778 0.036491
0.164066 0.174825 0.037944
0.289270 0.194157 0.039767
0.381974 0.212246 0.040000
0.451245 0.218102 0.040000
0.511533 0.217376 0.040000
0.569291 0.215862 0.040000
0.623610 0.209237 0.040000
0.670437 0.195958 0.040000
0.707195 0.190270 0.040000
0.744296 0.188656 0.040000
0.782915 0.187893 0.040000
0.821337 0.186879 0.040000
0.861187 0.186836 0.040000
0.003730 0.220973 0.049540
0.042682 0.219745 0.048834
0.063928 0.217985 0.045792
0.111820 0.233454 0.032810
0.260351 0.249324 0.036398
0.374467 0.270430 0.039586
0.454253 0.281529 0.040000
0.521383 0.282552 0.040000
0.584039 0.281228 0.040000
0.644057 0.277834 0.040000
0.694342 0.265254 0.040000
0.732770 0.256593 0.040000
0.769176 0.252815 0.040000
0.807404 0.250624 0.040000
0.845510 0.248209 0.040000
0.885339 0.247983 0.040000
-0.014681 0.289366 0.067916
0.025925 0.288061 0.067223
0.062456 0.284851 0.066127
0.102220 0.293458 0.054667
0.237518 0.311813 0.031491
0.354622 0.328049 0.037238
0.448638 0.345052 0.040000
0.527179 0.349286 0.040000
0.595450 0.347256 0.040000
0.656673 0.344753 0.040000
0.710951 0.336864 0.040000
0.753612 0.325912 0.040000
0.789802 0.322141 0.040000
0.828359 0.320162 0.040000
0.866801 0.318031 0.040000
0.906701 0.317828 0.040000
0.028369 0.364471 0.079687
0.065668 0.362893 0.079382
0.099461 0.359840 0.079114
0.146962 0.359981 0.074456
0.247678 0.377840 0.044666
0.347270 0.394887 0.033779
0.433637 0.406666 0.039216
0.522938 0.414586 0.040000
0.601526 0.415148 0.040000
0.666922 0.413499 0.040000
0.724641 0.407564 0.040000
0.772162 0.396690 0.040000
0.809831 0.391859 0.040000
0.848496 0.389764 0.040000
0.887285 0.387496 0.040000
0.927088 0.387199 0.040000
0.089196 0.444922 0.084421
0.125916 0.443325 0.084462
0.160815 0.440811 0.084548
0.191835 0.436805 0.084572
0.281167 0.447481 0.063432
0.360275 0.461954 0.029162
0.432454 0.474965 0.036010
0.510735 0.479940 0.039641
0.599571 0.482841 0.040000
0.673276 0.481282 0.040000
0.733858 0.477746 0.040000
0.784963 0.467829 0.040000
0.824699 0.460944 0.040000
0.863315 0.458981 0.040000
0.902361 0.456988 0.040000
0.942258 0.456702 0.040000
0.147329 0.521460 0.085876
0.186102 0.520210 0.085648
0.224370 0.518432 0.085334
0.259713 0.514979 0.085483
0.309533 0.516957 0.079012
0.377040 0.527939 0.053067
0.441528 0.540213 0.030702
0.512924 0.548946 0.037042
0.588159 0.547440 0.039868
0.673061 0.547333 0.040000
0.740757 0.545311 0.040000
0.797610 0.539027 0.040000
0.840566 0.531075 0.040000
0.878527 0.528776 0.040000
0.917375 0.526808 0.040000
0.957180 0.526507 0.040000
0.174486 0.594893 0.092772
0.213684 0.593781 0.092518
0.252685 0.592372 0.092200
0.290434 0.589798 0.091837
0.329704 0.587617 0.090661
0.393586 0.593369 0.076075
0.457993 0.603061 0.037318
0.527175 0.611854 0.033120
0.601766 0.616352 0.039316
0.667118 0.610796 0.040000
0.740905 0.609359 0.040000
0.804600 0.607105 0.040000
0.854150 0.601741 0.040000
0.892784 0.598745 0.040000
0.931935 0.596722 0.040000
0.971860 0.596393 0.040000
0.196993 0.662464 0.097100
0.236083 0.661499 0.097025
0.275082 0.660391 0.096941
0.313400 0.658648 0.096846
0.349806 0.655888 0.097115
0.404610 0.657787 0.090038
0.473260 0.663632 0.066220
0.540877 0.670712 0.028425
0.612081 0.678225 0.037309
0.679465 0.679784 0.040000
0.738174 0.672133 0.040000
0.805637 0.670882 0.040000
0.862269 0.668556 0.040000
0.902452 0.665738 0.040000
0.941720 0.664079 0.040000
0.981684 0.663803 0.040000
0.225191 0.727120 0.098394
0.264172 0.726218 0.098432
0.302981 0.725200 0.098473
0.341365 0.723856 0.098518
0.378167 0.721677 0.098679
0.419152 0.720054 0.098172
0.488884 0.723197 0.082578
0.554481 0.727780 0.027996
0.620794 0.734581 0.033130
0.690399 0.741716 0.039450
0.748587 0.739177 0.040000
0.804352 0.731667 0.040000
0.865031 0.731636 0.040000
0.908228 0.729972 0.040000
0.947838 0.728388 0.040000
0.987794 0.728078 0.040000
0.244427 0.783056 0.094283
0.284144 0.782784 0.094392
0.323856 0.782584 0.094508
0.363426 0.782219 0.094690
0.402276 0.781397 0.095066
0.439128 0.779969 0.095953
0.500392 0.781969 0.092062
0.567498 0.784352 0.067636
0.630432 0.789811 0.028598
0.698300 0.795762 0.037539
0.761181 0.799973 0.040000
0.815283 0.795656 0.040000
0.865914 0.789662 0.040000
0.910753 0.789662 0.040000
0.950324 0.788560 0.040000
0.990383 0.788287 0.040000
0.244066 0.822676 0.094214
0.284099 0.822698 0.094208
0.324126 0.822731 0.094197
0.364182 0.822784 0.094181
0.404258 0.822860 0.094160
0.443037 0.822708 0.094374
0.493816 0.824475 0.093321
0.565498 0.827950 0.080231
0.627871 0.833085 0.030101
0.696582 0.840088 0.035458
0.761251 0.846557 0.040000
0.820725 0.848996 0.040000
0.868385 0.847316 0.040000
0.912314 0.845216 0.040000
0.952336 0.844677 0.040000
0.992261 0.844521 0.040000
0.243950 0.862612 0.094250
0.283950 0.862612 0.094250
0.323950 0.862612 0.094250
0.363950 0.862612 0.094250
0.403962 0.862613 0.094249
0.443246 0.862493 0.094359
0.487051 0.863216 0.093972
0.559583 0.867075 0.086210
0.622205 0.871341 0.049491
0.690667 0.878382 0.034000
0.756295 0.885282 0.040000
0.817669 0.888718 0.040000
0.867366 0.887900 0.040000
0.912138 0.886241 0.040000
0.952577 0.886207 0.040000
0.992504 0.886251 0.040000
0.253356 0.914246 0.096256
0.293338 0.914248 0.096186
0.333101 0.914241 0.096073
0.372316 0.914217 0.096115
0.410974 0.914180 0.096243
0.449090 0.914103 0.096376
0.491935 0.914772 0.095819
0.564268 0.918682 0.088133
0.627801 0.923009 0.053447
0.696778 0.930249 0.034211
0.763348 0.937323 0.040000
0.825904 0.940910 0.040000
0.876426 0.940220 0.040000
0.921524 0.938375 0.040000
0.962202 0.938281 0.040000
1.002153 0.938295 0.040000
-0.091888 -0.112602 0.064847
-0.052154 -0.112940 0.062398
-0.008699 -0.112810 0.103792
0.132403 -0.111738 0.091815
0.282272 -0.110037 0.064184
0.360661 -0.108638 0.060142
0.424578 -0.105780 0.060460
0.482855 -0.103715 0.063609
0.538898 -0.102799 0.069563
0.596003 -0.106164 0.076292
0.643981 -0.109310 0.080000
0.681652 -0.110384 0.080000
0.719995 -0.110223 0.080000
0.759458 -0.109651 0.080000
0.799601 -0.109273 0.080000
0.839594 -0.109242 0.080000
-0.000574 0.064145 0.092437
0.028436 0.062186 0.090116
0.091856 0.061937 0.100095
0.197056 0.068812 0.095203
0.292848 0.079268 0.083366
0.366668 0.085628 0.076285
0.431151 0.095294 0.078634
0.490598 0.103924 0.079783
0.549010 0.109474 0.080000
0.607426 0.108633 0.080000
0.657128 0.104972 0.080000
0.698010 0.105304 0.080000
0.738407 0.105738 0.080000
0.778825 0.106045 0.080000
0.819249 0.106419 0.080000
0.859318 0.106447 0.080000
-0.001433 0.111598 0.093293
0.030789 0.109637 0.090797
0.070414 0.116550 0.096933
0.180678 0.124688 0.093928
0.291964 0.136356 0.081936
0.372791 0.143731 0.077953
0.436830 0.149521 0.079821
0.493435 0.152492 0.080000
0.550056 0.153620 0.080000
0.605321 0.150200 0.080000
0.656928 0.145560 0.080000
0.698458 0.145525 0.080000
0.738708 0.146006 0.080000
0.778849 0.146114 0.080000
0.818930 0.146173 0.080000
0.858969 0.146193 0.080000
0.004133 0.163987 0.096469
0.033295 0.162369 0.094498
0.071068 0.164669 0.095937
0.163808 0.176082 0.091030
0.285606 0.193029 0.078677
0.379686 0.210454 0.078516
0.449626 0.216866 0.080000
0.510378 0.216574 0.080000
0.568254 0.214927 0.080000
0.622598 0.208612 0.080000
0.669747 0.195631 0.080000
0.706683 0.189841 0.080000
0.743790 0.188332 0.080000
0.782388 0.187556 0.080000
0.820836 0.186538 0.080000
0.860691 0.186493 0.080000
0.005488 0.220319 0.099836
0.043396 0.219158 0.097766
0.066248 0.217377 0.095451
0.129614 0.232551 0.086379
0.258647 0.248337 0.075530
0.373399 0.269330 0.079008
0.453448 0.280662 0.080000
0.520552 0.281774 0.080000
0.583205 0.280577 0.080000
0.643305 0.277198 0.080000
0.693641 0.264654 0.080000
0.732312 0.255922 0.080000
0.768676 0.252157 0.080000
0.806881 0.249935 0.080000
0.845039 0.247571 0.080000
0.884866 0.247366 0.080000
-0.014256 0.288134 0.108620
0.026268 0.286859 0.107776
0.062934 0.283795 0.106470
0.100347 0.292272 0.094904
0.235761 0.310607 0.071308
0.353488 0.327054 0.077158
0.447842 0.344259 0.080000
0.526396 0.348662 0.080000
0.594689 0.346674 0.080000
0.656078 0.344218 0.080000
0.710400 0.336439 0.080000
0.753262 0.325350 0.080000
0.789408 0.321626 0.080000
0.827970 0.319636 0.080000
0.866457 0.317519 0.080000
0.906393 0.317331 0.080000
0.026851 0.363549 0.119436
0.064204 0.362033 0.119138
0.098601 0.359029 0.118890
0.144654 0.358840 0.114522
0.245337 0.376650 0.085966
0.345837 0.393863 0.073680
0.432848 0.405818 0.079183
0.522212 0.414012 0.080000
0.600861 0.414600 0.080000
0.666299 0.412940 0.080000
0.724246 0.407155 0.080000
0.771838 0.396242 0.080000
0.809537 0.391382 0.080000
0.848166 0.389214 0.080000
0.886944 0.386952 0.080000
0.926840 0.386682 0.080000
0.087467 0.444090 0.124446
0.124151 0.442472 0.124484
0.159346 0.440029 0.124491
0.190197 0.436030 0.124568
0.279192 0.446534 0.103841
0.359371 0.461174 0.069133
0.431702 0.474266 0.075994
0.510066 0.479399 0.079640
0.598932 0.482357 0.080000
0.672760 0.480760 0.080000
0.733438 0.477330 0.080000
0.784700 0.467444 0.080000
0.824468 0.460476 0.080000
0.863091 0.458499 0.080000
0.902098 0.456518 0.080000
0.941999 0.456257 0.080000
0.146780 0.520906 0.125766
0.185527 0.519613 0.125535
0.223842 0.517853 0.125223
0.259044 0.514418 0.125428
0.308475 0.516155 0.119130
0.376296 0.527276 0.093099
0.440770 0.539549 0.070668
0.512190 0.548436 0.077010
0.587468 0.547028 0.079857
0.672555 0.546958 0.080000
0.740357 0.544929 0.080000
0.797254 0.538670 0.080000
0.840287 0.530679 0.080000
0.878239 0.528316 0.080000
0.917110 0.526316 0.080000
0.956927 0.526035 0.080000
0.174149 0.594405 0.132656
0.213333 0.593288 0.132409
0.252310 0.591868 0.132088
0.290051 0.589318 0.131715
0.329208 0.587074 0.130582
0.392836 0.592799 0.116196
0.457278 0.602489 0.081260
0.526280 0.611378 0.073056
0.601068 0.615900 0.079292
0.666497 0.610449 0.080000
0.740546 0.608986 0.080000
0.804182 0.606743 0.080000
0.853990 0.601337 0.080000
0.892666 0.598300 0.080000
0.931758 0.596283 0.080000
0.971715 0.595980 0.080000
0.196588 0.662062 0.137069
0.235745 0.661121 0.136991
0.274700 0.659987 0.136910
0.313056 0.658252 0.136814
0.349402 0.655494 0.137106
0.403925 0.657358 0.130114
0.472593 0.663235 0.106558
0.540184 0.670306 0.068350
0.611388 0.677851 0.077268
0.678934 0.679430 0.080000
0.737800 0.671848 0.080000
0.805289 0.670556 0.080000
0.862136 0.668232 0.080000
0.902383 0.665388 0.080000
0.941651 0.663702 0.080000
0.981491 0.663458 0.080000
0.224765 0.726714 0.138404
0.263771 0.725912 0.138446
0.302562 0.724876 0.138488
0.340945 0.723538 0.138524
0.377763 0.721311 0.138661
0.418566 0.719670 0.138178
0.488119 0.722832 0.122893
0.553869 0.727410 0.068057
0.620163 0.734239 0.073056
0.689857 0.741380 0.079437
0.748179 0.738894 0.080000
0.803932 0.731417 0.080000
0.864781 0.731339 0.080000
0.908184 0.729663 0.080000
0.947796 0.728055 0.080000
0.987708 0.727755 0.080000
0.244330 0.782977 0.134325
0.284041 0.782728 0.134429
0.323768 0.782451 0.134548
0.363298 0.782161 0.134734
0.402189 0.781272 0.135092
0.438958 0.779841 0.135997
0.499876 0.781804 0.132180
0.567114 0.784179 0.107985
0.629876 0.789545 0.068478
0.697800 0.795518 0.077456
0.760734 0.799709 0.080000
0.814953 0.795482 0.080000
0.865699 0.789328 0.080000
0.910721 0.789378 0.080000
0.950385 0.788303 0.080000
0.990338 0.788082 0.080000
0.244088 0.822685 0.134211
0.284109 0.822707 0.134204
0.324136 0.822742 0.134194
0.364184 0.822795 0.134176
0.404268 0.822868 0.134156
0.443072 0.822714 0.134366
0.493396 0.824465 0.133375
0.565114 0.827912 0.120682
0.627541 0.832974 0.070488
0.696231 0.839957 0.075341
0.761027 0.846534 0.080000
0.820525 0.849003 0.080000
0.868388 0.847259 0.080000
0.912353 0.845068 0.080000
0.952277 0.844542 0.080000
0.992211 0.844329 0.080000
0.243950 0.862612 0.134250
0.283950 0.862612 0.134250
0.323950 0.862612 0.134250
0.363950 0.862612 0.134250
0.403962 0.862614 0.134249
0.443277 0.862499 0.134355
0.486746 0.863188 0.133992
0.559163 0.867085 0.126499
0.621942 0.871231 0.090102
0.690265 0.878242 0.073880
0.755934 0.885178 0.080000
0.817493 0.888716 0.080000
0.867280 0.887951 0.080000
0.912079 0.886255 0.080000
0.952583 0.886225 0.080000
0.992508 0.886240 0.080000
0.253356 0.914188 0.135503
0.293350 0.914203 0.135324
0.333226 0.914222 0.134753
0.372663 0.914227 0.134300
0.411455 0.914224 0.134416
0.449564 0.914157 0.135001
0.491999 0.914855 0.135019
0.564236 0.918831 0.127928
0.628045 0.923107 0.093089
0.696990 0.930334 0.073678
0.763705 0.937344 0.080000
0.826393 0.941057 0.080000
0.876955 0.940413 0.080000
0.922167 0.938509 0.080000
0.962836 0.938432 0.080000
1.002785 0.938443 0.080000
-0.091887 -0.110204 0.155859
-0.051953 -0.110717 0.151683
-0.011972 -0.112216 0.170342
0.053418 -0.112026 0.176392
0.261001 -0.111702 0.174758
0.350984 -0.111959 0.165471
0.418986 -0.112755 0.154845
0.476812 -0.113060 0.139558
0.529773 -0.112994 0.130572
0.583400 -0.115122 0.114673
0.628346 -0.118124 0.120000
0.665815 -0.118534 0.120000
0.704096 -0.118064 0.120000
0.743499 -0.117191 0.120000
0.783669 -0.116442 0.120000
0.823672 -0.116362 0.120000
-0.000254 0.078302 0.157202
0.033141 0.076730 0.153828
0.061028 0.068146 0.163322
0.177526 0.066810 0.171516
0.279593 0.070549 0.168338
0.359646 0.069698 0.158946
0.425524 0.068675 0.150013
0.484179 0.075247 0.139570
0.539142 0.083418 0.127103
0.594757 0.086137 0.116270
0.643879 0.082678 0.120000
0.684896 0.086418 0.120000
0.725438 0.088676 0.120000
0.766235 0.090533 0.120000
0.807598 0.092531 0.120000
0.847716 0.092712 0.120000
-0.000244 0.125222 0.161440
0.033353 0.123800 0.159326
0.069978 0.123821 0.159522
0.167454 0.121157 0.168189
0.275886 0.124764 0.161045
0.359508 0.124868 0.149433
0.424864 0.122926 0.142894
0.482153 0.121675 0.131726
0.537149 0.128193 0.115397
0.592050 0.131050 0.117882
0.643363 0.127507 0.120000
0.686438 0.131881 0.120000
0.728258 0.134570 0.120000
0.769184 0.135826 0.120000
0.810112 0.137162 0.120000
0.850248 0.137273 0.120000
-0.000883 0.173225 0.162679
0.033927 0.171768 0.160988
0.067677 0.171736 0.160120
0.164345 0.180496 0.166489
0.271546 0.189166 0.159488
0.366590 0.200206 0.146898
0.438864 0.206334 0.138767
0.502986 0.207635 0.123747
0.562768 0.203717 0.116514
0.617604 0.194408 0.119204
0.665810 0.182330 0.120000
0.702979 0.180598 0.120000
0.740047 0.181646 0.120000
0.778687 0.181978 0.120000
0.817364 0.182380 0.120000
0.857381 0.182452 0.120000
-0.004009 0.227818 0.166952
0.034596 0.226418 0.165620
0.065743 0.223482 0.163201
0.158297 0.235509 0.165168
0.259830 0.250617 0.154496
0.368558 0.266432 0.142076
0.448602 0.277726 0.133502
0.519103 0.280983 0.115115
0.584103 0.278469 0.118241
0.643424 0.272845 0.120000
0.693140 0.259197 0.120000
0.731659 0.251768 0.120000
0.767763 0.249442 0.120000
0.806108 0.247724 0.120000
0.844231 0.245798 0.120000
0.883982 0.245605 0.120000
-0.001774 0.285531 0.168352
0.033964 0.284337 0.167200
0.063154 0.281122 0.164945
0.150164 0.292348 0.162808
0.245395 0.312291 0.149780
0.355312 0.327471 0.134557
0.446132 0.342983 0.114495
0.524590 0.348214 0.116738
0.594134 0.346315 0.119338
0.655714 0.343612 0.120000
0.709908 0.335645 0.120000
0.752582 0.324539 0.120000
0.788832 0.320796 0.120000
0.827328 0.318815 0.120000
0.865929 0.316700 0.120000
0.905786 0.316523 0.120000
0.023659 0.357778 0.168552
0.062166 0.356572 0.167675
0.096582 0.354118 0.165972
0.146489 0.356590 0.162777
0.246576 0.376060 0.144842
0.345652 0.393374 0.125163
0.432104 0.404977 0.115516
0.521026 0.413098 0.118922
0.599788 0.413645 0.119919
0.665360 0.411977 0.120000
0.723449 0.406422 0.120000
0.771324 0.395552 0.120000
0.809119 0.390500 0.120000
0.847735 0.388347 0.120000
0.886534 0.386093 0.120000
0.926412 0.385864 0.120000
0.079054 0.441827 0.166956
0.116661 0.440372 0.166529
0.153022 0.438114 0.165892
0.185843 0.434444 0.165296
