src/luts/vivid/6.cube
LUT_3D_SIZE 6
-0.003000 -0.006266 0.000000
0.229078 0.044820 0.000000
0.443952 0.070180 0.000000
0.612427 0.070810 0.000000
0.739296 0.066422 0.000000
0.859301 0.066421 0.000000
0.002351 0.161815 -0.004726
0.164822 0.175324 -0.002102
0.451712 0.218467 0.000000
0.624195 0.209555 0.000000
0.744598 0.188813 0.000000
0.861509 0.187011 0.000000
0.029128 0.364968 0.039788
0.148178 0.360630 0.034401
0.434103 0.407123 -0.000753
0.667278 0.413861 0.000000
0.810013 0.392290 0.000000
0.927345 0.387628 0.000000
0.174756 0.595280 0.052853
0.290721 0.590171 0.051924
0.458532 0.603451 -0.003494
0.667571 0.611040 0.000000
0.854364 0.602067 0.000000
0.971944 0.596753 0.000000
0.244506 0.783158 0.054248
0.363502 0.782327 0.054652
0.500807 0.782098 0.051963
0.698704 0.796012 -0.002383
0.866030 0.789853 0.000000
0.990333 0.788475 0.000000
0.253356 0.914267 0.056341
0.372021 0.914159 0.056341
0.491418 0.914675 0.055803
0.696744 0.930264 -0.005702
0.876406 0.940194 0.000000
1.002108 0.938287 0.000000
-0.091887 -0.110204 0.155859
0.053418 -0.112026 0.176392
0.418986 -0.112755 0.154845
0.583400 -0.115122 0.114673
0.704096 -0.118064 0.120000
0.823672 -0.116362 0.120000
-0.000883 0.173225 0.162679
0.164345 0.180496 0.166489
0.438864 0.206334 0.138767
0.617604 0.194408 0.119204
0.740047 0.181646 0.120000
0.857381 0.182452 0.120000
0.023659 0.357778 0.168552
0.146489 0.356590 0.162777
0.432104 0.404977 0.115516
0.665360 0.411977 0.120000
0.809119 0.390500 0.120000
0.926412 0.385864 0.120000
0.173562 0.593604 0.172478
0.289465 0.588541 0.171524
0.456195 0.601641 0.123726
0.665656 0.609943 0.120000
0.853853 0.600800 0.120000
0.971453 0.595432 0.120000
0.244147 0.782786 0.174393
0.363156 0.781977 0.174790
0.499240 0.781596 0.172321
0.697177 0.795184 0.117368
0.865496 0.789065 0.120000
0.990257 0.787731 0.120000
0.253356 0.914170 0.174493
0.372907 0.914219 0.171706
0.492257 0.914826 0.171382
0.696822 0.930254 0.100948
0.877089 0.940525 0.109556
1.003033 0.938521 0.112156
-0.091887 -0.096368 0.328808
0.031199 -0.109350 0.351852
0.380288 -0.114526 0.361737
0.558734 -0.119692 0.365040
0.680476 -0.123256 0.351868
0.800016 -0.122659 0.347478
0.000000 0.218655 0.354660
0.147857 0.213400 0.354674
0.405265 0.169253 0.362256
0.581681 0.162356 0.352723
0.710653 0.136158 0.330998
0.830001 0.133787 0.327181
-0.005456 0.387054 0.379722
0.113023 0.380137 0.372736
0.412867 0.409655 0.394458
0.669461 0.405055 0.357609
0.818042 0.352940 0.303239
0.934074 0.346405 0.293653
0.097740 0.561541 0.366804
0.216634 0.557435 0.361413
0.425724 0.599553 0.361872
0.659533 0.619356 0.309165
0.863916 0.610740 0.230329
0.980453 0.603051 0.235848
0.199927 0.775544 0.328485
0.323944 0.775351 0.325077
0.472334 0.781503 0.322205
0.691056 0.795054 0.255682
0.864112 0.788259 0.240000
0.990033 0.786229 0.240000
0.234597 0.911020 0.305794
0.359568 0.912205 0.297351
0.487186 0.914246 0.280551
0.695820 0.929726 0.186542
0.877760 0.940628 0.188781
1.004032 0.938566 0.189923
-0.043613 0.057519 0.514252
0.073222 -0.072300 0.498825
0.349311 -0.109327 0.539938
0.515478 -0.123886 0.530881
0.635652 -0.128304 0.536588
0.755589 -0.127035 0.536770
0.002862 0.261983 0.536262
0.111604 0.257694 0.535774
0.345982 0.187750 0.546986
0.541817 0.102546 0.526994
0.681840 0.101968 0.526666
0.802580 0.104685 0.524424
0.006794 0.430297 0.562452
0.104538 0.424968 0.558536
0.357975 0.437258 0.581890
0.584928 0.399610 0.575334
0.771100 0.366800 0.558351
0.887332 0.360688 0.553635
0.057894 0.603678 0.579014
0.174620 0.599090 0.575738
0.371406 0.611236 0.579900
0.614749 0.645418 0.595082
0.866870 0.624151 0.549944
0.985134 0.613994 0.543173
0.063530 0.758983 0.556933
0.186692 0.757088 0.554242
0.319317 0.757410 0.548317
0.617305 0.812045 0.550982
0.859036 0.816030 0.521423
0.993818 0.813954 0.495796
0.076450 0.886844 0.541188
0.198351 0.886961 0.537389
0.320023 0.887561 0.524095
0.628608 0.947666 0.520503
0.871911 0.963658 0.503539
1.004823 0.961381 0.446748
-0.014659 0.043701 0.624344
0.103484 -0.071955 0.602323
0.339096 -0.112016 0.658171
0.526663 -0.124186 0.657099
0.608598 -0.137054 0.652564
0.713229 -0.136731 0.655319
0.004450 0.266898 0.662970
0.123531 0.263391 0.663542
0.314704 0.193286 0.672613
0.524376 0.103452 0.668826
0.647433 0.115546 0.655180
0.767756 0.117607 0.655611
0.016700 0.443680 0.696669
0.135669 0.439863 0.694730
0.286962 0.456372 0.718458
0.510858 0.406200 0.729208
0.694850 0.347076 0.713278
0.812070 0.339316 0.710338
0.021162 0.619488 0.723639
0.141016 0.616656 0.722246
0.286445 0.632201 0.733050
0.520166 0.663089 0.776915
0.764433 0.618483 0.765048
0.885974 0.608405 0.759944
0.032034 0.789397 0.746137
0.152036 0.788383 0.745186
0.276104 0.787239 0.743492
0.498530 0.816137 0.767982
0.843973 0.845658 0.779050
0.989626 0.840333 0.767175
0.034725 0.920479 0.747252
0.154789 0.920384 0.745826
0.221810 0.919124 0.740121
0.438552 0.947106 0.748325
0.824101 0.987541 0.749162
1.002934 0.990217 0.727523
-0.011911 0.014166 0.737657
0.106505 -0.079701 0.712114
0.337538 -0.117614 0.771473
0.529804 -0.128448 0.764642
0.624871 -0.141944 0.752292
0.713462 -0.145486 0.751146
0.004248 0.265563 0.782023
0.123309 0.261934 0.782302
0.313243 0.190695 0.790806
0.523512 0.102777 0.788148
0.647521 0.116095 0.775289
0.767867 0.117961 0.775741
0.016434 0.442654 0.816217
0.135306 0.438814 0.814212
0.284880 0.454795 0.837496
0.509045 0.404494 0.848451
0.694275 0.344169 0.832191
0.811140 0.336013 0.829119
0.021092 0.618386 0.843110
0.140891 0.615566 0.841721
0.285463 0.630729 0.852262
0.516684 0.661747 0.896421
0.754548 0.616309 0.886860
0.870768 0.604163 0.881732
0.030711 0.789422 0.868325
0.150374 0.788390 0.867810
0.271760 0.787012 0.867673
0.466371 0.816653 0.902555
0.831495 0.848790 0.919961
0.969473 0.842306 0.914675
0.031632 0.912662 0.870406
0.151630 0.912666 0.870411
0.270065 0.912095 0.869748
0.429404 0.940388 0.901043
0.781968 0.979297 0.920668
0.989022 0.986507 0.924221
