src/luts/vivid/7.cube
LUT_3D_SIZE 16
-0.002343 -0.001140 0.000680
0.036289 0.000201 0.001364
0.070850 0.001325 0.003627
0.216197 0.007449 0.004846
0.326548 0.012511 0.007918
0.424950 0.018714 0.011579
0.508124 0.025671 0.014789
0.583680 0.031225 0.018083
0.659973 0.040413 0.019134
0.726081 0.050133 0.021779
0.767382 0.049385 0.021567
0.810690 0.049373 0.021561
0.854023 0.049373 0.021561
0.897357 0.049373 0.021561
0.940398 0.049383 0.021561
0.987395 0.049280 0.021561
-0.001727 0.038060 -0.001379
0.035569 0.038257 -0.001199
0.065674 0.038536 0.003337
0.202441 0.046821 0.004482
0.315216 0.052831 0.007418
0.417482 0.060127 0.011082
0.503140 0.066936 0.014329
0.579725 0.074157 0.017625
0.655789 0.081753 0.019214
0.724965 0.092942 0.021469
0.767502 0.092763 0.021591
0.810690 0.092706 0.021561
0.854023 0.092706 0.021561
0.897357 0.092706 0.021561
0.940398 0.092716 0.021561
0.987395 0.092613 0.021561
-0.003251 0.097169 0.004731
0.036569 0.094458 0.004130
0.065517 0.090687 0.004934
0.202237 0.102712 0.004192
0.310404 0.107002 0.005805
0.408943 0.111466 0.010801
0.495964 0.113638 0.013386
0.573493 0.118617 0.016600
0.649411 0.122130 0.018410
0.722919 0.133265 0.020280
0.767666 0.134549 0.020908
0.810654 0.134833 0.020978
0.854008 0.135178 0.021163
0.897360 0.135443 0.021301
0.940408 0.135640 0.021391
0.987381 0.135625 0.021429
0.007263 0.168826 0.011142
0.041307 0.166750 0.010441
0.072509 0.165139 0.010381
0.109545 0.161154 0.009466
0.304066 0.168861 -0.003132
0.401822 0.172350 0.008469
0.488544 0.178132 0.010577
0.565541 0.183084 0.015813
0.641560 0.188574 0.020802
0.719200 0.194178 0.027476
0.768678 0.192298 0.029149
0.811083 0.187797 0.026635
0.854194 0.185298 0.025075
0.897429 0.182600 0.023532
0.940443 0.180740 0.022510
0.987359 0.179901 0.022129
0.028820 0.249331 0.022524
0.071141 0.247580 0.021894
0.113420 0.244277 0.020692
0.160289 0.245450 0.018550
0.243561 0.231741 0.021271
0.390626 0.240176 0.007687
0.479854 0.241126 0.010093
0.557988 0.245392 0.014771
0.632630 0.249288 0.017905
0.713746 0.257431 0.025154
0.769871 0.257482 0.028539
0.811930 0.253999 0.029007
0.855214 0.252140 0.029493
0.898494 0.249361 0.029828
0.941378 0.246756 0.029968
0.988410 0.245351 0.030012
0.053486 0.335374 0.038446
0.095647 0.333322 0.037631
0.135647 0.329272 0.036015
0.188617 0.327612 0.034703
0.233599 0.328107 0.037107
0.357112 0.315126 0.035337
0.472211 0.315869 0.017583
0.551365 0.311113 0.017773
0.625781 0.313707 0.021898
0.703737 0.317871 0.025156
0.770141 0.318850 0.027322
0.812141 0.315034 0.026693
0.855291 0.312718 0.026510
0.898658 0.309982 0.026491
0.941628 0.307579 0.026866
0.988652 0.306190 0.027095
0.080047 0.424913 0.055551
0.122281 0.423054 0.054869
0.163498 0.420092 0.053746
0.208879 0.416933 0.052401
0.260526 0.415957 0.058772
0.348555 0.410377 0.044320
0.446464 0.390509 0.050365
0.545200 0.394301 0.026245
0.618692 0.385357 0.026043
0.693443 0.384526 0.029659
0.768436 0.385322 0.032204
0.812788 0.380687 0.031259
0.855683 0.377012 0.030257
0.898992 0.373158 0.029377
0.941971 0.369551 0.028593
0.989038 0.367481 0.028290
0.104282 0.512078 0.072028
0.146803 0.510563 0.071457
0.188817 0.508162 0.070559
0.228659 0.503952 0.068574
0.285657 0.502624 0.073497
0.308533 0.500440 0.075604
0.460162 0.487838 0.058522
0.529507 0.463346 0.059444
0.613558 0.474439 0.037834
0.685223 0.464672 0.034866
0.762258 0.456969 0.036807
0.813340 0.452484 0.037096
0.855731 0.447534 0.036290
0.899058 0.442338 0.035449
0.942077 0.437144 0.034573
0.989173 0.434146 0.033958
0.121793 0.592197 0.083123
0.164624 0.590973 0.082810
0.207207 0.589243 0.082384
0.248746 0.586350 0.081281
0.297426 0.582739 0.082977
0.331010 0.580667 0.090675
0.417094 0.575802 0.070256
0.536600 0.558043 0.076398
0.603042 0.539817 0.074985
0.679658 0.549778 0.051480
0.753400 0.541973 0.045379
0.814271 0.531831 0.045423
0.856235 0.523798 0.043264
0.899420 0.516740 0.041537
0.942317 0.509724 0.039781
0.989388 0.505472 0.038818
0.134057 0.666127 0.091889
0.176984 0.664963 0.091603
0.219759 0.663444 0.091173
0.262102 0.661158 0.090363
0.305333 0.658362 0.089536
0.351150 0.656282 0.097742
0.346550 0.652871 0.101618
0.523900 0.645878 0.057938
0.606499 0.629202 0.097165
0.668201 0.610058 0.092370
0.744558 0.620729 0.066022
0.813141 0.616547 0.057502
0.856439 0.608108 0.055989
0.899506 0.599507 0.053131
0.942530 0.590294 0.050279
0.989558 0.584638 0.048596
0.144308 0.739008 0.101012
0.187277 0.737908 0.100667
0.230187 0.736545 0.100220
0.272855 0.734511 0.099566
0.315139 0.731623 0.098293
0.360081 0.729832 0.100820
0.359695 0.727500 0.109409
0.482400 0.720447 0.093122
0.601399 0.715539 0.080170
0.672855 0.699461 0.117106
0.732660 0.678437 0.107770
0.806725 0.689605 0.086665
0.856077 0.685533 0.076041
0.899037 0.678704 0.068638
0.942246 0.670364 0.064017
0.989522 0.664940 0.061812
0.151081 0.808179 0.108422
0.194229 0.807319 0.108182
0.237335 0.806415 0.107880
0.280348 0.805037 0.107448
0.323235 0.803008 0.106710
0.366544 0.801242 0.106484
0.388658 0.800098 0.114786
0.446975 0.797061 0.118098
0.570440 0.790074 0.076687
0.666207 0.786773 0.103640
0.735738 0.769179 0.132867
0.796938 0.747846 0.126234
0.854259 0.749702 0.116742
0.897928 0.745384 0.107153
0.941313 0.740145 0.096144
0.988430 0.736061 0.089089
0.150543 0.849673 0.107890
0.193893 0.849756 0.107918
0.237244 0.849826 0.107945
0.280608 0.849971 0.107979
0.323998 0.850084 0.107991
0.368093 0.850183 0.107487
0.404638 0.851760 0.115628
0.406703 0.853286 0.118196
0.538971 0.851347 0.114766
0.643571 0.849557 0.067363
0.727149 0.847052 0.124857
0.794261 0.831603 0.146555
0.852911 0.813583 0.144691
0.896923 0.808216 0.138152
0.939638 0.801533 0.130828
0.986935 0.797613 0.125375
0.150539 0.892995 0.107877
0.193872 0.892995 0.107877
0.237206 0.892995 0.107877
0.280539 0.892996 0.107877
0.323873 0.892997 0.107874
0.367502 0.892886 0.107476
0.409917 0.893889 0.111364
0.408817 0.895839 0.117100
0.517630 0.895483 0.121089
0.623597 0.894667 0.082337
0.711904 0.893497 0.100186
0.791448 0.892106 0.145894
0.846320 0.866865 0.147637
0.897765 0.867144 0.149817
0.940033 0.867316 0.149783
0.986937 0.862913 0.147332
0.150539 0.936328 0.107877
0.193872 0.936328 0.107877
0.237206 0.936328 0.107877
0.280539 0.936328 0.107877
0.323872 0.936328 0.107877
0.367304 0.936258 0.107710
0.411723 0.936618 0.108393
0.427846 0.938490 0.118262
0.494098 0.939197 0.121340
0.604234 0.938037 0.102735
0.699717 0.937045 0.076753
0.779901 0.936120 0.135435
0.841632 0.922205 0.148323
0.897045 0.908115 0.148350
0.940135 0.909865 0.148815
0.987012 0.909370 0.148885
0.155796 0.990007 0.112187
0.199106 0.990007 0.112181
0.242078 0.990007 0.112183
0.283805 0.990005 0.112184
0.323508 0.989999 0.112187
0.361396 0.989977 0.112108
0.398965 0.990164 0.112134
0.403651 0.991926 0.119782
0.445134 0.993024 0.121854
0.578269 0.991833 0.112418
0.682982 0.990838 0.076854
0.767932 0.989367 0.132998
0.836177 0.980994 0.154054
0.895687 0.962356 0.153776
0.940104 0.964384 0.154600
0.986966 0.963704 0.154574
-0.055075 -0.122444 0.005383
-0.011769 -0.122444 0.005263
0.031666 -0.122442 0.005172
0.199895 -0.122405 0.005035
0.324953 -0.122269 0.005262
0.428076 -0.121961 0.005735
0.513841 -0.121572 0.005410
0.590998 -0.121301 0.004467
0.667249 -0.119836 0.004786
0.732736 -0.116821 0.010334
0.772402 -0.116410 0.011698
0.813663 -0.114872 0.002839
0.855422 -0.111079 -0.004297
0.897794 -0.106820 -0.006205
0.940490 -0.105306 -0.006411
0.987398 -0.105402 -0.006478
-0.001445 0.038882 0.048649
0.036125 0.038644 0.047341
0.065596 0.038532 0.047676
0.200364 0.045805 0.047910
0.314644 0.052347 0.050949
0.417438 0.060221 0.054455
0.503209 0.067035 0.057654
0.579835 0.074214 0.060953
0.655864 0.081825 0.062538
0.724906 0.092931 0.064795
0.767513 0.092765 0.064926
0.810690 0.092706 0.064894
0.854023 0.092706 0.064894
0.897357 0.092706 0.064894
0.940398 0.092716 0.064894
0.987395 0.092613 0.064894
-0.003161 0.096692 0.048721
0.036787 0.093793 0.047828
0.065844 0.089584 0.048536
0.200771 0.102069 0.047594
0.309401 0.106384 0.049014
0.408451 0.110663 0.054099
0.495706 0.112750 0.056757
0.573326 0.118022 0.059959
0.649245 0.121629 0.061868
0.722851 0.133329 0.063614
0.767689 0.134636 0.064274
0.810656 0.134903 0.064347
0.854007 0.135234 0.064527
0.897361 0.135484 0.064656
0.940412 0.135663 0.064737
0.987382 0.135636 0.064771
0.006678 0.168192 0.054244
0.040690 0.166302 0.053610
0.072360 0.164553 0.053565
0.108852 0.160652 0.052673
0.303461 0.168407 0.040127
0.401382 0.171865 0.051850
0.488273 0.177613 0.053906
0.565379 0.182540 0.059068
0.641414 0.187887 0.064020
0.718965 0.193385 0.070566
0.768697 0.191629 0.072232
0.811016 0.187189 0.069612
0.854248 0.184764 0.068107
0.897402 0.182160 0.066614
0.940401 0.180561 0.065705
0.987366 0.179812 0.065379
0.028538 0.248752 0.065643
0.070959 0.247183 0.065098
0.112912 0.243785 0.063852
0.159877 0.244918 0.061693
0.242349 0.231242 0.064363
0.390243 0.239655 0.050724
0.479553 0.240640 0.053283
0.557781 0.244942 0.058022
0.632409 0.248858 0.061233
0.713461 0.257060 0.068500
0.769899 0.257171 0.071958
0.811916 0.253665 0.072417
0.855182 0.251803 0.072892
0.898463 0.249005 0.073195
0.941382 0.246491 0.073318
0.988376 0.245120 0.073355
0.053138 0.334734 0.081526
0.095406 0.332903 0.080789
0.135441 0.328813 0.079162
0.187990 0.327041 0.077725
0.232863 0.327657 0.080303
0.356378 0.314633 0.078466
0.471828 0.315359 0.060726
0.551032 0.310637 0.060966
0.625500 0.313309 0.065123
0.703489 0.317458 0.068364
0.770184 0.318555 0.070614
0.812141 0.314715 0.069984
0.855316 0.312425 0.069865
0.898656 0.309710 0.069854
0.941631 0.307372 0.070237
0.988656 0.305992 0.070463
0.079692 0.424317 0.098681
0.122086 0.422698 0.098060
0.163283 0.419661 0.096922
0.208257 0.416388 0.095554
0.260421 0.415405 0.101797
0.347170 0.409955 0.087712
0.445974 0.390172 0.093577
0.544945 0.393809 0.069418
0.618438 0.384832 0.069278
0.693182 0.384037 0.072886
0.768308 0.384895 0.075409
0.812792 0.380275 0.074489
0.855684 0.376671 0.073482
0.898982 0.372855 0.072634
0.941971 0.369317 0.071858
0.989031 0.367248 0.071560
0.104011 0.511606 0.115176
0.146654 0.510253 0.114663
0.188619 0.507762 0.113733
0.228473 0.503554 0.111757
0.285408 0.502192 0.116564
0.307803 0.500048 0.118913
0.459515 0.487357 0.101572
0.529049 0.462942 0.102589
0.613330 0.473909 0.080939
0.684936 0.464172 0.078065
0.762095 0.456505 0.080027
0.813351 0.452102 0.080376
0.855721 0.447177 0.079558
0.899060 0.441911 0.078726
0.942078 0.436850 0.077840
0.989174 0.433856 0.077238
0.121637 0.591762 0.126350
0.164496 0.590727 0.126080
0.207078 0.588925 0.125619
0.248633 0.586059 0.124521
0.297067 0.582418 0.126106
0.331481 0.580357 0.133795
0.415674 0.575486 0.113986
0.536216 0.557821 0.119424
0.602755 0.539481 0.118156
0.679396 0.549433 0.094583
0.753169 0.541554 0.088568
0.814279 0.531357 0.088601
0.856240 0.523338 0.086476
0.899417 0.516319 0.084762
0.942313 0.509330 0.083017
0.989383 0.505043 0.082044
0.133937 0.665709 0.135132
0.176904 0.664768 0.134860
0.219660 0.663180 0.134418
0.261990 0.660888 0.133615
0.305082 0.658056 0.132739
0.351327 0.655962 0.140873
0.346081 0.652563 0.144967
0.523154 0.645605 0.101296
0.606225 0.628923 0.140258
0.667983 0.609750 0.135529
0.744346 0.620372 0.109112
0.813106 0.616181 0.100684
0.856456 0.607671 0.099143
0.899506 0.599024 0.096309
0.942532 0.589847 0.093461
0.989562 0.584174 0.091801
0.144194 0.738675 0.144232
0.187203 0.737676 0.143908
0.230106 0.736258 0.143476
0.272744 0.734244 0.142814
0.315041 0.731353 0.141557
0.360018 0.729523 0.143921
0.360751 0.727189 0.152667
0.481239 0.720217 0.136830
0.601038 0.715210 0.123063
0.672603 0.699201 0.160232
0.732391 0.678138 0.150935
0.806602 0.689367 0.129599
0.856118 0.685147 0.119026
0.899054 0.678339 0.111715
0.942288 0.669980 0.107190
0.989418 0.664549 0.104974
0.151033 0.807884 0.151694
0.194161 0.807152 0.151437
0.237303 0.806263 0.151135
0.280299 0.804783 0.150725
0.323205 0.802746 0.149970
0.366484 0.800947 0.149681
0.389205 0.799749 0.157973
0.445808 0.796772 0.161376
0.569892 0.789771 0.120381
0.665962 0.786462 0.146645
0.735472 0.768889 0.175997
0.796718 0.747429 0.169291
0.854224 0.749507 0.159678
0.897967 0.745189 0.150053
0.941322 0.739875 0.138940
0.988476 0.735743 0.131939
0.150552 0.849716 0.151234
0.193890 0.849761 0.151253
0.237244 0.849858 0.151273
0.280616 0.849981 0.151322
0.324006 0.850131 0.151338
0.368069 0.850144 0.150811
0.404973 0.851777 0.158850
0.405618 0.853205 0.161364
0.538393 0.851312 0.158262
0.643239 0.849443 0.110673
0.726785 0.846890 0.167785
0.794192 0.831606 0.189846
0.852820 0.813271 0.187813
0.896920 0.807939 0.181244
0.939663 0.801300 0.173878
0.986907 0.797408 0.168398
0.150539 0.892995 0.151210
0.193872 0.892995 0.151210
0.237206 0.892995 0.151210
0.280539 0.892996 0.151211
0.323873 0.892999 0.151208
0.367486 0.892892 0.150823
0.410069 0.893871 0.154533
0.409542 0.895764 0.160493
0.516802 0.895479 0.164493
0.623004 0.894708 0.126459
0.711552 0.893560 0.142831
0.791231 0.892263 0.189006
0.846148 0.867070 0.191016
0.897752 0.867138 0.193150
0.940043 0.867096 0.192972
0.986906 0.862675 0.190530
0.150539 0.936328 0.151210
0.193872 0.936328 0.151210
0.237206 0.936328 0.151210
0.280539 0.936328 0.151210
0.323872 0.936328 0.151210
0.367300 0.936257 0.151043
0.411698 0.936604 0.151687
0.428350 0.938448 0.161529
0.493260 0.939162 0.164683
0.603631 0.938036 0.146713
0.699262 0.937071 0.119093
0.779495 0.936123 0.178387
0.841553 0.922463 0.191699
0.896919 0.908057 0.191662
0.940149 0.909892 0.192170
0.987015 0.909397 0.192225
0.155769 0.990000 0.155256
0.199091 0.990001 0.155268
0.242202 0.990003 0.155278
0.284293 0.990005 0.155304
0.324178 0.990005 0.155359
0.361784 0.989987 0.155347
0.398935 0.990248 0.155364
0.404297 0.991948 0.163093
0.443477 0.993004 0.164968
0.577615 0.991839 0.156210
0.682675 0.990841 0.119769
0.767514 0.989345 0.175971
0.836134 0.981216 0.197351
0.895577 0.962354 0.197052
0.940118 0.964390 0.197936
0.986967 0.963705 0.197905
-0.055043 -0.122255 0.064978
-0.011602 -0.122271 0.062977
0.032174 -0.122312 0.064230
0.170576 -0.122446 0.063155
0.310645 -0.122395 0.055511
0.424755 -0.122329 0.053107
0.515062 -0.122413 0.053373
0.591544 -0.122131 0.051429
0.666928 -0.120703 0.050977
0.732648 -0.117464 0.055932
0.772347 -0.116681 0.056783
0.813603 -0.115074 0.047077
0.855424 -0.111251 0.039487
0.897774 -0.106900 0.037333
0.940465 -0.105338 0.037020
0.987413 -0.105429 0.036925
0.003067 0.055335 0.116388
0.038293 0.053332 0.114307
0.071841 0.050975 0.113324
0.177992 0.037910 0.111889
0.302780 0.046797 0.107167
0.413984 0.053268 0.106678
0.503683 0.058379 0.109026
0.580016 0.069532 0.109326
0.655379 0.079340 0.109344
0.724627 0.091933 0.110523
0.767483 0.092429 0.109534
0.810678 0.092540 0.108804
0.854006 0.092689 0.108307
0.897362 0.092725 0.108158
0.940401 0.092725 0.108196
0.987397 0.092620 0.108206
0.003067 0.105356 0.111767
0.038488 0.103402 0.109899
0.072423 0.101497 0.109230
0.178524 0.097184 0.104550
0.297403 0.099139 0.098871
0.405999 0.103202 0.100959
0.495577 0.107131 0.102426
0.573409 0.115157 0.104710
0.649158 0.120417 0.106091
0.722821 0.133515 0.107171
0.767701 0.134873 0.107524
0.810674 0.135070 0.107686
0.854017 0.135344 0.107891
0.897362 0.135536 0.108012
0.940411 0.135668 0.108075
0.987383 0.135619 0.108097
-0.006044 0.170609 0.108603
0.035879 0.168510 0.106904
0.073474 0.165544 0.104795
0.114235 0.161554 0.101828
0.300838 0.167822 0.092871
0.399866 0.171219 0.096712
0.487757 0.176503 0.097882
0.565237 0.181149 0.102234
0.641152 0.186043 0.106935
0.718766 0.191686 0.113302
0.768641 0.190101 0.114832
0.810930 0.185797 0.112168
0.854193 0.183692 0.110861
0.897448 0.181693 0.109649
0.940421 0.180586 0.109033
0.987357 0.180136 0.108830
0.026958 0.248213 0.109311
0.069561 0.246497 0.108557
0.111455 0.243153 0.107040
0.158351 0.243658 0.105055
0.240308 0.230457 0.107604
0.389601 0.238428 0.092827
0.479024 0.239600 0.096198
0.557354 0.243870 0.101153
0.632098 0.247842 0.104555
0.713090 0.256280 0.111969
0.770015 0.256441 0.115477
0.811908 0.253031 0.115925
0.855131 0.251149 0.116330
0.898445 0.248549 0.116579
0.941367 0.246317 0.116667
0.988393 0.245143 0.116678
0.052435 0.333388 0.124275
0.094730 0.331618 0.123578
0.135047 0.327955 0.122106
0.186572 0.325823 0.120427
0.231091 0.326843 0.123409
0.355143 0.313818 0.121408
0.471202 0.314368 0.103702
0.550650 0.309773 0.104050
0.625220 0.312460 0.108234
0.703124 0.316641 0.111455
0.770200 0.317938 0.113857
0.812152 0.314139 0.113269
0.855350 0.311913 0.113215
0.898645 0.309389 0.113244
0.941633 0.307212 0.113606
0.988670 0.305965 0.113812
0.079082 0.423279 0.141617
0.121502 0.421703 0.141030
0.162973 0.419062 0.140035
0.207053 0.415509 0.138559
0.260366 0.414553 0.144623
0.344699 0.409339 0.130942
0.445236 0.389711 0.136764
0.544525 0.392856 0.112445
0.618065 0.383868 0.112422
0.692882 0.383185 0.116033
0.768238 0.384194 0.118553
0.812775 0.379703 0.117644
0.855679 0.376146 0.116676
0.898969 0.372466 0.115872
0.941943 0.369025 0.115104
0.989051 0.367089 0.114840
0.103618 0.510834 0.158231
0.146218 0.509436 0.157700
0.188409 0.507367 0.156913
0.228239 0.503000 0.154915
0.284922 0.501601 0.159398
0.307036 0.499488 0.162237
0.458329 0.486911 0.144383
0.528494 0.462379 0.145647
0.612939 0.473192 0.123897
0.684639 0.463313 0.121142
0.761769 0.455795 0.123203
0.813342 0.451454 0.123609
0.855728 0.446592 0.122807
0.899061 0.441509 0.121973
0.942076 0.436475 0.121096
0.989180 0.433575 0.120557
0.121386 0.591228 0.169563
0.164232 0.590059 0.169258
0.206963 0.588643 0.168853
0.248498 0.585689 0.167776
0.296408 0.581889 0.169076
0.332432 0.579888 0.176771
0.412819 0.575181 0.158162
0.535735 0.557513 0.162347
0.602377 0.538993 0.161286
0.679070 0.548892 0.137549
0.752875 0.540847 0.131649
0.814251 0.530558 0.131695
0.856237 0.522663 0.129640
0.899402 0.515822 0.127972
0.942374 0.508950 0.126256
0.989358 0.504793 0.125335
0.133768 0.665281 0.178339
0.176720 0.664228 0.178047
0.219546 0.662903 0.177651
0.261878 0.660522 0.176855
0.304649 0.657692 0.175867
0.351663 0.655529 0.183814
0.344956 0.652298 0.188410
0.522053 0.645257 0.144582
0.605836 0.628612 0.183283
0.667708 0.609395 0.178646
0.744050 0.619979 0.152148
0.812963 0.615564 0.143750
0.856446 0.606957 0.142227
0.899480 0.598437 0.139465
0.942510 0.589362 0.136634
0.989527 0.583772 0.134993
0.144059 0.738263 0.187421
0.187055 0.737178 0.187090
0.229985 0.736009 0.186707
0.272671 0.733941 0.186059
0.314920 0.730989 0.184775
0.360007 0.729035 0.186936
0.362587 0.726875 0.195892
0.479436 0.719907 0.180863
0.600416 0.714843 0.165592
0.672231 0.698855 0.203288
0.731999 0.677663 0.194015
0.806471 0.688997 0.172411
0.856134 0.684774 0.161832
0.899051 0.677837 0.154769
0.942276 0.669610 0.150349
0.989439 0.664227 0.148191
0.150959 0.807594 0.194927
0.194113 0.806848 0.194676
0.237225 0.805911 0.194385
0.280241 0.804588 0.193991
0.323097 0.802504 0.193207
0.366415 0.800431 0.192827
0.390114 0.799499 0.201066
0.443753 0.796452 0.204687
0.569019 0.789380 0.164439
0.665546 0.786021 0.189377
0.735120 0.768456 0.219044
0.796387 0.747055 0.212297
0.854253 0.749207 0.202538
0.897998 0.744952 0.192772
0.941327 0.739615 0.181649
0.988480 0.735572 0.174827
0.150556 0.849741 0.194582
0.193901 0.849807 0.194589
0.237249 0.849880 0.194609
0.280627 0.850024 0.194658
0.324011 0.850116 0.194685
0.368048 0.850100 0.194146
0.405472 0.851689 0.201985
0.404271 0.853193 0.204489
0.537594 0.851156 0.201856
0.642618 0.849353 0.153965
0.726378 0.846723 0.210665
0.794087 0.831393 0.233037
0.852726 0.812951 0.230889
0.896933 0.807676 0.224235
0.939678 0.801044 0.216847
0.986912 0.797125 0.211381
0.150539 0.892995 0.194544
0.193872 0.892995 0.194544
0.237206 0.892995 0.194544
0.280539 0.892996 0.194544
0.323873 0.893003 0.194542
0.367483 0.892910 0.194167
0.410206 0.893790 0.197685
0.410504 0.895764 0.203889
0.515715 0.895526 0.207942
0.622225 0.894750 0.170808
0.711076 0.893498 0.185147
0.790850 0.892351 0.232105
0.845982 0.867421 0.234408
0.897777 0.867012 0.236446
0.940029 0.866722 0.236121
0.986899 0.862259 0.233646
0.150539 0.936328 0.194544
0.193872 0.936328 0.194544
0.237206 0.936328 0.194544
0.280539 0.936328 0.194544
0.323872 0.936328 0.194544
0.367299 0.936262 0.194382
0.411657 0.936616 0.195045
0.428823 0.938419 0.204841
0.492343 0.939192 0.207991
0.603019 0.938104 0.190830
0.698893 0.937118 0.161434
0.779065 0.936108 0.221271
0.841543 0.922831 0.235068
0.896833 0.908009 0.234995
0.940165 0.909935 0.235497
0.987018 0.909422 0.235579
0.155660 0.989986 0.197330
0.198962 0.989995 0.197317
0.242107 0.990014 0.197218
0.284348 0.989998 0.197025
0.324436 0.990005 0.197029
0.361981 0.989991 0.197362
0.398843 0.990236 0.197831
0.404142 0.991953 0.205929
0.440893 0.993044 0.207720
0.576872 0.991890 0.199729
0.682159 0.990892 0.162267
0.767070 0.989377 0.218746
0.836092 0.981444 0.240577
0.895406 0.962292 0.240206
0.940117 0.964427 0.241195
0.986955 0.963754 0.241147
-0.054248 -0.120736 0.195263
-0.010345 -0.120942 0.194885
0.035521 -0.121488 0.196474
0.154436 -0.122451 0.202274
0.301176 -0.122428 0.208025
0.421712 -0.122358 0.193618
0.515263 -0.122468 0.178117
0.592893 -0.122854 0.164833
0.667983 -0.122852 0.144044
0.732940 -0.121119 0.150424
0.772756 -0.119956 0.144342
0.813890 -0.118073 0.100708
0.855638 -0.114038 0.089168
0.897950 -0.109430 0.085698
0.940569 -0.107530 0.084602
0.987464 -0.107455 0.084149
0.012298 0.072451 0.194418
0.054393 0.069849 0.192489
0.104741 0.063572 0.192390
0.170915 0.036161 0.197738
0.291697 0.038982 0.203225
0.409913 0.052522 0.190491
0.504509 0.056310 0.179277
0.581712 0.058363 0.172953
0.656464 0.063230 0.168128
0.724734 0.078393 0.168327
0.767682 0.082076 0.165389
0.810792 0.083816 0.163731
0.854047 0.085205 0.162470
0.897354 0.086696 0.161054
0.940407 0.087911 0.159838
0.987376 0.088379 0.159278
0.011549 0.126457 0.191399
0.053124 0.124575 0.189262
0.102858 0.120621 0.186764
0.152205 0.102746 0.187613
0.278321 0.076752 0.187160
0.397732 0.079275 0.173987
0.496437 0.081234 0.164295
0.575684 0.093060 0.161965
0.649846 0.103834 0.162965
0.722275 0.123951 0.162980
0.767758 0.128278 0.161181
0.810639 0.130005 0.159782
0.854007 0.131064 0.158852
0.897361 0.132033 0.157656
0.940404 0.132762 0.156730
0.987403 0.132978 0.156367
0.004770 0.178872 0.185499
0.040324 0.176938 0.183471
0.078704 0.174689 0.181280
0.139773 0.173814 0.181292
0.271996 0.163489 0.171720
0.389743 0.165673 0.162046
0.486226 0.171977 0.160634
0.566048 0.176386 0.160150
0.641995 0.181703 0.162179
0.718564 0.187515 0.164494
0.768211 0.185874 0.161984
0.810711 0.182654 0.158427
0.853958 0.181511 0.157004
0.897294 0.180681 0.155800
0.940314 0.180324 0.155268
0.987347 0.180293 0.155286
0.009184 0.251270 0.181262
0.052015 0.249549 0.179478
0.081688 0.245759 0.175411
0.141573 0.244501 0.177223
0.242314 0.236092 0.172019
0.385591 0.239833 0.155618
0.476147 0.242220 0.153867
0.556560 0.246188 0.154546
0.631403 0.249465 0.155349
0.712469 0.256889 0.160517
0.770015 0.256175 0.160717
0.811924 0.252069 0.159044
0.855207 0.250385 0.159610
0.898453 0.248277 0.159883
0.941392 0.246657 0.160024
0.988395 0.245862 0.160063
0.046237 0.335306 0.169432
0.088888 0.333338 0.168245
0.130021 0.329303 0.165790
0.181852 0.327446 0.164227
0.226419 0.325767 0.166782
0.351821 0.312091 0.169950
0.469514 0.313301 0.150955
0.549545 0.308617 0.148396
0.624640 0.311087 0.150840
0.702548 0.315211 0.153903
0.770192 0.316894 0.156801
0.812088 0.313289 0.156514
0.855361 0.311222 0.156588
0.898643 0.309025 0.156670
0.941620 0.307182 0.156921
0.988661 0.306157 0.157082
0.077162 0.423879 0.180130
0.119719 0.422004 0.179963
0.161562 0.418878 0.179982
0.204799 0.414576 0.179595
0.260383 0.413406 0.186753
0.340032 0.408098 0.174108
0.444022 0.388822 0.179672
0.543802 0.391348 0.155146
0.617496 0.382416 0.155395
0.692365 0.381884 0.159073
0.768045 0.383079 0.161574
0.812758 0.378750 0.160704
0.855705 0.375409 0.159823
0.898962 0.372058 0.159090
0.941959 0.368988 0.158385
0.989033 0.367255 0.158138
0.103077 0.509545 0.201322
0.145623 0.508064 0.200747
0.187767 0.505980 0.199912
0.227805 0.502027 0.198016
0.284002 0.500461 0.201918
