src/luts/vivid/7.cube
LUT_3D_SIZE 6
-0.002343 -0.001140 0.000680
0.216197 0.007449 0.004846
0.508124 0.025671 0.014789
0.726081 0.050133 0.021779
0.854023 0.049373 0.021561
0.987395 0.049280 0.021561
0.007263 0.168826 0.011142
0.109545 0.161154 0.009466
0.488544 0.178132 0.010577
0.719200 0.194178 0.027476
0.854194 0.185298 0.025075
0.987359 0.179901 0.022129
0.080047 0.424913 0.055551
0.208879 0.416933 0.052401
0.446464 0.390509 0.050365
0.693443 0.384526 0.029659
0.855683 0.377012 0.030257
0.989038 0.367481 0.028290
0.134057 0.666127 0.091889
0.262102 0.661158 0.090363
0.346550 0.652871 0.101618
0.668201 0.610058 0.092370
0.856439 0.608108 0.055989
0.989558 0.584638 0.048596
0.150543 0.849673 0.107890
0.280608 0.849971 0.107979
0.404638 0.851760 0.115628
0.643571 0.849557 0.067363
0.852911 0.813583 0.144691
0.986935 0.797613 0.125375
0.155796 0.990007 0.112187
0.283805 0.990005 0.112184
0.398965 0.990164 0.112134
0.578269 0.991833 0.112418
0.836177 0.980994 0.154054
0.986966 0.963704 0.154574
-0.054248 -0.120736 0.195263
0.154436 -0.122451 0.202274
0.515263 -0.122468 0.178117
0.732940 -0.121119 0.150424
0.855638 -0.114038 0.089168
0.987464 -0.107455 0.084149
0.004770 0.178872 0.185499
0.139773 0.173814 0.181292
0.486226 0.171977 0.160634
0.718564 0.187515 0.164494
0.853958 0.181511 0.157004
0.987347 0.180293 0.155286
0.077162 0.423879 0.180130
0.204799 0.414576 0.179595
0.444022 0.388822 0.179672
0.692365 0.381884 0.159073
0.855705 0.375409 0.159823
0.989033 0.367255 0.158138
0.133480 0.664491 0.221461
0.261695 0.659999 0.220033
0.345598 0.651668 0.231565
0.667315 0.608884 0.221691
0.856480 0.606208 0.185299
0.989531 0.583542 0.178256
0.150563 0.849788 0.237918
0.280628 0.850057 0.237998
0.405990 0.851687 0.245157
0.642036 0.849193 0.197265
0.852550 0.812560 0.273896
0.986902 0.796926 0.254380
0.155286 0.989859 0.236981
0.284073 0.989989 0.236391
0.398478 0.990202 0.236542
0.576825 0.991916 0.239891
0.836062 0.981690 0.283071
0.986921 0.963828 0.284045
0.026765 -0.074047 0.482510
0.207298 -0.096075 0.478088
0.508056 -0.121925 0.490027
0.729119 -0.120553 0.481168
0.853036 -0.115219 0.460816
0.985435 -0.109996 0.436997
0.051008 0.261255 0.461648
0.212806 0.259138 0.459959
0.481294 0.173268 0.460833
0.715639 0.172102 0.442303
0.852594 0.161667 0.425399
0.986201 0.159320 0.404940
0.021419 0.435575 0.444672
0.116582 0.427440 0.436427
0.434848 0.425810 0.429076
0.692738 0.407490 0.400822
0.855755 0.402503 0.390114
0.989140 0.400022 0.387225
0.094467 0.662996 0.413449
0.226712 0.658404 0.404395
0.356678 0.652114 0.380660
0.664520 0.617937 0.398819
0.856550 0.605456 0.352969
0.989563 0.590027 0.350149
0.141850 0.851094 0.346582
0.273821 0.850948 0.346332
0.400415 0.851722 0.352974
0.636729 0.848356 0.326827
0.851612 0.810169 0.402165
0.986992 0.797234 0.386991
0.150775 0.989058 0.310902
0.279878 0.989210 0.317242
0.392700 0.991033 0.304751
0.582722 0.991864 0.317483
0.837040 0.981637 0.391083
0.987204 0.963552 0.395659
0.094521 0.112381 0.705629
0.261524 0.109929 0.712481
0.506996 -0.118934 0.731520
0.731521 -0.117540 0.733557
0.856321 -0.114504 0.725938
0.987191 -0.110259 0.700537
0.103790 0.313191 0.702675
0.263628 0.313980 0.703807
0.452265 0.187640 0.708227
0.716150 0.181994 0.712679
0.854055 0.174786 0.696433
0.986289 0.172207 0.672291
0.101867 0.486695 0.695846
0.222952 0.480265 0.689878
0.474404 0.486670 0.681830
0.692004 0.415853 0.685070
0.854711 0.404025 0.664488
0.988115 0.398838 0.642861
0.073459 0.665716 0.677121
0.199781 0.661318 0.672351
0.415337 0.652787 0.662646
0.662279 0.650694 0.656611
0.857207 0.636863 0.639615
0.990075 0.634926 0.637507
0.068357 0.854214 0.633459
0.197468 0.854039 0.628526
0.359805 0.853386 0.621396
0.637297 0.852486 0.623055
0.853295 0.835032 0.639426
0.989157 0.827687 0.635076
0.084442 0.991163 0.587141
0.213832 0.991362 0.581192
0.223608 0.992814 0.572937
0.610318 0.994139 0.586749
0.844041 0.990459 0.616495
0.989094 0.980486 0.610063
0.096536 0.110924 0.829054
0.260213 0.109203 0.836106
0.493142 -0.120317 0.857196
0.725773 -0.118813 0.860932
0.855325 -0.118529 0.860183
0.987913 -0.117577 0.860067
0.105359 0.311734 0.835987
0.261855 0.312927 0.838647
0.424124 0.197402 0.843850
0.705751 0.180114 0.856771
0.854658 0.179522 0.857263
0.988523 0.179879 0.857000
0.120098 0.491694 0.847728
0.245678 0.487936 0.847122
0.483892 0.500009 0.844566
0.681709 0.416421 0.857126
0.855056 0.405624 0.857339
0.988832 0.403554 0.856998
0.111482 0.668700 0.855031
0.242589 0.666147 0.854795
0.448245 0.670502 0.853927
0.673083 0.675765 0.848775
0.857091 0.643645 0.857510
0.989911 0.640947 0.855580
0.119160 0.856921 0.857573
0.248875 0.856712 0.857444
0.394976 0.855425 0.856445
0.651667 0.853516 0.854500
0.854819 0.850525 0.851993
0.990729 0.846805 0.851290
0.114790 0.995112 0.848615
0.241842 0.995222 0.845041
0.357665 0.996467 0.838566
0.631525 0.996144 0.837511
0.849110 0.997971 0.847375
0.991970 0.997892 0.846421
0.094822 0.110605 0.955222
0.255659 0.109765 0.961185
0.466139 -0.120129 0.980821
0.711003 -0.119683 0.986762
0.855587 -0.119475 0.987163
0.988207 -0.119587 0.986906
0.104191 0.308285 0.964908
0.260777 0.312051 0.968276
0.399988 0.216862 0.967505
0.687868 0.179273 0.986169
0.854633 0.179432 0.987264
0.988495 0.180152 0.986988
0.119234 0.486235 0.976773
0.244991 0.483208 0.976255
0.482896 0.499172 0.974595
0.671390 0.417144 0.986853
0.855386 0.405860 0.987352
0.988803 0.401140 0.986850
0.115210 0.660370 0.984091
0.245770 0.658230 0.983783
0.452606 0.665727 0.983025
0.672885 0.675275 0.978954
0.857009 0.643814 0.987797
0.989929 0.640751 0.987538
0.115963 0.853221 0.988053
0.244645 0.851679 0.987891
0.399248 0.845710 0.987567
0.654396 0.844940 0.987433
0.853654 0.849677 0.987665
0.990636 0.847108 0.988154
0.118742 0.986012 0.988071
0.248718 0.986013 0.988067
0.378854 0.986103 0.988097
0.642976 0.986133 0.988128
0.851243 0.987760 0.988337
0.991926 0.987884 0.988395
