src/luts/vivid/8.cube
LUT_3D_SIZE 6
-0.034110 -0.034370 -0.031890
0.214925 -0.021755 -0.024440
0.455180 0.027735 0.015097
0.723887 0.061812 0.027946
0.849620 0.060519 0.027674
0.979620 0.060519 0.027674
-0.026137 0.182661 -0.011985
0.196158 0.182520 -0.019558
0.435112 0.194129 -0.008031
0.698770 0.218115 0.032544
0.850204 0.212343 0.033994
0.979704 0.203753 0.029786
0.045284 0.393831 0.045548
0.185054 0.387937 0.043213
0.394735 0.376025 0.040504
0.660047 0.383636 0.032112
0.851665 0.388259 0.035717
0.981580 0.381651 0.034566
0.102958 0.654343 0.092015
0.239620 0.649140 0.090569
0.354806 0.640243 0.096338
0.621587 0.595877 0.082104
0.853426 0.600672 0.054845
0.982218 0.572326 0.047407
0.121948 0.847434 0.108446
0.259823 0.847434 0.108446
0.377944 0.849530 0.115660
0.584306 0.850603 0.096586
0.843087 0.828403 0.146566
0.979215 0.800691 0.120048
0.127015 0.992728 0.112580
0.262918 0.992691 0.112547
0.380196 0.992909 0.113373
0.506670 0.994969 0.121248
0.822064 0.988746 0.144612
0.979082 0.968020 0.149492
-0.052529 -0.123556 0.179386
0.180657 -0.126029 0.191214
0.458211 -0.124314 0.171594
0.732064 -0.119586 0.167957
0.852561 -0.114033 0.114687
0.979665 -0.105921 0.094481
-0.029260 0.188569 0.184539
0.185069 0.186615 0.181342
0.432289 0.187862 0.169982
0.702564 0.203553 0.173728
0.849501 0.199471 0.168516
0.979523 0.198980 0.167866
0.043381 0.392386 0.182451
0.180972 0.386036 0.181198
0.393489 0.374805 0.179434
0.659962 0.381154 0.171998
0.851594 0.385738 0.175247
0.981498 0.379938 0.174470
0.102333 0.652496 0.229443
0.239699 0.649170 0.228588
0.348734 0.639826 0.235114
0.620419 0.594573 0.219474
0.853483 0.596896 0.192661
0.982214 0.569503 0.185904
0.121948 0.847434 0.245890
0.259823 0.847434 0.245890
0.384069 0.849296 0.252003
0.579342 0.850888 0.237670
0.842567 0.828283 0.282930
0.979342 0.799200 0.254787
0.126851 0.992616 0.248269
0.263635 0.992678 0.247541
0.381307 0.992824 0.247927
0.504460 0.995095 0.257893
0.819991 0.989134 0.279971
0.979012 0.968159 0.285867
-0.028637 -0.087083 0.432529
0.186632 -0.112756 0.436115
0.449637 -0.123978 0.446573
0.725902 -0.120571 0.454736
0.850317 -0.117227 0.434194
0.978204 -0.111235 0.405063
0.031459 0.250586 0.413900
0.195317 0.244720 0.411271
0.422991 0.184735 0.419202
0.698266 0.185463 0.414149
0.848352 0.178955 0.399208
0.979503 0.176060 0.374888
-0.016373 0.401335 0.394935
0.147642 0.395783 0.389655
0.376578 0.396142 0.387168
0.661384 0.397370 0.367716
0.851915 0.402572 0.365575
0.981915 0.400408 0.362806
0.083376 0.650320 0.384019
0.223906 0.646671 0.377820
0.346806 0.641035 0.355660
0.616146 0.601000 0.376878
0.853525 0.591962 0.338029
0.982233 0.572695 0.335442
0.116897 0.848285 0.358346
0.256601 0.847931 0.358635
0.388131 0.848654 0.373073
0.571266 0.851215 0.372696
0.840883 0.826913 0.412041
0.979510 0.797784 0.382106
0.124961 0.991468 0.347945
0.262403 0.991885 0.352387
0.381215 0.992770 0.349994
0.507037 0.995026 0.362330
0.818780 0.989263 0.392616
0.979360 0.968143 0.404369
0.076537 0.140680 0.705333
0.251603 0.132716 0.712198
0.461114 -0.116291 0.731477
0.726832 -0.114810 0.730121
0.853236 -0.112913 0.711716
0.978091 -0.108750 0.683475
0.085404 0.336616 0.702968
0.254429 0.335748 0.706290
0.386170 0.228414 0.688537
0.694101 0.195129 0.693352
0.848725 0.195732 0.683130
0.977277 0.191910 0.660833
0.070044 0.478766 0.668426
0.205751 0.473868 0.664836
0.417656 0.471705 0.657564
0.661432 0.400706 0.663420
0.850412 0.394739 0.643454
0.980256 0.388105 0.610439
0.051906 0.652542 0.645859
0.190482 0.648791 0.641876
0.367917 0.637850 0.628115
0.610371 0.630679 0.623199
0.854739 0.619188 0.597224
0.983049 0.616053 0.593874
0.068808 0.850295 0.604533
0.212283 0.850385 0.598799
0.340544 0.850939 0.588563
0.570582 0.853153 0.569344
0.844980 0.839250 0.607773
0.980706 0.820076 0.594818
0.089010 0.992569 0.554561
0.227583 0.992814 0.546077
0.344226 0.994624 0.533454
0.535136 0.996478 0.528074
0.818017 0.995479 0.568717
0.980438 0.979030 0.577821
0.080279 0.139371 0.828058
0.253214 0.133143 0.835589
0.447365 -0.117414 0.854080
0.720903 -0.115853 0.861076
0.853981 -0.114942 0.860414
0.980839 -0.112953 0.859852
0.085578 0.335518 0.834051
0.249655 0.332915 0.835875
0.377905 0.247274 0.832506
0.690199 0.196759 0.854365
0.851073 0.201737 0.855110
0.981078 0.202205 0.855106
0.092757 0.499262 0.843793
0.228678 0.495595 0.842794
0.435948 0.496948 0.840878
0.662747 0.406909 0.854669
0.851430 0.400248 0.854852
0.981358 0.398532 0.854854
0.089449 0.675829 0.852441
0.228770 0.672755 0.852015
0.411895 0.671695 0.850819
0.632716 0.670176 0.845987
0.854752 0.626214 0.855994
0.982662 0.620573 0.848713
0.093464 0.854870 0.856258
0.232234 0.855108 0.856064
0.356812 0.855833 0.854119
0.596240 0.855782 0.847793
0.840008 0.854336 0.842705
0.984600 0.850597 0.840475
0.088698 0.997432 0.834246
0.223339 0.997609 0.829649
0.330968 0.999347 0.821649
0.568781 0.998943 0.816628
0.824790 1.000865 0.831033
0.985068 0.999559 0.831754
0.078001 0.138979 0.952157
0.250220 0.135141 0.959561
0.397865 -0.113141 0.969046
0.693573 -0.117202 0.984160
0.853024 -0.116265 0.985007
0.980661 -0.116454 0.984988
0.085032 0.332958 0.963131
0.248253 0.332093 0.965655
0.384093 0.270235 0.960647
0.668723 0.197009 0.983759
0.851080 0.201626 0.985112
0.981088 0.202461 0.985107
0.092017 0.494611 0.972480
0.227636 0.491452 0.971395
0.435266 0.496442 0.970899
0.640389 0.407316 0.983337
0.852190 0.401542 0.984897
0.981369 0.396840 0.984821
0.091062 0.665004 0.980918
0.230143 0.662027 0.980448
0.417042 0.664788 0.979491
0.632304 0.669314 0.976157
0.850822 0.625798 0.985871
0.982631 0.620835 0.985717
0.093396 0.855942 0.986141
0.231692 0.855467 0.986067
0.368426 0.852595 0.986072
0.600820 0.847400 0.985563
0.840850 0.853989 0.986077
0.984656 0.850222 0.986314
0.093222 0.987341 0.986032
0.231942 0.987343 0.986027
0.357888 0.987363 0.986009
0.588088 0.986876 0.986022
0.833312 0.988573 0.986264
0.985367 0.988942 0.986446
