src/luts/vivid/8.cube
LUT_3D_SIZE 16
-0.034110 -0.034370 -0.031890
0.056378 -0.033790 -0.031144
0.132217 -0.029510 -0.026468
0.214925 -0.021755 -0.024440
0.288970 -0.015647 -0.020002
0.369968 0.018636 -0.011624
0.455180 0.027735 0.015097
0.547132 0.040582 0.021138
0.627100 0.044708 0.024859
0.723887 0.061812 0.027946
0.762998 0.060542 0.027681
0.806287 0.060519 0.027674
0.849620 0.060519 0.027674
0.892953 0.060519 0.027674
0.936287 0.060519 0.027674
0.979620 0.060519 0.027674
-0.033889 0.058385 -0.031626
0.051987 0.057943 -0.031437
0.126439 0.063889 -0.026827
0.209214 0.069511 -0.024936
0.283864 0.072970 -0.020910
0.364428 0.079622 -0.013511
0.449932 0.085896 0.014050
0.543632 0.096448 0.020725
0.622890 0.100286 0.024821
0.721911 0.116244 0.027597
0.763331 0.115967 0.027719
0.806287 0.115880 0.027674
0.849620 0.115880 0.027674
0.892953 0.115880 0.027674
0.936287 0.115880 0.027674
0.979620 0.115880 0.027674
-0.031797 0.119953 -0.024833
0.053968 0.118752 -0.025482
0.119001 0.119815 -0.024541
0.215076 0.127970 -0.024686
0.288003 0.130553 -0.022400
0.359514 0.131926 -0.013204
0.441969 0.135769 0.012022
0.534709 0.139596 0.018929
0.614611 0.144251 0.023520
0.711172 0.154125 0.025917
0.763986 0.156476 0.026932
0.806201 0.156610 0.026842
0.849561 0.157042 0.026997
0.892916 0.157397 0.027149
0.936243 0.157684 0.027289
0.979591 0.157857 0.027382
-0.026137 0.182661 -0.011985
0.063032 0.181718 -0.013166
0.100929 0.180520 -0.011864
0.196158 0.182520 -0.019558
0.285523 0.187731 -0.022056
0.357738 0.190021 -0.015682
0.435112 0.194129 -0.008031
0.521750 0.201069 0.015462
0.605969 0.208754 0.024512
0.698770 0.218115 0.032544
0.766212 0.221728 0.037034
0.807125 0.215987 0.035377
0.850204 0.212343 0.033994
0.893384 0.209069 0.032577
0.936526 0.205861 0.031034
0.979704 0.203753 0.029786
0.011752 0.248457 0.020845
0.074611 0.247651 0.020479
0.111584 0.245242 0.019446
0.161259 0.245698 0.019464
0.263524 0.244629 0.013540
0.349331 0.248999 -0.006646
0.427777 0.252126 0.006379
0.510036 0.257317 0.014155
0.598293 0.265641 0.023570
0.684567 0.272773 0.027679
0.767846 0.280898 0.035407
0.807965 0.277895 0.035420
0.851216 0.276546 0.035783
0.894488 0.274942 0.036088
0.937808 0.272831 0.036379
0.981025 0.271188 0.036567
0.029396 0.317820 0.031493
0.085618 0.317005 0.031181
0.126234 0.314901 0.030275
0.177946 0.317731 0.031295
0.235029 0.312979 0.030422
0.327257 0.308583 0.028153
0.417179 0.313544 0.019678
0.499294 0.313898 0.019248
0.589833 0.321406 0.025704
0.670376 0.326940 0.029259
0.765826 0.335540 0.034134
0.808415 0.333300 0.034051
0.851326 0.331604 0.033888
0.894607 0.330047 0.033900
0.937902 0.328226 0.033991
0.981212 0.326731 0.034258
0.045284 0.393831 0.045548
0.099584 0.392733 0.045064
0.140720 0.390306 0.043997
0.185054 0.387937 0.043213
0.236102 0.390143 0.045325
0.318105 0.380798 0.043372
0.394735 0.376025 0.040504
0.489052 0.379350 0.027617
0.576781 0.378718 0.027560
0.660047 0.383636 0.032112
0.755304 0.391270 0.035864
0.809661 0.390813 0.036286
0.851665 0.388259 0.035717
0.894946 0.386122 0.035325
0.938206 0.383692 0.034893
0.981580 0.381651 0.034566
0.065076 0.478935 0.062250
0.118250 0.477479 0.061693
0.159704 0.475234 0.060805
0.200306 0.471433 0.058970
0.253344 0.472172 0.064758
0.304470 0.469502 0.057335
0.399354 0.455903 0.055196
0.466030 0.443086 0.051410
0.564176 0.451654 0.035382
0.651835 0.449592 0.035515
0.739083 0.451470 0.038548
0.811032 0.452876 0.040819
0.851923 0.448735 0.039884
0.895158 0.445701 0.039042
0.938454 0.442157 0.038092
0.981733 0.438964 0.037259
0.088211 0.572307 0.081331
0.140661 0.570945 0.080923
0.182438 0.568928 0.080296
0.223854 0.565361 0.078861
0.272055 0.561889 0.080442
0.305277 0.561024 0.085603
0.378171 0.553735 0.069121
0.476665 0.533330 0.068141
0.545939 0.516962 0.062753
0.640328 0.531336 0.049244
0.724334 0.527838 0.044393
0.809546 0.523141 0.045447
0.852367 0.516774 0.044449
0.895334 0.511204 0.043217
0.938573 0.506134 0.042444
0.981823 0.501315 0.041648
0.102958 0.654343 0.092015
0.155117 0.653072 0.091660
0.197186 0.651442 0.091226
0.239620 0.649140 0.090569
0.281814 0.645985 0.089157
0.325693 0.643462 0.097597
0.354806 0.640243 0.096338
0.460647 0.632988 0.069024
0.556675 0.617561 0.087665
0.621587 0.595877 0.082104
0.715268 0.610034 0.067422
0.803605 0.610956 0.056614
0.853426 0.600672 0.054845
0.895706 0.590521 0.052184
0.938979 0.580694 0.049565
0.982218 0.572326 0.047407
0.116127 0.738478 0.102872
0.167866 0.737314 0.102544
0.209968 0.735331 0.102004
0.252514 0.732698 0.101307
0.294743 0.728888 0.099910
0.337537 0.726622 0.103344
0.357654 0.722904 0.108408
0.432274 0.716437 0.102332
0.544344 0.705628 0.062980
0.634244 0.692709 0.108237
0.695151 0.669522 0.100078
0.787230 0.683753 0.083351
0.853849 0.686978 0.071954
0.895578 0.678445 0.067837
0.939141 0.668885 0.063270
0.982485 0.657611 0.059422
0.122546 0.806264 0.108993
0.174393 0.806325 0.109018
0.217130 0.806498 0.109068
0.260529 0.806707 0.109123
0.304001 0.806954 0.109083
0.347618 0.806173 0.108988
0.364087 0.805958 0.116499
0.428269 0.803489 0.117668
0.504563 0.798925 0.109931
0.618109 0.794375 0.074575
0.711080 0.785528 0.125223
0.775980 0.755456 0.126140
0.849286 0.751860 0.112232
0.894171 0.747662 0.099960
0.937796 0.742448 0.088000
0.981563 0.735970 0.078714
0.121948 0.847434 0.108446
0.173816 0.847434 0.108446
0.216490 0.847434 0.108446
0.259823 0.847434 0.108446
0.303178 0.847460 0.108430
0.347543 0.847418 0.107868
0.377944 0.849530 0.115660
0.411004 0.850921 0.117474
0.492549 0.850808 0.119062
0.584306 0.850603 0.096586
0.693147 0.850047 0.096046
0.780535 0.845998 0.140414
0.843087 0.828403 0.146566
0.892996 0.822792 0.144695
0.935494 0.811058 0.132972
0.979215 0.800691 0.120048
0.121948 0.890767 0.108446
0.173816 0.890767 0.108446
0.216490 0.890767 0.108446
0.259823 0.890767 0.108446
0.303157 0.890767 0.108446
0.346920 0.890678 0.108049
0.388354 0.891862 0.111941
0.402512 0.893482 0.116664
0.485598 0.893150 0.118222
0.563451 0.892969 0.109353
0.674408 0.892024 0.072689
0.765615 0.889657 0.129270
0.835043 0.877801 0.144789
0.893904 0.866601 0.144426
0.935859 0.868350 0.145050
0.979114 0.868871 0.145606
0.121948 0.933873 0.108446
0.173816 0.933873 0.108446
0.216490 0.933873 0.108446
0.259823 0.933873 0.108446
0.303156 0.933873 0.108446
0.346655 0.933821 0.108218
0.390206 0.934368 0.110180
0.402320 0.936364 0.116417
0.478448 0.936494 0.118251
0.548283 0.936253 0.115160
0.656551 0.935307 0.075764
0.752725 0.933625 0.116615
0.831324 0.926495 0.143170
0.891517 0.909146 0.143827
0.936113 0.910184 0.143941
0.979123 0.910240 0.143896
0.127015 0.992728 0.112580
0.178546 0.992724 0.112572
0.220836 0.992710 0.112561
0.262918 0.992691 0.112547
0.303939 0.992703 0.112527
0.343313 0.992629 0.112377
0.380196 0.992909 0.113373
0.376039 0.994955 0.120529
0.428950 0.995333 0.121966
0.506670 0.994969 0.121248
0.622249 0.994163 0.090789
0.732118 0.992535 0.107369
0.822064 0.988746 0.144612
0.883295 0.968575 0.148650
0.936192 0.967937 0.149546
0.979082 0.968020 0.149492
-0.055239 -0.126507 0.005307
-0.003723 -0.126496 0.004877
0.066623 -0.125994 0.006157
0.206254 -0.125186 0.006651
0.287016 -0.124668 0.007977
0.371930 -0.123643 0.009578
0.460135 -0.122901 0.012093
0.554542 -0.121005 0.014081
0.636269 -0.120073 0.016904
0.733130 -0.113968 0.029475
0.771336 -0.113987 0.059645
0.811738 -0.113075 0.026557
0.852365 -0.110133 0.009131
0.893974 -0.105702 0.003332
0.936544 -0.103402 0.002388
0.979662 -0.103228 0.002254
-0.033732 0.059483 0.058100
0.052751 0.058872 0.057731
0.124994 0.063253 0.061787
0.209038 0.069284 0.062747
0.284510 0.073226 0.065508
0.365313 0.079901 0.069011
0.451050 0.086204 0.073263
0.544564 0.096776 0.077039
0.624110 0.100669 0.079883
0.722691 0.116509 0.082130
0.763296 0.115969 0.082126
0.806287 0.115880 0.082093
0.849620 0.115880 0.082093
0.892953 0.115880 0.082093
0.936287 0.115880 0.082093
0.979620 0.115880 0.082093
-0.031828 0.119656 0.062466
0.053993 0.118477 0.061689
0.118326 0.119473 0.062474
0.214528 0.127366 0.062610
0.287262 0.129567 0.064491
0.359108 0.130898 0.069005
0.441876 0.134138 0.072536
0.535098 0.137659 0.076018
0.614972 0.142578 0.079049
0.711838 0.153988 0.080580
0.763939 0.156644 0.081543
0.806214 0.156786 0.081487
0.849574 0.157206 0.081611
0.892927 0.157526 0.081725
0.936250 0.157792 0.081826
0.979592 0.157946 0.081896
-0.026294 0.182348 0.068760
0.063055 0.181580 0.068489
0.099610 0.180276 0.068800
0.195849 0.182294 0.065811
0.285503 0.187393 0.064389
0.357633 0.189542 0.068165
0.435102 0.193601 0.070222
0.521832 0.200514 0.073859
0.606060 0.208085 0.079538
0.698948 0.216869 0.085943
0.766106 0.220355 0.089881
0.807005 0.214309 0.088068
0.850094 0.210760 0.086805
0.893316 0.207785 0.085650
0.936451 0.204790 0.084378
0.979727 0.202868 0.083405
0.011366 0.248152 0.076813
0.074601 0.247587 0.076634
0.111614 0.245101 0.075925
0.160818 0.245568 0.075835
0.263272 0.244462 0.072623
0.349262 0.248697 0.069835
0.427643 0.251732 0.070906
0.509981 0.256956 0.073230
0.598237 0.265226 0.078943
0.684545 0.272392 0.082149
0.767951 0.280564 0.088844
0.807946 0.277538 0.088874
0.851206 0.276161 0.089176
0.894467 0.274446 0.089438
0.937725 0.272347 0.089672
0.980965 0.270728 0.089832
0.029226 0.317537 0.085186
0.085591 0.316973 0.085013
0.126219 0.314785 0.084208
0.177605 0.317372 0.084985
0.234339 0.312905 0.084237
0.327057 0.308392 0.082364
0.417056 0.313254 0.076149
0.499129 0.313555 0.075905
0.589705 0.321067 0.080515
0.670298 0.326586 0.083348
0.765784 0.335229 0.087581
0.808414 0.332991 0.087512
0.851329 0.331319 0.087378
0.894632 0.329758 0.087410
0.937902 0.327954 0.087529
0.981211 0.326492 0.087761
0.045093 0.393419 0.098009
0.099573 0.392709 0.097705
0.140701 0.390150 0.096654
0.184191 0.387473 0.095689
0.235594 0.389899 0.098020
0.317557 0.380644 0.095941
0.394491 0.375820 0.093279
0.488875 0.379018 0.082006
0.576558 0.378384 0.081952
0.659998 0.383334 0.085784
0.755285 0.390982 0.089084
0.809678 0.390525 0.089477
0.851654 0.387956 0.088969
0.894920 0.385823 0.088623
0.938194 0.383427 0.088240
0.981569 0.381411 0.087966
0.064833 0.478408 0.114103
0.118257 0.477477 0.113754
0.159647 0.475072 0.112823
0.200241 0.471197 0.111031
0.253223 0.471846 0.116400
0.303744 0.469224 0.109601
0.398866 0.455747 0.107297
0.465717 0.442889 0.103639
0.563968 0.451299 0.088770
0.651658 0.449157 0.088815
0.738881 0.451046 0.091518
0.811096 0.452557 0.093616
0.851912 0.448407 0.092737
0.895149 0.445366 0.091948
0.938427 0.441860 0.091093
0.981728 0.438717 0.090349
0.088000 0.571838 0.132731
0.140682 0.571025 0.132482
0.182379 0.568768 0.131809
0.223774 0.565145 0.130396
0.271414 0.561529 0.131620
0.305528 0.560692 0.136882
0.377459 0.553499 0.121236
0.476333 0.533165 0.119838
0.545652 0.516649 0.114526
0.640042 0.530900 0.101637
0.724134 0.527405 0.097077
0.809560 0.522714 0.097979
0.852348 0.516386 0.097007
0.895318 0.510839 0.095870
0.938549 0.505806 0.095154
0.981812 0.500994 0.094398
0.102800 0.653913 0.143161
0.155139 0.653119 0.142946
0.197142 0.651267 0.142470
0.239542 0.648968 0.141820
0.281695 0.645789 0.140428
0.326091 0.643226 0.148525
0.354073 0.640018 0.147526
0.459639 0.632803 0.121437
0.556302 0.617294 0.138797
0.621330 0.595597 0.133316
0.715032 0.609700 0.119129
0.803446 0.610434 0.108755
0.853439 0.600116 0.106941
0.895694 0.589978 0.104371
0.938974 0.580200 0.101869
0.982216 0.571836 0.099812
0.116006 0.738065 0.153724
0.167917 0.737466 0.153580
0.209922 0.735159 0.152982
0.252463 0.732519 0.152293
0.294655 0.728770 0.150984
0.337851 0.726356 0.153983
0.357718 0.722685 0.159164
0.431817 0.716192 0.153438
0.543640 0.705401 0.115407
0.633883 0.692450 0.158954
0.694866 0.669291 0.150840
0.786973 0.683441 0.134702
0.853920 0.686674 0.123657
0.895605 0.678093 0.119623
0.939165 0.668408 0.115140
0.982485 0.657158 0.111424
0.122552 0.806267 0.159763
0.174395 0.806336 0.159780
0.217132 0.806481 0.159827
0.260523 0.806725 0.159883
0.303986 0.806984 0.159866
0.347809 0.805976 0.159519
0.364570 0.805844 0.166976
0.427667 0.803291 0.168139
0.504010 0.798760 0.160885
0.617536 0.794092 0.126443
0.710695 0.785264 0.175562
0.775757 0.755026 0.176129
0.849205 0.751604 0.162488
0.894167 0.747417 0.150584
0.937689 0.742267 0.139105
0.981604 0.735610 0.130123
0.121948 0.847434 0.159223
0.173816 0.847434 0.159223
0.216490 0.847434 0.159223
0.259823 0.847434 0.159223
0.303172 0.847466 0.159217
0.347502 0.847414 0.158653
0.378643 0.849464 0.166142
0.410298 0.850918 0.167947
0.492385 0.850816 0.169551
0.583601 0.850656 0.148285
0.692779 0.850053 0.146781
0.780256 0.846091 0.190333
0.843003 0.828375 0.196368
0.892958 0.822467 0.194336
0.935506 0.810680 0.182775
0.979275 0.800405 0.170079
0.121948 0.890767 0.159223
0.173816 0.890767 0.159223
0.216490 0.890767 0.159223
0.259823 0.890767 0.159223
0.303157 0.890767 0.159223
0.346871 0.890659 0.158853
0.388904 0.891784 0.162404
0.402251 0.893462 0.167173
0.485238 0.893154 0.168698
0.562636 0.893013 0.160488
0.673845 0.892062 0.124174
0.765221 0.889747 0.179376
0.835048 0.878017 0.194640
0.893917 0.866567 0.194233
0.935856 0.868351 0.194851
0.979102 0.868811 0.195406
0.121948 0.933873 0.159223
0.173816 0.933873 0.159223
0.216490 0.933873 0.159223
0.259823 0.933873 0.159223
0.303156 0.933873 0.159223
0.346642 0.933820 0.159018
0.390257 0.934387 0.160756
0.402822 0.936326 0.166957
0.478024 0.936515 0.168706
0.547700 0.936243 0.166047
0.655842 0.935296 0.128065
0.752268 0.933650 0.166903
0.831154 0.926618 0.193021
0.891429 0.909169 0.193699
0.936120 0.910118 0.193731
0.979120 0.910186 0.193699
0.126987 0.992690 0.163371
0.178575 0.992693 0.163371
0.221037 0.992700 0.163367
0.263389 0.992702 0.163383
0.304609 0.992691 0.163418
0.343930 0.992657 0.163326
0.380480 0.992992 0.164204
0.376813 0.994948 0.171214
0.427950 0.995403 0.172633
0.506569 0.994943 0.172179
0.621376 0.994156 0.143142
0.731715 0.992601 0.158252
0.821782 0.988754 0.194769
0.883113 0.968775 0.198838
0.936203 0.967932 0.199626
0.979081 0.968007 0.199581
-0.054327 -0.125221 0.067104
-0.002875 -0.125216 0.066245
0.052786 -0.125593 0.071651
0.189937 -0.125869 0.065973
0.276001 -0.125278 0.060400
0.364237 -0.124742 0.058494
0.459537 -0.124221 0.062739
0.555419 -0.122730 0.064558
0.636003 -0.121146 0.063791
0.732501 -0.114861 0.071282
0.771395 -0.114498 0.100648
0.811742 -0.113406 0.065883
0.852376 -0.110391 0.049590
0.893975 -0.105874 0.043580
0.936544 -0.103471 0.042366
0.979662 -0.103256 0.042132
-0.032069 0.070182 0.123478
0.057955 0.069305 0.122832
0.118471 0.066856 0.123635
0.196022 0.063929 0.121749
0.275650 0.069081 0.120084
0.359225 0.073967 0.120126
0.449873 0.080235 0.123282
0.544673 0.092095 0.125530
0.623166 0.098941 0.125498
0.721675 0.115525 0.126553
0.763255 0.115546 0.126413
0.806274 0.115641 0.125963
0.849617 0.115764 0.125667
0.892953 0.115854 0.125455
0.936287 0.115893 0.125399
0.979620 0.115886 0.125415
-0.031117 0.123628 0.121042
0.057139 0.122438 0.119908
0.114801 0.122066 0.119831
0.203080 0.122506 0.115756
0.279996 0.123320 0.112723
0.356893 0.123759 0.114353
0.442802 0.128366 0.117005
0.537813 0.135516 0.119734
0.617177 0.140185 0.122474
0.715331 0.155131 0.123944
0.763843 0.157277 0.124934
0.806252 0.157401 0.124959
0.849579 0.157736 0.125120
0.892928 0.157975 0.125238
0.936277 0.158150 0.125326
0.979620 0.158251 0.125374
-0.028382 0.183668 0.120035
0.061686 0.182767 0.118978
0.093696 0.180910 0.116634
0.195372 0.182584 0.112666
0.285077 0.186589 0.108911
0.357799 0.187852 0.111154
0.435374 0.191498 0.113502
0.522832 0.198447 0.117153
0.606879 0.205190 0.122437
0.700241 0.212000 0.128300
0.765632 0.214777 0.131713
0.806661 0.208164 0.129051
0.849871 0.205539 0.127959
0.893053 0.202749 0.126696
0.936238 0.200808 0.125749
0.979474 0.199576 0.125064
0.010293 0.247586 0.119740
0.074334 0.246832 0.119336
0.111935 0.244833 0.118801
0.159351 0.245335 0.118723
0.262772 0.244048 0.115659
0.349293 0.247711 0.112677
0.427436 0.250481 0.113970
0.510276 0.255730 0.116492
0.598459 0.263765 0.122337
0.685288 0.271249 0.125696
0.767846 0.279309 0.132520
0.807914 0.276152 0.132569
0.851132 0.274590 0.132828
0.894469 0.272829 0.133050
0.937644 0.270776 0.133248
0.980904 0.269333 0.133364
0.028902 0.316883 0.128288
0.085304 0.316266 0.128079
0.126422 0.314792 0.127551
0.175550 0.316193 0.127892
0.231968 0.313041 0.127270
0.326627 0.308000 0.125540
0.416981 0.312318 0.119118
0.498991 0.312536 0.118886
0.589896 0.320137 0.123655
0.670441 0.325546 0.126455
0.766146 0.334327 0.130853
0.808454 0.332024 0.130764
0.851307 0.330382 0.130684
0.894552 0.328847 0.130753
0.937885 0.327125 0.130997
0.981200 0.325748 0.131203
0.044742 0.392712 0.141035
0.099217 0.391871 0.140694
0.140892 0.390305 0.140054
0.181212 0.386488 0.138274
0.234125 0.389457 0.141785
0.316059 0.380745 0.138788
0.394156 0.375465 0.136456
0.488759 0.378090 0.124972
0.576491 0.377514 0.125077
0.659946 0.382521 0.128944
0.755331 0.390095 0.132252
0.809643 0.389643 0.132638
0.851671 0.387069 0.132146
0.894924 0.384986 0.131809
0.938167 0.382615 0.131438
0.981521 0.380733 0.131222
0.064450 0.477631 0.157130
0.117856 0.476604 0.156747
0.159765 0.475243 0.156225
0.200421 0.471269 0.154432
0.253094 0.471268 0.158939
0.301284 0.468955 0.153494
0.397670 0.455654 0.150321
0.465334 0.442594 0.146882
0.563675 0.450348 0.131816
0.651417 0.447821 0.131847
0.738784 0.449943 0.134657
0.811096 0.451541 0.136775
0.851918 0.447467 0.135839
0.895129 0.444488 0.135050
0.938427 0.441002 0.134225
0.981733 0.437967 0.133524
0.087730 0.571176 0.175872
0.140350 0.570186 0.175583
0.182479 0.568966 0.175210
0.223886 0.565241 0.173804
0.269383 0.561057 0.173923
0.306810 0.560206 0.179910
0.375166 0.553362 0.165287
0.475734 0.533116 0.162807
0.545252 0.516238 0.157690
0.639693 0.530089 0.144447
0.723891 0.526162 0.140072
0.809495 0.521510 0.141022
0.852352 0.515164 0.140066
0.895274 0.509883 0.139085
0.938526 0.504885 0.138339
0.981794 0.500172 0.137609
0.102611 0.653319 0.186342
0.154899 0.652483 0.186098
0.197199 0.651543 0.185853
0.239606 0.649018 0.185185
0.281567 0.645687 0.183761
0.327376 0.642880 0.191519
0.351748 0.639891 0.191226
0.456897 0.632655 0.165892
0.555610 0.617131 0.181529
0.620965 0.595186 0.176445
0.714785 0.609014 0.161902
0.803164 0.609234 0.151663
0.853423 0.598794 0.149890
0.895710 0.588582 0.147306
0.938951 0.579020 0.144920
0.982193 0.570735 0.142863
0.115806 0.737445 0.196910
0.167676 0.736617 0.196695
0.209978 0.735382 0.196372
0.252484 0.732577 0.195643
0.294549 0.728686 0.194335
0.339090 0.726095 0.196318
0.358028 0.722492 0.202427
0.429997 0.715930 0.197091
0.541771 0.705027 0.159324
0.633389 0.692286 0.201970
0.694449 0.668908 0.194030
0.786670 0.682913 0.177447
0.853955 0.685971 0.166532
0.895645 0.677086 0.162461
0.939187 0.667356 0.158047
0.982500 0.656001 0.154348
0.122577 0.806338 0.203109
0.174412 0.806389 0.203120
0.217136 0.806492 0.203163
0.260522 0.806719 0.203216
0.303950 0.807014 0.203239
0.348287 0.805623 0.202189
0.366164 0.805645 0.210220
0.425602 0.803217 0.211380
0.502404 0.798559 0.204510
0.616139 0.793594 0.169404
0.710090 0.784768 0.218547
0.775124 0.754330 0.219066
0.849193 0.751120 0.205038
0.894218 0.747078 0.193020
0.937787 0.741799 0.181632
0.981633 0.735051 0.172849
0.121948 0.847434 0.202556
0.173816 0.847434 0.202556
0.216490 0.847434 0.202556
0.259823 0.847434 0.202556
0.303155 0.847476 0.202563
0.347380 0.847431 0.202031
0.381022 0.849440 0.209223
0.407954 0.850920 0.211187
0.491569 0.850817 0.212878
0.581810 0.850757 0.192808
0.691831 0.850125 0.188731
0.779760 0.846254 0.233447
0.842767 0.828394 0.239688
0.892931 0.821809 0.237228
0.935522 0.809969 0.225372
0.979352 0.799860 0.212518
0.121948 0.890767 0.202556
0.173816 0.890767 0.202556
0.216490 0.890767 0.202556
0.259823 0.890767 0.202556
0.303156 0.890767 0.202556
0.346808 0.890671 0.202218
0.389680 0.891674 0.205193
0.401210 0.893412 0.210450
0.484006 0.893244 0.212058
0.560611 0.893012 0.204553
0.672341 0.892090 0.167091
0.764309 0.889795 0.221872
0.835020 0.878413 0.238031
0.893951 0.866585 0.237607
0.935859 0.868376 0.238241
0.979089 0.868867 0.238782
0.121948 0.933873 0.202556
0.173816 0.933873 0.202556
0.216490 0.933873 0.202556
0.259823 0.933873 0.202556
0.303156 0.933873 0.202556
0.346600 0.933838 0.202379
0.390434 0.934250 0.203744
0.404419 0.936238 0.210273
0.476676 0.936485 0.212070
0.546443 0.936242 0.209921
0.654148 0.935336 0.172251
0.751225 0.933727 0.209236
0.830915 0.926884 0.236246
0.891310 0.909252 0.237067
0.936142 0.910122 0.237064
0.979120 0.910186 0.237034
0.126959 0.992674 0.206135
0.178544 0.992682 0.206085
0.221094 0.992671 0.205946
0.263640 0.992698 0.205799
0.305103 0.992701 0.205801
0.344411 0.992682 0.205936
0.380841 0.992836 0.206766
0.378821 0.994909 0.214207
0.424106 0.995447 0.215620
0.505426 0.995017 0.215460
0.619266 0.994289 0.187428
0.730658 0.992670 0.200026
0.820946 0.988969 0.237528
0.882645 0.969216 0.242061
0.936229 0.967965 0.242833
0.979080 0.968075 0.242796
-0.052529 -0.123556 0.179386
-0.001298 -0.123640 0.179033
0.054778 -0.124388 0.186821
0.180657 -0.126029 0.191214
0.266343 -0.125767 0.195002
0.357959 -0.125038 0.182605
0.458211 -0.124314 0.171594
0.557086 -0.123719 0.167069
0.637210 -0.123425 0.163363
0.732064 -0.119586 0.167957
0.771801 -0.118633 0.168885
0.812028 -0.117201 0.161717
0.852561 -0.114033 0.114687
0.894108 -0.109364 0.099398
0.936565 -0.106526 0.095905
0.979665 -0.105921 0.094481
-0.028487 0.082547 0.187732
0.061621 0.080471 0.186456
0.121033 0.075998 0.190754
0.189092 0.062561 0.194587
0.266295 0.065426 0.197139
0.352013 0.071764 0.188424
0.448346 0.079092 0.181651
0.547066 0.084821 0.181407
0.624589 0.088139 0.180801
0.721110 0.103652 0.182095
0.763467 0.105887 0.180547
0.806385 0.107503 0.179063
0.849696 0.108466 0.178260
0.892930 0.109601 0.177287
0.936257 0.110799 0.176218
0.979658 0.111636 0.175453
-0.026989 0.138105 0.187992
0.062612 0.137026 0.186898
0.114703 0.133049 0.187437
0.182426 0.117735 0.188161
0.263247 0.113690 0.184138
0.346256 0.113871 0.177433
0.439347 0.118986 0.172078
0.540955 0.122268 0.175591
0.618248 0.129946 0.176654
0.714242 0.147261 0.177965
0.763872 0.152188 0.176711
0.806275 0.153911 0.175278
0.849618 0.154926 0.174627
0.892927 0.155869 0.173681
0.936245 0.156706 0.172611
0.979581 0.156900 0.172140
-0.029260 0.188569 0.184539
0.061266 0.187801 0.183747
0.102037 0.187509 0.184008
0.185069 0.186615 0.181342
0.269100 0.183281 0.174078
0.347416 0.184568 0.169991
0.432289 0.187862 0.169982
0.525093 0.193655 0.170192
0.609815 0.198408 0.171262
0.702564 0.203553 0.173728
0.764867 0.205975 0.174129
0.806170 0.200950 0.169919
0.849501 0.199471 0.168516
0.892851 0.198672 0.167810
0.936185 0.198871 0.167830
0.979523 0.198980 0.167866
-0.022411 0.251357 0.183386
0.066921 0.250629 0.182533
0.104220 0.248443 0.179059
0.159954 0.248452 0.181766
0.262231 0.245436 0.170574
0.347772 0.248269 0.165274
0.425690 0.250608 0.163156
0.509830 0.255367 0.163984
0.598723 0.262429 0.167629
0.686467 0.269659 0.170125
0.767669 0.276941 0.176174
0.807820 0.273496 0.176275
0.851086 0.271861 0.176517
0.894305 0.270229 0.176661
0.937629 0.268491 0.176761
0.980897 0.267473 0.176816
0.025285 0.318864 0.177810
0.082671 0.318090 0.176844
0.124431 0.315897 0.174121
0.170765 0.315348 0.172379
0.227627 0.313265 0.172971
0.325639 0.307367 0.171111
0.416477 0.310832 0.162507
0.498888 0.310979 0.161401
0.589918 0.318489 0.166406
0.670621 0.323792 0.169297
0.766446 0.332852 0.174046
0.808401 0.330557 0.173983
0.851229 0.328964 0.174014
0.894574 0.327562 0.174251
0.937862 0.326010 0.174496
0.981169 0.324877 0.174677
0.043381 0.392386 0.182451
0.098051 0.391321 0.182168
0.140291 0.389119 0.182010
0.180972 0.386036 0.181198
0.232211 0.388546 0.185372
0.313616 0.380728 0.181186
0.393489 0.374805 0.179434
0.488436 0.376673 0.167734
0.576272 0.376106 0.168061
0.659962 0.381154 0.171998
0.755476 0.388798 0.175340
0.809564 0.388264 0.175721
0.851594 0.385738 0.175247
0.894884 0.383803 0.174943
0.938247 0.381576 0.174625
0.981498 0.379938 0.174470
0.063887 0.476628 0.199794
0.117270 0.475480 0.199449
0.159170 0.473936 0.199074
0.200520 0.471164 0.197810
