src/luts/vivid/9.cube
LUT_3D_SIZE 6
-0.033590 -0.037192 -0.019226
0.233300 -0.016725 0.025289
0.471422 0.043532 0.040451
0.699126 0.060169 0.048102
0.820455 0.059373 0.048007
0.940455 0.059373 0.048007
-0.022482 0.187755 0.022125
0.179127 0.182717 0.024067
0.447027 0.208874 0.043111
0.679788 0.207078 0.047703
0.818625 0.198251 0.048173
0.939650 0.194071 0.047924
0.011478 0.385148 0.045002
0.154001 0.381460 0.044466
0.389156 0.374225 0.047532
0.649032 0.392740 0.057124
0.826108 0.390301 0.057409
0.946346 0.380239 0.055961
0.026140 0.579968 0.063679
0.163244 0.575630 0.062757
0.347144 0.565623 0.058549
0.610102 0.576281 0.068527
0.831717 0.578322 0.068762
0.949807 0.560086 0.066224
0.036230 0.786200 0.076531
0.171483 0.786674 0.076599
0.295148 0.792671 0.079827
0.585949 0.814478 0.086136
0.832598 0.818220 0.087718
0.957475 0.770771 0.081737
0.038748 0.920343 0.079193
0.154578 0.920199 0.078867
0.165791 0.919832 0.078039
0.520828 0.945267 0.086246
0.782689 0.958216 0.088092
0.965877 0.963625 0.092082
-0.035956 -0.117699 0.211784
0.221927 -0.116696 0.204696
0.476580 -0.112049 0.199926
0.704538 -0.114944 0.194280
0.821456 -0.120387 0.185608
0.937343 -0.122367 0.178785
-0.025652 0.188163 0.183257
0.175545 0.185322 0.180434
0.450792 0.201196 0.181598
0.682310 0.195161 0.178745
0.820261 0.191987 0.179618
0.940542 0.192398 0.179739
0.010717 0.383893 0.178013
0.151766 0.380850 0.175958
0.387628 0.373186 0.179125
0.649060 0.389891 0.187978
0.826196 0.386592 0.188224
0.946397 0.377441 0.186982
0.025916 0.578483 0.194469
0.163319 0.575731 0.193898
0.339638 0.564556 0.189250
0.609076 0.575140 0.199222
0.831683 0.575920 0.199306
0.949733 0.558160 0.196975
0.036240 0.786327 0.207211
0.171480 0.786647 0.207247
0.290834 0.789761 0.208700
0.582842 0.813834 0.216386
0.831275 0.817140 0.217844
0.957192 0.768449 0.211888
0.038879 0.920225 0.201537
0.162076 0.920161 0.202414
0.168752 0.919683 0.203386
0.515924 0.944668 0.213204
0.781123 0.958027 0.216672
0.966136 0.963629 0.221486
-0.037657 -0.112870 0.449487
0.182960 -0.110254 0.450924
0.460512 -0.109702 0.437887
0.698906 -0.114238 0.425936
0.817499 -0.120089 0.415562
0.933337 -0.122246 0.399400
-0.030317 0.225186 0.415523
0.146620 0.214630 0.418160
0.436939 0.206150 0.416495
0.675383 0.193538 0.403122
0.815831 0.192516 0.390032
0.935356 0.192116 0.372974
-0.018176 0.398991 0.385877
0.150124 0.394395 0.381392
0.392693 0.399083 0.382796
0.660488 0.404219 0.368688
0.834207 0.395869 0.354944
0.953437 0.392907 0.352103
0.019855 0.590830 0.366614
0.160006 0.585983 0.359034
0.323226 0.579636 0.345964
0.610780 0.577515 0.333499
0.833380 0.575778 0.327383
0.951495 0.561905 0.326711
0.037010 0.790467 0.343096
0.171847 0.789035 0.335968
0.287809 0.787421 0.328206
0.576929 0.812136 0.335865
0.828050 0.813338 0.337154
0.956966 0.766007 0.331506
0.038979 0.920541 0.261603
0.169166 0.920071 0.219214
0.177541 0.919651 0.269958
0.518048 0.944523 0.302610
0.779901 0.957810 0.313626
0.966385 0.963611 0.324624
-0.037051 -0.110471 0.711610
0.167808 -0.107652 0.709516
0.411940 -0.111318 0.698336
0.690575 -0.119188 0.678975
0.814494 -0.122249 0.662090
0.928394 -0.124016 0.633136
-0.030070 0.243312 0.669900
0.151030 0.227055 0.671160
0.383870 0.207052 0.667148
0.665170 0.195084 0.651118
0.811726 0.197727 0.632016
0.931479 0.197472 0.604361
-0.025608 0.425660 0.633490
0.146447 0.419804 0.629946
0.313045 0.426832 0.644705
0.660287 0.427815 0.650277
0.846974 0.415545 0.620936
0.965001 0.408856 0.592635
-0.015402 0.609344 0.600880
0.152511 0.605783 0.597021
0.293160 0.612760 0.602900
0.628098 0.629321 0.607248
0.859760 0.630137 0.593357
0.977803 0.627246 0.590181
0.026245 0.810562 0.573280
0.164463 0.810107 0.568089
0.283400 0.807110 0.556382
0.569227 0.840592 0.577721
0.843906 0.839255 0.563413
0.975520 0.803371 0.551488
0.034086 0.940076 0.514532
0.168313 0.939183 0.506422
0.207529 0.937427 0.494236
0.530220 0.975129 0.539583
0.808696 0.986420 0.524449
0.982808 0.990214 0.538522
-0.035854 -0.116355 0.831315
0.165908 -0.113588 0.834916
0.378356 -0.116216 0.841262
0.680227 -0.126902 0.847815
0.808630 -0.135605 0.847239
0.924356 -0.136323 0.847216
-0.031086 0.242766 0.824072
0.148308 0.225816 0.823474
0.330250 0.220136 0.837846
0.640944 0.193036 0.837145
0.809846 0.201572 0.841657
0.930026 0.202114 0.841857
-0.024017 0.435776 0.832984
0.148576 0.429993 0.831737
0.310389 0.445533 0.846966
0.612635 0.445279 0.865273
0.844362 0.441764 0.873120
0.964514 0.437677 0.865960
0.008446 0.625284 0.842482
0.155498 0.621765 0.842116
0.296747 0.629425 0.851055
0.528441 0.650678 0.863273
0.859075 0.660597 0.873973
0.978877 0.643186 0.835541
0.011940 0.823996 0.831587
0.156934 0.823494 0.827943
0.273110 0.819042 0.808652
0.465979 0.845404 0.825601
0.850862 0.860952 0.836200
0.987510 0.856022 0.831611
0.016983 0.953388 0.771308
0.156327 0.953071 0.766497
0.201109 0.951715 0.756722
0.401785 0.983924 0.788592
0.839450 1.010838 0.826243
0.993111 1.012316 0.825936
-0.035498 -0.119631 0.941953
0.162573 -0.117799 0.944579
0.359002 -0.118359 0.951857
0.644643 -0.128151 0.956240
0.809787 -0.136524 0.958755
0.923010 -0.140018 0.958568
-0.031392 0.236742 0.943803
0.148118 0.224822 0.943503
0.313726 0.221016 0.956229
0.605222 0.192501 0.956616
0.809776 0.201360 0.961616
0.930122 0.202469 0.961993
-0.023121 0.427735 0.951465
0.148704 0.422232 0.950438
0.310907 0.444598 0.966805
0.577429 0.443694 0.981613
0.845738 0.443115 0.993250
0.963883 0.437222 0.992929
-0.012120 0.612330 0.961237
0.153257 0.608911 0.960951
0.298709 0.621295 0.970669
0.527569 0.649844 0.982784
0.854761 0.662286 0.996963
0.975873 0.658369 0.996741
0.007162 0.815392 0.969839
0.156206 0.812590 0.969708
0.275380 0.803144 0.969493
0.485027 0.826364 0.981289
0.851928 0.863674 0.999859
0.990060 0.861185 0.999778
-0.003050 0.944842 0.970344
0.155373 0.944824 0.970339
0.272707 0.944061 0.969879
0.480794 0.968395 0.981758
0.823911 0.994157 0.998871
0.997763 1.001887 0.999876
