src/luts/vivid/9.cube
LUT_3D_SIZE 16
-0.033590 -0.037192 -0.019226
0.060036 -0.037263 -0.019058
0.145270 -0.033180 0.011089
0.233300 -0.016725 0.025289
0.315957 0.026635 0.031912
0.396093 0.037721 0.038252
0.471422 0.043532 0.040451
0.542390 0.047628 0.042774
0.616026 0.053211 0.044817
0.699126 0.060169 0.048102
0.740923 0.059358 0.048025
0.780455 0.059373 0.048007
0.820455 0.059373 0.048007
0.860455 0.059373 0.048007
0.900455 0.059373 0.048007
0.940455 0.059373 0.048007
-0.033100 0.061048 -0.018416
0.058235 0.060074 -0.018949
0.136082 0.063649 0.004666
0.227522 0.075075 0.023582
0.311685 0.085994 0.031135
0.391988 0.094586 0.037687
0.468155 0.099930 0.040202
0.539643 0.104061 0.042492
0.612373 0.108942 0.044670
0.697499 0.115861 0.047959
0.741153 0.115301 0.048045
0.780455 0.115303 0.048007
0.820455 0.115303 0.048007
0.860455 0.115303 0.048007
0.900455 0.115303 0.048007
0.940455 0.115303 0.048007
-0.028976 0.123497 0.010788
0.063713 0.122162 0.009286
0.111555 0.119918 0.009871
0.203866 0.128118 0.022738
0.294922 0.138233 0.031445
0.379210 0.143449 0.036963
0.460309 0.144525 0.040836
0.533075 0.143708 0.042276
0.604382 0.146588 0.044306
0.690219 0.152795 0.047116
0.741787 0.152956 0.048010
0.780589 0.153281 0.047956
0.820580 0.153548 0.047976
0.860577 0.153744 0.047989
0.900548 0.153888 0.047997
0.940525 0.153977 0.048002
-0.022482 0.187755 0.022125
0.070308 0.186754 0.021628
0.107516 0.184462 0.020457
0.179127 0.182717 0.024067
0.270279 0.194098 0.032205
0.360186 0.204260 0.037997
0.447027 0.208874 0.043111
0.524360 0.209240 0.044639
0.597966 0.208610 0.045802
0.679788 0.207078 0.047703
0.740574 0.204229 0.048783
0.778453 0.200104 0.048349
0.818625 0.198251 0.048173
0.858927 0.196385 0.048034
0.899264 0.194833 0.047938
0.939650 0.194071 0.047924
-0.016683 0.252694 0.031584
0.073787 0.251923 0.031390
0.108536 0.249724 0.030688
0.170039 0.245945 0.030105
0.245538 0.244243 0.032416
0.339559 0.258502 0.039930
0.429178 0.269017 0.045701
0.511909 0.270209 0.047420
0.591944 0.272282 0.048547
0.672162 0.271305 0.050274
0.745689 0.270539 0.050816
0.782765 0.265422 0.049988
0.822048 0.262710 0.049626
0.861366 0.259386 0.049280
0.900694 0.256091 0.049190
0.940186 0.253635 0.049114
-0.014901 0.319641 0.038330
0.074314 0.318933 0.038130
0.111091 0.317094 0.037594
0.158826 0.314164 0.037302
0.235548 0.306944 0.035422
0.316873 0.309459 0.040522
0.409818 0.323123 0.047479
0.497140 0.328195 0.049932
0.580974 0.331632 0.051858
0.660885 0.332450 0.053614
0.744908 0.334477 0.055078
0.786560 0.330848 0.054503
0.825898 0.327994 0.054005
0.865475 0.324788 0.053409
0.905032 0.321253 0.052721
0.944597 0.318207 0.052158
0.011478 0.385148 0.045002
0.077886 0.384490 0.044844
0.116056 0.383014 0.044476
0.154001 0.381460 0.044466
0.224330 0.374741 0.041266
0.303138 0.367176 0.041447
0.389156 0.374225 0.047532
0.479904 0.385870 0.053082
0.566677 0.389996 0.055040
0.649032 0.392740 0.057124
0.737166 0.395756 0.058282
0.787226 0.393544 0.057926
0.826108 0.390301 0.057409
0.866189 0.386982 0.056929
0.906285 0.383406 0.056417
0.946346 0.380239 0.055961
0.017359 0.450452 0.051578
0.079962 0.449822 0.051411
0.118614 0.448605 0.051100
0.155806 0.446669 0.050589
0.211700 0.443633 0.050266
0.290514 0.433294 0.045498
0.375154 0.429836 0.050037
0.462844 0.439775 0.056037
0.553614 0.446707 0.057712
0.636971 0.450474 0.059442
0.724251 0.453286 0.061149
0.789962 0.452804 0.061549
0.827779 0.449443 0.060855
0.867393 0.446624 0.060268
0.906895 0.443406 0.059642
0.946445 0.440488 0.059058
0.021168 0.512802 0.057376
0.081828 0.512182 0.057216
0.120527 0.511128 0.056945
0.159622 0.509502 0.056489
0.196819 0.509218 0.056759
0.278180 0.501305 0.052768
0.362424 0.492685 0.051960
0.450981 0.497160 0.059656
0.538143 0.504823 0.062264
0.624461 0.511288 0.063234
0.708336 0.514633 0.063945
0.791276 0.515792 0.065631
0.829760 0.510751 0.064773
0.869209 0.506320 0.064018
0.909046 0.501888 0.063206
0.948728 0.497653 0.062442
0.026140 0.579968 0.063679
0.084829 0.579074 0.063499
0.123559 0.577664 0.063198
0.163244 0.575630 0.062757
0.199310 0.572974 0.062199
0.261135 0.572218 0.062066
0.347144 0.565623 0.058549
0.439773 0.565735 0.061071
0.524587 0.570060 0.066119
0.610102 0.576281 0.068527
0.695345 0.581411 0.069360
0.784848 0.583987 0.069485
0.831717 0.578322 0.068762
0.870279 0.572136 0.067801
0.909969 0.565965 0.066947
0.949807 0.560086 0.066224
0.031105 0.655873 0.069491
0.088338 0.654519 0.069309
0.127041 0.652289 0.069052
0.166774 0.649390 0.068724
0.205226 0.645214 0.068227
0.246785 0.644356 0.068911
0.331631 0.642067 0.066473
0.427264 0.643751 0.067014
0.517697 0.646360 0.069986
0.600536 0.647268 0.072106
0.682282 0.651616 0.074498
0.769059 0.653870 0.075714
0.834818 0.650258 0.074615
0.872580 0.643214 0.073186
0.911722 0.635374 0.071656
0.951130 0.627695 0.070320
0.036662 0.749594 0.077041
0.092724 0.748408 0.076854
0.131577 0.746490 0.076577
0.171419 0.744163 0.076194
0.210922 0.740023 0.075550
0.247717 0.735136 0.074858
0.311782 0.739581 0.080395
0.405505 0.736602 0.075225
0.510622 0.737501 0.078505
0.593898 0.735234 0.078072
0.672688 0.731258 0.077842
0.755966 0.729203 0.080010
0.834579 0.722408 0.080602
0.876068 0.713860 0.078981
0.914551 0.705564 0.077412
0.953714 0.697484 0.075918
0.036230 0.786200 0.076531
0.092509 0.786268 0.076535
0.131465 0.786410 0.076557
0.171483 0.786674 0.076599
0.211475 0.786962 0.076635
0.249871 0.786852 0.076400
0.295148 0.792671 0.079827
0.382019 0.801052 0.081666
0.490464 0.808968 0.083102
0.585949 0.814478 0.086136
0.666282 0.815744 0.085540
0.743696 0.816216 0.084649
0.832598 0.818220 0.087718
0.882491 0.804065 0.086617
0.919214 0.786736 0.084083
0.957475 0.770771 0.081737
0.036222 0.826133 0.076519
0.092499 0.826092 0.076506
0.131444 0.826096 0.076507
0.171444 0.826096 0.076507
0.211446 0.826096 0.076506
0.250853 0.825864 0.076378
0.290396 0.827240 0.077120
0.364496 0.839054 0.082846
0.467818 0.845459 0.080952
0.570827 0.854372 0.086145
0.653275 0.857904 0.086497
0.732107 0.862280 0.086106
0.813873 0.866705 0.088058
0.885771 0.870361 0.090348
0.924139 0.870345 0.090255
0.963731 0.867395 0.089836
0.036218 0.865898 0.076515
0.092497 0.865904 0.076502
0.131446 0.865908 0.076503
0.171446 0.865908 0.076503
0.211446 0.865908 0.076503
0.251224 0.865806 0.076468
0.289080 0.865351 0.076123
0.351258 0.878343 0.083832
0.451290 0.882830 0.080266
0.556742 0.891971 0.085230
0.642181 0.896290 0.086502
0.721244 0.900055 0.086114
0.797962 0.903628 0.086625
0.882981 0.907550 0.089879
0.924318 0.907730 0.089911
0.963779 0.907861 0.089903
0.038748 0.920343 0.079193
0.093222 0.920262 0.079156
0.127789 0.920243 0.079054
0.154578 0.920199 0.078867
0.127681 0.920193 0.078644
0.143298 0.920114 0.078430
0.165791 0.919832 0.078039
0.202646 0.930850 0.084668
0.386654 0.936144 0.082212
0.520828 0.945267 0.086246
0.618157 0.950944 0.088471
0.702619 0.954487 0.088294
0.782689 0.958216 0.088092
0.871199 0.962624 0.091250
0.926640 0.963678 0.092131
0.965877 0.963625 0.092082
-0.036131 -0.119414 0.056306
0.055585 -0.119414 0.054470
0.146745 -0.118610 0.063421
0.236874 -0.116584 0.074314
0.321365 -0.114505 0.080910
0.403028 -0.112462 0.087320
0.479711 -0.111984 0.089497
0.551756 -0.113285 0.091574
0.625648 -0.114344 0.093578
0.708083 -0.114484 0.096746
0.748745 -0.117170 0.096432
0.785982 -0.118871 0.096331
0.823079 -0.120417 0.096212
0.860142 -0.121740 0.095931
0.898458 -0.122377 0.095728
0.938083 -0.122495 0.095687
-0.033086 0.060873 0.069204
0.058141 0.059920 0.068905
0.135712 0.063042 0.072478
0.227959 0.075116 0.079636
0.312290 0.086287 0.085118
0.392768 0.094863 0.090613
0.468889 0.100198 0.092772
0.540327 0.104258 0.094851
0.613402 0.109175 0.096815
0.698086 0.115895 0.099849
0.741112 0.115303 0.099885
0.780455 0.115303 0.099850
0.820455 0.115303 0.099850
0.860455 0.115303 0.099850
0.900455 0.115303 0.099850
0.940455 0.115303 0.099850
-0.029041 0.123065 0.073440
0.063657 0.121765 0.073088
0.110955 0.119512 0.073235
0.203973 0.127366 0.078899
0.295370 0.137098 0.085193
0.379907 0.142013 0.089822
0.460757 0.142663 0.093123
0.533550 0.141956 0.094415
0.604847 0.145865 0.096398
0.690708 0.152812 0.099075
0.741766 0.153071 0.099859
0.780580 0.153378 0.099808
0.820567 0.153624 0.099825
0.860563 0.153806 0.099838
0.900533 0.153940 0.099842
0.940508 0.154014 0.099847
-0.022600 0.187429 0.078526
0.070316 0.186615 0.078285
0.106845 0.184226 0.077569
0.178724 0.182466 0.079777
0.270282 0.193750 0.085838
0.360325 0.203688 0.090688
0.447280 0.208096 0.095230
0.524424 0.208317 0.096669
0.597906 0.207404 0.097743
0.679772 0.205957 0.099452
0.740537 0.203156 0.100492
0.778580 0.199269 0.100112
0.818766 0.197521 0.099973
0.859091 0.195729 0.099849
0.899434 0.194354 0.099771
0.939813 0.193693 0.099762
-0.016656 0.252391 0.085324
0.073802 0.251875 0.085216
0.108690 0.249575 0.084652
0.169291 0.245828 0.084145
0.245227 0.244056 0.085996
0.339508 0.258200 0.092433
0.429188 0.268624 0.097644
0.512018 0.269721 0.099226
0.592084 0.271736 0.100278
0.672175 0.270661 0.101896
0.745639 0.269764 0.102350
0.782638 0.264560 0.101605
0.821910 0.261875 0.101251
0.861272 0.258574 0.101022
0.900564 0.255345 0.100939
0.940106 0.252974 0.100870
-0.015042 0.319374 0.090989
0.074315 0.318935 0.090882
0.111153 0.317011 0.090398
0.157647 0.314116 0.090149
0.234943 0.306786 0.088507
0.316598 0.309264 0.092950
0.409715 0.322902 0.099307
0.497100 0.327855 0.101612
0.580837 0.331220 0.103372
0.660767 0.331992 0.105030
0.744890 0.333974 0.106440
0.786578 0.330277 0.105880
0.825844 0.327440 0.105397
0.865450 0.324216 0.104832
0.905008 0.320681 0.104183
0.944578 0.317681 0.103653
0.011378 0.384893 0.097009
0.077891 0.384506 0.096929
0.116103 0.382959 0.096580
0.153514 0.381296 0.096495
0.223581 0.374745 0.093716
0.302610 0.367027 0.093741
0.388909 0.374038 0.099359
0.479766 0.385686 0.104591
0.566598 0.389706 0.106438
0.648910 0.392410 0.108416
0.737156 0.395412 0.109526
0.787219 0.393149 0.109180
0.826110 0.389871 0.108679
0.866210 0.386568 0.108218
0.906285 0.383002 0.107748
0.946353 0.379864 0.107302
0.017319 0.450245 0.103143
0.079973 0.449866 0.103056
0.118627 0.448571 0.102742
0.155948 0.446577 0.102252
0.210619 0.443672 0.101989
0.289806 0.433306 0.097526
0.374675 0.429576 0.101651
0.462592 0.439614 0.107379
0.553443 0.446449 0.108984
0.636844 0.450184 0.110642
0.723992 0.452973 0.112272
0.789920 0.452512 0.112658
0.827844 0.449144 0.112000
0.867334 0.446312 0.111428
0.906805 0.443180 0.110826
0.946396 0.440192 0.110264
0.021117 0.512550 0.108648
0.081836 0.512242 0.108582
0.120523 0.511054 0.108288
0.159665 0.509446 0.107833
0.196678 0.508991 0.108038
0.277454 0.501349 0.104364
0.361841 0.492562 0.103482
0.450515 0.496921 0.110790
0.537913 0.504683 0.113353
0.624237 0.511092 0.114287
0.708174 0.514381 0.114955
0.791140 0.515437 0.116589
0.829745 0.510437 0.115756
0.869178 0.506039 0.115038
0.909005 0.501602 0.114261
0.948680 0.497377 0.113519
0.026088 0.579634 0.114691
0.084840 0.579194 0.114610
0.123544 0.577596 0.114278
0.163247 0.575515 0.113850
0.199416 0.572831 0.113301
0.260081 0.572238 0.113274
0.346298 0.565402 0.109757
0.439215 0.565423 0.112159
0.524195 0.569722 0.117047
0.609892 0.576028 0.119403
0.695145 0.581129 0.120181
0.784690 0.583669 0.120287
0.831674 0.577971 0.119612
0.870276 0.571798 0.118698
0.909958 0.565574 0.117875
0.949806 0.559788 0.117171
0.031050 0.655388 0.120302
0.088346 0.654697 0.120213
0.127027 0.652146 0.119929
0.166762 0.649239 0.119615
0.205292 0.645077 0.119132
0.246049 0.643975 0.119682
0.330912 0.641816 0.117526
0.426476 0.643502 0.117904
0.517228 0.646111 0.120792
0.600173 0.647009 0.122852
0.682019 0.651402 0.125194
0.768928 0.653550 0.126326
0.834764 0.650059 0.125296
0.872524 0.642902 0.123891
0.911718 0.635066 0.122402
0.951199 0.627360 0.121113
0.036630 0.749180 0.127622
0.092728 0.748508 0.127526
0.131564 0.746380 0.127210
0.171411 0.743918 0.126845
0.210938 0.739881 0.126243
0.247607 0.734757 0.125500
0.310908 0.739237 0.130836
0.404695 0.736161 0.125877
0.510045 0.737120 0.129020
0.593466 0.734908 0.128609
0.672343 0.730872 0.128423
0.755627 0.728768 0.130529
0.834417 0.722054 0.131101
0.876116 0.713588 0.129512
0.914504 0.705297 0.127998
0.953704 0.697127 0.126536
0.036235 0.786178 0.127191
0.092505 0.786222 0.127190
0.131467 0.786409 0.127218
0.171480 0.786639 0.127246
0.211475 0.786933 0.127292
0.249931 0.786799 0.127067
0.294694 0.792322 0.130206
0.381154 0.800940 0.132226
0.489568 0.808753 0.133499
0.585512 0.814336 0.136498
0.665945 0.815536 0.135934
0.743351 0.816001 0.135030
0.832333 0.817990 0.138012
0.882510 0.803634 0.136938
0.919156 0.786241 0.134462
0.957395 0.770452 0.132176
0.036224 0.826088 0.127170
0.092495 0.826043 0.127159
0.131444 0.826047 0.127161
0.171444 0.826047 0.127161
0.211443 0.826048 0.127160
0.250889 0.825836 0.127045
0.290059 0.826953 0.127643
0.363599 0.839051 0.133378
0.466865 0.845353 0.131423
0.570285 0.854289 0.136507
0.652854 0.857858 0.136891
0.731793 0.862203 0.136485
0.813473 0.866722 0.138363
0.885734 0.870358 0.140637
0.924129 0.870173 0.140521
0.963617 0.866855 0.140056
0.036220 0.865898 0.127165
0.092498 0.865855 0.127155
0.131442 0.865859 0.127156
0.171442 0.865859 0.127156
0.211442 0.865859 0.127156
0.251236 0.865766 0.127127
0.289120 0.865349 0.126786
0.350532 0.878250 0.134269
0.450420 0.882680 0.130784
0.556200 0.891839 0.135598
0.641740 0.896198 0.136884
0.720970 0.900000 0.136510
0.797596 0.903588 0.136974
0.882838 0.907508 0.140163
0.924333 0.907698 0.140202
0.963780 0.907850 0.140197
0.038699 0.920291 0.129500
0.093428 0.920199 0.129545
0.128584 0.920200 0.129564
0.156169 0.920196 0.129486
0.129095 0.920144 0.129374
0.143721 0.920066 0.129286
0.165968 0.919749 0.129029
0.202550 0.930593 0.135464
0.385412 0.936037 0.133305
0.520089 0.945157 0.137183
0.617770 0.950877 0.139430
0.702213 0.954395 0.139284
0.782360 0.958152 0.139060
0.870960 0.962543 0.142121
0.926637 0.963664 0.142979
0.965870 0.963608 0.142938
-0.035026 -0.118817 0.130567
0.056498 -0.118822 0.128646
0.138582 -0.118360 0.126425
0.232393 -0.116764 0.130291
0.319966 -0.114484 0.132961
0.401935 -0.112514 0.135494
0.479650 -0.111848 0.134687
0.551278 -0.113169 0.133581
0.624755 -0.114303 0.133942
0.707481 -0.114389 0.136103
0.748687 -0.117122 0.134828
0.785985 -0.118840 0.134412
0.823088 -0.120382 0.134250
0.860152 -0.121713 0.133870
0.898462 -0.122374 0.133604
0.938084 -0.122487 0.133545
-0.031766 0.064472 0.129910
0.060415 0.063177 0.128858
0.129150 0.064556 0.127072
0.223846 0.074213 0.130580
0.310792 0.086670 0.133631
0.391431 0.095158 0.136636
0.468382 0.100725 0.136157
0.539499 0.104460 0.135477
0.612303 0.109182 0.137343
0.697351 0.115917 0.140084
0.741082 0.115310 0.139905
0.780450 0.115306 0.139870
0.820452 0.115305 0.139861
0.860456 0.115303 0.139840
0.900456 0.115303 0.139850
0.940455 0.115303 0.139850
-0.029078 0.122697 0.121041
0.064176 0.121260 0.119946
0.109924 0.119436 0.119123
0.206084 0.125380 0.122637
0.298700 0.132943 0.126990
0.383117 0.136492 0.130281
0.462845 0.138293 0.132501
0.535390 0.139920 0.134154
0.607231 0.145144 0.136346
0.693255 0.153331 0.139310
0.741656 0.153466 0.139870
0.780559 0.153704 0.139826
0.820527 0.153890 0.139838
0.860500 0.154019 0.139842
0.900474 0.154101 0.139849
0.940457 0.154151 0.139850
-0.023198 0.187145 0.121848
0.070123 0.186257 0.121007
0.103787 0.183906 0.118412
0.177477 0.182060 0.119809
0.270720 0.192602 0.125552
0.361331 0.201482 0.130206
0.448601 0.204952 0.134746
0.525148 0.204347 0.136418
0.597806 0.202346 0.137393
0.680298 0.201573 0.138978
0.740501 0.199155 0.140167
0.779168 0.195961 0.139897
0.819442 0.194714 0.139832
0.859764 0.193397 0.139772
0.900072 0.192760 0.139748
0.940316 0.192379 0.139741
-0.016520 0.251714 0.124986
0.073882 0.251106 0.124864
0.109234 0.249344 0.124490
0.166302 0.245578 0.123914
0.244356 0.243563 0.125856
0.339606 0.257308 0.132300
0.429800 0.267224 0.137433
0.512684 0.267926 0.138944
0.592451 0.269492 0.139948
0.672481 0.268099 0.141606
0.745101 0.266759 0.141940
0.781938 0.261464 0.141296
0.821293 0.258828 0.141075
0.860568 0.255761 0.140937
0.900030 0.252793 0.140845
0.939596 0.250744 0.140790
-0.015324 0.318785 0.130846
0.074235 0.318248 0.130726
0.111528 0.316962 0.130388
0.153556 0.314210 0.130088
0.232813 0.306471 0.128388
0.315985 0.308891 0.132837
0.409697 0.322261 0.139162
0.497350 0.326842 0.141473
0.581079 0.329911 0.143107
0.661051 0.330458 0.144738
0.745163 0.332245 0.146182
0.786365 0.328434 0.145565
0.825601 0.325578 0.145070
0.865282 0.322368 0.144479
0.904768 0.318907 0.143864
0.944365 0.316128 0.143368
0.011284 0.384446 0.136912
0.077839 0.383981 0.136819
0.116293 0.383050 0.136608
0.151497 0.381138 0.136272
0.220743 0.375048 0.133985
0.300994 0.366708 0.133487
0.388455 0.373747 0.139288
0.479734 0.385153 0.144504
0.566666 0.388919 0.146304
0.649024 0.391475 0.148253
0.737270 0.394170 0.149345
0.787192 0.391854 0.148991
0.826140 0.388544 0.148489
0.866276 0.385301 0.148045
0.906393 0.381784 0.147582
0.946318 0.378706 0.147152
0.017244 0.449845 0.143047
0.079932 0.449441 0.142942
0.118679 0.448696 0.142783
0.156473 0.446555 0.142246
0.206566 0.444022 0.142171
0.287557 0.433503 0.137584
0.373285 0.429060 0.141420
0.462140 0.439364 0.147298
0.553234 0.445944 0.148876
0.636783 0.449460 0.150538
0.723970 0.452126 0.152122
0.789888 0.451655 0.152490
0.827692 0.448317 0.151832
0.867114 0.445512 0.151267
0.906653 0.442372 0.150683
0.946301 0.439379 0.150134
0.021036 0.512266 0.148571
0.081779 0.511811 0.148472
0.120536 0.511188 0.148310
0.159839 0.509520 0.147854
0.196177 0.508586 0.147866
0.274909 0.501730 0.144539
0.359874 0.492414 0.143268
0.449350 0.496423 0.150570
0.537489 0.504437 0.153300
0.623964 0.510545 0.154194
0.708049 0.513632 0.154872
0.791084 0.514560 0.156457
0.829668 0.509520 0.155620
0.869260 0.505205 0.154886
0.908900 0.500799 0.154115
0.948607 0.496682 0.153393
0.026024 0.579197 0.154603
0.084785 0.578634 0.154486
0.123570 0.577800 0.154313
0.163274 0.575567 0.153862
0.199942 0.572748 0.153278
0.256171 0.572608 0.153639
0.343548 0.565052 0.149541
0.437566 0.564870 0.151962
0.523290 0.569214 0.156961
0.609549 0.575654 0.159316
0.694742 0.580401 0.160027
0.784395 0.582839 0.160162
0.831628 0.577069 0.159467
0.870231 0.570933 0.158567
0.909944 0.564787 0.157777
0.949761 0.559021 0.157077
0.030970 0.654723 0.160230
0.088270 0.653802 0.160130
0.127054 0.652398 0.159962
0.166773 0.649312 0.159622
0.205546 0.645017 0.159120
0.243457 0.643058 0.159312
0.328484 0.641497 0.157814
0.424012 0.643010 0.157710
0.516026 0.645630 0.160671
0.599400 0.646523 0.162761
0.681674 0.650985 0.165116
0.768450 0.652997 0.166225
0.834672 0.649418 0.165180
0.872413 0.642089 0.163733
0.911624 0.634267 0.162273
0.951115 0.626568 0.160977
0.036580 0.748644 0.167538
0.092676 0.747667 0.167402
0.131571 0.746451 0.167230
0.171410 0.744050 0.166872
0.211020 0.739783 0.166216
0.247240 0.734324 0.165283
0.307970 0.738586 0.170568
0.402250 0.735370 0.165853
0.508534 0.736606 0.168860
0.592376 0.734034 0.168492
0.671665 0.730152 0.168341
0.755150 0.728200 0.170472
0.834236 0.721426 0.171004
0.875967 0.712884 0.169386
0.914463 0.704592 0.167884
0.953600 0.696492 0.166420
0.036233 0.786242 0.167196
0.092509 0.786272 0.167192
0.131468 0.786422 0.167210
0.171480 0.786634 0.167244
0.211496 0.786949 0.167300
0.250144 0.786833 0.167105
0.293095 0.791276 0.169578
0.378432 0.800800 0.172462
0.486985 0.808309 0.173229
0.584376 0.814102 0.176460
0.665156 0.815208 0.175887
0.742740 0.815670 0.174950
0.831825 0.817582 0.177942
0.882469 0.802740 0.176810
0.919008 0.785222 0.174326
0.957375 0.769533 0.172041
0.036224 0.826088 0.167170
0.092495 0.826043 0.167159
0.131444 0.826047 0.167161
0.171444 0.826047 0.167161
0.211445 0.826049 0.167161
0.251016 0.825904 0.167075
0.288822 0.826224 0.167190
0.360675 0.838912 0.173591
0.464218 0.845029 0.171272
0.568720 0.854230 0.176464
0.651872 0.857788 0.176897
0.731126 0.862193 0.176498
0.812890 0.866705 0.178337
0.885727 0.870395 0.180642
0.924089 0.869933 0.180479
0.963538 0.865937 0.179926
0.036220 0.865898 0.167165
0.092498 0.865855 0.167155
0.131442 0.865859 0.167156
0.171442 0.865859 0.167156
0.211442 0.865859 0.167156
0.251288 0.865792 0.167135
0.289301 0.865248 0.166773
0.347987 0.878053 0.174344
0.448010 0.882367 0.170746
0.554538 0.891653 0.175494
0.640827 0.896075 0.176884
0.720186 0.899906 0.176521
0.796885 0.903492 0.176920
0.882466 0.907496 0.180136
0.924356 0.907746 0.180210
0.963788 0.907910 0.180205
0.038777 0.920261 0.166880
0.093673 0.920182 0.167001
0.129690 0.920177 0.167217
0.159254 0.920188 0.167377
0.133855 0.920143 0.167451
0.145432 0.920073 0.167564
0.166905 0.919719 0.167506
0.202247 0.930008 0.173836
0.381591 0.935784 0.172295
0.518136 0.944956 0.176088
0.617014 0.950789 0.178715
0.701557 0.954379 0.178710
0.781813 0.958054 0.178564
0.870426 0.962489 0.181724
0.926736 0.963666 0.182719
0.965929 0.963605 0.182730
-0.035956 -0.117699 0.211784
0.054219 -0.117618 0.210458
0.130315 -0.117239 0.207211
0.221927 -0.116696 0.204696
0.314302 -0.114491 0.205012
0.399154 -0.112468 0.203506
0.476580 -0.112049 0.199926
0.550897 -0.113019 0.197971
0.623178 -0.114673 0.195072
0.704538 -0.114944 0.194280
0.746718 -0.117263 0.190478
0.784132 -0.118908 0.187757
0.821456 -0.120387 0.185608
0.858901 -0.121646 0.182998
0.897471 -0.122275 0.180486
0.937343 -0.122367 0.178785
-0.032728 0.072311 0.205608
0.059757 0.070260 0.205562
0.121139 0.071640 0.202885
0.212995 0.074329 0.200593
0.305304 0.086591 0.201178
0.389318 0.095090 0.200351
0.465847 0.100022 0.197495
0.539452 0.104519 0.196436
0.610840 0.108191 0.194479
0.694618 0.115101 0.194448
0.739364 0.115174 0.191363
0.778905 0.115310 0.188934
0.819224 0.115428 0.187299
0.859543 0.115545 0.185466
0.899862 0.115551 0.183713
0.940051 0.115530 0.182395
-0.029845 0.130178 0.192347
0.064374 0.128536 0.191478
0.101992 0.124568 0.191956
0.198702 0.126123 0.191410
0.295040 0.132136 0.192065
0.381752 0.136340 0.191838
0.461071 0.137271 0.189093
0.535259 0.140711 0.187746
0.605744 0.145970 0.186601
0.691205 0.154282 0.186874
0.740896 0.154309 0.184096
0.780161 0.154291 0.181894
0.820294 0.154284 0.180808
0.860343 0.154224 0.180071
0.900366 0.154210 0.179899
0.940369 0.154199 0.179954
-0.025652 0.188163 0.183257
0.068934 0.187290 0.182369
0.101923 0.185074 0.180264
0.175545 0.185322 0.180434
0.274219 0.194904 0.182271
0.364656 0.201580 0.182246
0.450792 0.201196 0.181598
0.527018 0.198046 0.179659
0.598647 0.194643 0.178624
0.682310 0.195161 0.178745
0.741140 0.194037 0.179552
0.780036 0.192351 0.179513
0.820261 0.191987 0.179618
0.860477 0.191949 0.179688
0.900518 0.192234 0.179728
0.940542 0.192398 0.179739
-0.021038 0.253420 0.181139
0.072046 0.252676 0.180338
0.107745 0.250494 0.177046
0.160768 0.247223 0.172530
0.244518 0.244914 0.171665
0.341106 0.257447 0.175270
0.431079 0.265445 0.178380
0.513739 0.265157 0.178708
0.593048 0.265842 0.179252
0.672745 0.263540 0.181042
0.744003 0.261614 0.181513
0.780886 0.256416 0.181034
0.820223 0.254031 0.180868
0.859761 0.251598 0.180798
0.899290 0.249320 0.180719
0.939010 0.248027 0.180688
-0.016024 0.318871 0.176992
0.074011 0.318282 0.176316
0.111635 0.316556 0.173880
0.149879 0.314328 0.171278
0.229619 0.306199 0.168852
0.314971 0.308224 0.172611
0.409528 0.321210 0.178810
0.497626 0.325251 0.181218
0.581202 0.327748 0.182619
0.661514 0.327947 0.184260
0.745515 0.329571 0.185779
0.786176 0.325505 0.185062
0.825384 0.322661 0.184525
0.864901 0.319610 0.183976
0.904478 0.316531 0.183414
0.944129 0.314234 0.183013
0.010717 0.383893 0.178013
0.077722 0.383353 0.177416
0.116327 0.382288 0.176212
0.151766 0.380850 0.175958
0.216208 0.375428 0.174294
0.298461 0.366185 0.173046
0.387628 0.373186 0.179125
0.479514 0.384283 0.184360
0.566704 0.387654 0.186103
0.649060 0.389891 0.187978
0.737400 0.392301 0.189055
0.787205 0.389880 0.188700
0.826196 0.386592 0.188224
0.866270 0.383547 0.187822
0.906419 0.380214 0.187370
0.946397 0.377441 0.186982
0.017140 0.449236 0.182834
0.079882 0.448772 0.182752
0.118640 0.447979 0.182570
0.157080 0.446498 0.182214
0.200095 0.444415 0.182324
