src/luts/blur/1.cube
TITLE "Generated by Resolve"
LUT_3D_SIZE 9
0.0260319 0.0281376 0.0240482
0.0833143 0.0463111 0.0372168
0.180102 0.0667124 0.0512856
0.307668 0.07393 0.0692912
0.428519 0.0892348 0.110994
0.56051 0.121706 0.17995
0.69099 0.161151 0.254063
0.816556 0.210086 0.328786
0.886351 0.305318 0.400092
0.00444038 0.0746166 0.0583047
0.0851453 0.0789654 0.0444343
0.181399 0.0903792 0.0328222
0.319005 0.0972915 0.019089
0.434318 0.0981003 0.0500343
0.559609 0.12932 0.131167
0.687709 0.170397 0.223987
0.812329 0.216098 0.3075
0.886854 0.307088 0.384588
0.00801099 0.156435 0.111055
0.0479896 0.165515 0.076524
0.18436 0.17438 0.0723583
0.322423 0.18555 0.0288396
0.450141 0.192035 0.042771
0.574014 0.19411 0.0765545
0.692271 0.193545 0.132738
0.813519 0.211658 0.23592
0.886732 0.307073 0.343572
0.014023 0.272312 0.21294
0.0242924 0.283757 0.154879
0.170779 0.299458 0.123934
0.339757 0.310903 0.139284
0.480369 0.315419 0.092256
0.60354 0.323079 0.0990005
0.718441 0.329152 0.138827
0.828702 0.320638 0.197742
0.896681 0.329976 0.265141
0.0206149 0.398733 0.330571
0.0354009 0.404517 0.272175
0.183841 0.422004 0.229313
0.338766 0.435187 0.211215
0.492088 0.443946 0.243061
0.627955 0.447181 0.197055
0.742977 0.451865 0.194491
0.851041 0.455848 0.226825
0.939361 0.430823 0.261463
0.0340276 0.525963 0.43595
0.0702068 0.528588 0.390616
0.211215 0.541772 0.347478
0.367636 0.55285 0.318746
0.493202 0.562783 0.312047
0.631327 0.569253 0.346349
0.757137 0.572244 0.303304
0.86833 0.572183 0.292088
0.965988 0.565164 0.307408
0.0965896 0.652064 0.534264
0.120043 0.650233 0.496727
0.24213 0.658625 0.458656
0.426139 0.669062 0.418128
0.51545 0.676265 0.40528
0.633844 0.684779 0.405951
0.756283 0.689082 0.433433
0.877211 0.690333 0.390188
0.982803 0.681453 0.367391
0.167239 0.774182 0.634989
0.181155 0.770779 0.602014
0.266682 0.774823 0.564843
0.458015 0.785809 0.516716
0.56376 0.791867 0.489921
0.649012 0.801175 0.483497
0.757855 0.810498 0.487922
0.876295 0.815503 0.504768
0.996277 0.811627 0.452995
0.124407 0.857206 0.758755
0.145159 0.85449 0.728084
0.230549 0.855055 0.69279
0.418967 0.863859 0.639948
0.591028 0.87863 0.596628
0.657145 0.883711 0.574929
0.742016 0.894408 0.558572
0.857603 0.90956 0.556481
0.991989 0.921065 0.556741
0.0215763 0.0446174 0.0575418
0.0876478 0.0497597 0.0593423
0.187549 0.0684672 0.070222
0.314443 0.0813764 0.100267
0.438437 0.112291 0.160189
0.570809 0.156054 0.234195
0.697658 0.204181 0.304097
0.817273 0.251957 0.369223
0.896422 0.331487 0.431678
0.00553903 0.0879683 0.0985733
0.0712596 0.0959182 0.098085
0.183322 0.109346 0.0968795
0.31548 0.128817 0.12488
0.440757 0.154391 0.17528
0.57052 0.187106 0.236194
0.696056 0.223819 0.296727
0.815183 0.260273 0.356634
0.897688 0.335012 0.420111
0.00943008 0.178363 0.188006
0.0173648 0.185107 0.162676
0.17409 0.195499 0.148928
0.327474 0.201144 0.119509
0.45716 0.208255 0.133547
0.583474 0.214771 0.172457
0.704372 0.238056 0.246403
0.820752 0.274205 0.324529
0.900694 0.34316 0.396887
0.0162814 0.303029 0.304311
0.0198978 0.305241 0.264561
0.139513 0.313863 0.209308
0.330724 0.327382 0.221164
0.481041 0.331243 0.181186
0.607919 0.338552 0.190082
0.724437 0.343267 0.222721
0.835401 0.334676 0.267124
0.904234 0.349691 0.329168
0.0251774 0.423835 0.396109
0.0374456 0.425284 0.364462
0.141878 0.433127 0.302586
0.323751 0.446159 0.283772
0.484504 0.456443 0.306477
0.626352 0.459876 0.266133
0.744289 0.46453 0.263813
0.854353 0.466529 0.285313
0.939483 0.432471 0.307012
0.0688334 0.54641 0.484886
0.0898756 0.546624 0.457481
0.157702 0.550103 0.408804
0.351049 0.560204 0.36817
0.482628 0.571313 0.364965
0.62591 0.578195 0.390768
0.754711 0.581506 0.351415
0.868589 0.581369 0.339208
0.967117 0.571939 0.34551
0.133379 0.667689 0.575845
0.151888 0.666636 0.550134
0.190021 0.666209 0.510185
0.403357 0.675669 0.456352
0.509957 0.68217 0.440864
0.626795 0.692348 0.443381
0.75285 0.696513 0.465873
0.876173 0.698222 0.423529
0.983444 0.688991 0.399558
0.194842 0.788128 0.67509
0.211383 0.785824 0.64741
0.235035 0.783932 0.612299
0.410544 0.79057 0.553231
0.554391 0.797574 0.516838
0.645685 0.806867 0.511284
0.752773 0.817136 0.516243
0.874296 0.822232 0.530648
0.995941 0.818509 0.478874
0.1561 0.8663 0.795316
0.182773 0.864942 0.767514
0.22002 0.862806 0.73492
0.374594 0.865736 0.676005
0.569085 0.880552 0.61976
0.649531 0.887541 0.597803
0.737148 0.898833 0.58381
0.851591 0.914061 0.577813
0.990051 0.926268 0.579019
0.0181582 0.0675517 0.123156
0.0897688 0.062089 0.12079
0.188724 0.0747234 0.126528
0.319539 0.0883345 0.149935
0.446525 0.119005 0.202106
0.579156 0.163424 0.263935
0.704585 0.211337 0.32604
0.821698 0.260197 0.386633
0.901274 0.343893 0.452186
0.00598154 0.106584 0.182635
0.0271611 0.116014 0.17966
0.178363 0.129442 0.177142
0.307057 0.163226 0.210666
0.441764 0.19791 0.256291
0.575708 0.238605 0.3093
0.700343 0.28127 0.361852
0.817304 0.310338 0.406149
0.909422 0.365118 0.458366
0.0107424 0.199008 0.258518
0.0163119 0.207874 0.258061
0.152087 0.220325 0.246311
0.32517 0.23209 0.233433
0.460624 0.250874 0.259419
0.589609 0.278126 0.303456
0.709834 0.307088 0.350118
0.823667 0.330709 0.39379
0.913603 0.376089 0.444205
0.0171664 0.320287 0.353948
0.0441749 0.327581 0.348409
0.118914 0.3346 0.308843
0.310536 0.350622 0.314
0.479225 0.354559 0.279316
0.614267 0.360967 0.285832
0.732845 0.362997 0.308949
0.843641 0.355901 0.34493
0.918807 0.388083 0.401572
0.0425727 0.443122 0.4486
0.0816968 0.445991 0.426612
0.14316 0.450889 0.391638
0.30071 0.460166 0.355764
0.469947 0.47245 0.375677
0.622492 0.476509 0.342046
0.745724 0.480507 0.337819
0.858427 0.477592 0.350118
0.941543 0.44036 0.359579
0.110063 0.563851 0.530282
0.136934 0.564385 0.508797
0.185046 0.566278 0.478965
0.313878 0.57145 0.424689
0.472847 0.581506 0.421927
0.616526 0.588846 0.441642
0.750896 0.593057 0.406195
0.868818 0.592706 0.392309
0.968322 0.579355 0.390417
0.170535 0.681804 0.616053
0.197787 0.681178 0.595697
0.237827 0.681651 0.568597
0.344442 0.685313 0.511574
0.496178 0.689693 0.482414
0.619104 0.700847 0.488151
0.746899 0.705669 0.506004
0.873701 0.708049 0.46511
0.983627 0.698238 0.438834
0.21915 0.800961 0.714763
0.244907 0.799481 0.692821
0.274769 0.798398 0.664637
0.339971 0.79881 0.610773
0.534112 0.804562 0.552361
0.639521 0.813504 0.545007
0.746181 0.825208 0.552224
0.869734 0.830396 0.564019
0.994858 0.827375 0.512764
0.188968 0.874968 0.829587
0.226444 0.875273 0.810498
0.267521 0.874952 0.782895
0.341863 0.872923 0.730648
0.517678 0.880461 0.651865
0.63299 0.89073 0.626215
0.730129 0.904082 0.614923
0.84242 0.91928 0.60737
0.985779 0.933288 0.609537
0.0093843 0.0944076 0.221286
0.0694896 0.0838178 0.215686
0.201938 0.0964523 0.22536
0.328252 0.107652 0.232822
0.455375 0.134829 0.261341
0.588479 0.176822 0.30692
0.713024 0.223362 0.356817
0.826963 0.267414 0.409064
0.903532 0.349569 0.471077
0.00770581 0.133639 0.270985
0.0111543 0.145617 0.258946
0.176425 0.154238 0.266087
0.324117 0.172869 0.270512
0.45211 0.209003 0.301213
0.584558 0.248707 0.343313
0.707912 0.28925 0.387289
0.821775 0.323766 0.432074
0.915358 0.380789 0.487327
0.0123903 0.224643 0.347707
0.0128786 0.233982 0.343587
0.0634928 0.248997 0.340795
0.29752 0.267659 0.335943
0.42948 0.308614 0.362036
0.56994 0.347738 0.396429
0.700465 0.377218 0.429999
0.819059 0.395972 0.462211
0.922972 0.418921 0.502647
0.0182345 0.340444 0.412665
0.0253452 0.347448 0.407095
0.0952926 0.357504 0.403693
0.300008 0.372854 0.388998
0.469627 0.385168 0.376394
0.608682 0.399237 0.390784
0.728176 0.414832 0.416464
0.838865 0.426429 0.447333
0.93576 0.440391 0.485252
0.0354772 0.458793 0.490501
0.0862593 0.463584 0.483177
0.168566 0.467918 0.46244
0.295689 0.477333 0.435019
0.452674 0.492409 0.443565
0.615152 0.498085 0.420554
0.746273 0.501366 0.417029
0.863371 0.492866 0.422934
0.947448 0.461067 0.429023
0.123476 0.579278 0.578515
0.171801 0.579843 0.565682
0.230961 0.58117 0.53576
0.314839 0.584573 0.501305
0.450217 0.595056 0.477684
0.599329 0.604883 0.501915
0.744152 0.608164 0.470207
0.868772 0.607462 0.455604
0.969497 0.587854 0.447211
0.201953 0.696361 0.668666
0.236942 0.695186 0.646021
0.284291 0.694804 0.618891
0.368093 0.696681 0.577752
0.459342 0.701854 0.533883
0.609232 0.711681 0.537316
0.734798 0.718532 0.557015
0.869001 0.721111 0.518456
0.983642 0.710094 0.490303
0.235416 0.813138 0.764508
0.27155 0.811872 0.740978
0.30869 0.81091 0.713954
0.381567 0.811353 0.669657
0.48716 0.815045 0.604669
0.62089 0.821958 0.586419
0.737713 0.834638 0.596765
0.86067 0.841047 0.6094
0.992172 0.838239 0.557366
0.19559 0.882429 0.862623
0.239445 0.883848 0.8477
0.289265 0.884855 0.827482
0.369192 0.885878 0.78558
0.457557 0.884062 0.712749
0.595392 0.893385 0.66363
0.715633 0.909468 0.653819
0.830472 0.926482 0.650538
0.977081 0.941772 0.651713
0.00828565 0.135012 0.312932
0.0287938 0.135653 0.305287
0.213977 0.134234 0.312642
0.350729 0.129717 0.321584
0.470359 0.160891 0.330999
0.59881 0.199634 0.359182
0.722484 0.243 0.396643
0.833173 0.279133 0.438636
0.906416 0.356573 0.496635
0.0100862 0.175326 0.352712
0.016434 0.18587 0.340063
0.154543 0.185367 0.345846
0.339925 0.20293 0.349996
0.467887 0.225727 0.358373
0.594293 0.265034 0.386465
0.715724 0.302388 0.421683
0.827878 0.331914 0.459617
0.917235 0.385504 0.511147
0.0145571 0.263462 0.411505
0.0155947 0.26949 0.403433
0.0607462 0.279637 0.400473
0.303304 0.289464 0.402167
0.463539 0.307759 0.403372
0.581903 0.35668 0.431083
0.703975 0.393912 0.465537
0.819821 0.41944 0.499779
0.918807 0.436316 0.53727
0.0198062 0.365133 0.495521
0.0202487 0.372885 0.488167
0.0421912 0.383398 0.475334
0.223285 0.397879 0.461936
0.442863 0.410803 0.455756
0.57145 0.442267 0.472786
0.695857 0.474083 0.500832
0.817853 0.492271 0.528283
0.922316 0.490333 0.552666
0.0306859 0.479179 0.551553
0.0574655 0.482948 0.542626
0.120928 0.489067 0.532845
0.257282 0.496544 0.511925
0.444862 0.510613 0.508995
0.601907 0.522286 0.493751
0.734386 0.53283 0.501945
0.853086 0.535317 0.515633
0.947875 0.528603 0.536858
0.103487 0.595483 0.629206
0.14725 0.596582 0.618524
0.216175 0.597116 0.605005
0.325002 0.599161 0.569741
0.45536 0.60972 0.548837
0.592096 0.621256 0.559838
0.735653 0.626871 0.536034
0.867308 0.625559 0.525032
0.971466 0.600244 0.515435
0.189395 0.71107 0.72491
0.233692 0.7093 0.710521
0.295033 0.707988 0.684611
0.377447 0.707912 0.639323
0.468666 0.713985 0.60882
0.580179 0.727108 0.588266
0.719875 0.736095 0.616556
0.862013 0.737102 0.578851
0.982986 0.72343 0.550683
0.247257 0.824201 0.828717
0.271382 0.82298 0.804852
0.318166 0.822126 0.773693
0.401999 0.821561 0.724346
0.484428 0.823362 0.680964
0.575143 0.832425 0.637415
0.722133 0.845594 0.643839
0.843565 0.855406 0.667994
0.988037 0.851194 0.61117
0.112566 0.883635 0.88278
0.15552 0.886488 0.88043
0.282368 0.892241 0.866987
0.382101 0.895705 0.835126
0.483604 0.897566 0.776135
0.535775 0.895705 0.714473
0.683055 0.913832 0.699794
0.814008 0.934508 0.703273
0.960327 0.952285 0.707149
0.0137484 0.191455 0.397925
0.0249638 0.195926 0.389227
0.200305 0.182406 0.388891
0.370214 0.1944 0.39707
0.499107 0.186007 0.407858
0.616205 0.232197 0.421485
0.733791 0.271015 0.44686
0.841245 0.299077 0.477089
0.910277 0.366278 0.527321
0.0131991 0.229892 0.433524
0.0209812 0.237003 0.419074
0.114015 0.239109 0.411048
0.343282 0.248066 0.420813
0.497993 0.24538 0.432471
0.610117 0.287877 0.441016
0.724788 0.322667 0.465934
0.834775 0.347021 0.49572
0.919844 0.392325 0.540368
0.0169528 0.306706 0.482612
0.0211032 0.311391 0.472145
0.0660105 0.318929 0.462165
0.282948 0.31516 0.478782
0.479377 0.332906 0.462913
0.603433 0.360937 0.474937
0.71458 0.401679 0.500923
0.826749 0.426719 0.530816
0.9243 0.442298 0.564935
0.0218051 0.400549 0.56022
0.0220645 0.405173 0.551492
0.0427253 0.41355 0.541756
0.16907 0.423484 0.530312
0.439857 0.429236 0.525078
0.58584 0.453132 0.523857
0.693843 0.491325 0.548455
0.804974 0.52433 0.580255
0.914595 0.535103 0.610636
0.0272374 0.505821 0.645563
0.0277104 0.50898 0.634882
0.0622263 0.515053 0.619852
0.177615 0.521492 0.595026
0.404623 0.532235 0.578286
0.582208 0.541329 0.567315
0.700679 0.56611 0.578332
0.814557 0.59057 0.602594
0.929503 0.590646 0.623957
0.0794385 0.616876 0.705669
0.109621 0.617166 0.692805
0.156893 0.618204 0.676966
0.260426 0.620203 0.658167
0.418891 0.627268 0.62327
0.578012 0.639338 0.626032
0.721172 0.648432 0.603769
0.854002 0.654597 0.606455
0.964691 0.635813 0.608072
0.15906 0.728649 0.790784
0.194278 0.72755 0.776577
0.245182 0.725948 0.758022
0.351186 0.723568 0.728618
0.464714 0.728634 0.681224
0.592447 0.740963 0.663706
0.715541 0.752392 0.678325
0.85333 0.75639 0.645014
0.982635 0.739086 0.618997
0.148272 0.836851 0.869825
0.221637 0.835554 0.863416
0.294331 0.832792 0.848432
0.377584 0.832547 0.802106
0.474098 0.834424 0.75285
0.586313 0.843992 0.723354
0.692546 0.858442 0.702602
0.826383 0.871611 0.733745
0.982544 0.866926 0.675044
0.144686 0.887572 0.884138
0.17847 0.890608 0.885649
0.202884 0.892363 0.886687
0.355673 0.90103 0.880888
0.464637 0.90573 0.840391
0.547585 0.910521 0.802884
0.627268 0.916793 0.75584
0.780056 0.940597 0.758801
0.932387 0.964553 0.781125
0.0180972 0.256062 0.485985
0.0305638 0.25864 0.476265
0.147417 0.246036 0.462638
0.378836 0.253407 0.476265
0.520378 0.263966 0.487434
0.644144 0.264057 0.49778
0.749889 0.304219 0.509194
0.852399 0.327092 0.527291
0.915923 0.380758 0.565057
0.0174716 0.29015 0.518746
0.0260014 0.295018 0.502144
0.0961166 0.300145 0.483604
0.331914 0.296864 0.494453
0.500679 0.310643 0.503182
0.640436 0.307225 0.515877
0.739361 0.348379 0.523095
0.84361 0.368643 0.542321
0.923735 0.40209 0.575235
0.0197604 0.355749 0.561471
0.0267948 0.357977 0.547234
0.0762493 0.365042 0.529397
0.252171 0.361959 0.53492
0.468238 0.371466 0.536965
0.627817 0.372946 0.539834
0.730007 0.410422 0.549233
0.835294 0.437217 0.571557
0.930434 0.450187 0.598749
0.0241093 0.440848 0.630686
0.0290532 0.443122 0.618112
0.0602426 0.447715 0.603357
0.165164 0.45301 0.590234
0.413062 0.454658 0.60325
0.604242 0.467262 0.577462
0.723003 0.487266 0.591165
0.820935 0.524865 0.614374
0.922866 0.536629 0.641688
0.029099 0.535271 0.740215
0.0302892 0.538338 0.727428
0.0489815 0.543404 0.710018
0.133471 0.549615 0.684062
0.301381 0.555489 0.662501
0.555123 0.56347 0.654017
0.688594 0.58381 0.650095
0.801572 0.609567 0.671748
0.90251 0.639033 0.701198
0.0380713 0.647013 0.814221
0.062623 0.639506 0.799146
0.0993362 0.641627 0.785473
0.174014 0.645441 0.756313
0.331106 0.645777 0.718746
0.547555 0.658442 0.701915
0.707546 0.665202 0.68777
0.822797 0.684611 0.690517
0.932219 0.69723 0.710796
0.0642405 0.755962 0.848524
0.0729534 0.75285 0.847501
0.131868 0.749111 0.839063
0.259831 0.745418 0.816114
0.371633 0.745525 0.789288
0.553658 0.75874 0.745602
0.697398 0.771908 0.753628
0.838193 0.779034 0.721645
0.972213 0.770306 0.712535
0.140185 0.850675 0.873808
0.173419 0.849882 0.873762
0.228199 0.849027 0.874266
0.334569 0.848066 0.876036
0.423468 0.845685 0.843534
0.561349 0.856184 0.804044
0.69099 0.870527 0.790677
0.814954 0.885359 0.812619
0.972702 0.886137 0.758602
0.157107 0.888716 0.884657
0.185794 0.891157 0.885969
0.227375 0.894179 0.887617
0.313802 0.900649 0.891127
0.411688 0.907332 0.895064
0.518624 0.918532 0.871138
0.633524 0.931533 0.849912
0.746075 0.948318 0.832288
0.889815 0.974273 0.858839
0.0268254 0.32398 0.581109
0.0425574 0.323995 0.568307
0.129992 0.324559 0.538079
0.366857 0.313008 0.556313
0.532189 0.325414 0.563104
0.662959 0.330877 0.585
0.775662 0.33611 0.589548
0.869062 0.360845 0.593042
0.923919 0.401053 0.614862
0.0235904 0.352392 0.611856
0.0405127 0.354665 0.592248
0.102831 0.362219 0.562371
0.2981 0.344778 0.574884
0.499046 0.36144 0.574868
0.641169 0.374273 0.592981
0.766369 0.372061 0.601511
0.857847 0.395789 0.603723
0.929702 0.417563 0.62182
0.0255283 0.405661 0.650813
0.0397498 0.407095 0.633143
0.090486 0.413382 0.605997
0.226535 0.409781 0.59942
0.457984 0.407553 0.611246
0.613519 0.425513 0.61268
0.754437 0.419745 0.61912
0.848371 0.449104 0.626215
0.938903 0.461295 0.644327
0.0268101 0.479606 0.71313
0.0325475 0.480751 0.698466
0.0754101 0.484688 0.675593
0.16434 0.486686 0.659724
0.390051 0.48539 0.665858
0.576394 0.49659 0.661387
0.740291 0.496742 0.65301
0.840818 0.522835 0.66482
0.932784 0.538521 0.683833
0.0318608 0.586053 0.800015
0.032929 0.585321 0.799115
0.0661936 0.571221 0.77641
0.12932 0.574197 0.754528
0.282231 0.576791 0.726864
0.522622 0.583368 0.732128
0.710353 0.592615 0.701564
0.826261 0.61062 0.715297
0.923461 0.632441 0.740551
0.0370184 0.687968 0.831693
0.0396735 0.685466 0.830411
0.0472572 0.683238 0.829236
0.0776379 0.680934 0.827543
0.220264 0.67422 0.816678
0.433768 0.676631 0.794125
0.677638 0.686488 0.778836
0.800122 0.70428 0.776761
0.915587 0.722103 0.790799
0.0636301 0.791623 0.858152
0.0673075 0.788891 0.856947
0.0742962 0.785809 0.855817
0.107866 0.783871 0.854841
0.253361 0.777325 0.856184
0.457435 0.76939 0.842283
0.666316 0.786923 0.833967
0.821439 0.795026 0.822965
0.942519 0.80679 0.81384
0.108751 0.865827 0.878233
0.137682 0.865538 0.877882
0.185214 0.865339 0.87808
0.280217 0.865568 0.879347
0.393957 0.865843 0.882124
0.504051 0.868177 0.886915
0.647883 0.881712 0.869902
0.79266 0.896376 0.882994
0.949508 0.907881 0.850294
0.18471 0.891081 0.885924
0.207645 0.892744 0.886885
0.244022 0.895323 0.888228
0.313939 0.900649 0.891127
0.40473 0.908385 0.895308
0.473487 0.917189 0.899504
0.578668 0.933623 0.906874
0.72134 0.956146 0.90866
0.881483 0.984314 0.931456
0.0355993 0.386252 0.683284
0.05449 0.386435 0.667185
0.127169 0.391165 0.626322
0.323522 0.367254 0.638331
0.528527 0.381155 0.646662
0.668864 0.390021 0.656947
0.803479 0.374823 0.69099
0.894041 0.393317 0.682765
0.93611 0.433631 0.692073
0.0314183 0.410376 0.710674
0.0523384 0.411032 0.689433
0.111116 0.418097 0.656275
0.271565 0.404761 0.641749
0.485435 0.409598 0.654459
0.644144 0.419013 0.664744
0.780285 0.416602 0.691066
0.883299 0.421485 0.692393
0.940414 0.446983 0.69456
0.0273442 0.47364 0.753674
0.0497444 0.454688 0.72639
0.102419 0.459113 0.69752
0.206607 0.456855 0.673518
0.42649 0.441901 0.694072
0.61239 0.458701 0.688075
0.749493 0.465751 0.69691
0.871443 0.460655 0.707271
0.949157 0.473732 0.707805
0.0309453 0.542748 0.783978
0.0330968 0.540932 0.782712
0.0865339 0.523354 0.759487
0.165637 0.522469 0.735851
0.357839 0.518608 0.729198
0.566827 0.51545 0.740902
0.720684 0.535271 0.729229
0.861311 0.525444 0.735744
0.947326 0.542321 0.74316
0.0389868 0.624552 0.811429
0.0416876 0.622324 0.810056
0.0479744 0.620432 0.808667
0.0721294 0.61854 0.806958
0.250217 0.604028 0.793378
0.499123 0.598642 0.797223
0.684062 0.609995 0.789227
0.84155 0.61445 0.779263
0.946227 0.622309 0.79498
0.0470741 0.727428 0.842023
0.0514534 0.72343 0.840467
0.0601205 0.719356 0.838865
0.107591 0.714229 0.837171
0.208896 0.708095 0.836713
0.392874 0.703044 0.842405
0.640436 0.711559 0.857588
0.799741 0.713039 0.8392
0.918318 0.732677 0.849928
0.0637827 0.828626 0.868208
0.0664225 0.82594 0.867033
0.0737316 0.823163 0.865705
0.122545 0.819211 0.864836
0.229557 0.814115 0.865141
0.414237 0.805493 0.867979
0.601938 0.812314 0.878904
0.791241 0.818799 0.89218
0.913481 0.835737 0.897261
0.0626841 0.873259 0.880491
0.0641794 0.874449 0.880583
0.0662394 0.876066 0.88072
0.151003 0.881437 0.882887
0.303502 0.884764 0.88513
0.46569 0.884367 0.88925
0.616831 0.894316 0.897917
0.773404 0.910674 0.90988
0.936172 0.919799 0.920317
0.238682 0.894957 0.888029
0.258671 0.896315 0.888777
0.282322 0.898161 0.889784
0.333501 0.901915 0.891936
0.403342 0.908202 0.895232
0.468269 0.91635 0.899138
0.55668 0.929976 0.905623
0.689525 0.953353 0.916487
0.857435 0.98526 0.930755
