src/luts/blur/1.cube
TITLE "Generated by Resolve"
LUT_3D_SIZE 33
0.0260319 0.0281376 0.0240482
0.037232 0.0324407 0.0281224
0.0510109 0.0364538 0.0308537
0.0660258 0.0408789 0.0340734
0.0833143 0.0463111 0.0372168
0.102571 0.0522316 0.0415045
0.124361 0.0571145 0.0447242
0.150118 0.0624399 0.0483101
0.180102 0.0667124 0.0512856
0.212818 0.0699626 0.0542611
0.245518 0.0718547 0.0585489
0.276982 0.0728008 0.0632181
0.307668 0.07393 0.0692912
0.337072 0.0745098 0.0776379
0.366979 0.0774395 0.0872663
0.39736 0.0823682 0.0977798
0.428519 0.0892348 0.110994
0.46006 0.0954452 0.12639
0.491981 0.101411 0.142504
0.52694 0.112734 0.161089
0.56051 0.121706 0.17995
0.593362 0.130648 0.19884
0.626383 0.14078 0.217533
0.6589 0.152346 0.235874
0.69099 0.161151 0.254063
0.723369 0.170886 0.272175
0.755032 0.182116 0.290761
0.786023 0.19498 0.30959
0.816556 0.210086 0.328786
0.850889 0.24062 0.353124
0.874235 0.272755 0.374441
0.8804 0.28925 0.387243
0.886351 0.305318 0.400092
0.0225376 0.0380102 0.0308232
0.0376898 0.0389105 0.0298619
0.0527657 0.0407721 0.0299992
0.0694591 0.0439765 0.031693
0.0889601 0.0482185 0.0332952
0.107988 0.053254 0.0369116
0.129488 0.0578927 0.0407416
0.154665 0.0632944 0.0445869
0.184405 0.0673381 0.0466621
0.21651 0.0703746 0.0496376
0.248646 0.0724041 0.0528725
0.279652 0.0735637 0.0572366
0.309621 0.0749371 0.0629587
0.33875 0.0761578 0.0696727
0.368444 0.0796521 0.0790875
0.398703 0.085008 0.0902724
0.429526 0.0925765 0.103471
0.46067 0.0993668 0.118975
0.492775 0.106188 0.135286
0.527352 0.117205 0.15375
0.560586 0.125643 0.172686
0.593133 0.13434 0.191623
0.625803 0.144106 0.211337
0.658213 0.155261 0.23006
0.690272 0.164309 0.248402
0.722469 0.173556 0.266636
0.754101 0.18439 0.285328
0.784939 0.196735 0.304311
0.81529 0.211246 0.323949
0.848875 0.238987 0.34789
0.874342 0.273228 0.370596
0.880491 0.289631 0.383612
0.886412 0.305577 0.396399
0.0127565 0.0489357 0.0385138
0.0265202 0.0493172 0.0345464
0.0529488 0.0511025 0.0348058
0.0669413 0.0523842 0.0332036
0.0863813 0.0554971 0.0336919
0.107149 0.0592966 0.034226
0.130007 0.0627756 0.0345312
0.1579 0.0661479 0.0340734
0.18883 0.0683909 0.0333257
0.2215 0.0692454 0.0325017
0.252522 0.0714275 0.0332036
0.283223 0.073167 0.0390478
0.312413 0.0746929 0.0464942
0.340978 0.0759594 0.0541848
0.369985 0.0804913 0.0641794
0.400092 0.0868086 0.0775464
0.430426 0.0950637 0.0925154
0.461295 0.102083 0.108736
0.493431 0.110277 0.126711
0.52755 0.120821 0.145357
0.560265 0.12845 0.164004
0.592691 0.137194 0.183612
0.625299 0.147127 0.203922
0.657511 0.158068 0.223102
0.689448 0.167163 0.24213
0.721538 0.176104 0.260853
0.753094 0.186175 0.279774
0.783871 0.198322 0.299138
0.814176 0.212543 0.318547
0.846998 0.237217 0.342
0.87451 0.273884 0.36614
0.880629 0.290135 0.379583
0.886519 0.305928 0.392645
0.00776684 0.0602884 0.0475929
0.0169223 0.0607919 0.0411688
0.0432746 0.0616312 0.0383764
0.0684062 0.0639048 0.0392004
0.0843977 0.0647288 0.0365454
0.104479 0.0682078 0.035874
0.126268 0.0727855 0.035462
0.154162 0.0766155 0.033814
0.186954 0.079469 0.0310063
0.221744 0.0808118 0.0270237
0.255207 0.0812848 0.0224918
0.286702 0.0813764 0.0212711
0.316487 0.0821698 0.0263218
0.34522 0.081239 0.0352636
0.372641 0.0809796 0.0425879
0.401556 0.0874342 0.056672
0.431388 0.0951553 0.073991
0.461707 0.102052 0.0920729
0.493568 0.110567 0.110018
0.527337 0.121416 0.130098
0.559838 0.129854 0.151019
0.592172 0.139284 0.172915
0.624613 0.149615 0.19472
0.656703 0.160204 0.215808
0.688548 0.169436 0.235416
0.720546 0.177966 0.254322
0.752194 0.188205 0.273365
0.78294 0.200214 0.293355
0.813138 0.214267 0.31342
0.845243 0.236301 0.336614
0.874708 0.274632 0.362066
0.880796 0.290669 0.375494
0.886641 0.306401 0.388479
0.00444038 0.0746166 0.0583047
0.0100404 0.0746166 0.0500343
0.0355077 0.0759289 0.0453498
0.0633402 0.0766308 0.0432288
0.0851453 0.0789654 0.0444343
0.103792 0.0797589 0.0399329
0.123095 0.0827497 0.038056
0.148409 0.0868544 0.0363928
0.181399 0.0903792 0.0328222
0.217014 0.093431 0.027924
0.252705 0.09514 0.0226291
0.287449 0.0963149 0.0177005
0.319005 0.0972915 0.019089
0.34905 0.0979934 0.0261387
0.377462 0.0973526 0.032929
0.40528 0.0970321 0.0386206
0.434318 0.0981003 0.0500343
0.463188 0.101411 0.0670024
0.494255 0.110216 0.0882124
0.527398 0.120806 0.109041
0.559609 0.12932 0.131167
0.591714 0.138766 0.154253
0.624002 0.149065 0.177661
0.65597 0.159991 0.201038
0.687709 0.170397 0.223987
0.71986 0.179706 0.245106
0.751644 0.190326 0.265949
0.78233 0.202182 0.286961
0.812329 0.216098 0.3075
0.843809 0.235981 0.330526
0.874998 0.275547 0.357321
0.881071 0.2916 0.371191
0.886854 0.307088 0.384588
0.0047303 0.0912795 0.0704051
0.00740063 0.0910658 0.0598764
0.0252079 0.0924849 0.0543221
0.0529183 0.0932937 0.0498665
0.0811933 0.0944076 0.0480354
0.104204 0.097261 0.0493782
0.123964 0.0988022 0.0435035
0.146578 0.102281 0.0399176
0.177111 0.10576 0.0362097
0.212497 0.109545 0.0308843
0.248615 0.112428 0.0251621
0.284611 0.114122 0.0191653
0.318746 0.115267 0.0168307
0.350118 0.115969 0.0220188
0.379629 0.115724 0.0300603
0.408164 0.115465 0.0358434
0.436942 0.114809 0.040177
0.466926 0.116121 0.050721
0.497902 0.117998 0.0665293
0.528664 0.119799 0.0803998
0.560006 0.127108 0.102571
0.59176 0.137423 0.128725
0.623758 0.147494 0.153887
0.655772 0.158999 0.180087
0.687434 0.169268 0.205249
0.719646 0.179202 0.229099
0.751461 0.190433 0.252049
0.782223 0.202823 0.274876
0.812192 0.217212 0.29749
0.843305 0.236622 0.322255
0.875349 0.276799 0.350759
0.881498 0.292912 0.365606
0.887251 0.308125 0.379446
0.0056611 0.110323 0.0828107
0.00717174 0.110323 0.0708019
0.014786 0.112078 0.0647135
0.0393988 0.113603 0.0592203
0.0729534 0.114534 0.0536965
0.101839 0.115785 0.0529488
0.125826 0.118853 0.0541695
0.149401 0.119951 0.0464179
0.177218 0.123308 0.0409094
0.210941 0.127443 0.0346227
0.246204 0.131212 0.0279088
0.282002 0.134768 0.0221103
0.31812 0.136797 0.0176089
0.350729 0.138079 0.0214542
0.381979 0.138521 0.028809
0.41178 0.138323 0.0352941
0.44155 0.137804 0.0398108
0.470756 0.137636 0.047013
0.501167 0.138537 0.0578622
0.531289 0.13814 0.0681773
0.562097 0.139361 0.0816663
0.594034 0.142473 0.101472
0.624826 0.144244 0.119646
0.656123 0.156359 0.14963
0.6878 0.167773 0.179858
0.719921 0.177905 0.207126
0.751614 0.189487 0.232746
0.782391 0.20209 0.257755
0.81239 0.216739 0.282506
0.843763 0.23743 0.309621
0.875349 0.27715 0.339986
0.881544 0.293263 0.356039
0.887419 0.308797 0.371221
0.00677501 0.132448 0.0957961
0.00674449 0.13312 0.0832074
0.00866712 0.13492 0.0764324
0.0280003 0.136995 0.0704509
0.0614176 0.138521 0.0632181
0.0956893 0.138827 0.0578927
0.124254 0.140917 0.0583352
0.152331 0.144518 0.061326
0.182559 0.146456 0.0485084
0.214679 0.149691 0.038819
0.248463 0.153079 0.0315862
0.283726 0.157046 0.025391
0.318791 0.160342 0.0206912
0.352285 0.16228 0.0232395
0.384085 0.163241 0.0293889
0.415305 0.16376 0.0363012
0.445655 0.163897 0.0409857
0.475502 0.163714 0.0459144
0.506661 0.164523 0.0565652
0.537316 0.164904 0.0662394
0.567666 0.164691 0.0769818
0.597665 0.165362 0.0899519
0.627649 0.16556 0.104494
0.658732 0.167163 0.127153
0.689174 0.168322 0.147372
0.720485 0.173663 0.174456
0.752209 0.186999 0.206226
0.783032 0.200824 0.235401
0.813001 0.21561 0.26276
0.844694 0.237995 0.292439
0.874617 0.275319 0.323888
0.881148 0.292424 0.342367
0.887251 0.308476 0.359289
0.00801099 0.156435 0.111055
0.00798047 0.157229 0.0978256
0.00830091 0.16025 0.090074
0.0218814 0.162966 0.0829938
0.0479896 0.165515 0.076524
0.0867628 0.166705 0.0699321
0.119905 0.167102 0.0646983
0.151339 0.170031 0.0679332
0.18436 0.17438 0.0723583
0.218509 0.175677 0.0555123
0.253788 0.178637 0.0417334
0.288457 0.182254 0.0332494
0.322423 0.18555 0.0288396
0.35552 0.1879 0.0290684
0.387869 0.189914 0.0330053
0.419486 0.191302 0.0381781
0.450141 0.192035 0.042771
0.481056 0.192538 0.0477913
0.512489 0.193851 0.0572213
0.543511 0.194583 0.0675975
0.574014 0.19411 0.0765545
0.604044 0.194293 0.0877241
0.633478 0.19469 0.100847
0.662913 0.193957 0.115953
0.692271 0.193545 0.132738
0.72134 0.192248 0.148455
0.753689 0.193729 0.179355
0.783337 0.196826 0.203189
0.813519 0.211658 0.23592
0.846098 0.238651 0.270787
0.873716 0.273213 0.303349
0.880446 0.290654 0.324208
0.886732 0.307073 0.343572
0.00933852 0.182574 0.131456
0.00933852 0.183871 0.116304
0.00955215 0.18764 0.107744
0.0140688 0.19057 0.0996109
0.0324559 0.19382 0.0922866
0.075288 0.196719 0.0844739
0.113222 0.197711 0.0775158
0.14902 0.199313 0.0741894
0.184375 0.203067 0.0804608
0.221485 0.207324 0.0863966
0.258228 0.208438 0.0702831
0.294148 0.210376 0.0559091
0.328481 0.212757 0.046067
0.361608 0.215442 0.0410925
0.393729 0.217853 0.0408942
0.425483 0.219959 0.0423896
0.457038 0.221515 0.0458839
0.487999 0.22295 0.0502174
0.519493 0.225055 0.0594492
0.550774 0.226261 0.0702831
0.58085 0.226688 0.0797131
0.610925 0.226917 0.0897993
0.640208 0.226566 0.100893
0.669474 0.22594 0.114061
0.698436 0.224826 0.129213
0.727794 0.224048 0.145953
0.75668 0.222339 0.164462
0.784497 0.220386 0.184634
0.814237 0.223865 0.215167
0.84506 0.237613 0.243076
0.871321 0.266743 0.272831
0.879042 0.287037 0.29987
0.886046 0.305257 0.323384
0.0108339 0.211307 0.155489
0.0107576 0.21181 0.136919
0.0110323 0.216342 0.127565
0.0123293 0.220386 0.118791
0.0263676 0.22356 0.11075
0.0610208 0.227481 0.102495
0.103914 0.230137 0.094667
0.141665 0.23151 0.0884565
0.182315 0.233906 0.0876631
0.221576 0.238163 0.0966659
0.260563 0.241459 0.101732
0.298512 0.242512 0.0863966
0.334478 0.243565 0.0719768
0.369009 0.245533 0.0590829
0.40145 0.247669 0.0535592
0.433249 0.249912 0.0519417
0.464576 0.251987 0.05243
0.496193 0.254093 0.0573281
0.527337 0.256184 0.0647746
0.558038 0.257725 0.0742504
0.588205 0.259022 0.08365
0.617884 0.260197 0.0939803
0.64744 0.260914 0.103899
0.676448 0.260655 0.116426
0.705287 0.259586 0.130205
0.734035 0.257572 0.144823
0.762493 0.255375 0.161181
0.790082 0.252842 0.179507
0.816052 0.250965 0.200198
0.841688 0.250996 0.222385
0.875364 0.277592 0.255055
0.879957 0.289036 0.275547
0.884413 0.300618 0.29514
0.0123903 0.241291 0.18323
0.0122835 0.240986 0.161196
0.0125429 0.245716 0.150195
0.0145724 0.250034 0.140642
0.0256199 0.253742 0.131624
0.0539101 0.257877 0.122515
0.098085 0.26186 0.114916
0.133928 0.264424 0.107378
0.176806 0.266911 0.102434
0.219928 0.270054 0.1037
0.260975 0.273884 0.114412
0.300023 0.276234 0.120302
0.338521 0.277363 0.104616
0.374685 0.278218 0.0898146
0.408423 0.279347 0.0762493
0.441215 0.281147 0.0690471
0.472877 0.283101 0.0671244
0.504524 0.28542 0.0692302
0.535622 0.287602 0.0741283
0.566003 0.289357 0.0808728
0.596246 0.291402 0.0890974
0.625177 0.293004 0.0987869
0.654276 0.294179 0.109102
0.683436 0.295201 0.120333
0.712108 0.295125 0.133165
0.740856 0.294072 0.147265
0.769009 0.291112 0.162463
0.796429 0.28809 0.178546
0.822049 0.284092 0.196094
0.846555 0.282155 0.216205
0.876554 0.298024 0.24181
0.885512 0.3028 0.256657
0.888945 0.311131 0.27483
0.014023 0.272312 0.21294
0.0138247 0.27071 0.188342
0.014023 0.275807 0.176059
0.0167086 0.279911 0.16495
0.0242924 0.283757 0.154879
0.0482185 0.287968 0.145754
0.0919966 0.292882 0.13724
0.129397 0.296422 0.129793
0.170779 0.299458 0.123934
0.215167 0.302846 0.120485
0.259937 0.305699 0.122972
0.301076 0.30869 0.13434
0.339757 0.310903 0.139284
0.378378 0.312215 0.125368
0.414115 0.313146 0.112154
0.447791 0.314061 0.100633
0.480369 0.315419 0.092256
0.51223 0.316991 0.0898146
0.543389 0.318822 0.0905318
0.574014 0.320714 0.0930648
0.60354 0.323079 0.0990005
0.632792 0.32517 0.106645
0.661189 0.326833 0.116594
0.689799 0.328252 0.127108
0.718441 0.329152 0.138827
0.747143 0.329168 0.151858
0.775509 0.32813 0.166278
0.802838 0.324681 0.181476
0.828702 0.320638 0.197742
0.852674 0.315633 0.214832
0.878264 0.319356 0.234302
0.893919 0.323232 0.247028
0.896681 0.329976 0.265141
0.015671 0.303853 0.242512
0.0154269 0.301396 0.218387
0.0157321 0.305821 0.204822
0.0181735 0.310048 0.192859
0.0262303 0.313558 0.182055
0.0497597 0.3178 0.171496
0.0896162 0.323003 0.161746
0.129534 0.32752 0.154192
0.16762 0.330785 0.147417
0.212451 0.334493 0.142321
0.256336 0.337697 0.139712
0.300633 0.340185 0.143313
0.340703 0.342733 0.156085
0.379187 0.345144 0.162463
0.417212 0.346334 0.147051
0.452583 0.347356 0.133639
0.486152 0.348165 0.12343
0.519112 0.349187 0.114794
0.550652 0.350561 0.110628
0.581765 0.352346 0.110643
0.611566 0.354299 0.113512
0.64036 0.356497 0.119173
0.668605 0.358511 0.126894
0.69662 0.36022 0.136721
0.72462 0.361715 0.14696
0.753017 0.362478 0.15935
0.781338 0.362539 0.172564
0.80885 0.360891 0.187045
0.835325 0.356771 0.202075
0.859388 0.351247 0.21709
0.881437 0.345693 0.232471
0.904494 0.348211 0.242832
0.905882 0.351537 0.258259
0.017319 0.335683 0.272419
0.0171054 0.333333 0.250309
0.017319 0.336416 0.23505
0.018265 0.340322 0.222827
0.0295262 0.343755 0.211734
0.0523842 0.347677 0.200641
0.0892195 0.35288 0.189517
0.13196 0.357794 0.18024
0.170718 0.361639 0.174136
0.2103 0.364874 0.168353
0.254231 0.36846 0.163531
0.298131 0.371633 0.161975
0.341009 0.373632 0.166796
0.379904 0.376287 0.181796
0.417807 0.378729 0.188296
0.4551 0.379629 0.171954
0.490257 0.380743 0.159075
0.523873 0.381537 0.149172
0.556664 0.382483 0.141161
0.588144 0.383719 0.136233
0.618097 0.385046 0.136187
0.647288 0.386908 0.138155
0.675563 0.388952 0.142611
0.703212 0.390906 0.150378
0.730999 0.39266 0.159014
0.758618 0.394064 0.169574
0.786603 0.395041 0.181582
0.814267 0.394385 0.194598
0.841047 0.392279 0.208591
0.866087 0.387106 0.222263
0.887968 0.379934 0.235538
0.913954 0.382864 0.251072
0.916609 0.376425 0.25684
0.018967 0.367178 0.301854
0.0187839 0.365164 0.282017
0.0187839 0.366857 0.265263
0.0221866 0.370642 0.252979
0.0325628 0.374044 0.241657
0.0538033 0.377615 0.230732
0.0908827 0.382605 0.21912
0.13576 0.387625 0.208804
0.176318 0.391974 0.201602
0.21474 0.395193 0.195865
0.255329 0.398657 0.190448
0.296696 0.402167 0.186892
0.33962 0.404852 0.186007
0.380911 0.406561 0.192416
0.418143 0.409186 0.209384
0.455406 0.411566 0.215686
0.492531 0.412345 0.199115
0.527214 0.413306 0.18587
0.560876 0.41416 0.175937
0.593057 0.415091 0.169009
0.623774 0.416007 0.164385
0.653452 0.417411 0.163165
0.681819 0.418708 0.164416
0.709804 0.420569 0.168399
0.737041 0.422385 0.17467
0.764416 0.424277 0.183108
0.791821 0.425605 0.192981
0.819074 0.426078 0.204685
0.846082 0.424857 0.216785
0.871687 0.421347 0.229099
0.894728 0.41474 0.241672
0.919158 0.413916 0.256962
0.927779 0.402945 0.257755
0.0206149 0.398733 0.330571
0.0204471 0.397131 0.312871
0.0209659 0.397711 0.296056
0.0249943 0.401266 0.283909
0.0354009 0.404517 0.272175
0.0590829 0.408209 0.260731
0.0957198 0.412528 0.249348
0.139925 0.417731 0.23798
0.183841 0.422004 0.229313
0.223743 0.42562 0.223301
0.260624 0.428656 0.218265
0.299443 0.431922 0.214069
0.338766 0.435187 0.211215
0.37966 0.43743 0.211902
0.419532 0.43917 0.219562
0.455299 0.441901 0.237049
0.492088 0.443946 0.243061
0.529351 0.444678 0.227085
0.56376 0.445609 0.214328
0.596475 0.446403 0.204532
0.627955 0.447181 0.197055
0.658076 0.448051 0.192248
0.687251 0.449042 0.191058
0.715297 0.450324 0.191363
0.742977 0.451865 0.194491
0.76997 0.453544 0.200244
0.796902 0.455177 0.20824
0.824094 0.456107 0.217044
0.851041 0.455848 0.226825
0.876921 0.453742 0.237888
0.900786 0.448814 0.249027
0.923217 0.443259 0.261509
0.939361 0.430823 0.261463
0.0222629 0.430167 0.35819
0.0221103 0.428763 0.342336
0.0229496 0.428412 0.325917
0.029099 0.432059 0.31426
0.0424964 0.435294 0.303014
0.0654612 0.438804 0.291539
0.101152 0.442725 0.279957
0.143938 0.447532 0.268238
0.192813 0.452125 0.257618
0.23444 0.45565 0.250629
0.268849 0.45861 0.246052
0.304494 0.461723 0.241428
0.341238 0.464759 0.237705
0.379309 0.467765 0.235737
0.41886 0.469825 0.237766
0.45687 0.471397 0.246647
0.491661 0.47393 0.26424
0.528145 0.476005 0.269551
0.565179 0.4766 0.254078
0.598795 0.477531 0.242267
0.63093 0.478218 0.232578
0.661921 0.478904 0.225101
0.691249 0.479606 0.220523
0.72018 0.480522 0.218265
0.748028 0.481559 0.218433
0.775296 0.482933 0.221271
0.802335 0.484291 0.225757
0.828824 0.485298 0.2318
0.855421 0.485679 0.239567
0.881666 0.484611 0.248356
0.906035 0.480934 0.258213
0.927886 0.474113 0.268116
0.950698 0.465385 0.272053
0.0242771 0.461936 0.384634
0.0242924 0.460716 0.37052
0.0244602 0.459373 0.354833
0.0324865 0.463127 0.343847
0.0475624 0.466377 0.333288
0.0735943 0.469444 0.322499
0.10837 0.473335 0.310552
0.148898 0.477378 0.299077
0.199924 0.482322 0.287083
0.246464 0.485832 0.278904
0.280613 0.488579 0.273152
0.312932 0.491417 0.268589
0.347463 0.494484 0.265064
0.381643 0.497292 0.261967
0.418311 0.499901 0.261234
0.456474 0.501625 0.263722
0.493431 0.503304 0.273671
0.52755 0.505791 0.291432
0.563592 0.507393 0.295689
0.599802 0.50808 0.280034
0.63241 0.50901 0.269184
0.664057 0.509728 0.259586
0.69453 0.510384 0.25243
0.723568 0.510903 0.247501
0.751965 0.511528 0.244877
0.779736 0.512261 0.244556
0.806867 0.513298 0.246448
0.833524 0.51429 0.249454
0.859922 0.514626 0.254627
0.885969 0.514031 0.261158
0.910887 0.511849 0.268666
0.933822 0.507668 0.277806
0.957519 0.504112 0.287037
0.0282444 0.493889 0.410697
0.0284428 0.492882 0.39794
0.0295872 0.491798 0.383856
0.037171 0.49427 0.372107
0.0584878 0.49752 0.362371
0.0838483 0.500252 0.352193
0.115267 0.503838 0.340841
0.153994 0.507881 0.329641
0.205921 0.512016 0.317723
0.257877 0.516228 0.307591
0.297734 0.518822 0.300633
0.32546 0.521035 0.296025
0.355474 0.523842 0.291997
0.388159 0.52697 0.288777
0.420783 0.529473 0.286412
0.456291 0.53167 0.286275
0.493355 0.533165 0.290242
0.529564 0.534783 0.300374
0.562661 0.537346 0.317906
0.597833 0.53875 0.321584
0.633127 0.539361 0.306035
0.665064 0.540124 0.295048
0.696056 0.540795 0.285771
0.726101 0.541329 0.278065
0.755123 0.541711 0.272923
0.783139 0.542077 0.269703
0.810575 0.542443 0.269017
0.83772 0.543038 0.269673
0.864179 0.543252 0.272068
0.890272 0.543114 0.276112
0.91548 0.541833 0.281209
0.93901 0.538705 0.288487
0.962478 0.536751 0.297383
0.0340276 0.525963 0.43595
0.0359655 0.525078 0.42417
0.0386053 0.524193 0.411658
0.0482643 0.525475 0.400092
0.0702068 0.528588 0.390616
0.0938888 0.531395 0.38088
0.124224 0.534051 0.370062
0.16083 0.537774 0.358694
0.211215 0.541772 0.347478
0.268727 0.545983 0.336599
0.31046 0.548898 0.328573
0.341939 0.551003 0.322744
0.367636 0.55285 0.318746
0.395407 0.555627 0.315557
0.426383 0.558556 0.312856
0.458656 0.561242 0.31136
0.493202 0.562783 0.312047
0.529534 0.564111 0.316152
0.564782 0.565713 0.326863
0.597192 0.568139 0.343877
0.631327 0.569253 0.346349
0.665644 0.569863 0.331182
0.696681 0.570871 0.3205
0.727275 0.571649 0.310964
0.757137 0.572244 0.303304
0.785763 0.572442 0.297597
0.813733 0.572381 0.293935
0.841047 0.572244 0.292287
0.86833 0.572183 0.292088
0.894621 0.571527 0.2934
0.919661 0.570474 0.296254
0.943389 0.568566 0.30132
0.965988 0.565164 0.307408
0.0421912 0.557733 0.4607
0.0466621 0.557015 0.450019
0.0510719 0.55642 0.438422
0.0591745 0.556573 0.427146
0.081239 0.559289 0.417914
0.106142 0.561883 0.409033
0.133364 0.564721 0.398505
0.169177 0.567498 0.387411
0.218112 0.571267 0.376516
0.274815 0.574929 0.36492
0.322393 0.578164 0.355535
0.35494 0.58024 0.349172
0.380179 0.582132 0.34464
0.406012 0.58436 0.341421
0.433585 0.586725 0.338567
0.463386 0.589578 0.336461
0.495521 0.591943 0.335485
0.529519 0.593729 0.336934
0.56527 0.594995 0.341955
0.599374 0.596338 0.351919
0.630213 0.598108 0.367834
0.663523 0.599115 0.369787
0.697185 0.599771 0.355016
0.727977 0.600916 0.34461
0.757809 0.601709 0.335622
0.787396 0.60209 0.327443
0.815961 0.601892 0.321675
0.843793 0.601389 0.317571
0.871458 0.6009 0.315251
0.898054 0.600198 0.314229
0.923674 0.598993 0.314504
0.947768 0.59733 0.316716
0.970138 0.593774 0.319585
0.0556954 0.589242 0.485252
0.0603342 0.5888 0.47541
0.0657511 0.588251 0.464851
0.0713054 0.587549 0.453452
0.0945754 0.589731 0.444739
0.117571 0.591974 0.436118
0.144244 0.594476 0.426413
0.178943 0.59736 0.415351
0.224842 0.600061 0.404242
0.280064 0.603784 0.393454
0.333211 0.607416 0.382086
0.368933 0.609308 0.374533
0.394934 0.610819 0.369192
0.418433 0.61268 0.365927
0.444587 0.615152 0.363012
0.471275 0.617639 0.360998
0.500298 0.620005 0.359274
0.531701 0.622217 0.358862
0.565469 0.623865 0.360754
0.600061 0.625101 0.365728
0.632639 0.626535 0.37583
0.662272 0.62829 0.391363
0.695064 0.629252 0.39234
0.728176 0.630045 0.377279
0.758389 0.63093 0.367025
0.787869 0.631418 0.358083
0.817334 0.631617 0.349966
0.845716 0.631174 0.343725
0.873747 0.63032 0.338964
0.901152 0.629145 0.335958
0.927337 0.627451 0.334157
0.951843 0.625589 0.333608
0.974548 0.62327 0.333608
0.0754101 0.620996 0.509789
0.0795911 0.620279 0.500496
0.0845808 0.619486 0.490639
0.0895247 0.618708 0.479942
0.10695 0.620188 0.470878
0.129686 0.622171 0.462791
0.155276 0.624109 0.453407
0.189807 0.626703 0.442954
0.232914 0.629511 0.431464
0.285725 0.63238 0.420706
0.341543 0.635691 0.409537
0.383108 0.638666 0.400168
0.410895 0.640208 0.394186
0.433433 0.641596 0.389639
0.455268 0.643122 0.386587
0.480766 0.64564 0.384298
0.507256 0.648142 0.382773
0.536355 0.650782 0.381537
0.567117 0.652445 0.381582
0.600412 0.653986 0.383581
0.633417 0.655177 0.388647
0.664683 0.656687 0.398733
0.693462 0.658167 0.413275
0.725811 0.6589 0.413214
0.758541 0.659831 0.398642
0.788434 0.660868 0.388861
0.817761 0.661204 0.379004
0.847089 0.660914 0.370535
0.875715 0.659953 0.363882
0.903853 0.658625 0.35874
0.930617 0.656855 0.354879
0.955566 0.654597 0.35201
0.978759 0.651926 0.349447
0.0965896 0.652064 0.534264
0.100252 0.651316 0.52549
0.10454 0.650523 0.516075
0.108522 0.649744 0.506416
0.120043 0.650233 0.496727
0.140826 0.651987 0.488914
0.166354 0.653925 0.479942
0.19942 0.655985 0.46978
0.24213 0.658625 0.458656
0.291676 0.661509 0.447318
0.346044 0.664622 0.436408
0.394919 0.667231 0.425483
0.426139 0.669062 0.418128
0.44889 0.670344 0.413245
0.468147 0.671839 0.409552
0.490654 0.674037 0.40705
0.51545 0.676265 0.40528
0.542306 0.678737 0.403769
0.571359 0.681132 0.403052
0.602243 0.683436 0.403601
0.633844 0.684779 0.405951
0.665827 0.685725 0.411109
0.696269 0.686946 0.42063
0.724437 0.688396 0.434501
0.756283 0.689082 0.433433
0.788708 0.689967 0.419013
0.818326 0.690837 0.408698
0.847669 0.69099 0.398825
0.877211 0.690333 0.390188
0.905928 0.689128 0.382986
0.933532 0.687266 0.377432
0.959243 0.684321 0.372168
0.982803 0.681453 0.367391
0.114809 0.682826 0.558846
0.118822 0.682155 0.550347
0.122744 0.681437 0.541482
0.126207 0.680629 0.532128
0.131792 0.680095 0.522652
0.151141 0.681697 0.515023
0.176272 0.683574 0.506279
0.208774 0.685634 0.496483
0.250629 0.688121 0.485481
0.29868 0.690578 0.473991
0.351293 0.693584 0.462867
0.402548 0.696681 0.451789
0.439994 0.698878 0.442466
0.465232 0.699901 0.436286
0.48423 0.700725 0.431922
0.504768 0.702327 0.429328
0.527321 0.704738 0.427237
0.551736 0.707378 0.425711
0.57818 0.709819 0.424491
0.605737 0.712047 0.424369
0.635645 0.714199 0.425223
0.666392 0.715724 0.427649
0.697734 0.716869 0.432654
0.727398 0.718135 0.441703
0.754757 0.719585 0.4551
0.786358 0.720119 0.453178
0.818662 0.720699 0.437812
0.848234 0.72137 0.427649
0.877974 0.721386 0.417395
0.907485 0.720577 0.40824
0.936034 0.718547 0.400519
0.962707 0.715648 0.393927
0.986847 0.711894 0.386999
0.133471 0.713863 0.583398
0.136843 0.713222 0.575235
0.140078 0.712505 0.567071
0.143694 0.711772 0.558175
0.147097 0.711009 0.548653
0.162615 0.711879 0.54052
0.185336 0.713405 0.532433
0.218387 0.715129 0.522881
0.257969 0.71722 0.511986
0.303853 0.719814 0.500389
0.354406 0.72256 0.48867
0.406546 0.725689 0.477958
0.452338 0.72842 0.466697
0.479728 0.729854 0.459403
0.500694 0.730922 0.45452
0.518959 0.731975 0.450858
0.5393 0.733623 0.448493
0.561608 0.736065 0.446967
0.585901 0.738598 0.445869
0.611704 0.741299 0.445014
0.639017 0.743709 0.445075
0.667765 0.74583 0.446281
0.698177 0.747402 0.448875
