src/luts/blur/1.cube
TITLE "Generated by Resolve"
LUT_3D_SIZE 5
0.0260319 0.0281376 0.0240482
0.180102 0.0667124 0.0512856
0.428519 0.0892348 0.110994
0.69099 0.161151 0.254063
0.886351 0.305318 0.400092
0.00801099 0.156435 0.111055
0.18436 0.17438 0.0723583
0.450141 0.192035 0.042771
0.692271 0.193545 0.132738
0.886732 0.307073 0.343572
0.0206149 0.398733 0.330571
0.183841 0.422004 0.229313
0.492088 0.443946 0.243061
0.742977 0.451865 0.194491
0.939361 0.430823 0.261463
0.0965896 0.652064 0.534264
0.24213 0.658625 0.458656
0.51545 0.676265 0.40528
0.756283 0.689082 0.433433
0.982803 0.681453 0.367391
0.124407 0.857206 0.758755
0.230549 0.855055 0.69279
0.591028 0.87863 0.596628
0.742016 0.894408 0.558572
0.991989 0.921065 0.556741
0.0181582 0.0675517 0.123156
0.188724 0.0747234 0.126528
0.446525 0.119005 0.202106
0.704585 0.211337 0.32604
0.901274 0.343893 0.452186
0.0107424 0.199008 0.258518
0.152087 0.220325 0.246311
0.460624 0.250874 0.259419
0.709834 0.307088 0.350118
0.913603 0.376089 0.444205
0.0425727 0.443122 0.4486
0.14316 0.450889 0.391638
0.469947 0.47245 0.375677
0.745724 0.480507 0.337819
0.941543 0.44036 0.359579
0.170535 0.681804 0.616053
0.237827 0.681651 0.568597
0.496178 0.689693 0.482414
0.746899 0.705669 0.506004
0.983627 0.698238 0.438834
0.188968 0.874968 0.829587
0.267521 0.874952 0.782895
0.517678 0.880461 0.651865
0.730129 0.904082 0.614923
0.985779 0.933288 0.609537
0.00828565 0.135012 0.312932
0.213977 0.134234 0.312642
0.470359 0.160891 0.330999
0.722484 0.243 0.396643
0.906416 0.356573 0.496635
0.0145571 0.263462 0.411505
0.0607462 0.279637 0.400473
0.463539 0.307759 0.403372
0.703975 0.393912 0.465537
0.918807 0.436316 0.53727
0.0306859 0.479179 0.551553
0.120928 0.489067 0.532845
0.444862 0.510613 0.508995
0.734386 0.53283 0.501945
0.947875 0.528603 0.536858
0.189395 0.71107 0.72491
0.295033 0.707988 0.684611
0.468666 0.713985 0.60882
0.719875 0.736095 0.616556
0.982986 0.72343 0.550683
0.112566 0.883635 0.88278
0.282368 0.892241 0.866987
0.483604 0.897566 0.776135
0.683055 0.913832 0.699794
0.960327 0.952285 0.707149
0.0180972 0.256062 0.485985
0.147417 0.246036 0.462638
0.520378 0.263966 0.487434
0.749889 0.304219 0.509194
0.915923 0.380758 0.565057
0.0197604 0.355749 0.561471
0.0762493 0.365042 0.529397
0.468238 0.371466 0.536965
0.730007 0.410422 0.549233
0.930434 0.450187 0.598749
0.029099 0.535271 0.740215
0.0489815 0.543404 0.710018
0.301381 0.555489 0.662501
0.688594 0.58381 0.650095
0.90251 0.639033 0.701198
0.0642405 0.755962 0.848524
0.131868 0.749111 0.839063
0.371633 0.745525 0.789288
0.697398 0.771908 0.753628
0.972213 0.770306 0.712535
0.157107 0.888716 0.884657
0.227375 0.894179 0.887617
0.411688 0.907332 0.895064
0.633524 0.931533 0.849912
0.889815 0.974273 0.858839
0.0355993 0.386252 0.683284
0.127169 0.391165 0.626322
0.528527 0.381155 0.646662
0.803479 0.374823 0.69099
0.93611 0.433631 0.692073
0.0273442 0.47364 0.753674
0.102419 0.459113 0.69752
0.42649 0.441901 0.694072
0.749493 0.465751 0.69691
0.949157 0.473732 0.707805
0.0389868 0.624552 0.811429
0.0479744 0.620432 0.808667
0.250217 0.604028 0.793378
0.684062 0.609995 0.789227
0.946227 0.622309 0.79498
0.0637827 0.828626 0.868208
0.0737316 0.823163 0.865705
0.229557 0.814115 0.865141
0.601938 0.812314 0.878904
0.913481 0.835737 0.897261
0.238682 0.894957 0.888029
0.282322 0.898161 0.889784
0.403342 0.908202 0.895232
0.55668 0.929976 0.905623
0.857435 0.98526 0.930755
