src/luts/blur/10.cube
LUT_3D_SIZE 6
-0.064217 -0.064217 -0.064217
0.051602 0.051602 0.051602
0.128608 0.128608 0.128608
0.238492 0.238492 0.238492
0.383698 0.383698 0.383698
0.609516 0.609516 0.609516
0.092116 0.092116 0.092116
0.104331 0.104331 0.104331
0.164103 0.164103 0.164103
0.267265 0.267265 0.267265
0.408100 0.408100 0.408100
0.629201 0.629201 0.629201
0.272588 0.272588 0.272588
0.280906 0.280906 0.280906
0.325174 0.325174 0.325174
0.410207 0.410207 0.410207
0.532949 0.532949 0.532949
0.729320 0.729320 0.729320
0.546200 0.546200 0.546200
0.552569 0.552569 0.552569
0.586833 0.586833 0.586833
0.653055 0.653055 0.653055
0.748542 0.748542 0.748542
0.898715 0.898716 0.898716
0.863303 0.863303 0.863303
0.867607 0.867607 0.867607
0.889249 0.889249 0.889249
0.924245 0.924245 0.924245
0.959736 0.959736 0.959736
0.989191 0.989191 0.989191
1.140890 1.140890 1.140890
1.141482 1.141482 1.141482
1.147695 1.147695 1.147695
1.161223 1.161223 1.161223
1.182503 1.182503 1.182503
1.220545 1.220544 1.220544
-0.787648 -0.787648 -0.787648
-0.784176 -0.784176 -0.784176
-0.772599 -0.772599 -0.772599
-0.751026 -0.751026 -0.751026
-0.714323 -0.714323 -0.714323
-0.631874 -0.631874 -0.631874
0.097628 0.097628 0.097628
0.109593 0.109593 0.109593
0.168526 0.168526 0.168526
0.271043 0.271043 0.271043
0.411255 0.411255 0.411255
0.631736 0.631736 0.631736
0.276342 0.276342 0.276342
0.284559 0.284559 0.284559
0.328663 0.328663 0.328663
0.413399 0.413399 0.413399
0.535876 0.535876 0.535876
0.731574 0.731575 0.731575
0.549017 0.549017 0.549017
0.555360 0.555360 0.555360
0.589488 0.589488 0.589488
0.655524 0.655524 0.655524
0.750716 0.750716 0.750716
0.900194 0.900194 0.900194
0.865338 0.865338 0.865338
0.869429 0.869429 0.869429
0.891012 0.891012 0.891012
0.925186 0.925186 0.925186
0.960401 0.960401 0.960401
0.989413 0.989413 0.989413
1.140510 1.140510 1.140510
1.141495 1.141495 1.141495
1.147869 1.147869 1.147869
1.161417 1.161417 1.161417
1.182681 1.182681 1.182681
1.220588 1.220588 1.220588
-0.781220 -0.781220 -0.781220
-0.778938 -0.778938 -0.778938
-0.768011 -0.768011 -0.768011
-0.746409 -0.746409 -0.746409
-0.709154 -0.709154 -0.709154
-0.625492 -0.625492 -0.625492
0.120101 0.120101 0.120100
0.131197 0.131197 0.131197
0.187086 0.187086 0.187086
0.286920 0.286920 0.286920
0.424943 0.424942 0.424942
0.642690 0.642690 0.642690
0.292081 0.292081 0.292081
0.300141 0.300141 0.300141
0.343462 0.343462 0.343462
0.426968 0.426968 0.426968
0.548024 0.548024 0.548024
0.741225 0.741225 0.741225
0.561122 0.561122 0.561122
0.567376 0.567376 0.567376
0.601030 0.601030 0.601030
0.666036 0.666036 0.666036
0.760049 0.760049 0.760049
0.906252 0.906252 0.906252
0.873173 0.873173 0.873173
0.877333 0.877333 0.877333
0.897643 0.897643 0.897643
0.930014 0.930014 0.930014
0.963062 0.963062 0.963062
0.990229 0.990229 0.990229
1.141932 1.141932 1.141932
1.143056 1.143056 1.143056
1.149650 1.149649 1.149650
1.163219 1.163219 1.163219
1.184345 1.184345 1.184345
1.222105 1.222105 1.222105
-0.771992 -0.771992 -0.771992
-0.770030 -0.770030 -0.770030
-0.759479 -0.759479 -0.759479
-0.737445 -0.737445 -0.737445
-0.699365 -0.699365 -0.699365
-0.613119 -0.613119 -0.613119
0.161344 0.161344 0.161344
0.171329 0.171329 0.171329
0.222996 0.222996 0.222996
0.318289 0.318289 0.318289
0.452065 0.452065 0.452065
0.664419 0.664419 0.664419
0.323174 0.323174 0.323174
0.331008 0.331008 0.331008
0.372932 0.372932 0.372932
0.454075 0.454075 0.454075
0.572220 0.572220 0.572220
0.760323 0.760323 0.760323
0.585143 0.585143 0.585143
0.591251 0.591251 0.591251
0.623973 0.623973 0.623973
0.687045 0.687045 0.687045
0.778786 0.778786 0.778786
0.917816 0.917816 0.917816
0.888446 0.888446 0.888446
0.892028 0.892028 0.892028
0.910092 0.910092 0.910092
0.938843 0.938843 0.938843
0.967956 0.967956 0.967956
0.991763 0.991763 0.991763
1.145790 1.145790 1.145790
1.146979 1.146979 1.146979
1.153662 1.153662 1.153662
1.167167 1.167167 1.167167
1.188175 1.188175 1.188175
1.225637 1.225637 1.225637
-0.758652 -0.758652 -0.758651
-0.756763 -0.756763 -0.756763
-0.746255 -0.746255 -0.746255
-0.723446 -0.723446 -0.723446
-0.683672 -0.683672 -0.683672
-0.593442 -0.593442 -0.593442
0.220326 0.220326 0.220326
0.229288 0.229288 0.229288
0.276603 0.276603 0.276603
0.366103 0.366103 0.366103
0.493968 0.493968 0.493968
0.697907 0.697907 0.697907
0.370778 0.370778 0.370778
0.378216 0.378216 0.378216
0.418195 0.418195 0.418195
0.495915 0.495915 0.495915
0.609819 0.609819 0.609819
0.790053 0.790053 0.790053
0.622154 0.622154 0.622154
0.627945 0.627945 0.627945
0.659129 0.659129 0.659129
0.719583 0.719583 0.719583
0.807680 0.807680 0.807680
0.933353 0.933353 0.933353
0.909028 0.909028 0.909028
0.912127 0.912127 0.912127
0.926964 0.926964 0.926964
0.950741 0.950741 0.950741
0.974531 0.974531 0.974531
0.993725 0.993725 0.993725
1.152502 1.152502 1.152502
1.153695 1.153695 1.153695
1.160263 1.160263 1.160263
1.173703 1.173703 1.173703
1.194313 1.194313 1.194313
1.231548 1.231548 1.231548
-0.740079 -0.740079 -0.740079
-0.738062 -0.738062 -0.738062
-0.726994 -0.726994 -0.726994
-0.703102 -0.703102 -0.703102
-0.660708 -0.660708 -0.660708
-0.564413 -0.564413 -0.564413
0.295710 0.295710 0.295709
0.303860 0.303860 0.303860
0.347110 0.347110 0.347110
0.430282 0.430282 0.430282
0.550762 0.550762 0.550762
0.743096 0.743096 0.743096
0.434642 0.434642 0.434642
0.441558 0.441558 0.441558
0.479152 0.479152 0.479153
0.552651 0.552651 0.552651
0.660142 0.660142 0.660142
0.830148 0.830147 0.830148
0.671858 0.671858 0.671858
0.677337 0.677337 0.677337
0.706533 0.706533 0.706533
0.763688 0.763688 0.763688
0.846742 0.846742 0.846742
0.950997 0.950997 0.950997
0.932547 0.932547 0.932547
0.934812 0.934812 0.934812
0.946103 0.946103 0.946103
0.964066 0.964066 0.964066
0.981732 0.981732 0.981732
0.995937 0.995937 0.995937
0.999754 0.999754 0.999754
0.999782 0.999782 0.999782
0.999898 0.999898 0.999898
1.000011 1.000011 1.000011
1.000000 1.000000 1.000000
1.045743 1.045743 1.045743
