src/luts/blur/10.cube
LUT_3D_SIZE 16
-0.064217 -0.064217 -0.064217
0.012111 0.012111 0.012111
0.031871 0.031871 0.031871
0.051602 0.051602 0.051602
0.074191 0.074191 0.074191
0.099766 0.099766 0.099766
0.128608 0.128608 0.128608
0.161134 0.161134 0.161134
0.197777 0.197777 0.197777
0.238492 0.238492 0.238492
0.283087 0.283087 0.283087
0.331823 0.331823 0.331823
0.383698 0.383698 0.383698
0.439531 0.439531 0.439531
0.497568 0.497569 0.497569
0.609516 0.609516 0.609516
0.020306 0.020306 0.020306
0.016301 0.016301 0.016301
0.028498 0.028498 0.028498
0.047513 0.047513 0.047513
0.070430 0.070430 0.070430
0.096512 0.096512 0.096512
0.125680 0.125680 0.125680
0.158468 0.158468 0.158468
0.195303 0.195303 0.195303
0.236181 0.236181 0.236181
0.280974 0.280974 0.280974
0.329838 0.329837 0.329837
0.381778 0.381778 0.381778
0.437674 0.437674 0.437674
0.495806 0.495806 0.495806
0.608002 0.608002 0.608002
0.052189 0.052189 0.052189
0.050348 0.050348 0.050348
0.055808 0.055808 0.055808
0.068389 0.068389 0.068389
0.086905 0.086905 0.086905
0.110108 0.110108 0.110108
0.137574 0.137574 0.137574
0.169226 0.169226 0.169226
0.205267 0.205267 0.205267
0.245489 0.245489 0.245489
0.289704 0.289704 0.289704
0.338068 0.338069 0.338069
0.389595 0.389594 0.389594
0.445111 0.445111 0.445111
0.502817 0.502817 0.502817
0.614287 0.614287 0.614287
0.092116 0.092116 0.092116
0.090984 0.090984 0.090984
0.094984 0.094984 0.094984
0.104331 0.104331 0.104331
0.119112 0.119112 0.119112
0.139111 0.139111 0.139111
0.164103 0.164103 0.164103
0.193862 0.193862 0.193862
0.228359 0.228359 0.228359
0.267265 0.267265 0.267265
0.310310 0.310310 0.310310
0.357497 0.357520 0.357520
0.408100 0.408100 0.408100
0.462586 0.462586 0.462586
0.519357 0.519356 0.519356
0.629201 0.629201 0.629201
0.141331 0.141331 0.141331
0.140492 0.140492 0.140492
0.143765 0.143765 0.143765
0.151551 0.151551 0.151551
0.164266 0.164266 0.164266
0.182000 0.182000 0.182000
0.204796 0.204796 0.204796
0.232470 0.232470 0.232470
0.265052 0.265052 0.265052
0.302164 0.302164 0.302164
0.343496 0.343496 0.343496
0.389114 0.389114 0.389114
0.438085 0.438085 0.438085
0.491028 0.491029 0.491029
0.546410 0.546410 0.546410
0.653316 0.653316 0.653316
0.201325 0.201325 0.201325
0.200558 0.200558 0.200558
0.203473 0.203473 0.203473
0.210418 0.210418 0.210418
0.221771 0.221771 0.221771
0.237875 0.237875 0.237875
0.258802 0.258802 0.258802
0.284544 0.284544 0.284544
0.314978 0.314978 0.314978
0.349948 0.349948 0.349948
0.389230 0.389230 0.389230
0.432845 0.432845 0.432845
0.479763 0.479763 0.479763
0.530728 0.530727 0.530727
0.584368 0.584368 0.584368
0.686802 0.686802 0.686802
0.272588 0.272588 0.272588
0.271968 0.271968 0.271968
0.274573 0.274573 0.274573
0.280906 0.280906 0.280906
0.291264 0.291264 0.291264
0.305890 0.305890 0.305890
0.325174 0.325174 0.325174
0.348979 0.348979 0.348979
0.377386 0.377386 0.377386
0.410207 0.410207 0.410207
0.447164 0.447164 0.447164
0.488374 0.488374 0.488374
0.532949 0.532949 0.532949
0.581747 0.581747 0.581747
0.632507 0.632507 0.632507
0.729320 0.729320 0.729320
0.354619 0.354619 0.354619
0.353996 0.353996 0.353996
0.356370 0.356370 0.356370
0.362046 0.362046 0.362046
0.371529 0.371529 0.371529
0.385019 0.385019 0.385019
0.402675 0.402675 0.402675
0.424682 0.424682 0.424682
0.451033 0.451033 0.451033
0.481568 0.481568 0.481568
0.516180 0.516180 0.516180
0.555101 0.555101 0.555101
0.597183 0.597183 0.597183
0.642568 0.642568 0.642568
0.689627 0.689627 0.689627
0.780087 0.780087 0.780087
0.446168 0.446168 0.446168
0.445670 0.445670 0.445670
0.447837 0.447837 0.447837
0.453067 0.453067 0.453067
0.461734 0.461734 0.461734
0.474048 0.474048 0.474048
0.490331 0.490331 0.490331
0.510561 0.510561 0.510561
0.535004 0.535004 0.535004
0.563409 0.563409 0.563409
0.595662 0.595662 0.595662
0.631410 0.631410 0.631410
0.669839 0.669839 0.669839
0.711281 0.711281 0.711281
0.754607 0.754607 0.754607
0.837856 0.837856 0.837856
0.546200 0.546200 0.546200
0.545727 0.545727 0.545727
0.547786 0.547786 0.547786
0.552569 0.552569 0.552569
0.560492 0.560492 0.560492
0.571910 0.571910 0.571910
0.586833 0.586833 0.586833
0.605381 0.605381 0.605381
0.627446 0.627446 0.627446
0.653055 0.653055 0.653055
0.681828 0.681828 0.681828
0.713794 0.713794 0.713794
0.748542 0.748542 0.748542
0.786211 0.786211 0.786211
0.825516 0.825516 0.825516
0.898715 0.898716 0.898716
0.651948 0.651948 0.651948
0.651543 0.651543 0.651543
0.653291 0.653291 0.653291
0.657542 0.657542 0.657542
0.664526 0.664526 0.664526
0.674449 0.674449 0.674449
0.687436 0.687436 0.687436
0.703859 0.703859 0.703859
0.723360 0.723360 0.723360
0.745931 0.745931 0.745931
0.771604 0.771604 0.771604
0.800285 0.800285 0.800285
0.831172 0.831172 0.831172
0.864764 0.864764 0.864764
0.897741 0.897741 0.897741
0.944366 0.944365 0.944365
0.758791 0.758791 0.758791
0.758534 0.758534 0.758534
0.759927 0.759927 0.759927
0.763678 0.763678 0.763678
0.769758 0.769758 0.769758
0.778512 0.778512 0.778512
0.789961 0.789961 0.789961
0.804186 0.804186 0.804186
0.821387 0.821387 0.821387
0.841295 0.841295 0.841295
0.863696 0.863696 0.863696
0.887959 0.887959 0.887959
0.910647 0.910647 0.910647
0.931421 0.931421 0.931421
0.948987 0.948987 0.948987
0.973320 0.973320 0.973320
0.863303 0.863303 0.863303
0.863015 0.863015 0.863015
0.864299 0.864299 0.864299
0.867607 0.867607 0.867607
0.872905 0.872905 0.872905
0.880185 0.880185 0.880185
0.889249 0.889249 0.889249
0.900031 0.900031 0.900031
0.911716 0.911716 0.911716
0.924245 0.924245 0.924245
0.936682 0.936682 0.936682
0.948661 0.948661 0.948661
0.959736 0.959736 0.959736
0.969689 0.969689 0.969689
0.977943 0.977943 0.977943
0.989191 0.989191 0.989191
0.943134 0.943134 0.943134
0.943015 0.943014 0.943014
0.943670 0.943670 0.943670
0.945002 0.945002 0.945002
0.947391 0.947391 0.947391
0.950734 0.950734 0.950734
0.954717 0.954717 0.954717
0.959372 0.959372 0.959372
0.964487 0.964487 0.964487
0.969947 0.969947 0.969947
0.975239 0.975239 0.975239
0.980410 0.980410 0.980410
0.984937 0.984937 0.984937
0.989124 0.989124 0.989124
0.992421 0.992421 0.992421
0.996794 0.996794 0.996794
0.980104 0.980104 0.980104
0.979990 0.979990 0.979990
0.980324 0.980324 0.980324
0.980856 0.980856 0.980856
0.981751 0.981751 0.981751
0.983006 0.983006 0.983006
0.984562 0.984562 0.984562
0.986381 0.986381 0.986381
0.988281 0.988281 0.988281
0.990361 0.990361 0.990361
0.992315 0.992315 0.992315
0.994115 0.994115 0.994115
0.995765 0.995765 0.995765
0.997115 0.997115 0.997115
0.998211 0.998211 0.998211
0.999485 0.999485 0.999485
1.140890 1.140890 1.140890
1.140625 1.140625 1.140625
1.140807 1.140807 1.140807
1.141482 1.141482 1.141482
1.142786 1.142786 1.142786
1.144872 1.144872 1.144872
1.147695 1.147695 1.147695
1.151392 1.151392 1.151392
1.155939 1.155939 1.155939
1.161223 1.161223 1.161223
1.167509 1.167509 1.167509
1.174677 1.174677 1.174677
1.182503 1.182503 1.182503
1.191442 1.191442 1.191442
1.200924 1.200924 1.200924
1.220545 1.220544 1.220544
-0.790962 -0.790962 -0.790962
-0.790273 -0.790273 -0.790273
-0.788178 -0.788178 -0.788178
-0.785653 -0.785653 -0.785653
-0.782534 -0.782534 -0.782534
-0.778613 -0.778613 -0.778613
-0.773767 -0.773767 -0.773767
-0.767882 -0.767882 -0.767882
-0.760795 -0.760795 -0.760795
-0.752213 -0.752213 -0.752213
-0.742021 -0.742021 -0.742021
-0.729806 -0.729806 -0.729806
-0.715598 -0.715598 -0.715598
-0.698608 -0.698608 -0.698608
-0.678944 -0.678944 -0.678944
-0.633535 -0.633534 -0.633534
0.019156 0.019156 0.019156
0.016675 0.016675 0.016675
0.029302 0.029302 0.029302
0.048134 0.048134 0.048134
0.070933 0.070933 0.070933
0.096926 0.096926 0.096926
0.126047 0.126047 0.126047
0.158793 0.158793 0.158793
0.195609 0.195609 0.195609
0.236454 0.236454 0.236454
0.281226 0.281226 0.281226
0.329980 0.329981 0.329981
0.382014 0.382013 0.382013
0.437905 0.437904 0.437904
0.495974 0.495974 0.495974
0.608157 0.608156 0.608156
0.052634 0.052634 0.052634
0.050851 0.050851 0.050851
0.056323 0.056323 0.056323
0.068874 0.068874 0.068874
0.087335 0.087335 0.087335
0.110490 0.110490 0.110490
0.137917 0.137916 0.137916
0.169557 0.169557 0.169557
0.205536 0.205536 0.205536
0.245815 0.245815 0.245815
0.290019 0.290019 0.290019
0.338300 0.338300 0.338300
0.389812 0.389812 0.389812
0.445299 0.445299 0.445299
0.503039 0.503039 0.503039
0.614472 0.614472 0.614472
0.092519 0.092519 0.092519
0.091393 0.091393 0.091393
0.095370 0.095370 0.095370
0.104709 0.104709 0.104709
0.119489 0.119489 0.119489
0.139461 0.139461 0.139461
0.164417 0.164417 0.164417
0.194183 0.194183 0.194183
0.228646 0.228646 0.228646
0.267531 0.267532 0.267532
0.310541 0.310541 0.310541
0.357836 0.357836 0.357836
0.408349 0.408349 0.408349
0.462811 0.462811 0.462811
0.519595 0.519594 0.519594
0.629404 0.629404 0.629404
0.141675 0.141675 0.141675
0.140805 0.140805 0.140805
0.144091 0.144091 0.144091
0.151888 0.151888 0.151888
0.164551 0.164551 0.164551
0.182311 0.182311 0.182311
0.205104 0.205104 0.205104
0.232790 0.232790 0.232790
0.265333 0.265333 0.265333
0.302325 0.302325 0.302325
0.343772 0.343772 0.343772
0.389310 0.389310 0.389310
0.438269 0.438270 0.438270
0.491279 0.491279 0.491279
0.546584 0.546584 0.546584
0.653504 0.653504 0.653504
0.201581 0.201581 0.201581
0.200873 0.200873 0.200873
0.203777 0.203777 0.203777
0.210704 0.210704 0.210704
0.222104 0.222104 0.222104
0.238135 0.238135 0.238135
0.259075 0.259075 0.259075
0.284739 0.284739 0.284739
0.315234 0.315234 0.315234
0.350266 0.350266 0.350266
0.389425 0.389425 0.389425
0.433076 0.433076 0.433076
0.479962 0.479962 0.479962
0.530977 0.530977 0.530977
0.584553 0.584553 0.584553
0.686922 0.686922 0.686922
0.272885 0.272885 0.272885
0.272230 0.272230 0.272230
0.274836 0.274836 0.274836
0.281146 0.281146 0.281146
0.291513 0.291513 0.291513
0.306225 0.306225 0.306225
0.325409 0.325409 0.325409
0.349184 0.349184 0.349184
0.377525 0.377525 0.377525
0.410399 0.410399 0.410399
0.447368 0.447368 0.447368
0.488606 0.488606 0.488606
0.533188 0.533188 0.533188
0.581932 0.581932 0.581932
0.632641 0.632641 0.632641
0.729460 0.729460 0.729460
0.354858 0.354858 0.354858
0.354290 0.354290 0.354290
0.356639 0.356639 0.356639
0.362344 0.362344 0.362344
0.371820 0.371820 0.371820
0.385292 0.385292 0.385292
0.402945 0.402945 0.402945
0.424967 0.424967 0.424967
0.451263 0.451263 0.451263
0.481807 0.481807 0.481807
0.516370 0.516370 0.516370
0.555248 0.555248 0.555248
0.597425 0.597425 0.597425
0.642740 0.642740 0.642740
0.689835 0.689835 0.689835
0.780243 0.780243 0.780243
0.446410 0.446410 0.446410
0.445882 0.445882 0.445882
0.448075 0.448075 0.448075
0.453283 0.453283 0.453283
0.461957 0.461957 0.461957
0.474261 0.474261 0.474261
0.490509 0.490509 0.490509
0.510727 0.510727 0.510727
0.535151 0.535151 0.535151
0.563572 0.563572 0.563572
0.595912 0.595912 0.595912
0.631613 0.631613 0.631613
0.669960 0.669960 0.669960
0.711579 0.711579 0.711579
0.754809 0.754809 0.754809
0.837917 0.837917 0.837917
0.546395 0.546395 0.546395
0.545938 0.545938 0.545938
0.547885 0.547885 0.547885
0.552762 0.552762 0.552762
0.560617 0.560617 0.560617
0.572035 0.572035 0.572035
0.586991 0.586991 0.586991
0.605510 0.605510 0.605510
0.627570 0.627570 0.627570
0.653228 0.653228 0.653228
0.681951 0.681951 0.681951
0.714008 0.714008 0.714008
0.748748 0.748748 0.748748
0.786326 0.786326 0.786326
0.825616 0.825615 0.825615
0.898804 0.898803 0.898803
0.652113 0.652113 0.652113
0.651709 0.651709 0.651709
0.653479 0.653479 0.653479
0.657680 0.657680 0.657680
0.664681 0.664681 0.664681
0.674601 0.674601 0.674601
0.687742 0.687742 0.687742
0.704014 0.704014 0.704014
0.723493 0.723493 0.723493
0.746228 0.746228 0.746228
0.771816 0.771816 0.771816
0.800329 0.800329 0.800329
0.831267 0.831267 0.831267
0.864936 0.864936 0.864936
0.897776 0.897776 0.897776
0.944370 0.944369 0.944369
0.759063 0.759063 0.759063
0.758576 0.758576 0.758576
0.760133 0.760133 0.760133
0.763886 0.763886 0.763886
0.769824 0.769824 0.769824
0.778614 0.778614 0.778614
0.790085 0.790085 0.790085
0.804264 0.804264 0.804264
0.821442 0.821442 0.821442
0.841354 0.841354 0.841354
0.863801 0.863801 0.863801
0.888200 0.888200 0.888200
0.910899 0.910899 0.910899
0.931471 0.931471 0.931471
0.949101 0.949101 0.949101
0.973389 0.973389 0.973389
0.863476 0.863476 0.863476
0.863110 0.863110 0.863110
0.864597 0.864597 0.864597
0.867606 0.867606 0.867606
0.873128 0.873128 0.873128
0.880535 0.880535 0.880535
0.889424 0.889424 0.889424
0.900137 0.900137 0.900137
0.911830 0.911830 0.911830
0.924309 0.924309 0.924309
0.936727 0.936727 0.936727
0.948695 0.948695 0.948695
0.959796 0.959796 0.959796
0.969672 0.969672 0.969672
0.978003 0.978003 0.978003
0.989226 0.989226 0.989226
0.943199 0.943200 0.943200
0.943051 0.943051 0.943051
0.943686 0.943686 0.943686
0.945123 0.945123 0.945123
0.947509 0.947509 0.947509
0.950735 0.950735 0.950735
0.954811 0.954811 0.954811
0.959380 0.959380 0.959380
0.964573 0.964573 0.964573
0.969994 0.969994 0.969994
0.975304 0.975304 0.975304
0.980467 0.980467 0.980468
0.984981 0.984981 0.984981
0.989141 0.989141 0.989141
0.992429 0.992429 0.992428
0.996808 0.996808 0.996808
0.980130 0.980130 0.980130
0.980045 0.980045 0.980045
0.980337 0.980337 0.980337
0.980910 0.980910 0.980910
0.981802 0.981802 0.981802
0.983055 0.983055 0.983055
0.984560 0.984560 0.984560
0.986395 0.986395 0.986395
0.988293 0.988293 0.988293
0.990393 0.990393 0.990393
0.992326 0.992326 0.992326
0.994120 0.994120 0.994120
0.995782 0.995782 0.995782
0.997122 0.997122 0.997122
0.998220 0.998220 0.998220
0.999489 0.999489 0.999489
1.140615 1.140615 1.140615
1.140472 1.140472 1.140472
1.140632 1.140632 1.140632
1.141383 1.141383 1.141383
1.142707 1.142707 1.142707
1.144802 1.144802 1.144802
1.147631 1.147631 1.147631
1.151330 1.151330 1.151330
1.155878 1.155878 1.155878
1.161236 1.161236 1.161236
1.167448 1.167448 1.167448
1.174574 1.174574 1.174574
1.182441 1.182441 1.182441
1.191379 1.191379 1.191379
1.200956 1.200956 1.200956
1.220480 1.220480 1.220480
-0.789380 -0.789380 -0.789380
-0.789174 -0.789174 -0.789174
-0.787545 -0.787545 -0.787545
-0.785067 -0.785067 -0.785067
-0.781992 -0.781992 -0.781992
-0.778117 -0.778117 -0.778117
-0.773363 -0.773363 -0.773363
-0.767486 -0.767486 -0.767486
-0.760400 -0.760400 -0.760400
-0.751813 -0.751813 -0.751813
-0.741641 -0.741641 -0.741641
-0.729393 -0.729393 -0.729393
-0.715107 -0.715107 -0.715107
-0.698100 -0.698100 -0.698100
-0.678379 -0.678379 -0.678379
-0.632944 -0.632944 -0.632944
0.023139 0.023139 0.023139
0.021422 0.021422 0.021422
0.032783 0.032783 0.032783
0.050743 0.050743 0.050743
0.073023 0.073023 0.073023
0.098667 0.098667 0.098667
0.127584 0.127584 0.127584
0.160183 0.160183 0.160183
0.196915 0.196915 0.196915
0.237690 0.237690 0.237690
0.282342 0.282342 0.282342
0.331099 0.331099 0.331099
0.383063 0.383062 0.383062
0.438867 0.438867 0.438867
0.496885 0.496885 0.496885
0.608934 0.608934 0.608934
0.054683 0.054683 0.054683
0.053043 0.053043 0.053043
0.058526 0.058526 0.058526
0.070938 0.070938 0.070938
0.089146 0.089146 0.089146
0.112107 0.112107 0.112107
0.139362 0.139362 0.139362
0.170902 0.170902 0.170902
0.206834 0.206834 0.206834
0.246964 0.246964 0.246964
0.291092 0.291092 0.291092
0.339350 0.339350 0.339350
0.390854 0.390854 0.390854
0.446280 0.446280 0.446280
0.503914 0.503914 0.503914
0.615245 0.615245 0.615245
0.094213 0.094213 0.094213
0.093096 0.093096 0.093096
0.097059 0.097059 0.097059
0.106332 0.106332 0.106332
0.121008 0.121008 0.121008
0.140899 0.140899 0.140899
0.165757 0.165757 0.165757
0.195460 0.195460 0.195460
0.229874 0.229874 0.229874
0.268714 0.268714 0.268714
0.311676 0.311676 0.311676
0.358817 0.358817 0.358817
0.409314 0.409313 0.409313
0.463727 0.463727 0.463727
0.520462 0.520462 0.520462
0.630239 0.630239 0.630239
0.143092 0.143092 0.143092
0.142210 0.142210 0.142210
0.145510 0.145510 0.145510
0.153269 0.153269 0.153269
0.165913 0.165913 0.165913
0.183632 0.183632 0.183632
0.206330 0.206330 0.206330
0.233986 0.233986 0.233986
0.266486 0.266486 0.266486
0.303519 0.303519 0.303519
0.344769 0.344769 0.344769
0.390355 0.390355 0.390355
0.439270 0.439270 0.439270
0.492161 0.492160 0.492160
0.547445 0.547445 0.547445
0.654293 0.654293 0.654293
0.202872 0.202872 0.202872
0.202129 0.202129 0.202129
0.205017 0.205017 0.205017
0.211956 0.211956 0.211956
0.223298 0.223298 0.223298
0.239377 0.239377 0.239377
0.260248 0.260248 0.260248
0.285895 0.285895 0.285895
0.316265 0.316265 0.316265
0.351245 0.351245 0.351245
0.390494 0.390494 0.390494
0.434038 0.434038 0.434038
0.480906 0.480906 0.480906
0.531783 0.531783 0.531783
0.585353 0.585353 0.585353
0.687732 0.687732 0.687732
0.274032 0.274032 0.274032
0.273343 0.273343 0.273343
0.275992 0.275992 0.275992
0.282273 0.282273 0.282273
0.292589 0.292589 0.292589
0.307267 0.307267 0.307267
0.326504 0.326504 0.326504
0.350275 0.350275 0.350275
0.378680 0.378680 0.378680
0.411432 0.411432 0.411432
0.448351 0.448351 0.448351
0.489498 0.489498 0.489498
0.534034 0.534034 0.534034
0.582850 0.582850 0.582850
0.633482 0.633482 0.633482
0.730129 0.730129 0.730129
0.355851 0.355851 0.355851
0.355241 0.355241 0.355241
0.357707 0.357707 0.357707
0.363445 0.363445 0.363445
0.372832 0.372832 0.372832
0.386255 0.386255 0.386255
0.403915 0.403915 0.403915
0.425915 0.425915 0.425915
0.452170 0.452170 0.452170
0.482738 0.482738 0.482738
0.517292 0.517292 0.517292
0.556140 0.556140 0.556140
0.598248 0.598248 0.598248
0.643510 0.643510 0.643510
0.690557 0.690557 0.690557
0.781003 0.781003 0.781003
0.447340 0.447340 0.447340
0.446821 0.446821 0.446821
0.449018 0.449018 0.449018
0.454245 0.454245 0.454245
0.462874 0.462874 0.462874
0.475172 0.475172 0.475172
0.491407 0.491407 0.491407
0.511672 0.511672 0.511672
0.536002 0.536002 0.536002
0.564439 0.564439 0.564439
0.596653 0.596653 0.596653
0.632358 0.632358 0.632358
0.670666 0.670666 0.670666
0.712186 0.712186 0.712186
0.755378 0.755378 0.755378
0.838592 0.838592 0.838592
0.547246 0.547246 0.547246
0.546762 0.546762 0.546762
0.548786 0.548786 0.548786
0.553600 0.553600 0.553600
0.561616 0.561616 0.561616
0.572896 0.572896 0.572896
0.587788 0.587788 0.587788
0.606352 0.606352 0.606352
0.628381 0.628381 0.628381
0.653956 0.653956 0.653956
0.682719 0.682719 0.682719
0.714770 0.714770 0.714770
0.749439 0.749439 0.749439
0.787022 0.787022 0.787022
0.826143 0.826143 0.826143
0.899378 0.899378 0.899378
0.652940 0.652940 0.652940
0.652442 0.652442 0.652442
0.654268 0.654268 0.654268
0.658452 0.658452 0.658452
0.665392 0.665392 0.665392
0.675357 0.675357 0.675357
0.688392 0.688392 0.688392
0.704620 0.704620 0.704620
0.724155 0.724155 0.724155
0.746817 0.746817 0.746817
0.772401 0.772401 0.772401
0.801174 0.801174 0.801174
0.831984 0.831984 0.831984
0.865500 0.865500 0.865500
0.898192 0.898192 0.898192
0.944722 0.944722 0.944722
0.759623 0.759623 0.759623
0.759188 0.759188 0.759188
0.760921 0.760921 0.760921
0.764437 0.764437 0.764437
0.770516 0.770516 0.770516
0.779296 0.779296 0.779296
0.790736 0.790736 0.790736
0.804871 0.804871 0.804871
0.822005 0.822005 0.822005
0.842068 0.842068 0.842068
0.864386 0.864386 0.864386
0.888484 0.888484 0.888484
0.911285 0.911285 0.911285
0.931935 0.931935 0.931935
0.949365 0.949365 0.949365
0.973482 0.973482 0.973482
0.864030 0.864030 0.864030
0.863828 0.863828 0.863828
0.865177 0.865177 0.865177
0.868531 0.868531 0.868531
0.873408 0.873408 0.873408
0.880815 0.880815 0.880815
0.889960 0.889960 0.889960
0.900443 0.900443 0.900443
0.912296 0.912296 0.912296
0.924559 0.924559 0.924559
0.937041 0.937041 0.937041
0.948978 0.948978 0.948978
0.959988 0.959988 0.959988
0.969859 0.969859 0.969859
0.978084 0.978084 0.978084
0.989329 0.989329 0.989329
0.943462 0.943462 0.943462
0.943189 0.943189 0.943189
0.943915 0.943915 0.943915
0.945428 0.945428 0.945428
0.947784 0.947784 0.947784
0.950993 0.950993 0.950993
0.954998 0.954998 0.954998
0.959664 0.959664 0.959664
0.964768 0.964768 0.964768
0.970109 0.970109 0.970109
0.975388 0.975388 0.975388
0.980511 0.980511 0.980511
0.985076 0.985076 0.985076
0.989116 0.989116 0.989116
0.992504 0.992504 0.992504
0.996834 0.996834 0.996834
0.980238 0.980238 0.980238
0.980174 0.980174 0.980174
0.980375 0.980375 0.980375
0.980983 0.980983 0.980983
0.981835 0.981835 0.981835
0.983114 0.983114 0.983114
0.984677 0.984677 0.984677
0.986400 0.986400 0.986400
0.988408 0.988408 0.988408
0.990329 0.990329 0.990329
0.992399 0.992399 0.992399
0.994188 0.994188 0.994188
0.995829 0.995829 0.995829
0.997144 0.997144 0.997144
0.998244 0.998244 0.998244
0.999497 0.999497 0.999497
1.140501 1.140501 1.140501
1.140337 1.140337 1.140337
1.140560 1.140560 1.140560
1.141364 1.141364 1.141364
1.142718 1.142718 1.142718
1.144831 1.144831 1.144831
1.147668 1.147668 1.147668
1.151373 1.151373 1.151373
1.155922 1.155922 1.155922
1.161281 1.161281 1.161281
1.167492 1.167492 1.167492
1.174616 1.174616 1.174616
1.182481 1.182481 1.182481
1.191416 1.191416 1.191416
1.200894 1.200894 1.200894
1.220512 1.220512 1.220512
-0.787648 -0.787648 -0.787648
-0.787649 -0.787649 -0.787649
-0.786338 -0.786338 -0.786338
-0.784176 -0.784176 -0.784176
-0.781213 -0.781213 -0.781213
-0.777425 -0.777425 -0.777425
-0.772599 -0.772599 -0.772599
-0.766689 -0.766689 -0.766689
-0.759594 -0.759594 -0.759594
-0.751026 -0.751026 -0.751026
-0.740773 -0.740773 -0.740773
-0.728637 -0.728637 -0.728637
-0.714323 -0.714323 -0.714323
-0.697239 -0.697239 -0.697239
-0.677509 -0.677509 -0.677509
-0.631874 -0.631874 -0.631874
0.031670 0.031670 0.031670
0.030214 0.030214 0.030214
0.039469 0.039469 0.039469
0.055868 0.055868 0.055868
0.077202 0.077202 0.077202
0.102153 0.102153 0.102153
0.130641 0.130641 0.130641
0.162980 0.162980 0.162980
0.199470 0.199470 0.199470
0.240092 0.240092 0.240092
0.284635 0.284635 0.284635
0.333208 0.333208 0.333208
0.385083 0.385083 0.385083
0.440792 0.440791 0.440791
0.498771 0.498771 0.498771
0.610531 0.610531 0.610531
0.059055 0.059055 0.059055
0.057608 0.057608 0.057608
0.063003 0.063003 0.063003
0.075056 0.075056 0.075056
0.092828 0.092828 0.092828
0.115340 0.115339 0.115339
0.142345 0.142345 0.142345
0.173642 0.173642 0.173642
0.209382 0.209382 0.209382
0.249396 0.249396 0.249396
0.293315 0.293315 0.293315
0.341474 0.341474 0.341474
0.392868 0.392868 0.392868
0.448192 0.448192 0.448192
0.505711 0.505710 0.505710
0.616908 0.616908 0.616908
0.097628 0.097628 0.097628
0.096554 0.096554 0.096554
0.100468 0.100468 0.100468
0.109593 0.109593 0.109593
0.124150 0.124150 0.124150
0.143812 0.143811 0.143811
0.168526 0.168526 0.168526
0.198078 0.198078 0.198078
0.232363 0.232363 0.232363
0.271043 0.271043 0.271043
0.313896 0.313896 0.313896
0.360925 0.360925 0.360925
0.411255 0.411255 0.411255
0.465647 0.465647 0.465647
0.522268 0.522268 0.522268
0.631736 0.631736 0.631736
0.145936 0.145936 0.145936
0.145086 0.145086 0.145086
0.148366 0.148366 0.148366
0.156087 0.156087 0.156087
0.168652 0.168652 0.168652
0.186260 0.186260 0.186260
0.208915 0.208915 0.208915
0.236462 0.236462 0.236462
0.268792 0.268792 0.268792
0.305752 0.305752 0.305752
0.346912 0.346912 0.346912
0.392372 0.392372 0.392372
0.441187 0.441187 0.441187
0.493948 0.493948 0.493948
0.549160 0.549160 0.549160
0.655768 0.655768 0.655768
0.205423 0.205423 0.205423
0.204661 0.204661 0.204661
0.207584 0.207584 0.207584
0.214468 0.214468 0.214468
0.225782 0.225782 0.225782
0.241763 0.241763 0.241763
0.262621 0.262621 0.262621
0.288125 0.288125 0.288125
0.318499 0.318499 0.318499
0.353428 0.353428 0.353428
0.392538 0.392538 0.392538
0.436000 0.436000 0.436000
0.482796 0.482796 0.482796
0.533684 0.533683 0.533683
0.587130 0.587130 0.587130
0.689107 0.689107 0.689107
0.276342 0.276342 0.276342
0.275693 0.275693 0.275693
0.278300 0.278300 0.278300
0.284559 0.284559 0.284559
0.294891 0.294891 0.294891
0.309507 0.309507 0.309507
0.328663 0.328663 0.328663
0.352322 0.352322 0.352322
0.380608 0.380608 0.380608
0.413399 0.413399 0.413399
0.450258 0.450259 0.450259
0.491338 0.491337 0.491337
0.535876 0.535876 0.535876
0.584515 0.584515 0.584515
0.635090 0.635091 0.635091
0.731574 0.731575 0.731575
0.357920 0.357920 0.357920
0.357405 0.357405 0.357405
