src/luts/blur/11.cube
LUT_3D_SIZE 6
0.031827 0.031827 0.031827
0.056316 0.056316 0.056316
0.116301 0.116301 0.116301
0.237620 0.237620 0.237620
0.426594 0.426594 0.426594
0.658225 0.658225 0.658225
0.090340 0.090340 0.090340
0.103900 0.103900 0.103900
0.162772 0.162772 0.162772
0.284660 0.284660 0.284660
0.469578 0.469578 0.469578
0.692759 0.692759 0.692759
0.290612 0.290612 0.290612
0.304460 0.304460 0.304460
0.362862 0.362862 0.362862
0.475960 0.475960 0.475960
0.637268 0.637268 0.637268
0.824488 0.824488 0.824488
0.651919 0.651919 0.651919
0.662411 0.662411 0.662411
0.705678 0.705678 0.705678
0.786985 0.786985 0.786985
0.897298 0.897298 0.897298
0.971904 0.971904 0.971904
0.970123 0.970123 0.970123
0.972103 0.972103 0.972103
0.979159 0.979159 0.979159
0.988713 0.988713 0.988713
0.995889 0.995889 0.995889
0.999013 0.999013 0.999013
0.999832 0.999832 0.999832
0.999744 0.999744 0.999744
0.999834 0.999834 0.999834
0.999942 0.999942 0.999942
1.000013 1.000013 1.000013
1.000034 1.000034 1.000034
0.044201 0.044201 0.044201
0.061671 0.061671 0.061671
0.120924 0.120924 0.120924
0.242413 0.242413 0.242413
0.430995 0.430995 0.430995
0.661824 0.661824 0.661824
0.094933 0.094933 0.094933
0.108504 0.108504 0.108504
0.167510 0.167510 0.167510
0.289412 0.289412 0.289412
0.473832 0.473832 0.473832
0.696060 0.696060 0.696060
0.295231 0.295231 0.295231
0.309129 0.309129 0.309129
0.367412 0.367412 0.367412
0.480142 0.480142 0.480142
0.640854 0.640854 0.640854
0.827379 0.827379 0.827379
0.655423 0.655423 0.655423
0.665986 0.665986 0.665986
0.709102 0.709102 0.709102
0.789907 0.789907 0.789907
0.899285 0.899285 0.899285
0.972605 0.972605 0.972605
0.970904 0.970904 0.970904
0.972778 0.972778 0.972778
0.979636 0.979636 0.979636
0.988895 0.988895 0.988895
0.995914 0.995914 0.995914
0.999052 0.999052 0.999052
0.999841 0.999841 0.999841
0.999752 0.999752 0.999752
0.999839 0.999839 0.999839
0.999945 0.999945 0.999945
1.000014 1.000014 1.000014
1.000034 1.000034 1.000034
0.068392 0.068392 0.068392
0.082507 0.082507 0.082507
0.140885 0.140885 0.140885
0.262762 0.262762 0.262762
0.449720 0.449719 0.449719
0.676762 0.676762 0.676762
0.114655 0.114655 0.114655
0.128301 0.128301 0.128301
0.187933 0.187933 0.187933
0.309540 0.309540 0.309540
0.491987 0.491987 0.491987
0.710501 0.710501 0.710501
0.315308 0.315308 0.315308
0.329043 0.329043 0.329043
0.386771 0.386771 0.386771
0.498119 0.498119 0.498119
0.656166 0.656166 0.656166
0.839071 0.839071 0.839071
0.670529 0.670529 0.670529
0.680810 0.680810 0.680810
0.723161 0.723161 0.723161
0.802558 0.802558 0.802558
0.908224 0.908224 0.908224
0.975152 0.975152 0.975152
0.973620 0.973620 0.973620
0.975298 0.975298 0.975298
0.981635 0.981635 0.981635
0.990029 0.990029 0.990029
0.996368 0.996368 0.996368
0.999195 0.999195 0.999195
0.999762 0.999762 0.999762
0.999784 0.999784 0.999784
0.999861 0.999861 0.999861
0.999957 0.999957 0.999957
1.000018 1.000018 1.000018
1.000034 1.000034 1.000034
0.109049 0.109049 0.109049
0.122649 0.122649 0.122649
0.182102 0.182102 0.182102
0.303796 0.303796 0.303796
0.486822 0.486822 0.486822
0.706498 0.706499 0.706499
0.155291 0.155291 0.155291
0.169277 0.169277 0.169277
0.229448 0.229448 0.229448
0.349905 0.349905 0.349905
0.527891 0.527891 0.527891
0.738780 0.738780 0.738780
0.355577 0.355577 0.355577
0.369050 0.369050 0.369051
0.425547 0.425547 0.425547
0.533848 0.533848 0.533848
0.686654 0.686654 0.686654
0.862406 0.862406 0.862406
0.700455 0.700455 0.700455
0.710307 0.710307 0.710307
0.751240 0.751240 0.751240
0.827390 0.827390 0.827390
0.924043 0.924043 0.924043
0.979645 0.979645 0.979645
0.978440 0.978440 0.978440
0.979859 0.979859 0.979859
0.985082 0.985082 0.985082
0.991934 0.991934 0.991934
0.997087 0.997087 0.997087
0.999390 0.999390 0.999390
0.999824 0.999824 0.999824
0.999840 0.999840 0.999840
0.999902 0.999902 0.999902
0.999977 0.999977 0.999977
1.000023 1.000023 1.000023
1.000038 1.000038 1.000038
0.174229 0.174229 0.174229
0.188252 0.188252 0.188251
0.248465 0.248465 0.248465
0.368154 0.368154 0.368154
0.543959 0.543959 0.543959
0.751677 0.751677 0.751677
0.221560 0.221560 0.221560
0.235604 0.235604 0.235604
0.295408 0.295408 0.295407
0.412739 0.412739 0.412739
0.582915 0.582915 0.582915
0.782216 0.782216 0.782216
0.418276 0.418276 0.418276
0.431220 0.431220 0.431220
0.485539 0.485539 0.485539
0.588661 0.588661 0.588661
0.732853 0.732853 0.732853
0.896936 0.896936 0.896936
0.745921 0.745921 0.745921
0.755369 0.755369 0.755369
0.793664 0.793664 0.793664
0.865028 0.865028 0.865028
0.944116 0.944116 0.944116
0.985408 0.985408 0.985408
0.984431 0.984431 0.984431
0.985520 0.985520 0.985520
0.989268 0.989268 0.989268
0.994253 0.994253 0.994253
0.997989 0.997989 0.997989
0.999582 0.999582 0.999582
0.999895 0.999895 0.999895
0.999907 0.999907 0.999907
0.999949 0.999949 0.999949
0.999999 0.999999 0.999999
1.000029 1.000029 1.000029
0.999922 0.999922 0.999922
0.268425 0.268425 0.268425
0.282369 0.282369 0.282369
0.341158 0.341158 0.341158
0.455822 0.455822 0.455822
0.620098 0.620098 0.620098
0.811140 0.811140 0.811140
0.315130 0.315130 0.315130
0.328768 0.328768 0.328768
0.386545 0.386545 0.386545
0.497865 0.497865 0.497865
0.656080 0.656080 0.656079
0.838956 0.838956 0.838956
0.503075 0.503075 0.503075
0.515282 0.515282 0.515282
0.565966 0.565966 0.565966
0.661243 0.661243 0.661243
0.794176 0.794176 0.794176
0.933011 0.933011 0.933011
0.806001 0.806001 0.806001
0.814566 0.814566 0.814566
0.849525 0.849525 0.849525
0.910996 0.910996 0.910996
0.964230 0.964230 0.964230
0.990966 0.990966 0.990966
0.990365 0.990365 0.990365
0.990970 0.990970 0.990970
0.993406 0.993406 0.993406
0.996543 0.996543 0.996543
0.998804 0.998804 0.998804
0.999756 0.999756 0.999756
0.999961 0.999961 0.999961
0.999968 0.999968 0.999968
0.999991 0.999991 0.999991
1.000018 1.000018 1.000018
1.000033 1.000033 1.000033
1.000000 1.000000 1.000000
