src/luts/blur/11.cube
LUT_3D_SIZE 16
0.031827 0.031827 0.031827
0.036821 0.036821 0.036821
0.045032 0.045032 0.045032
0.056316 0.056316 0.056316
0.071310 0.071310 0.071310
0.090936 0.090936 0.090936
0.116301 0.116301 0.116301
0.148819 0.148819 0.148819
0.189212 0.189212 0.189212
0.237620 0.237620 0.237620
0.293744 0.293744 0.293744
0.357131 0.357131 0.357131
0.426594 0.426594 0.426594
0.501267 0.501267 0.501267
0.578895 0.578895 0.578895
0.658225 0.658225 0.658225
0.041896 0.041896 0.041896
0.043595 0.043595 0.043595
0.049769 0.049769 0.049769
0.060147 0.060147 0.060147
0.074728 0.074728 0.074728
0.094193 0.094193 0.094193
0.119580 0.119580 0.119580
0.152141 0.152141 0.152141
0.192622 0.192622 0.192622
0.240992 0.240992 0.240992
0.297075 0.297075 0.297075
0.360334 0.360334 0.360334
0.429710 0.429710 0.429710
0.504146 0.504146 0.504146
0.581650 0.581650 0.581650
0.660710 0.660710 0.660710
0.060623 0.060623 0.060623
0.061720 0.061720 0.061720
0.066316 0.066316 0.066316
0.075256 0.075256 0.075256
0.088989 0.088989 0.088989
0.108167 0.108167 0.108167
0.133699 0.133699 0.133699
0.166572 0.166572 0.166572
0.207079 0.207079 0.207079
0.255453 0.255453 0.255453
0.311352 0.311352 0.311352
0.374144 0.374144 0.374144
0.442967 0.442967 0.442967
0.516705 0.516705 0.516705
0.593274 0.593274 0.593274
0.671379 0.671379 0.671379
0.090340 0.090340 0.090340
0.091303 0.091303 0.091303
0.095453 0.095453 0.095453
0.103900 0.103900 0.103900
0.117397 0.117397 0.117397
0.136755 0.136755 0.136755
0.162772 0.162772 0.162772
0.195914 0.195914 0.195914
0.236585 0.236585 0.236585
0.284660 0.284660 0.284660
0.340010 0.340010 0.340010
0.402015 0.402015 0.402015
0.469578 0.469578 0.469578
0.541731 0.541731 0.541731
0.616516 0.616516 0.616516
0.692759 0.692759 0.692759
0.135904 0.135904 0.135904
0.136908 0.136908 0.136908
0.141133 0.141133 0.141133
0.149751 0.149751 0.149751
0.163645 0.163645 0.163645
0.183442 0.183442 0.183442
0.209769 0.209769 0.209769
0.243006 0.243006 0.243006
0.283356 0.283356 0.283356
0.330814 0.330814 0.330814
0.385141 0.385141 0.385141
0.445444 0.445444 0.445444
0.511008 0.511008 0.511008
0.580620 0.580621 0.580621
0.652324 0.652325 0.652325
0.725560 0.725561 0.725561
0.202371 0.202371 0.202371
0.203390 0.203390 0.203390
0.207682 0.207682 0.207682
0.216423 0.216423 0.216423
0.230436 0.230436 0.230436
0.250327 0.250327 0.250327
0.276481 0.276481 0.276481
0.309140 0.309140 0.309140
0.348719 0.348719 0.348719
0.394855 0.394855 0.394855
0.447140 0.447140 0.447140
0.504996 0.504996 0.504996
0.567284 0.567284 0.567284
0.633237 0.633237 0.633237
0.701040 0.701040 0.701040
0.769991 0.769991 0.769991
0.290612 0.290612 0.290612
0.291559 0.291559 0.291559
0.295751 0.295751 0.295751
0.304460 0.304460 0.304460
0.318189 0.318189 0.318189
0.337417 0.337417 0.337417
0.362862 0.362862 0.362862
0.394336 0.394336 0.394336
0.432060 0.432060 0.432060
0.475960 0.475960 0.475960
0.525210 0.525210 0.525210
0.579350 0.579350 0.579350
0.637268 0.637268 0.637268
0.698235 0.698235 0.698235
0.761056 0.761056 0.761056
0.824488 0.824488 0.824488
0.398405 0.398405 0.398405
0.399373 0.399373 0.399373
0.403280 0.403280 0.403280
0.411574 0.411574 0.411574
0.424553 0.424553 0.424553
0.442778 0.442778 0.442778
0.466569 0.466569 0.466569
0.495998 0.495998 0.495998
0.531119 0.531119 0.531119
0.571398 0.571398 0.571398
0.616505 0.616505 0.616505
0.665780 0.665780 0.665780
0.718321 0.718321 0.718321
0.773651 0.773651 0.773651
0.830143 0.830143 0.830143
0.886692 0.886691 0.886691
0.521304 0.521304 0.521304
0.522166 0.522166 0.522166
0.525878 0.525878 0.525878
0.533306 0.533306 0.533306
0.545107 0.545107 0.545107
0.561641 0.561641 0.561641
0.583135 0.583135 0.583135
0.609541 0.609541 0.609541
0.640858 0.640858 0.640858
0.676845 0.676845 0.676845
0.716747 0.716747 0.716747
0.760576 0.760576 0.760576
0.806972 0.806972 0.806972
0.855235 0.855235 0.855235
0.902954 0.902954 0.902954
0.939248 0.939248 0.939248
0.651919 0.651919 0.651919
0.652680 0.652680 0.652680
0.655922 0.655922 0.655922
0.662411 0.662411 0.662411
0.672683 0.672683 0.672683
0.687027 0.687027 0.687027
0.705678 0.705678 0.705678
0.728691 0.728691 0.728691
0.755922 0.755922 0.755922
0.786985 0.786985 0.786985
0.821315 0.821315 0.821315
0.858634 0.858634 0.858634
0.897298 0.897298 0.897298
0.929593 0.929593 0.929593
0.954188 0.954188 0.954188
0.971904 0.971904 0.971904
0.782972 0.782972 0.782972
0.783575 0.783575 0.783575
0.786231 0.786231 0.786231
0.791706 0.791706 0.791706
0.800397 0.800397 0.800397
0.812370 0.812370 0.812370
0.828026 0.828026 0.828026
0.847113 0.847113 0.847113
0.869669 0.869669 0.869669
0.894600 0.894600 0.894600
0.918551 0.918551 0.918551
0.939685 0.939685 0.939685
0.957286 0.957286 0.957286
0.971339 0.971339 0.971339
0.981641 0.981641 0.981641
0.989037 0.989037 0.989037
0.904895 0.904895 0.904895
0.905303 0.905303 0.905303
0.907187 0.907187 0.907187
0.910868 0.910868 0.910868
0.916349 0.916349 0.916349
0.923506 0.923506 0.923506
0.932212 0.932212 0.932212
0.941962 0.941962 0.941962
0.951905 0.951905 0.951905
0.961752 0.961752 0.961752
0.970919 0.970919 0.970919
0.978748 0.978748 0.978748
0.985233 0.985233 0.985233
0.990340 0.990340 0.990340
0.993937 0.993937 0.993937
0.996486 0.996486 0.996486
0.970123 0.970123 0.970123
0.970329 0.970329 0.970329
0.970944 0.970944 0.970944
0.972103 0.972103 0.972103
0.973904 0.973904 0.973904
0.976423 0.976423 0.976423
0.979159 0.979159 0.979159
0.982334 0.982334 0.982334
0.985625 0.985625 0.985625
0.988713 0.988713 0.988713
0.991493 0.991493 0.991493
0.993876 0.993876 0.993876
0.995889 0.995889 0.995889
0.997344 0.997344 0.997344
0.998370 0.998370 0.998370
0.999013 0.999013 0.999013
0.992626 0.992626 0.992626
0.992591 0.992591 0.992591
0.992844 0.992844 0.992844
0.993131 0.993131 0.993131
0.993607 0.993607 0.993607
0.994207 0.994207 0.994207
0.994930 0.994930 0.994930
0.995741 0.995741 0.995741
0.996554 0.996554 0.996554
0.997369 0.997369 0.997369
0.997994 0.997994 0.997994
0.998575 0.998575 0.998575
0.999030 0.999030 0.999030
0.999370 0.999370 0.999370
0.999619 0.999619 0.999619
0.999747 0.999747 0.999747
0.998599 0.998599 0.998599
0.998612 0.998612 0.998612
0.998551 0.998551 0.998551
0.998646 0.998646 0.998646
0.998792 0.998792 0.998792
0.998868 0.998868 0.998868
0.998974 0.998974 0.998974
0.999162 0.999162 0.999162
0.999403 0.999403 0.999403
0.999517 0.999517 0.999517
0.999607 0.999607 0.999607
0.999779 0.999779 0.999779
0.999797 0.999797 0.999797
0.999893 0.999893 0.999893
0.999959 0.999959 0.999959
0.999998 0.999998 0.999998
0.999832 0.999832 0.999832
0.999834 0.999834 0.999834
0.999841 0.999841 0.999841
0.999744 0.999744 0.999744
0.999767 0.999767 0.999767
0.999798 0.999798 0.999798
0.999834 0.999834 0.999834
0.999871 0.999871 0.999871
0.999908 0.999908 0.999908
0.999942 0.999942 0.999942
0.999972 0.999972 0.999972
0.999996 0.999996 0.999996
1.000013 1.000013 1.000013
1.000025 1.000025 1.000025
1.000031 1.000031 1.000031
1.000034 1.000034 1.000034
0.034557 0.034557 0.034557
0.037722 0.037722 0.037722
0.045543 0.045543 0.045543
0.056715 0.056715 0.056715
0.071664 0.071664 0.071664
0.091259 0.091259 0.091259
0.116630 0.116630 0.116630
0.149138 0.149138 0.149138
0.189580 0.189580 0.189580
0.237944 0.237944 0.237944
0.294077 0.294077 0.294077
0.357459 0.357459 0.357459
0.426976 0.426976 0.426976
0.501562 0.501563 0.501563
0.579210 0.579210 0.579210
0.658471 0.658471 0.658471
0.042489 0.042489 0.042489
0.044136 0.044136 0.044136
0.050218 0.050218 0.050218
0.060526 0.060526 0.060526
0.075080 0.075080 0.075080
0.094522 0.094522 0.094522
0.119900 0.119900 0.119900
0.152503 0.152503 0.152503
0.192955 0.192955 0.192955
0.241332 0.241332 0.241332
0.297499 0.297499 0.297499
0.360748 0.360748 0.360748
0.430018 0.430018 0.430018
0.504406 0.504406 0.504406
0.581882 0.581882 0.581882
0.660888 0.660888 0.660888
0.060993 0.060993 0.060993
0.062077 0.062077 0.062077
0.066657 0.066657 0.066657
0.075581 0.075581 0.075581
0.089308 0.089308 0.089308
0.108498 0.108498 0.108498
0.134030 0.134030 0.134030
0.166855 0.166855 0.166855
0.207472 0.207472 0.207472
0.255799 0.255799 0.255799
0.311625 0.311625 0.311625
0.374460 0.374460 0.374460
0.443301 0.443301 0.443301
0.517046 0.517047 0.517047
0.593544 0.593543 0.593543
0.671676 0.671676 0.671676
0.090671 0.090671 0.090671
0.091634 0.091634 0.091634
0.095796 0.095796 0.095796
0.104232 0.104232 0.104232
0.117731 0.117731 0.117731
0.137094 0.137094 0.137094
0.163101 0.163101 0.163101
0.196278 0.196278 0.196278
0.236910 0.236910 0.236910
0.285095 0.285095 0.285095
0.340356 0.340356 0.340356
0.402336 0.402336 0.402336
0.469860 0.469860 0.469860
0.542023 0.542023 0.542023
0.616779 0.616779 0.616779
0.692919 0.692919 0.692919
0.136254 0.136254 0.136254
0.137247 0.137247 0.137247
0.141466 0.141466 0.141466
0.150116 0.150116 0.150116
0.163983 0.163983 0.163983
0.183771 0.183771 0.183771
0.210103 0.210103 0.210103
0.243364 0.243364 0.243364
0.283721 0.283721 0.283721
0.331150 0.331150 0.331150
0.385327 0.385327 0.385327
0.445769 0.445769 0.445769
0.511277 0.511277 0.511277
0.580928 0.580928 0.580928
0.652656 0.652656 0.652656
0.725817 0.725817 0.725817
0.202753 0.202753 0.202753
0.203715 0.203715 0.203715
0.208062 0.208062 0.208062
0.216843 0.216843 0.216843
0.230840 0.230840 0.230840
0.250652 0.250652 0.250652
0.276803 0.276803 0.276803
0.309597 0.309597 0.309597
0.349120 0.349120 0.349120
0.395092 0.395092 0.395092
0.447374 0.447374 0.447374
0.505337 0.505337 0.505337
0.567671 0.567671 0.567671
0.633500 0.633500 0.633500
0.701238 0.701238 0.701238
0.770291 0.770291 0.770291
0.290878 0.290878 0.290878
0.291837 0.291837 0.291837
0.296149 0.296149 0.296149
0.304757 0.304757 0.304757
0.318435 0.318435 0.318435
0.337850 0.337850 0.337850
0.363151 0.363151 0.363151
0.394641 0.394641 0.394641
0.432430 0.432430 0.432430
0.476239 0.476239 0.476239
0.525464 0.525464 0.525464
0.579686 0.579686 0.579686
0.637490 0.637490 0.637490
0.698456 0.698456 0.698456
0.761349 0.761349 0.761349
0.824618 0.824618 0.824618
0.398781 0.398781 0.398781
0.399725 0.399725 0.399725
0.403756 0.403756 0.403756
0.411945 0.411945 0.411945
0.424886 0.424886 0.424886
0.443094 0.443094 0.443094
0.466889 0.466889 0.466889
0.496348 0.496348 0.496348
0.531361 0.531361 0.531361
0.571707 0.571707 0.571707
0.616746 0.616746 0.616746
0.665991 0.665991 0.665991
0.718511 0.718510 0.718510
0.773950 0.773950 0.773950
0.830243 0.830243 0.830243
0.886803 0.886803 0.886803
0.521586 0.521586 0.521586
0.522504 0.522504 0.522504
0.526140 0.526140 0.526140
0.533581 0.533581 0.533581
0.545370 0.545370 0.545370
0.561940 0.561940 0.561940
0.583351 0.583351 0.583351
0.609805 0.609805 0.609805
0.641078 0.641078 0.641078
0.677025 0.677025 0.677025
0.717078 0.717078 0.717078
0.760868 0.760868 0.760868
0.807147 0.807147 0.807147
0.855485 0.855485 0.855485
0.902959 0.902959 0.902959
0.939333 0.939333 0.939333
0.652219 0.652219 0.652219
0.652924 0.652924 0.652924
0.656069 0.656069 0.656069
0.662625 0.662625 0.662625
0.672887 0.672887 0.672887
0.687248 0.687248 0.687248
0.705877 0.705877 0.705877
0.728826 0.728826 0.728826
0.756183 0.756183 0.756183
0.787185 0.787185 0.787185
0.821545 0.821545 0.821545
0.858860 0.858860 0.858860
0.897441 0.897441 0.897441
0.929758 0.929758 0.929758
0.954245 0.954245 0.954245
0.971951 0.971951 0.971951
0.783149 0.783149 0.783149
0.783733 0.783733 0.783733
0.786464 0.786464 0.786464
0.791928 0.791928 0.791928
0.800631 0.800631 0.800631
0.812625 0.812625 0.812625
0.828238 0.828238 0.828238
0.847386 0.847386 0.847386
0.869910 0.869910 0.869910
0.894905 0.894905 0.894905
0.918655 0.918655 0.918655
0.939669 0.939669 0.939669
0.957335 0.957335 0.957335
0.971386 0.971386 0.971386
0.981676 0.981676 0.981676
0.989051 0.989051 0.989051
0.904973 0.904973 0.904973
0.905453 0.905453 0.905453
0.907414 0.907414 0.907414
0.910867 0.910867 0.910867
0.916430 0.916430 0.916430
0.923712 0.923712 0.923712
0.932404 0.932404 0.932404
0.942073 0.942073 0.942073
0.952079 0.952079 0.952079
0.961897 0.961897 0.961897
0.970903 0.970903 0.970903
0.978859 0.978859 0.978859
0.985258 0.985258 0.985258
0.990375 0.990375 0.990375
0.993959 0.993959 0.993959
0.996501 0.996501 0.996501
0.970203 0.970203 0.970203
0.970378 0.970378 0.970378
0.970926 0.970926 0.970926
0.972150 0.972150 0.972150
0.974039 0.974039 0.974039
0.976459 0.976459 0.976459
0.979244 0.979244 0.979244
0.982398 0.982398 0.982398
0.985658 0.985658 0.985658
0.988777 0.988777 0.988777
0.991523 0.991523 0.991523
0.993900 0.993900 0.993900
0.995906 0.995906 0.995906
0.997355 0.997355 0.997355
0.998378 0.998378 0.998378
0.999018 0.999018 0.999018
0.992643 0.992643 0.992643
0.992619 0.992619 0.992619
0.992853 0.992853 0.992853
0.993159 0.993159 0.993159
0.993619 0.993619 0.993619
0.994230 0.994230 0.994230
0.994940 0.994940 0.994940
0.995743 0.995743 0.995743
0.996569 0.996569 0.996569
0.997365 0.997365 0.997365
0.998002 0.998002 0.998002
0.998582 0.998582 0.998582
0.999032 0.999032 0.999032
0.999373 0.999373 0.999373
0.999621 0.999621 0.999621
0.999746 0.999746 0.999746
0.998605 0.998605 0.998605
0.998619 0.998619 0.998619
0.998557 0.998557 0.998557
0.998652 0.998652 0.998652
0.998798 0.998798 0.998798
0.998873 0.998873 0.998873
0.998978 0.998978 0.998978
0.999163 0.999163 0.999163
0.999400 0.999400 0.999400
0.999518 0.999518 0.999518
0.999609 0.999609 0.999609
0.999778 0.999778 0.999778
0.999797 0.999797 0.999797
0.999893 0.999893 0.999893
0.999959 0.999959 0.999959
0.999998 0.999998 0.999998
0.999833 0.999833 0.999833
0.999833 0.999833 0.999833
0.999842 0.999842 0.999842
0.999744 0.999744 0.999744
0.999768 0.999768 0.999768
0.999798 0.999798 0.999798
0.999833 0.999833 0.999833
0.999871 0.999871 0.999871
0.999908 0.999908 0.999908
0.999943 0.999943 0.999943
0.999972 0.999972 0.999972
0.999996 0.999996 0.999996
1.000013 1.000013 1.000013
1.000025 1.000025 1.000025
1.000031 1.000031 1.000031
1.000034 1.000034 1.000034
0.038796 0.038796 0.038796
0.040842 0.040842 0.040842
0.047643 0.047643 0.047643
0.058370 0.058370 0.058370
0.073150 0.073150 0.073150
0.092670 0.092670 0.092670
0.118042 0.118042 0.118042
0.150601 0.150601 0.150601
0.191025 0.191025 0.191025
0.239421 0.239421 0.239421
0.295565 0.295565 0.295565
0.358873 0.358873 0.358873
0.428239 0.428239 0.428239
0.502780 0.502780 0.502780
0.580337 0.580337 0.580337
0.659565 0.659565 0.659565
0.044839 0.044839 0.044839
0.046346 0.046346 0.046346
0.052072 0.052072 0.052072
0.062114 0.062114 0.062114
0.076549 0.076549 0.076549
0.095943 0.095943 0.095943
0.121335 0.121335 0.121335
0.153921 0.153921 0.153921
0.194411 0.194411 0.194411
0.242811 0.242811 0.242811
0.298870 0.298870 0.298870
0.362158 0.362158 0.362158
0.431375 0.431375 0.431375
0.505728 0.505728 0.505728
0.583138 0.583138 0.583138
0.662140 0.662140 0.662140
0.062574 0.062574 0.062574
0.063657 0.063657 0.063657
0.068185 0.068185 0.068185
0.077035 0.077035 0.077035
0.090753 0.090753 0.090753
0.109912 0.109912 0.109912
0.135471 0.135471 0.135471
0.168332 0.168332 0.168332
0.208914 0.208914 0.208914
0.257280 0.257280 0.257280
0.313090 0.313090 0.313090
0.375922 0.375922 0.375922
0.444597 0.444597 0.444597
0.518249 0.518249 0.518249
0.594696 0.594696 0.594696
0.672830 0.672830 0.672830
0.092079 0.092079 0.092079
0.093054 0.093054 0.093054
0.097208 0.097208 0.097208
0.105641 0.105641 0.105641
0.119143 0.119143 0.119143
0.138525 0.138525 0.138525
0.164574 0.164574 0.164574
0.197720 0.197720 0.197720
0.238382 0.238382 0.238382
0.286465 0.286465 0.286465
0.341803 0.341803 0.341803
0.403683 0.403683 0.403683
0.471205 0.471205 0.471205
0.543268 0.543268 0.543268
0.617939 0.617939 0.617939
0.693925 0.693925 0.693925
0.137692 0.137692 0.137692
0.138668 0.138668 0.138668
0.142904 0.142904 0.142904
0.151577 0.151577 0.151577
0.165450 0.165450 0.165450
0.185262 0.185262 0.185262
0.211563 0.211563 0.211563
0.244769 0.244769 0.244769
0.285218 0.285218 0.285218
0.332601 0.332601 0.332601
0.386770 0.386770 0.386770
0.447142 0.447142 0.447142
0.512530 0.512530 0.512530
0.582040 0.582040 0.582040
0.653701 0.653701 0.653701
0.726970 0.726970 0.726970
0.204206 0.204206 0.204206
0.205196 0.205196 0.205196
0.209525 0.209525 0.209525
0.218248 0.218248 0.218248
0.232275 0.232275 0.232275
0.252111 0.252111 0.252111
0.278183 0.278183 0.278183
0.310965 0.310965 0.310965
0.350448 0.350448 0.350448
0.396468 0.396468 0.396468
0.448831 0.448831 0.448831
0.506515 0.506515 0.506515
0.568838 0.568838 0.568838
0.634529 0.634529 0.634529
0.702303 0.702303 0.702303
0.771159 0.771159 0.771159
0.292380 0.292380 0.292380
0.293354 0.293354 0.293354
0.297567 0.297567 0.297567
0.306216 0.306216 0.306216
0.319888 0.319888 0.319888
0.339189 0.339189 0.339189
0.364521 0.364521 0.364521
0.396013 0.396013 0.396013
0.433740 0.433740 0.433740
0.477506 0.477506 0.477506
0.526755 0.526755 0.526755
0.580843 0.580843 0.580843
0.638662 0.638662 0.638662
0.699587 0.699587 0.699587
0.762266 0.762266 0.762266
0.825497 0.825497 0.825497
0.400080 0.400080 0.400080
0.401082 0.401082 0.401082
0.405093 0.405093 0.405093
0.413179 0.413179 0.413179
0.426211 0.426211 0.426211
0.444481 0.444481 0.444481
0.468165 0.468165 0.468165
0.497620 0.497620 0.497620
0.532583 0.532583 0.532583
0.572860 0.572860 0.572860
0.617878 0.617878 0.617878
0.667011 0.667011 0.667011
0.719605 0.719605 0.719605
0.774844 0.774844 0.774844
0.831075 0.831075 0.831075
0.887402 0.887402 0.887402
0.522874 0.522874 0.522874
0.523687 0.523687 0.523687
0.527454 0.527454 0.527454
0.534850 0.534850 0.534850
0.546618 0.546618 0.546618
0.563093 0.563093 0.563093
0.584551 0.584551 0.584551
0.610981 0.610981 0.610981
0.642253 0.642253 0.642253
0.678054 0.678054 0.678054
0.717971 0.717971 0.717971
0.761813 0.761813 0.761813
0.808164 0.808164 0.808164
0.856348 0.856348 0.856348
0.903616 0.903616 0.903616
0.939678 0.939679 0.939679
0.653259 0.653259 0.653259
0.654018 0.654018 0.654018
0.657298 0.657298 0.657298
0.663699 0.663699 0.663699
0.673969 0.673969 0.673969
0.688280 0.688280 0.688280
0.707051 0.707051 0.707051
0.729973 0.729973 0.729973
0.757099 0.757099 0.757099
0.788045 0.788045 0.788045
0.822446 0.822446 0.822446
0.859549 0.859549 0.859549
0.898075 0.898075 0.898075
0.930212 0.930212 0.930212
0.954625 0.954625 0.954625
0.972119 0.972119 0.972119
0.784098 0.784098 0.784098
0.784698 0.784698 0.784698
0.787417 0.787417 0.787417
0.792882 0.792882 0.792882
0.801481 0.801481 0.801481
0.813573 0.813573 0.813573
0.829047 0.829047 0.829047
0.848133 0.848133 0.848133
0.870646 0.870646 0.870646
0.895592 0.895592 0.895592
0.919198 0.919198 0.919198
0.940117 0.940117 0.940117
0.957674 0.957674 0.957674
0.971561 0.971561 0.971561
0.981800 0.981800 0.981800
0.989112 0.989112 0.989112
0.905550 0.905550 0.905550
0.906145 0.906145 0.906145
0.907838 0.907838 0.907838
0.911541 0.911541 0.911541
0.916959 0.916959 0.916959
0.924157 0.924157 0.924157
0.932790 0.932790 0.932790
0.942505 0.942505 0.942505
0.952398 0.952398 0.952398
0.962139 0.962139 0.962139
0.971097 0.971097 0.971097
0.978901 0.978901 0.978901
0.985430 0.985430 0.985430
0.990327 0.990327 0.990327
0.994010 0.994010 0.994010
0.996534 0.996534 0.996534
0.970511 0.970511 0.970511
0.970487 0.970487 0.970487
0.971140 0.971140 0.971140
0.972359 0.972359 0.972359
0.974124 0.974124 0.974124
0.976564 0.976564 0.976564
0.979329 0.979329 0.979329
0.982481 0.982481 0.982481
0.985673 0.985673 0.985673
0.988767 0.988767 0.988767
0.991651 0.991651 0.991651
0.993990 0.993990 0.993990
0.995938 0.995938 0.995938
0.997369 0.997369 0.997369
0.998344 0.998344 0.998344
0.999027 0.999027 0.999027
0.992639 0.992639 0.992639
0.992683 0.992683 0.992683
0.992805 0.992805 0.992805
0.993202 0.993202 0.993202
0.993696 0.993696 0.993696
0.994297 0.994297 0.994297
0.994998 0.994998 0.994998
0.995796 0.995796 0.995796
0.996613 0.996613 0.996613
0.997341 0.997341 0.997341
0.998019 0.998019 0.998019
0.998597 0.998597 0.998597
0.999044 0.999044 0.999044
0.999380 0.999380 0.999380
0.999625 0.999625 0.999625
0.999749 0.999749 0.999749
0.998624 0.998624 0.998624
0.998634 0.998634 0.998634
0.998575 0.998575 0.998575
0.998663 0.998663 0.998663
0.998811 0.998811 0.998811
0.998887 0.998887 0.998887
0.998991 0.998991 0.998991
0.999173 0.999173 0.999173
0.999415 0.999415 0.999415
0.999527 0.999527 0.999527
0.999613 0.999613 0.999613
0.999783 0.999783 0.999783
0.999800 0.999800 0.999800
0.999895 0.999895 0.999895
0.999959 0.999959 0.999959
0.999999 0.999999 0.999999
0.999835 0.999835 0.999835
0.999837 0.999837 0.999837
0.999845 0.999845 0.999845
0.999746 0.999746 0.999746
0.999771 0.999771 0.999771
0.999800 0.999800 0.999800
0.999836 0.999836 0.999836
0.999872 0.999872 0.999872
0.999909 0.999909 0.999909
0.999944 0.999944 0.999944
0.999973 0.999973 0.999973
0.999996 0.999996 0.999996
1.000014 1.000014 1.000014
1.000025 1.000025 1.000025
1.000031 1.000031 1.000031
1.000034 1.000034 1.000034
0.044201 0.044201 0.044201
0.045730 0.045730 0.045730
0.051552 0.051552 0.051552
0.061671 0.061671 0.061671
0.076128 0.076128 0.076128
0.095543 0.095543 0.095543
0.120924 0.120924 0.120924
0.153512 0.153512 0.153512
0.193993 0.193993 0.193993
0.242413 0.242413 0.242413
0.298529 0.298529 0.298529
0.361670 0.361670 0.361670
0.430995 0.430995 0.430995
0.505349 0.505349 0.505349
0.582781 0.582781 0.582781
0.661824 0.661824 0.661824
0.049065 0.049065 0.049065
0.050379 0.050379 0.050379
0.055648 0.055648 0.055648
0.065291 0.065291 0.065291
0.079487 0.079487 0.079487
0.098805 0.098805 0.098805
0.124221 0.124221 0.124221
0.156891 0.156891 0.156891
0.197356 0.197356 0.197356
0.245805 0.245805 0.245805
0.301768 0.301768 0.301768
0.364904 0.364904 0.364904
0.434072 0.434072 0.434072
0.508326 0.508326 0.508326
0.585484 0.585484 0.585484
0.664258 0.664258 0.664258
0.065743 0.065743 0.065743
0.066800 0.066800 0.066800
0.071230 0.071230 0.071230
0.079984 0.079984 0.079984
0.093615 0.093615 0.093615
0.112786 0.112786 0.112786
0.138377 0.138377 0.138377
0.171300 0.171300 0.171300
0.211888 0.211888 0.211888
0.260263 0.260263 0.260263
0.315990 0.315990 0.315990
0.378721 0.378720 0.378720
0.447291 0.447291 0.447291
0.520854 0.520854 0.520854
0.597103 0.597103 0.597103
0.674995 0.674995 0.674995
0.094933 0.094933 0.094933
0.095919 0.095919 0.095919
0.100070 0.100070 0.100070
0.108504 0.108504 0.108504
0.122030 0.122030 0.122030
0.141462 0.141462 0.141462
0.167510 0.167510 0.167510
0.200732 0.200732 0.200732
0.241312 0.241312 0.241312
0.289412 0.289412 0.289412
0.344621 0.344621 0.344621
0.406457 0.406457 0.406457
0.473832 0.473832 0.473832
0.545733 0.545733 0.545733
0.620147 0.620147 0.620147
0.696060 0.696060 0.696060
0.140603 0.140603 0.140603
0.141597 0.141597 0.141597
0.145825 0.145825 0.145825
0.154504 0.154504 0.154504
0.168422 0.168422 0.168422
0.188252 0.188252 0.188252
0.214524 0.214524 0.214524
0.247766 0.247766 0.247766
0.288097 0.288097 0.288097
0.335440 0.335440 0.335440
0.389620 0.389620 0.389620
0.449811 0.449811 0.449811
0.515122 0.515122 0.515122
0.584495 0.584495 0.584495
0.656012 0.656012 0.656012
0.728809 0.728809 0.728809
0.207147 0.207147 0.207147
0.208181 0.208181 0.208181
0.212505 0.212505 0.212505
0.221220 0.221220 0.221220
0.235215 0.235215 0.235215
0.255059 0.255059 0.255059
0.281218 0.281218 0.281218
0.313930 0.313930 0.313930
0.353235 0.353235 0.353235
0.399358 0.399358 0.399358
0.451456 0.451456 0.451456
0.509123 0.509123 0.509123
0.571223 0.571223 0.571223
0.636861 0.636861 0.636861
0.704330 0.704330 0.704330
0.773079 0.773079 0.773079
0.295231 0.295231 0.295231
0.296297 0.296297 0.296297
0.300486 0.300486 0.300486
0.309129 0.309129 0.309129
0.322791 0.322791 0.322791
0.342061 0.342061 0.342061
0.367412 0.367412 0.367412
0.398810 0.398810 0.398810
0.436495 0.436495 0.436495
0.480142 0.480142 0.480142
0.529243 0.529243 0.529243
0.583188 0.583188 0.583188
0.640854 0.640854 0.640854
0.701630 0.701630 0.701630
0.764167 0.764167 0.764167
0.827379 0.827379 0.827379
0.402930 0.402930 0.402930
0.403798 0.403798 0.403798
0.407863 0.407863 0.407863
0.415942 0.415942 0.415942
0.428917 0.428917 0.428917
0.447140 0.447140 0.447140
0.470816 0.470816 0.470816
0.500206 0.500206 0.500206
