src/luts/blur/12.cube
TITLE "Generated by Resolve"
LUT_3D_SIZE 5
0 0 0.0242313
0.306737 0 0
0.635782 0 0
0.92845 0 0
1 0 0
0 0.291478 0.0127718
0.26688 0.282521 0
0.601297 0.271412 0
0.925719 0.261448 0
1 0.258335 0
0 0.594064 0
0.204074 0.582818 0
0.545739 0.569253 0
0.885801 0.554925 0
1 0.545098 0
0 0.89073 0
0.129641 0.886107 0
0.474937 0.872236 0
0.823972 0.854597 0
1 0.839353 0
0 1 0
0.0773938 1 0
0.41001 1 0
0.756283 1 0
1 1 0
0.0132601 0 0.451408
0.332357 0 0.411475
0.661051 0 0.371572
0.972747 0 0.324071
1 0 0.278935
0 0.269795 0.450462
0.288624 0.26041 0.398474
0.619654 0.248249 0.357229
0.965026 0.23299 0.307088
1 0.228412 0.263386
0 0.569818 0.433814
0.232059 0.555322 0.384207
0.566842 0.54316 0.335088
0.917327 0.527977 0.26949
1 0.513176 0.217823
0 0.872587 0.403296
0.141634 0.86363 0.34052
0.492866 0.847379 0.279957
0.849027 0.830503 0.214557
1 0.812116 0.156909
0 1 0.380331
0.0607462 1 0.298116
0.400076 1 0.21825
0.762509 1 0.147829
1 1 0.101259
0.0352483 0 0.858625
0.35433 0 0.840269
0.678416 0 0.80174
0.986374 0 0.74757
1 0 0.692515
0 0.246723 0.889937
0.311437 0.235187 0.855955
0.6477 0.222049 0.812009
0.989609 0.207492 0.765637
1 0.199649 0.709392
0 0.543877 0.88925
0.246876 0.53228 0.847227
0.589197 0.518578 0.788159
0.936629 0.502251 0.742473
1 0.483085 0.688807
0 0.843503 0.867536
0.161959 0.836728 0.821973
0.521233 0.818143 0.764431
0.86807 0.802777 0.711528
1 0.782574 0.643503
0 1 0.840085
0.0706645 1 0.78146
0.417334 1 0.715709
0.785565 1 0.653956
1 1 0.587015
0.0574655 0 1
0.359518 0 1
0.671534 0 1
0.981353 0 1
1 0 1
0.0234073 0.225788 1
0.332952 0.215793 1
0.663981 0.201022 1
0.999069 0.1879 1
1 0.181582 1
0 0.515755 1
0.273533 0.506645 1
0.61297 0.49099 1
0.964355 0.473701 1
1 0.455604 1
0 0.81178 1
0.19382 0.807721 1
0.535103 0.792355 1
0.893202 0.774411 1
1 0.754025 1
0 1 1
0.11162 1 1
0.438254 1 1
0.811231 1 1
1 1 1
0.0791943 0 1
0.381796 0 1
0.690883 0 1
1 0 1
1 0 1
0.0448768 0.205371 1
0.354253 0.19794 1
0.670451 0.189075 1
0.992248 0.178775 1
1 0.16672 1
0 0.493324 1
0.308888 0.484672 1
0.632715 0.472007 1
0.973129 0.454719 1
1 0.438743 1
0 0.788266 1
0.245197 0.778119 1
0.566186 0.765209 1
0.916381 0.745357 1
1 0.723613 1
0 1 1
0.163836 1 1
0.476387 1 1
0.828 1 1
1 1 1
