src/luts/blur/12.cube
TITLE "Generated by Resolve"
LUT_3D_SIZE 33
0 0 0.0242313
0.0284886 0 0.0195315
0.0659953 0 0.0151675
0.104326 0 0.0105287
0.143145 0 0.00570687
0.18323 0 0.000732433
0.223728 0 0
0.265095 0 0
0.306737 0 0
0.348486 0 0
0.390158 0 0
0.431525 0 0
0.472862 0 0
0.513771 0 0
0.554742 0 0
0.5953 0 0
0.635782 0 0
0.675654 0 0
0.715023 0 0
0.753079 0 0
0.790097 0 0
0.825788 0 0
0.860441 0 0
0.894621 0 0
0.92845 0 0
0.962448 0 0
0.996414 0 0
1 0 0
1 0 0
1 0 0
1 0 0
1 0 0
1 0 0
0 0.0348058 0.0245823
0.0255894 0.0345006 0.0203098
0.0628977 0.0341192 0.0157626
0.100984 0.0335546 0.0108797
0.139498 0.0328679 0.00579843
0.179004 0.0319371 0.000335698
0.219364 0.0310979 0
0.260456 0.0297551 0
0.301991 0.0282902 0
0.343801 0.0267643 0
0.385641 0.0252232 0
0.427222 0.023743 0
0.468788 0.0222629 0
0.509957 0.0208896 0
0.551156 0.019501 0
0.591989 0.018204 0
0.632792 0.0169223 0
0.673045 0.0158541 0
0.712993 0.0149386 0
0.751812 0.0142519 0
0.78967 0.0137179 0
0.826154 0.0135348 0
0.861494 0.0136416 0
0.896132 0.0139315 0
0.930266 0.0143587 0
0.964477 0.0147555 0
0.998611 0.0151827 0
1 0.0155184 0
1 0.0159762 0
1 0.0162203 0
1 0.0151827 0
1 0.0141146 0
1 0.0130312 0
0 0.0705119 0.0249638
0.0222171 0.0700999 0.0206455
0.0597086 0.0696727 0.0160372
0.097673 0.0691539 0.0110018
0.135958 0.0685588 0.00570687
0.175143 0.0677348 0
0.214908 0.0667887 0
0.255924 0.0658122 0
0.297246 0.0644541 0
0.33901 0.062974 0
0.380911 0.0614481 0
0.422644 0.0599527 0
0.464408 0.0584421 0
0.505776 0.057023 0
0.547204 0.0555886 0
0.588266 0.0542458 0
0.629358 0.0528878 0
0.669932 0.051667 0
0.710338 0.0506142 0
0.749813 0.0498054 0
0.788434 0.0490883 0
0.825727 0.0486763 0
0.861784 0.0485847 0
0.896971 0.0487068 0
0.931517 0.0489967 0
0.965988 0.0493019 0
1 0.0496529 0
1 0.0499275 0
1 0.0502022 0
1 0.0506447 0
1 0.0500038 0
1 0.0489052 0
1 0.0477913 0
0 0.106538 0.0247349
0.0181277 0.105959 0.0203555
0.0560311 0.105425 0.0157015
0.0941176 0.104875 0.0106203
0.132326 0.104311 0.00520333
0.171298 0.103578 0
0.210773 0.102724 0
0.251225 0.10164 0
0.292531 0.100633 0
0.334157 0.0992294 0
0.376028 0.0977493 0
0.417838 0.0962539 0
0.459754 0.094728 0
0.501289 0.0932784 0
0.542931 0.0917983 0
0.584176 0.0904097 0
0.625528 0.0889906 0
0.666407 0.0876936 0
0.707134 0.0864576 0
0.747143 0.0855116 0
0.78648 0.0847028 0
0.824521 0.0840925 0
0.861341 0.083772 0
0.897139 0.083711 0
0.932128 0.0838636 0
0.966934 0.0840467 0
1 0.0843061 0
1 0.0845045 0
1 0.0847181 0
1 0.084947 0
1 0.0848707 0
1 0.0838026 0
1 0.0826581 0
0 0.14287 0.0237888
0.0132601 0.142138 0.019379
0.0516365 0.141466 0.0146792
0.0900587 0.14081 0.00956741
0.128374 0.14023 0.00410468
0.1673 0.139513 0
0.206592 0.138735 0
0.246784 0.137743 0
0.287572 0.136599 0
0.329244 0.135531 0
0.371038 0.134096 0
0.412848 0.132647 0
0.454826 0.131121 0
0.496513 0.129656 0
0.538308 0.128145 0
0.579751 0.126711 0
0.621317 0.125246 0
0.662455 0.123873 0
0.703517 0.12253 0
0.743893 0.121416 0
0.783825 0.12047 0
0.822614 0.119738 0
0.860136 0.119219 0
0.896605 0.118959 0
0.932082 0.118944 0
0.9673 0.119005 0
1 0.119173 0
1 0.11928 0
1 0.119417 0
1 0.119585 0
1 0.119615 0
1 0.118791 0
1 0.117647 0
0 0.179492 0.0222324
0.00766003 0.178592 0.0177768
0.0465858 0.177752 0.0130159
0.0854505 0.176974 0.00787366
0.124041 0.176318 0.00239567
0.163058 0.175586 0
0.202319 0.174823 0
0.242344 0.173892 0
0.282918 0.172824 0
0.324193 0.171633 0
0.366049 0.170474 0
0.407813 0.169055 0
0.449836 0.167529 0
0.4916 0.166064 0
0.533547 0.164538 0
0.575158 0.163073 0
0.616907 0.161563 0
0.658274 0.160143 0
0.699626 0.158709 0
0.740307 0.157443 0
0.780713 0.156359 0
0.820142 0.15552 0
0.858381 0.154849 0
0.895506 0.154391 0
0.931563 0.154208 0
0.967193 0.154131 0
1 0.154177 0
1 0.154192 0
1 0.154238 0
1 0.15433 0
1 0.154299 0
1 0.153628 0
1 0.152682 0
0 0.216495 0.0198062
0.00106813 0.215427 0.0152895
0.0405737 0.21442 0.0104829
0.0799573 0.213489 0.0053254
0.118944 0.212726 0
0.158221 0.211917 0
0.197559 0.211139 0
0.237552 0.210208 0
0.278004 0.209201 0
0.319051 0.208026 0
0.360647 0.206806 0
0.402533 0.205585 0
0.444541 0.204089 0
0.486366 0.202609 0
0.52842 0.201068 0
0.570169 0.199573 0
0.61207 0.198032 0
0.653651 0.196567 0
0.695262 0.195087 0
0.736278 0.193729 0
0.777005 0.192462 0
0.816938 0.191485 0
0.855909 0.190707 0
0.89366 0.190082 0
0.930312 0.189715 0
0.96643 0.189487 0
1 0.18941 0
1 0.189319 0
1 0.189273 0
1 0.189273 0
1 0.189166 0
1 0.188815 0
1 0.18761 0
0 0.25388 0.0165713
0 0.252659 0.0119326
0.0335699 0.251484 0.00706493
0.073518 0.250385 0.00184634
0.112978 0.24947 0
0.152605 0.248554 0
0.192157 0.247715 0
0.232258 0.246769 0
0.272663 0.245762 0
0.313619 0.244617 0
0.355032 0.243351 0
0.396796 0.242115 0
0.438926 0.240772 0
0.480797 0.239307 0
0.522927 0.237751 0
0.564797 0.23624 0
0.606851 0.234668 0
0.648585 0.233158 0
0.690425 0.231617 0
0.731731 0.230182 0
0.772793 0.228809 0
0.813123 0.227649 0
0.852644 0.226749 0
0.891096 0.226017 0
0.928328 0.225483 0
0.96492 0.225101 0
1 0.224872 0
1 0.224659 0
1 0.224521 0
1 0.22443 0
1 0.224247 0
1 0.224033 0
1 0.222919 0
0 0.291478 0.0127718
0 0.290181 0.00793469
0.0256962 0.288869 0.00289921
0.0661784 0.287633 0
0.106157 0.286564 0
0.146227 0.285527 0
0.186084 0.284581 0
0.226398 0.283558 0
0.26688 0.282521 0
0.307851 0.281376 0
0.349203 0.280125 0
0.39086 0.278828 0
0.432959 0.277485 0
0.474937 0.276097 0
0.517143 0.27454 0
0.559106 0.273014 0
0.601297 0.271412 0
0.643198 0.269871 0
0.685222 0.268284 0
0.726772 0.266804 0
0.768154 0.265324 0
0.80882 0.264012 0
0.848814 0.262959 0
0.887877 0.262119 0
0.925719 0.261448 0
0.962844 0.260899 0
0.999268 0.260548 0
1 0.260197 0
1 0.259953 0
1 0.25977 0
1 0.25948 0
1 0.25919 0
1 0.258335 0
0 0.328969 0.00839246
0 0.327901 0.00347906
0.0171664 0.326513 0
0.0581064 0.325154 0
0.098558 0.323949 0
0.139086 0.322774 0
0.179324 0.321706 0
0.219913 0.320607 0
0.260594 0.319509 0
0.30164 0.318318 0
0.343023 0.317052 0
0.384619 0.315709 0
0.426703 0.314336 0
0.468757 0.312978 0
0.511055 0.311452 0
0.553124 0.309911 0
0.595438 0.308278 0
0.637491 0.306706 0
0.679683 0.305074 0
0.721447 0.303548 0
0.763104 0.302007 0
0.80412 0.300587 0
0.844434 0.299321 0
0.884031 0.29836 0
0.922499 0.297612 0
0.960159 0.29691 0
0.99704 0.296407 0
1 0.295933 0
1 0.295583 0
1 0.295277 0
1 0.294896 0
1 0.29453 0
1 0.293858 0
0 0.366781 0.0040589
0 0.365454 0
0.00822461 0.364294 0
0.049485 0.36286 0
0.0903334 0.361563 0
0.131273 0.360265 0
0.171923 0.359091 0
0.212833 0.35787 0
0.253742 0.356695 0
0.294957 0.355444 0
0.336431 0.354131 0
0.378088 0.352773 0
0.420127 0.351308 0
0.462226 0.34995 0
0.504677 0.34847 0
0.546838 0.346914 0
0.589258 0.345266 0
0.631449 0.343664 0
0.673808 0.342 0
0.71577 0.340414 0
0.757671 0.338811 0
0.798978 0.337316 0
0.839673 0.335943 0
0.879591 0.334722 0
0.918624 0.333913 0
0.956893 0.333104 0
0.994217 0.332464 0
1 0.331853 0
1 0.331365 0
1 0.330968 0
1 0.33048 0
1 0.330007 0
1 0.329488 0
0 0.404623 0
0 0.403311 0
0 0.401892 0
0.0405432 0.400687 0
0.0816815 0.399329 0
0.122972 0.39794 0
0.163973 0.396658 0
0.205219 0.395346 0
0.246387 0.39408 0
0.287816 0.392752 0
0.329412 0.391394 0
0.371176 0.38999 0
0.413291 0.388479 0
0.455375 0.38703 0
0.497902 0.38555 0
0.54023 0.384039 0
0.582773 0.382376 0
0.625086 0.380743 0
0.667597 0.379034 0
0.709728 0.377401 0
0.751842 0.375753 0
0.793423 0.374182 0
0.834455 0.372717 0
0.874784 0.371389 0
0.914122 0.370245 0
0.953033 0.369467 0
0.990875 0.368688 0
1 0.367956 0
1 0.367346 0
1 0.366812 0
1 0.366232 0
1 0.365652 0
1 0.365118 0
0 0.442481 0
0 0.441199 0
0 0.439796 0
0.0311894 0.438361 0
0.0727398 0.437171 0
0.11429 0.435737 0
0.155581 0.434379 0
0.197131 0.432975 0
0.23856 0.431617 0
0.280217 0.430228 0
0.321996 0.428794 0
0.363882 0.427344 0
0.406104 0.425818 0
0.448234 0.424292 0
0.490822 0.422736 0
0.533288 0.421256 0
0.575982 0.419593 0
0.618418 0.417929 0
0.661051 0.41619 0
0.703349 0.414527 0
0.745663 0.412818 0
0.787488 0.411185 0
0.828824 0.409628 0
0.869535 0.408194 0
0.909285 0.406928 0
0.948425 0.405783 0
0.986954 0.405097 0
1 0.404211 0
1 0.403479 0
1 0.402838 0
1 0.402152 0
1 0.40148 0
1 0.400824 0
0 0.480369 0
0 0.479118 0
0 0.477729 0
0.0218814 0.476249 0
0.0634318 0.474907 0
0.105348 0.47361 0
0.146868 0.47219 0
0.188663 0.470726 0
0.230335 0.469291 0
0.272206 0.467826 0
0.314168 0.466346 0
0.356222 0.464851 0
0.39855 0.463279 0
0.440803 0.461707 0
0.483406 0.46006 0
0.525994 0.458534 0
0.568872 0.456916 0
0.611429 0.455238 0
0.6542 0.453468 0
0.696651 0.451759 0
0.739147 0.449989 0
0.781186 0.44831 0
0.822797 0.446677 0
0.863813 0.445136 0
0.90399 0.443763 0
0.943557 0.442481 0
0.982269 0.441413 0
1 0.44065 0
1 0.43978 0
1 0.439017 0
1 0.438209 0
1 0.437446 0
1 0.436698 0
0 0.518196 0
0 0.516976 0
0 0.515602 0
0.0126802 0.514138 0
0.0542763 0.512703 0
0.0962692 0.511315 0
0.138094 0.510002 0
0.180087 0.508492 0
0.221973 0.507012 0
0.264042 0.505486 0
0.306188 0.503944 0
0.348394 0.502403 0
0.390875 0.500771 0
0.433234 0.499184 0
0.475959 0.497475 0
0.518563 0.495857 0
0.561563 0.494224 0
0.604334 0.492576 0
0.647242 0.490776 0
0.689815 0.489021 0
0.732494 0.487221 0
0.774731 0.485466 0
0.816587 0.483772 0
0.857908 0.482139 0
0.898436 0.480659 0
0.938415 0.479255 0
0.977569 0.478065 0
1 0.476905 0
1 0.476173 0
1 0.475288 0
1 0.474357 0
1 0.473487 0
1 0.472648 0
0 0.556115 0
0 0.55491 0
0 0.553567 0
0.00325017 0.552102 0
0.0449073 0.550683 0
0.0869306 0.549187 0
0.128878 0.547845 0
0.171115 0.54638 0
0.213169 0.544869 0
0.255421 0.543297 0
0.297734 0.541711 0
0.340093 0.540124 0
0.382727 0.538445 0
0.425223 0.536812 0
0.468055 0.535088 0
0.51075 0.533379 0
0.553826 0.531685 0
0.59675 0.530037 0
0.639826 0.528252 0
0.682551 0.526452 0
0.725368 0.52459 0
0.767788 0.522789 0
0.809888 0.521019 0
0.851484 0.51931 0
0.892348 0.517723 0
0.932723 0.516213 0
0.972274 0.514885 0
1 0.513619 0
1 0.512505 0
1 0.511742 0
1 0.510704 0
1 0.509728 0
1 0.508797 0
0 0.594064 0
0 0.592905 0
0 0.591577 0
0 0.590127 0
0.0353857 0.588708 0
0.0774548 0.587182 0
0.119463 0.585763 0
0.161852 0.584314 0
0.204074 0.582818 0
0.246494 0.581201 0
0.288945 0.579583 0
0.331456 0.577951 0
0.374228 0.576242 0
0.416846 0.574578 0
0.459815 0.572824 0
0.502617 0.571084 0
0.545739 0.569253 0
0.588769 0.56759 0
0.632059 0.565835 0
0.674922 0.564004 0
0.717891 0.562097 0
0.760494 0.560235 0
0.802792 0.558389 0
0.844633 0.556603 0
0.885801 0.554925 0
0.926558 0.553307 0
0.966506 0.551858 0
1 0.550469 0
1 0.549233 0
1 0.548165 0
1 0.547219 0
1 0.54612 0
1 0.545098 0
0 0.631983 0
0 0.630884 0
0 0.629587 0
0 0.628183 0
0.025742 0.626764 0
0.0678721 0.625238 0
0.10988 0.623743 0
0.152361 0.622263 0
0.194766 0.620813 0
0.237324 0.619196 0
0.279896 0.617548 0
0.322545 0.615885 0
0.365438 0.614145 0
0.408179 0.612436 0
0.451286 0.610636 0
0.494209 0.608881 0
0.537438 0.607019 0
0.580484 0.605188 0
0.623941 0.603433 0
0.667018 0.601633 0
0.71014 0.59968 0
0.75288 0.597772 0
0.795392 0.59585 0
0.837461 0.593988 0
0.878935 0.592218 0
0.920012 0.590494 0
0.960372 0.588937 0
1 0.587442 0
1 0.586084 0
1 0.584863 0
1 0.583703 0
1 0.582666 0
1 0.581521 0
0 0.669795 0
0 0.668803 0
0 0.667597 0
0 0.666224 0
0.0160372 0.664851 0
0.0581674 0.66334 0
0.100237 0.661845 0
0.142702 0.660273 0
0.185199 0.658824 0
0.227939 0.657267 0
0.270634 0.655589 0
0.313405 0.653895 0
0.356405 0.652125 0
0.399283 0.650401 0
0.442496 0.648554 0
0.485542 0.646754 0
0.528908 0.644846 0
0.572045 0.642985 0
0.615457 0.641016 0
0.658793 0.639307 0
0.702098 0.637339 0
0.745007 0.63537 0
0.787686 0.633402 0
0.829969 0.631464 0
0.871733 0.629602 0
0.91313 0.627787 0
0.953857 0.626123 0
0.994385 0.624506 0
1 0.623056 0
1 0.621729 0
1 0.620371 0
1 0.619196 0
1 0.618082 0
0 0.707439 0
0 0.7066 0
0 0.705501 0
0 0.704219 0
0.00637827 0.702892 0
0.0484779 0.701427 0
0.0905165 0.699962 0
0.132998 0.69836 0
0.175509 0.696849 0
0.218326 0.695308 0
0.261173 0.693675 0
0.304051 0.691966 0
0.347173 0.690166 0
0.390143 0.688411 0
0.433478 0.686534 0
0.476646 0.684703 0
0.520134 0.682765 0
0.563378 0.680858 0
0.606928 0.678843 0
0.650172 0.676875 0
0.693812 0.675059 0
0.736889 0.673045 0
0.779736 0.671 0
0.822248 0.668986 0
0.86424 0.667048 0
0.905959 0.665141 0
0.947005 0.663401 0
0.98793 0.661677 0
1 0.660121 0
1 0.658686 0
1 0.657237 0
1 0.655894 0
1 0.654688 0
0 0.744839 0
0 0.744183 0
0 0.743252 0
0 0.742092 0
0 0.740856 0
0.0388952 0.739467 0
0.0808728 0.738033 0
0.123323 0.736477 0
0.165759 0.734905 0
0.208621 0.733349 0
0.251591 0.731777 0
0.29456 0.730068 0
0.337774 0.728252 0
0.38085 0.726452 0
0.424292 0.724559 0
0.467552 0.722698 0
0.511147 0.720714 0
0.554528 0.718761 0
0.598199 0.716716 0
0.64155 0.714687 0
0.685084 0.712581 0
0.728527 0.71075 0
0.771557 0.708644 0
0.814267 0.706569 0
0.856504 0.704555 0
0.898497 0.702571 0
0.939879 0.70074 0
0.981155 0.698924 0
1 0.697276 0
1 0.69575 0
1 0.694209 0
1 0.692714 0
1 0.691402 0
0 0.781903 0
0 0.781491 0
0 0.780758 0
0 0.779767 0
0 0.778653 0
0.0295872 0.777371 0
0.0714122 0.776013 0
0.113771 0.774502 0
0.156176 0.772976 0
0.198962 0.771344 0
0.241932 0.769787 0
0.285023 0.768154 0
0.328313 0.766323 0
0.371466 0.764523 0
0.415 0.7626 0
0.458351 0.760693 0
0.502037 0.758694 0
0.545541 0.756695 0
0.589303 0.754604 0
0.632776 0.752529 0
0.676432 0.750362 0
0.719753 0.748226 0
0.76321 0.746319 0
0.806104 0.744183 0
0.848569 0.742107 0
0.890837 0.740047 0
0.932525 0.73814 0
0.974105 0.736248 0
1 0.734524 0
1 0.732906 0
1 0.731273 0
1 0.729702 0
1 0.728206 0
0 0.818448 0
0 0.818418 0
0 0.817929 0
0 0.817151 0
0 0.81622 0
0.0207828 0.815061 0
0.0623636 0.813825 0
0.104524 0.81239 0
0.146792 0.810925 0
0.189487 0.809323 0
0.23238 0.807721 0
0.275502 0.806119 0
0.318868 0.804364 0
0.362066 0.802548 0
0.405646 0.80061 0
0.449104 0.798688 0
0.492882 0.796643 0
0.536446 0.794614 0
0.580316 0.792477 0
0.623896 0.790372 0
0.667674 0.788144 0
0.711116 0.785962 0
0.754467 0.783749 0
0.797772 0.781811 0
0.840467 0.779675 0
0.882979 0.777569 0
0.924941 0.775586 0
0.966812 0.773632 0
1 0.771832 0
1 0.770153 0
1 0.768429 0
1 0.766781 0
1 0.765194 0
0 0.854643 0
0 0.854826 0
0 0.854643 0
0 0.854078 0
0 0.853361 0
0.0128634 0.852384 0
0.054078 0.851301 0
0.095964 0.849989 0
0.138033 0.848615 0
0.18056 0.847074 0
0.223301 0.845457 0
0.266361 0.843885 0
0.309758 0.842191 0
0.353002 0.840406 0
0.396628 0.838453 0
0.440101 0.836515 0
0.483955 0.834455 0
0.527581 0.83241 0
0.571542 0.830228 0
0.615213 0.828077 0
0.659068 0.825818 0
0.702632 0.82359 0
0.746105 0.821332 0
0.789349 0.819135 0
0.832456 0.817182 0
0.875196 0.81503 0
0.917403 0.813001 0
0.959564 0.810971 0
1 0.80911 0
1 0.807355 0
1 0.80557 0
1 0.803845 0
1 0.802213 0
0 0.89073 0
0 0.89102 0
0 0.891051 0
0 0.890745 0
0 0.890227 0
0.00560006 0.889448 0
0.0463722 0.888518 0
0.0878767 0.887373 0
0.129641 0.886107 0
0.171939 0.884672 0
0.214496 0.883146 0
0.257343 0.881498 0
0.300694 0.879881 0
0.343954 0.878202 0
0.387564 0.876265 0
0.431052 0.874327 0
0.474937 0.872236 0
0.518608 0.870176 0
0.5626 0.867979 0
0.606332 0.865797 0
0.650278 0.863508 0
0.693919 0.861265 0
0.737499 0.858976 0
0.78085 0.856718 0
0.823972 0.854597 0
0.867063 0.852583 0
0.909499 0.850507 0
0.951919 0.848447 0
0.99382 0.846525 0
1 0.844724 0
1 0.842878 0
1 0.841093 0
1 0.839353 0
0 0.926818 0
0 0.927092 0
0 0.927214 0
0 0.927123 0
0 0.926772 0
0 0.926162 0
0.0394446 0.925414 0
0.0805524 0.924422 0
0.121935 0.923308 0
0.163943 0.921996 0
0.206241 0.920562 0
0.24889 0.919005 0
0.291966 0.917296 0
0.335195 0.91574 0
0.37879 0.913893 0
0.422232 0.911971 0
0.466087 0.909895 0
0.509773 0.907835 0
0.553765 0.905623 0
0.597528 0.903441 0
0.641505 0.901152 0
0.685191 0.898894 0
0.728847 0.896605 0
0.772305 0.894347 0
0.815488 0.892119 0
0.858686 0.890013 0
0.901457 0.88806 0
0.944076 0.885954 0
0.986236 0.883986 0
1 0.882139 0
1 0.880232 0
1 0.878386 0
1 0.876616 0
0 0.962921 0
0 0.963195 0
0 0.963317 0
0 0.963302 0
0 0.963134 0
0 0.962631 0
0.0332189 0.962036 0
0.07393 0.961181 0
0.114931 0.960204 0
0.156603 0.959014 0
0.198596 0.957702 0
0.241001 0.956237 0
0.283879 0.954604 0
0.326757 0.952926 0
0.370367 0.951308 0
0.413733 0.949447 0
0.457511 0.947402 0
0.501122 0.945357 0
0.545098 0.943175 0
0.58883 0.941009 0
0.632792 0.938735 0
0.676493 0.936492 0
0.720226 0.934203 0
0.763745 0.931945 0
0.80705 0.929717 0
0.850294 0.92752 0
0.893217 0.925521 0
0.93611 0.923506 0
0.978485 0.921508 0
1 0.919615 0
1 0.917662 0
1 0.91577 0
1 0.914 0
0 0.99913 0
0 0.99939 0
0 0.999466 0
0 0.999451 0
0 0.999374 0
0 0.999008 0
0.0273747 0.998489 0
0.0678111 0.997726 0
0.108476 0.996872 0
