src/luts/blur/12.cube
TITLE "Generated by Resolve"
LUT_3D_SIZE 9
0 0 0.0242313
0.143145 0 0.00570687
0.306737 0 0
0.472862 0 0
0.635782 0 0
0.790097 0 0
0.92845 0 0
1 0 0
1 0 0
0 0.14287 0.0237888
0.128374 0.14023 0.00410468
0.287572 0.136599 0
0.454826 0.131121 0
0.621317 0.125246 0
0.783825 0.12047 0
0.932082 0.118944 0
1 0.119417 0
1 0.117647 0
0 0.291478 0.0127718
0.106157 0.286564 0
0.26688 0.282521 0
0.432959 0.277485 0
0.601297 0.271412 0
0.768154 0.265324 0
0.925719 0.261448 0
1 0.259953 0
1 0.258335 0
0 0.442481 0
0.0727398 0.437171 0
0.23856 0.431617 0
0.406104 0.425818 0
0.575982 0.419593 0
0.745663 0.412818 0
0.909285 0.406928 0
1 0.403479 0
1 0.400824 0
0 0.594064 0
0.0353857 0.588708 0
0.204074 0.582818 0
0.374228 0.576242 0
0.545739 0.569253 0
0.717891 0.562097 0
0.885801 0.554925 0
1 0.549233 0
1 0.545098 0
0 0.744839 0
0 0.740856 0
0.165759 0.734905 0
0.337774 0.728252 0
0.511147 0.720714 0
0.685084 0.712581 0
0.856504 0.704555 0
1 0.697276 0
1 0.691402 0
0 0.89073 0
0 0.890227 0
0.129641 0.886107 0
0.300694 0.879881 0
0.474937 0.872236 0
0.650278 0.863508 0
0.823972 0.854597 0
0.99382 0.846525 0
1 0.839353 0
0 1 0
0 1 0
0.102281 1 0
0.269001 1 0
0.441108 1 0
0.615686 1 0
0.790066 1 0
0.962554 0.996612 0
1 0.989059 0
0 1 0
0 1 0
0.0773938 1 0
0.241245 1 0
0.41001 1 0
0.582559 1 0
0.756283 1 0
0.929503 1 0
1 1 0
0.00242618 0 0.231174
0.156085 0 0.211124
0.317159 0 0.194873
0.483909 0 0.17554
0.648905 0 0.153445
0.809247 0 0.130968
0.953948 0 0.110079
1 0 0.0918746
1 0 0.0735637
0 0.133303 0.231586
0.139391 0.130282 0.209308
0.295247 0.126879 0.190433
0.462791 0.120607 0.16907
0.633066 0.113466 0.144686
0.800015 0.107317 0.120287
0.958618 0.103761 0.0983597
1 0.104417 0.0814374
1 0.105715 0.0659495
0 0.280003 0.22948
0.120348 0.27454 0.208362
0.27744 0.270954 0.187778
0.439811 0.266331 0.161761
0.611597 0.259571 0.132708
0.782513 0.252522 0.105516
0.94934 0.246433 0.0809339
1 0.244099 0.0637522
1 0.244099 0.0507515
0 0.430488 0.219623
0.0875563 0.423575 0.197299
0.253559 0.417731 0.176226
0.416663 0.413016 0.148959
0.586053 0.406989 0.116426
0.758938 0.399969 0.0864576
0.930282 0.392782 0.0595102
1 0.387472 0.0399939
1 0.38558 0.0293126
0 0.582208 0.204608
0.0467994 0.576104 0.178393
0.217014 0.569085 0.153094
0.386404 0.562844 0.125856
0.556893 0.556359 0.0944228
0.730587 0.549142 0.0632944
0.904707 0.54139 0.0347143
1 0.534356 0.0134127
1 0.529915 0.00341802
0 0.734096 0.186725
0.00482185 0.729244 0.157015
0.175357 0.72256 0.12752
0.348028 0.715465 0.0979019
0.52166 0.70811 0.0670481
0.696956 0.700175 0.0357214
0.87335 0.692058 0.00656138
1 0.683848 0
1 0.677195 0
0 0.883406 0.172503
0 0.881758 0.13608
0.132692 0.876295 0.102296
0.306035 0.869078 0.0696422
0.481804 0.861448 0.0375677
0.659052 0.852979 0.00578317
0.837217 0.843961 0
1 0.834974 0
1 0.826627 0
0 1 0.164782
0 1 0.123232
0.0943008 1 0.0820783
0.264042 1 0.0441444
0.439353 1 0.00918593
0.618021 1 0
0.797818 0.996902 0
0.976257 0.98677 0
1 0.977523 0
0 1 0.156924
0 1 0.116762
0.0680247 1 0.07393
0.231296 1 0.0315251
0.402243 1 0
0.579004 1 0
0.758877 1 0
0.937987 1 0
1 1 0
0.0132601 0 0.451408
0.171588 0 0.430884
0.332357 0 0.411475
0.496498 0 0.392569
0.661051 0 0.371572
0.822843 0 0.348653
0.972747 0 0.324071
1 0 0.300099
1 0 0.278935
0 0.122866 0.452064
0.150546 0.11902 0.427207
0.309834 0.114946 0.404746
0.474571 0.108843 0.386557
0.64448 0.101732 0.366491
0.812985 0.0950027 0.343282
0.976654 0.0898909 0.319066
1 0.0895247 0.295842
1 0.0915999 0.274983
0 0.269795 0.450462
0.127657 0.264347 0.423621
0.288624 0.26041 0.398474
0.448722 0.255879 0.378286
0.619654 0.248249 0.357229
0.794141 0.240192 0.332723
0.965026 0.23299 0.307088
1 0.228397 0.28307
1 0.228412 0.263386
0 0.419059 0.444663
0.0972 0.412345 0.419318
0.266148 0.405661 0.394583
0.426795 0.40145 0.372885
0.592294 0.395819 0.347677
0.768582 0.38764 0.318532
0.944015 0.379461 0.290181
1 0.372244 0.263752
1 0.368872 0.243595
0 0.569818 0.433814
0.0578927 0.563622 0.408469
0.232059 0.555322 0.384207
0.401572 0.54844 0.362112
0.566842 0.54316 0.335088
0.739818 0.536156 0.301366
0.917327 0.527977 0.26949
1 0.519677 0.240604
1 0.513176 0.217823
0 0.72192 0.418982
0.0147402 0.716564 0.391318
0.187411 0.709148 0.364004
0.362341 0.70074 0.338445
0.534585 0.693675 0.311162
0.707881 0.686549 0.27779
0.885328 0.678218 0.244083
1 0.669596 0.213443
1 0.661387 0.188449
0 0.872587 0.403296
0 0.869886 0.371221
0.141634 0.86363 0.34052
0.316609 0.855695 0.310231
0.492866 0.847379 0.279957
0.670085 0.839307 0.247898
0.849027 0.830503 0.214557
1 0.821149 0.182681
1 0.812116 0.156909
0 1 0.390906
0 1 0.352743
0.095964 1 0.315801
0.269429 1 0.281636
0.446769 1 0.248249
0.626169 0.993866 0.214725
0.807477 0.98471 0.181308
0.989715 0.974792 0.149325
1 0.964691 0.124102
0 1 0.380331
0 1 0.341329
0.0607462 1 0.298116
0.225223 1 0.256245
0.400076 1 0.21825
0.579889 1 0.182177
0.762509 1 0.147829
0.946471 1 0.119265
1 1 0.101259
0.0240787 0 0.664836
0.183597 0 0.648493
0.345205 0 0.629847
0.508309 0 0.610239
0.672099 0 0.589578
0.832807 0 0.565972
0.983398 0 0.538506
1 0 0.510613
1 0 0.485756
0.000289921 0.111666 0.67187
0.161471 0.106737 0.652399
0.32491 0.101656 0.631327
0.489799 0.0957656 0.61033
0.656947 0.0892805 0.589456
0.824994 0.082887 0.567208
0.98967 0.0774395 0.542565
1 0.0762341 0.515572
1 0.0783093 0.489113
0 0.258473 0.673808
0.135119 0.253147 0.651743
0.30013 0.24773 0.626169
0.464729 0.242557 0.602258
0.633097 0.235569 0.581979
0.805905 0.22768 0.560464
0.977859 0.220111 0.536049
1 0.214145 0.510155
1 0.213199 0.484474
0 0.407233 0.671
0.103731 0.401419 0.647471
0.272938 0.394995 0.619135
0.438468 0.389899 0.59118
0.602975 0.384298 0.569375
0.777508 0.375586 0.548211
0.955642 0.366522 0.523308
1 0.358312 0.496452
1 0.352544 0.470283
0 0.557336 0.6636
0.0668956 0.551675 0.639612
0.239918 0.54403 0.612116
0.412695 0.536522 0.583978
0.576806 0.531518 0.560174
0.745876 0.524742 0.535805
0.926314 0.515038 0.507012
1 0.505837 0.477882
1 0.497536 0.449744
0 0.708766 0.65185
0.0248722 0.703639 0.62652
0.19794 0.696284 0.599527
0.376593 0.686885 0.572992
0.549294 0.678965 0.549187
0.717128 0.673152 0.522499
0.89366 0.66511 0.488579
1 0.655421 0.454887
1 0.64622 0.424491
0 0.859236 0.637217
0 0.856901 0.60972
0.151629 0.850126 0.580713
0.329122 0.841581 0.552407
0.508583 0.831861 0.526528
0.683452 0.823682 0.499062
0.85948 0.81622 0.464485
1 0.806943 0.42826
1 0.797086 0.395392
0 1 0.622293
0 1 0.590829
0.103899 1 0.558175
0.279042 0.997467 0.526497
0.458289 0.988434 0.49575
0.638544 0.978958 0.465156
0.818769 0.969909 0.431754
1 0.960433 0.396368
1 0.950103 0.362219
0 1 0.609369
0 1 0.574914
0.0618143 1 0.536355
0.22945 1 0.499245
0.40734 1 0.464637
0.588815 1 0.430426
0.772045 1 0.395789
0.956909 1 0.363409
1 1 0.332982
0.0352483 0 0.858625
0.192996 0 0.853193
0.35433 0 0.840269
0.516747 0 0.822721
0.678416 0 0.80174
0.836301 0 0.776684
0.986374 0 0.74757
1 0 0.718791
1 0 0.692515
0.0131075 0.100954 0.879377
0.172549 0.0955978 0.869261
0.33637 0.0899367 0.852811
0.501823 0.0837415 0.833356
0.668345 0.0773632 0.812497
0.835187 0.0713512 0.790127
0.998184 0.0665751 0.76434
1 0.0653086 0.734279
1 0.0668803 0.704463
0 0.246723 0.889937
0.145953 0.241337 0.875898
0.311437 0.235187 0.855955
0.478996 0.228946 0.834257
0.6477 0.222049 0.812009
0.818235 0.214664 0.789395
0.989609 0.207492 0.765637
1 0.201465 0.739116
1 0.199649 0.709392
0 0.394461 0.892424
0.113954 0.389349 0.876066
0.281437 0.382864 0.853513
0.450523 0.376211 0.827802
0.619776 0.369802 0.802792
0.791943 0.361913 0.780285
0.967529 0.353094 0.756893
1 0.344884 0.73135
1 0.33817 0.703731
0 0.543877 0.88925
0.0772564 0.538903 0.871275
0.246876 0.53228 0.847227
0.419394 0.524941 0.818265
0.589197 0.518578 0.788159
0.758618 0.511925 0.764401
0.936629 0.502251 0.742473
1 0.492027 0.716625
1 0.483085 0.688807
0 0.694118 0.880446
0.0364996 0.690471 0.861891
0.206577 0.683513 0.836652
0.383001 0.675319 0.807813
0.559167 0.667124 0.776623
0.727443 0.661067 0.75021
0.900236 0.653223 0.726101
1 0.642237 0.698009
1 0.631724 0.667979
0 0.843503 0.867536
0 0.842924 0.848127
0.161959 0.836728 0.821973
0.338827 0.828321 0.793439
0.521233 0.818143 0.764431
0.697627 0.809369 0.738262
0.86807 0.802777 0.711528
1 0.793622 0.678218
1 0.782574 0.643503
0 0.99237 0.853468
0 0.994675 0.830533
0.114458 0.991302 0.802777
0.289235 0.983413 0.772702
0.470909 0.973754 0.743191
0.655085 0.962737 0.716335
0.832746 0.953719 0.688807
1 0.945617 0.653681
1 0.935363 0.615137
0 1 0.840085
0 1 0.812848
0.0706645 1 0.78146
0.2383 1 0.748348
0.417334 1 0.715709
0.601328 1 0.684489
0.785565 1 0.653956
0.968841 1 0.621912
1 1 0.587015
0.0464179 0 1
0.199207 0 1
0.356939 0 1
0.516564 0 1
0.675502 0 0.995224
0.831907 0 0.973022
0.984115 0 0.947433
1 0 0.921218
1 0 0.900481
0.0289158 0.0922408 1
0.183474 0.0871138 1
0.344503 0.0806897 1
0.509316 0.0742657 1
0.674693 0.0679179 1
0.838865 0.0624094 1
0.998901 0.0589303 0.976928
1 0.0575723 0.946395
1 0.0575418 0.916274
0.00454719 0.235431 1
0.159487 0.230503 1
0.322438 0.223865 1
0.489647 0.2168 1
0.658839 0.209857 1
0.828809 0.202579 1
0.998367 0.195758 0.992737
1 0.190784 0.964675
1 0.189136 0.932219
0 0.38146 1
0.128298 0.376837 1
0.292729 0.37055 1
0.461891 0.363287 1
0.632944 0.355795 1
0.805707 0.348089 1
0.979767 0.339803 0.99176
1 0.331823 0.966369
1 0.325322 0.937774
0 0.529213 1
0.0928664 0.525643 1
0.257618 0.519295 1
0.42887 0.511971 1
0.601663 0.504234 1
0.775433 0.496513 1
0.951476 0.487724 0.981704
1 0.478172 0.956527
1 0.469139 0.929549
0 0.677897 1
0.0541543 0.676158 1
0.217731 0.670268 1
0.390677 0.662623 1
0.566308 0.654444 1
0.740658 0.646799 0.989059
0.915053 0.638941 0.963104
1 0.628428 0.939635
1 0.617395 0.912764
0 0.827146 1
0.0150607 0.827253 1
0.174212 0.822843 1
0.347555 0.814939 1
0.526711 0.806073 1
0.706386 0.797086 0.973251
0.879072 0.789731 0.943908
1 0.780972 0.919432
1 0.768811 0.89189
0 0.976699 1
0 0.978012 1
0.128679 0.976516 1
0.299672 0.969406 1
0.479561 0.95996 0.989944
0.665644 0.949203 0.958404
0.845823 0.93962 0.929076
1 0.931914 0.901671
1 0.921828 0.869688
0 1 1
0 1 1
0.086656 1 1
0.249393 1 0.998901
0.427649 1 0.967971
0.613336 1 0.93666
0.802487 1 0.908171
0.983001 1 0.881376
1 1 0.84802
0.0574655 0 1
0.207111 0 1
0.359518 0 1
0.515267 0 1
0.671534 0 1
0.827161 0 1
0.981353 0 1
1 0 1
1 0 1
0.0426032 0.083772 1
0.194308 0.0805219 1
0.350271 0.0753338 1
0.510231 0.0693675 1
0.672358 0.0636606 1
0.833936 0.0584268 1
0.993149 0.0545205 1
1 0.0520027 1
1 0.0503395 1
0.0234073 0.225788 1
0.174838 0.221546 1
0.332952 0.215793 1
0.496666 0.20853 1
0.663981 0.201022 1
0.832425 0.194034 1
0.999069 0.1879 1
1 0.183856 1
1 0.181582 1
0 0.369802 1
0.148516 0.365713 1
0.306661 0.359579 1
0.472663 0.352041 1
0.643046 0.343877 1
0.815778 0.335866 1
0.989075 0.327749 1
1 0.320256 1
1 0.315068 1
0 0.515755 1
0.116854 0.512337 1
0.273533 0.506645 1
0.440574 0.499229 1
0.61297 0.49099 1
0.787762 0.482368 1
0.964355 0.473701 1
1 0.464515 1
1 0.455604 1
0 0.663111 1
0.0812238 0.66099 1
0.235096 0.656367 1
0.402167 0.649058 1
0.576547 0.640833 1
0.753185 0.631968 1
0.931029 0.622843 1
1 0.613321 1
1 0.602975 1
0 0.81178 1
0.0438849 0.810544 1
0.19382 0.807721 1
0.359472 0.801053 1
0.535103 0.792355 1
0.714351 0.783368 1
0.893202 0.774411 1
1 0.765057 1
1 0.754025 1
0 0.962249 1
0.00627146 0.961059 1
0.151431 0.959792 1
0.312718 0.954803 1
0.488762 0.94612 1
0.670649 0.936187 1
0.854002 0.926604 1
1 0.918074 1
1 0.908034 1
0 1 1
0 1 1
0.11162 1 1
0.264668 1 1
0.438254 1 1
0.621454 1 1
0.811231 1 1
0.994919 1 1
1 1 1
0.0681926 0 1
0.218357 0 1
0.370306 0 1
0.523812 0 1
0.678889 0 1
0.835126 0 1
0.99292 0 1
1 0 1
1 0 1
0.0534066 0.0738689 1
0.205203 0.0711376 1
0.359014 0.0677958 1
0.514321 0.0639658 1
0.671336 0.0596628 1
0.830442 0.0548562 1
0.988998 0.0504311 1
1 0.0455482 1
1 0.0398871 1
0.034287 0.215641 1
0.187716 0.21236 1
0.34345 0.208789 1
0.502129 0.20293 1
0.664256 0.196414 1
0.828733 0.190051 1
0.99292 0.184085 1
1 0.179187 1
1 0.175738 1
0.0104524 0.359213 1
0.165606 0.355581 1
0.321752 0.350607 1
0.482689 0.344167 1
0.64863 0.336294 1
0.818357 0.327947 1
0.989487 0.320226 1
1 0.31342 1
1 0.308385 1
0 0.504204 1
0.139116 0.50045 1
0.293736 0.495354 1
0.454902 0.488319 1
0.623331 0.479957 1
0.796826 0.470665 1
0.972702 0.461402 1
1 0.452674 1
1 0.444663 1
0 0.65127 1
0.106569 0.647044 1
0.259724 0.642725 1
0.419532 0.636088 1
0.588556 0.627573 1
0.764324 0.618357 1
0.942779 0.608652 1
1 0.598718 1
1 0.588907 1
0 0.799985 1
0.0711681 0.795453 1
0.221668 0.791867 1
0.378851 0.786435 1
0.547662 0.778286 1
0.725109 0.769009 1
0.905531 0.759091 1
1 0.748837 1
1 0.738216 1
0 0.950301 1
0.0322271 0.945418 1
0.181338 0.942657 1
0.334554 0.938704 1
0.501656 0.931395 1
0.680201 0.921798 1
0.862928 0.911757 1
1 0.901534 1
1 0.890929 1
0 1 1
0 1 1
0.140719 1 1
0.289708 1 1
0.452399 1 1
0.631251 1 1
0.817243 1 1
1 1 1
1 1 1
0.0791943 0 1
0.229511 0 1
0.381796 0 1
0.535561 0 1
0.690883 0 1
0.847395 0 1
1 0 1
1 0 1
1 0 1
0.06421 0.0639048 1
0.216098 0.0608225 1
0.370321 0.0574655 1
0.525872 0.0534371 1
0.682673 0.0491035 1
0.841215 0.0446326 1
1 0.0395361 1
1 0.0340734 1
1 0.0284733 1
0.0448768 0.205371 1
0.19855 0.201907 1
0.354253 0.19794 1
0.511849 0.19379 1
0.670451 0.189075 1
0.830472 0.183993 1
0.992248 0.178775 1
1 0.17293 1
1 0.16672 1
0.0205844 0.348394 1
0.176226 0.344823 1
0.333715 0.34049 1
0.492851 0.335714 1
0.654032 0.330282 1
0.818601 0.323171 1
0.985306 0.316014 1
1 0.309438 1
1 0.303639 1
0 0.493324 1
0.149401 0.489143 1
0.308888 0.484672 1
0.469429 0.47921 1
0.632715 0.472007 1
0.801129 0.463722 1
0.973129 0.454719 1
1 0.446281 1
1 0.438743 1
0 0.640085 1
0.118059 0.635523 1
0.279118 0.630503 1
0.439261 0.62472 1
0.603128 0.617029 1
0.774044 0.607843 1
0.950347 0.597559 1
1 0.587259 1
1 0.577752 1
0 0.788266 1
0.082414 0.783566 1
0.245197 0.778119 1
0.403418 0.772641 1
0.566186 0.765209 1
0.73753 0.755673 1
0.916381 0.745357 1
1 0.734539 1
1 0.723613 1
0 0.938476 1
0.0419623 0.933379 1
0.206577 0.927611 1
0.362707 0.922621 1
0.523003 0.916289 1
0.693751 0.90724 1
0.873899 0.896712 1
1 0.885924 1
1 0.874311 1
0 1 1
0 1 1
0.163836 1 1
0.320012 1 1
0.476387 1 1
0.645975 1 1
0.828 1 1
1 1 1
1 1 1
