src/luts/blur/13.cube
LUT_3D_SIZE 6
0.041284 0.039175 0.046525
0.251685 0.096966 0.095154
0.442646 0.141080 0.133751
0.616891 0.186898 0.174703
0.780910 0.235605 0.218931
0.937782 0.286812 0.266112
0.150485 0.221748 0.120444
0.266371 0.225154 0.127789
0.447216 0.238214 0.152020
0.619303 0.261142 0.186880
0.782505 0.292780 0.227913
0.938918 0.331456 0.273076
0.240161 0.404646 0.188321
0.310133 0.405869 0.191668
0.465506 0.411038 0.205123
0.629514 0.421453 0.229207
0.789286 0.437618 0.261879
0.943820 0.459477 0.300073
0.332868 0.585089 0.264848
0.376527 0.585807 0.266953
0.500482 0.588921 0.275691
0.650193 0.595095 0.292254
0.802865 0.604772 0.316065
0.953513 0.618070 0.345807
0.423630 0.762478 0.344571
0.452795 0.762991 0.345975
0.549176 0.764995 0.351942
0.681023 0.769169 0.363535
0.823817 0.775526 0.381047
0.968676 0.784593 0.403978
0.510054 0.937015 0.424161
0.531065 0.937330 0.425193
0.606619 0.938784 0.429549
0.720612 0.941815 0.438244
0.851910 0.946456 0.451634
0.989272 0.953096 0.469667
0.093374 0.079895 0.193867
0.253528 0.102767 0.199007
0.443197 0.143431 0.213073
0.617207 0.188338 0.235368
0.781139 0.236612 0.265611
0.937923 0.287572 0.302556
0.154127 0.222910 0.207355
0.267638 0.226287 0.210407
0.447665 0.239170 0.222217
0.619568 0.261965 0.243151
0.782616 0.293505 0.272316
0.939016 0.332092 0.308283
0.241591 0.405082 0.244105
0.311038 0.406277 0.246341
0.465885 0.411409 0.255627
0.629741 0.421818 0.273319
0.789399 0.438018 0.299101
0.943883 0.459848 0.331122
0.333712 0.585345 0.301480
0.377157 0.586063 0.303207
0.500880 0.589159 0.310464
0.650386 0.595323 0.324408
0.803078 0.604975 0.344980
0.953561 0.618293 0.371343
0.424169 0.762706 0.370203
0.453262 0.763115 0.371472
0.549497 0.765213 0.376829
0.681189 0.769259 0.387355
0.823991 0.775737 0.403306
0.968778 0.784782 0.424523
0.510450 0.937229 0.443343
0.531376 0.937496 0.444294
0.606924 0.938925 0.448397
0.720762 0.941926 0.456541
0.852039 0.946570 0.469162
0.989371 0.953111 0.486239
0.129869 0.109225 0.357071
0.260199 0.120565 0.358610
0.445138 0.152685 0.364046
0.618239 0.194273 0.374345
0.781750 0.240900 0.390224
0.938383 0.290856 0.412090
0.167826 0.227722 0.361699
0.272771 0.230862 0.362901
0.449562 0.243236 0.368090
0.620603 0.265507 0.378249
0.783250 0.296545 0.393976
0.939550 0.334683 0.415689
0.247607 0.406846 0.378706
0.314855 0.408047 0.379857
0.467714 0.413212 0.384729
0.630792 0.423509 0.394533
0.790133 0.439677 0.409892
0.944325 0.461367 0.430609
0.337249 0.586386 0.411434
0.379948 0.587139 0.412499
0.502523 0.590169 0.417103
0.651382 0.596322 0.426159
0.803760 0.605966 0.440088
0.954113 0.619222 0.458801
0.426464 0.763390 0.457998
0.455270 0.763876 0.458931
0.550854 0.765936 0.462815
0.682071 0.769975 0.470617
0.824596 0.776408 0.482670
0.969214 0.785449 0.499048
0.512035 0.937687 0.513999
0.532877 0.937977 0.514815
0.608004 0.939470 0.518054
0.721657 0.942384 0.524682
0.852621 0.947100 0.535018
0.989988 0.953730 0.549197
0.164182 0.137223 0.520287
0.271361 0.144283 0.521016
0.449010 0.168797 0.524053
0.620284 0.205504 0.530081
0.783167 0.249270 0.539762
0.939384 0.297313 0.553600
0.189881 0.236663 0.522731
0.282451 0.239533 0.523377
0.453373 0.251128 0.526404
0.622687 0.272491 0.532406
0.784782 0.302648 0.542101
0.940523 0.339834 0.555951
0.259125 0.410417 0.532698
0.322352 0.411602 0.533409
0.471341 0.416775 0.536370
0.632896 0.427000 0.542442
0.791589 0.443025 0.552262
0.945387 0.464486 0.565745
0.344295 0.588538 0.553162
0.385598 0.589246 0.553874
0.505866 0.592271 0.556821
0.653419 0.598391 0.562773
0.805058 0.607973 0.572097
0.955020 0.621185 0.584936
0.430949 0.764761 0.584389
0.459254 0.765297 0.585024
0.553646 0.767287 0.587755
0.683962 0.771303 0.593236
0.825897 0.777717 0.601896
0.970122 0.786716 0.613829
0.515219 0.938538 0.624933
0.535837 0.939012 0.625459
0.610393 0.940447 0.627910
0.723242 0.943398 0.632907
0.853818 0.948114 0.640852
0.990758 0.954647 0.651692
0.198444 0.165949 0.683224
0.286642 0.170978 0.683695
0.455106 0.190105 0.685825
0.623634 0.221781 0.689887
0.785305 0.261878 0.696468
0.941018 0.307148 0.706199
0.217134 0.249667 0.684820
0.296537 0.252264 0.685321
0.459347 0.263023 0.687360
0.626020 0.283190 0.691464
0.786905 0.312095 0.698081
0.942167 0.347843 0.707769
0.275924 0.416067 0.691649
0.333836 0.417260 0.692152
0.477109 0.422336 0.694273
0.636250 0.432491 0.698410
0.793694 0.448310 0.705149
0.946946 0.469386 0.714704
0.354933 0.591872 0.705855
0.394307 0.592589 0.706295
0.511074 0.595626 0.708420
0.656640 0.601664 0.712650
0.807224 0.611185 0.719226
0.956611 0.624277 0.728478
0.438001 0.767040 0.728102
0.465521 0.767477 0.728557
0.558058 0.769428 0.730421
0.686880 0.773588 0.734564
0.828006 0.779923 0.740809
0.971541 0.788908 0.749678
0.520283 0.940260 0.758015
0.540494 0.940600 0.758423
0.614006 0.942025 0.760291
0.725955 0.944951 0.764082
0.855763 0.949643 0.770046
0.992284 0.956260 0.778357
0.233177 0.195880 0.846220
0.305884 0.199716 0.846478
0.463513 0.215136 0.848028
0.628374 0.242284 0.851051
0.788501 0.278482 0.856095
0.943217 0.320346 0.863281
0.247552 0.266477 0.847320
0.314790 0.268860 0.847658
0.467667 0.278743 0.849223
0.630778 0.297570 0.852293
0.790119 0.324929 0.857283
0.944391 0.358706 0.864466
0.297249 0.423988 0.852431
0.349167 0.425159 0.852783
0.485169 0.430184 0.854309
0.641046 0.440261 0.857414
0.796810 0.455657 0.862515
0.949166 0.476188 0.869660
0.369169 0.596610 0.863059
0.406032 0.597315 0.863425
0.518325 0.600321 0.864995
0.661113 0.606292 0.868037
0.810240 0.615676 0.873054
0.958726 0.628628 0.880022
0.447693 0.770133 0.879761
0.474188 0.770546 0.880033
0.564212 0.772599 0.881564
0.691024 0.776620 0.884618
0.830807 0.783028 0.889425
0.973732 0.791871 0.896246
0.527292 0.942580 0.902685
0.547065 0.942931 0.903029
0.619118 0.944384 0.904469
0.729784 0.947223 0.907410
0.858457 0.951920 0.912019
0.993656 0.957803 0.917928
