src/luts/blur/13.cube
LUT_3D_SIZE 16
0.041284 0.039175 0.046525
0.107098 0.063413 0.066567
0.181596 0.081335 0.081743
0.251685 0.096966 0.095154
0.317958 0.111770 0.108002
0.381425 0.126379 0.120788
0.442646 0.141080 0.133751
0.502190 0.156036 0.147027
0.560155 0.171296 0.160671
0.616891 0.186898 0.174703
0.672594 0.202838 0.189097
0.727228 0.219100 0.203872
0.780910 0.235605 0.218931
0.833986 0.252470 0.234419
0.886111 0.269506 0.250100
0.937782 0.286812 0.266112
0.087950 0.097967 0.076842
0.118538 0.100069 0.079591
0.184800 0.106885 0.087987
0.253004 0.116396 0.098812
0.318688 0.127324 0.110492
0.381911 0.139208 0.122642
0.443007 0.151892 0.135232
0.502441 0.165265 0.148258
0.560431 0.179292 0.161720
0.617128 0.193867 0.175616
0.672684 0.208952 0.189890
0.727414 0.224543 0.204600
0.781144 0.240460 0.219606
0.834099 0.256826 0.235016
0.886267 0.273449 0.250653
0.937940 0.290394 0.266621
0.120552 0.159992 0.099251
0.140301 0.160535 0.100226
0.194630 0.162693 0.104117
0.257949 0.166696 0.110837
0.321628 0.172362 0.119666
0.383849 0.179482 0.129920
0.444451 0.187925 0.141213
0.503536 0.197525 0.153302
0.561261 0.208213 0.166090
0.617810 0.219867 0.179444
0.673321 0.232380 0.193311
0.727883 0.245677 0.207671
0.781579 0.259641 0.222387
0.834520 0.274244 0.237548
0.886611 0.289358 0.252994
0.938199 0.304973 0.268771
0.150485 0.221748 0.120444
0.164620 0.221980 0.120999
0.208876 0.223034 0.123344
0.266371 0.225154 0.127789
0.327019 0.228374 0.134251
0.387604 0.232725 0.142438
0.447216 0.238214 0.152020
0.505720 0.244798 0.162746
0.563049 0.252457 0.174414
0.619303 0.261142 0.186880
0.674546 0.270793 0.199990
0.728955 0.281365 0.213706
0.782505 0.292780 0.227913
0.835412 0.305044 0.242617
0.887436 0.317952 0.257675
0.938918 0.331456 0.273076
0.180152 0.283073 0.142093
0.190624 0.283237 0.142490
0.226630 0.283881 0.144146
0.277947 0.285232 0.147391
0.334936 0.287356 0.152325
0.393303 0.290305 0.158876
0.451599 0.294106 0.166861
0.509131 0.298829 0.176150
0.565891 0.304435 0.186541
0.621716 0.310963 0.197879
0.676592 0.318386 0.210035
0.730731 0.326702 0.222907
0.784090 0.335841 0.236390
0.836748 0.345804 0.250445
0.888710 0.356552 0.264934
0.940037 0.367840 0.279716
0.209954 0.344029 0.164689
0.218007 0.344150 0.164981
0.247415 0.344599 0.166257
0.292618 0.345594 0.168799
0.345459 0.347143 0.172741
0.401141 0.349312 0.178087
0.457598 0.352158 0.184808
0.513960 0.355733 0.192816
0.569866 0.360013 0.201978
0.625040 0.365111 0.212173
0.679452 0.370969 0.223242
0.733364 0.377532 0.235175
0.786278 0.384956 0.247772
0.838755 0.393118 0.261054
0.890482 0.401933 0.274718
0.941669 0.411382 0.288777
0.240161 0.404646 0.188321
0.246497 0.404724 0.188568
0.270669 0.405078 0.189599
0.310133 0.405869 0.191668
0.358507 0.407103 0.194912
0.411146 0.408803 0.199383
0.465506 0.411038 0.205123
0.520361 0.413866 0.212061
0.575132 0.417354 0.220109
0.629514 0.421453 0.229207
0.683341 0.426139 0.239265
0.736671 0.431575 0.250196
0.789286 0.437618 0.261879
0.841437 0.444373 0.274190
0.892797 0.451632 0.286930
0.943820 0.459477 0.300073
0.270744 0.465039 0.212952
0.275861 0.465092 0.213135
0.295911 0.465412 0.214001
0.330221 0.466047 0.215767
0.374139 0.467007 0.218499
0.423352 0.468415 0.222364
0.475240 0.470271 0.227293
0.528334 0.472620 0.233364
0.581773 0.475460 0.240455
0.635149 0.478831 0.248591
0.688259 0.482788 0.257683
0.740996 0.487305 0.267622
0.793053 0.492352 0.278263
0.844728 0.497927 0.289532
0.895850 0.504004 0.301321
0.946413 0.510627 0.313570
0.301668 0.525207 0.238478
0.305850 0.525243 0.238652
0.322657 0.525510 0.239396
0.352467 0.526010 0.240906
0.392041 0.526884 0.243290
0.437716 0.528009 0.246624
0.486952 0.529624 0.250948
0.537967 0.531592 0.256278
0.589903 0.534045 0.262595
0.642085 0.536868 0.269854
0.694214 0.540206 0.277935
0.746083 0.543975 0.286834
0.797514 0.548260 0.296436
0.848848 0.552928 0.306713
0.899387 0.558101 0.317494
0.949637 0.563710 0.328866
0.332868 0.585089 0.264848
0.336349 0.585157 0.264989
0.350588 0.585361 0.265638
0.376527 0.585807 0.266953
0.412017 0.586573 0.269026
0.454173 0.587567 0.271903
0.500482 0.588921 0.275691
0.549278 0.590596 0.280336
0.599376 0.592642 0.285885
0.650193 0.595095 0.292254
0.701177 0.597896 0.299451
0.752171 0.601107 0.307435
0.802865 0.604772 0.316065
0.853555 0.608755 0.325398
0.903644 0.613164 0.335317
0.953513 0.618070 0.345807
0.363700 0.644641 0.291417
0.366671 0.644692 0.291543
0.378825 0.644810 0.292109
0.401480 0.645259 0.293253
0.433310 0.645906 0.295055
0.472055 0.646696 0.297577
0.515488 0.647882 0.300855
0.561905 0.649332 0.304955
0.610109 0.651108 0.309782
0.659391 0.653251 0.315468
0.709081 0.655622 0.321869
0.759203 0.658404 0.329033
0.809085 0.661545 0.336851
0.858953 0.665008 0.345317
0.908581 0.668875 0.354411
0.957861 0.673083 0.364072
0.393950 0.703831 0.318036
0.396475 0.703858 0.318154
0.407063 0.704052 0.318630
0.426969 0.704330 0.319611
0.455647 0.704906 0.321205
0.491217 0.705713 0.323404
0.531780 0.706606 0.326328
0.575789 0.707838 0.329936
0.622054 0.709370 0.334237
0.669654 0.711220 0.339294
0.718136 0.713469 0.345071
0.767060 0.715866 0.351466
0.816033 0.718567 0.358584
0.865229 0.721673 0.366389
0.914121 0.725079 0.374687
0.962959 0.728768 0.383556
0.423630 0.762478 0.344571
0.425856 0.762526 0.344681
0.435051 0.762711 0.345060
0.452795 0.762991 0.345975
0.478629 0.763510 0.347350
0.511320 0.764146 0.349342
0.549176 0.764995 0.351942
0.590813 0.766119 0.355121
0.635038 0.767522 0.359029
0.681023 0.769169 0.363535
0.728015 0.771024 0.368715
0.775762 0.773106 0.374592
0.823817 0.775526 0.381047
0.872208 0.778311 0.388092
0.920345 0.781195 0.395801
0.968676 0.784593 0.403978
0.452910 0.821081 0.371153
0.454837 0.821094 0.371212
0.463010 0.821222 0.371635
0.478877 0.821494 0.372365
0.502241 0.821874 0.373652
0.532248 0.822511 0.375434
0.567566 0.823264 0.377775
0.606872 0.824292 0.380610
0.649075 0.825520 0.384163
0.693298 0.826945 0.388171
0.738834 0.828610 0.392935
0.785406 0.830560 0.398249
0.832446 0.832712 0.404126
0.879893 0.835125 0.410614
0.927362 0.837851 0.417694
0.974930 0.840713 0.425286
0.481638 0.879094 0.397607
0.483353 0.879142 0.397708
0.490689 0.879278 0.398053
0.504926 0.879480 0.398751
0.526133 0.879844 0.399886
0.553815 0.880449 0.401448
0.586714 0.881073 0.403561
0.623779 0.882018 0.406207
0.664024 0.883075 0.409408
0.706518 0.884382 0.413093
0.750593 0.885861 0.417388
0.795827 0.887593 0.422223
0.841770 0.889531 0.427663
0.888224 0.891702 0.433643
0.934869 0.894158 0.440146
0.981855 0.896842 0.447149
0.510054 0.937015 0.424161
0.511619 0.937064 0.424238
0.518164 0.937160 0.424562
0.531065 0.937330 0.425193
0.550446 0.937754 0.426214
0.575955 0.938177 0.427668
0.606619 0.938784 0.429549
0.641644 0.939664 0.431978
0.679841 0.940571 0.434865
0.720612 0.941815 0.438244
0.763219 0.943104 0.442190
0.807074 0.944723 0.446645
0.851910 0.946456 0.451634
0.897386 0.948456 0.457155
0.943251 0.950659 0.463168
0.989272 0.953096 0.469667
0.062737 0.055721 0.086675
0.108814 0.065965 0.091082
0.181946 0.082193 0.099815
0.251818 0.097415 0.109488
0.318041 0.112067 0.119750
0.381465 0.126595 0.130640
0.442703 0.141251 0.142140
0.502194 0.156173 0.154263
0.560193 0.171433 0.166952
0.616992 0.187006 0.180197
0.672560 0.202920 0.193938
0.727252 0.219173 0.208194
0.780933 0.235692 0.222826
0.834002 0.252525 0.237877
0.886127 0.269566 0.253250
0.937798 0.286864 0.268976
0.089417 0.098713 0.096679
0.119344 0.100716 0.098399
0.185086 0.107324 0.104132
0.253125 0.116708 0.112311
0.318751 0.127555 0.121820
0.381953 0.139399 0.132262
0.443053 0.152033 0.143475
0.502467 0.165407 0.155391
0.560408 0.179404 0.167956
0.617133 0.193967 0.181068
0.672701 0.209054 0.194733
0.727356 0.224603 0.208903
0.781064 0.240545 0.223454
0.834114 0.256885 0.238469
0.886283 0.273506 0.253797
0.937958 0.290458 0.269483
0.121032 0.160179 0.112653
0.140661 0.160701 0.113430
0.194827 0.162865 0.116560
0.258084 0.166854 0.122121
0.321683 0.172488 0.129660
0.383889 0.179582 0.138692
0.444465 0.187999 0.148908
0.503563 0.197617 0.160070
0.561285 0.208305 0.172044
0.617835 0.219949 0.184735
0.673337 0.232454 0.198011
0.727907 0.245758 0.211838
0.781602 0.259716 0.226182
0.834536 0.274319 0.240959
0.886627 0.289425 0.256095
0.938215 0.305005 0.271592
0.150755 0.221805 0.130338
0.164859 0.222076 0.130825
0.209017 0.223137 0.132874
0.266481 0.225230 0.136803
0.327070 0.228456 0.142590
0.387628 0.232789 0.150025
0.447241 0.238272 0.158880
0.505726 0.244856 0.168895
0.563073 0.252506 0.179932
0.619320 0.261201 0.191812
0.674538 0.270849 0.204438
0.728981 0.281423 0.217708
0.782513 0.292822 0.231549
0.835428 0.305113 0.245922
0.887452 0.317986 0.260692
0.938934 0.331482 0.275824
0.180320 0.283127 0.149717
0.190784 0.283277 0.150081
0.226760 0.283955 0.151588
0.278059 0.285303 0.154579
0.334995 0.287421 0.159149
0.393387 0.290329 0.165241
0.451604 0.294173 0.172803
0.509167 0.298879 0.181598
0.565876 0.304486 0.191516
0.621708 0.311028 0.202416
0.676610 0.318425 0.214154
0.730755 0.326724 0.226681
0.784117 0.335877 0.239824
0.836763 0.345874 0.253594
0.888726 0.356564 0.267814
0.940053 0.367924 0.282387
0.210076 0.344080 0.170731
0.218122 0.344184 0.171006
0.247533 0.344671 0.172205
0.292698 0.345628 0.174594
0.345498 0.347182 0.178336
0.401189 0.349340 0.183432
0.457636 0.352192 0.189853
0.513995 0.355781 0.197553
0.569890 0.360047 0.206351
0.625057 0.365160 0.216209
0.679469 0.371009 0.227013
0.733326 0.377579 0.238634
0.786294 0.385030 0.250971
0.838771 0.393160 0.264000
0.890497 0.401970 0.277484
0.941685 0.411402 0.291283
0.240246 0.404677 0.193212
0.246581 0.404754 0.193422
0.270766 0.405148 0.194446
0.310223 0.405891 0.196428
0.358608 0.407134 0.199543
0.411161 0.408821 0.203894
0.465513 0.411046 0.209413
0.520361 0.413873 0.216124
0.575157 0.417379 0.223947
0.629504 0.421425 0.232816
0.683359 0.426158 0.242643
0.736699 0.431572 0.253348
0.789302 0.437653 0.264828
0.841453 0.444408 0.276940
0.892813 0.451649 0.289495
0.943748 0.459489 0.302490
0.270800 0.465045 0.216967
0.275930 0.465125 0.217170
0.295990 0.465426 0.218011
0.330263 0.466059 0.219726
0.374145 0.467039 0.222392
0.423336 0.468449 0.226138
0.475298 0.470305 0.230954
0.528372 0.472654 0.236837
0.581798 0.475470 0.243808
0.635158 0.478865 0.251775
0.688277 0.482823 0.260687
0.741022 0.487340 0.270470
0.793069 0.492384 0.280934
0.844696 0.497963 0.292028
0.895787 0.504040 0.303638
0.946429 0.510663 0.315783
0.301738 0.525242 0.241872
0.305926 0.525278 0.242042
0.322716 0.525506 0.242774
0.352505 0.526000 0.244248
0.392094 0.526872 0.246577
0.437764 0.528045 0.249841
0.486991 0.529618 0.254084
0.538006 0.531596 0.259318
0.589886 0.534002 0.265521
0.642103 0.536905 0.272653
0.694232 0.540264 0.280618
0.746111 0.544011 0.289400
0.797530 0.548245 0.298860
0.848864 0.552896 0.309000
0.899403 0.558137 0.319702
0.949652 0.563726 0.330948
0.332937 0.585106 0.267719
0.336422 0.585165 0.267878
0.350636 0.585377 0.268512
0.376522 0.585811 0.269789
0.412033 0.586581 0.271825
0.454175 0.587584 0.274702
0.500522 0.588928 0.278402
0.549290 0.590612 0.283001
0.599402 0.592647 0.288441
0.650211 0.595112 0.294755
0.701167 0.597913 0.301844
0.752194 0.601148 0.309713
0.802881 0.604767 0.318284
0.853492 0.608772 0.327521
0.903660 0.613180 0.337317
0.953529 0.618087 0.347698
0.363764 0.644658 0.293920
0.366688 0.644709 0.294056
0.378867 0.644860 0.294603
0.401541 0.645276 0.295712
0.433362 0.645898 0.297506
0.472065 0.646747 0.299958
0.515475 0.647873 0.303232
0.561931 0.649349 0.307281
0.610136 0.651125 0.312073
0.659409 0.653264 0.317692
0.709106 0.655639 0.324015
0.759148 0.658421 0.331099
0.809101 0.661563 0.338831
0.858968 0.665026 0.347300
0.908597 0.668892 0.356290
0.957877 0.673101 0.365857
0.393977 0.703857 0.320208
0.396536 0.703883 0.320344
0.407082 0.704078 0.320810
0.427028 0.704355 0.321806
0.455671 0.704931 0.323357
0.491253 0.705738 0.325539
0.531820 0.706634 0.328406
0.575816 0.707873 0.331979
0.622071 0.709406 0.336283
0.669710 0.711255 0.341298
0.718142 0.713382 0.346973
0.767087 0.715905 0.353346
0.816049 0.718486 0.360400
0.865245 0.721709 0.368152
0.914137 0.725114 0.376376
0.962975 0.728803 0.385226
0.423640 0.762495 0.346519
0.425843 0.762543 0.346567
0.435110 0.762720 0.347002
0.452853 0.763007 0.347872
0.478660 0.763526 0.349286
0.511314 0.764162 0.351238
0.549163 0.765011 0.353850
0.590839 0.766135 0.356951
0.635056 0.767538 0.360864
0.681041 0.769185 0.365355
0.727984 0.771040 0.370511
0.775786 0.773123 0.376302
0.823833 0.775542 0.382697
0.872223 0.778327 0.389739
0.920363 0.781211 0.397324
0.968692 0.784610 0.405499
0.452968 0.821097 0.372944
0.454895 0.821110 0.372944
0.463069 0.821238 0.373347
0.478882 0.821511 0.374091
0.502252 0.821890 0.375362
0.532287 0.822451 0.377151
0.567590 0.823280 0.379446
0.606898 0.824308 0.382289
0.649114 0.825537 0.385787
0.693358 0.826962 0.389829
0.738859 0.828627 0.394508
0.785422 0.830577 0.399799
0.832462 0.832729 0.405641
0.879845 0.835118 0.412125
0.927378 0.837822 0.419137
0.974945 0.840729 0.426689
0.481639 0.879110 0.399204
0.483414 0.879159 0.399254
0.490728 0.879294 0.399608
0.504907 0.879496 0.400332
0.526172 0.879860 0.401406
0.553782 0.880465 0.403040
0.586774 0.881090 0.405097
0.623796 0.882034 0.407716
0.664042 0.883091 0.410863
0.706536 0.884397 0.414581
0.750618 0.885877 0.418804
0.795835 0.887610 0.423655
0.841786 0.889547 0.429041
0.888240 0.891719 0.434994
0.934885 0.894175 0.441459
0.981870 0.896777 0.448459
0.510093 0.937032 0.425587
0.511658 0.937081 0.425669
0.518203 0.937177 0.425981
0.531087 0.937347 0.426594
0.550485 0.937722 0.427614
0.575950 0.938194 0.429046
0.606645 0.938803 0.430932
0.641628 0.939680 0.433347
0.679859 0.940587 0.436217
0.720688 0.941831 0.439587
0.763161 0.943120 0.443510
0.807090 0.944739 0.447965
0.851926 0.946472 0.452921
0.897402 0.948473 0.458407
0.943189 0.950650 0.464408
0.989288 0.953113 0.470887
0.079301 0.068725 0.139738
0.114254 0.073419 0.140917
0.183380 0.085524 0.144519
0.252415 0.099289 0.149577
0.318357 0.113306 0.155740
0.381679 0.127507 0.162904
0.442894 0.141974 0.171073
0.502314 0.156776 0.180195
0.560326 0.171940 0.190247
0.617069 0.187459 0.201149
0.672631 0.203298 0.212836
0.727300 0.219523 0.225247
0.781032 0.235995 0.238292
0.834068 0.252797 0.251957
0.886194 0.269832 0.266096
0.937867 0.287099 0.280743
0.094784 0.101537 0.143091
0.122462 0.103240 0.143854
0.186275 0.109159 0.146680
0.253675 0.118015 0.151212
0.319058 0.128534 0.157048
0.382132 0.140170 0.164018
0.443212 0.152679 0.172042
0.502552 0.165931 0.181062
0.560564 0.179865 0.191051
0.617237 0.194377 0.201878
0.672738 0.209418 0.213492
0.727374 0.224960 0.225872
0.781153 0.240842 0.238867
0.834142 0.257163 0.252494
0.886351 0.273764 0.266598
0.937942 0.290674 0.281222
0.123033 0.160939 0.151406
0.142215 0.161471 0.151873
0.195639 0.163571 0.153747
0.258520 0.167473 0.157240
0.321968 0.173061 0.162248
0.384083 0.180098 0.168564
0.444618 0.188456 0.176091
0.503644 0.198010 0.184717
0.561420 0.208665 0.194372
0.617975 0.220276 0.204930
0.673405 0.232759 0.216360
0.728010 0.246027 0.228499
0.781583 0.259973 0.241319
0.834603 0.274572 0.254777
0.886694 0.289665 0.268740
0.938201 0.305223 0.283204
0.151888 0.222186 0.162688
0.165819 0.222422 0.163027
0.209650 0.223489 0.164449
0.266865 0.225571 0.167206
0.327325 0.228757 0.171381
0.387818 0.233110 0.176940
0.447387 0.238572 0.183799
0.505851 0.245136 0.191816
0.563153 0.252788 0.200914
0.619390 0.261457 0.210998
0.674650 0.271094 0.221942
0.729145 0.281653 0.233737
0.782513 0.293045 0.246188
0.835495 0.305302 0.259337
0.887473 0.318192 0.273011
0.939002 0.331663 0.287163
0.181092 0.283342 0.176727
0.191485 0.283509 0.176984
0.227251 0.284168 0.178149
0.278386 0.285522 0.180434
0.335237 0.287633 0.184002
0.393529 0.290547 0.188869
0.451726 0.294366 0.194986
0.509258 0.299097 0.202289
0.565983 0.304698 0.210717
0.621780 0.311207 0.220161
0.676646 0.318605 0.230560
0.730861 0.326920 0.241770
0.784116 0.336044 0.253739
0.836831 0.346037 0.266415
0.888718 0.356735 0.279662
0.940121 0.368053 0.293324
0.210649 0.344225 0.193301
0.218655 0.344331 0.193530
0.247928 0.344821 0.194501
0.293012 0.345795 0.196488
0.345712 0.347341 0.199586
0.401353 0.349513 0.203867
0.457796 0.352341 0.209312
0.514125 0.355921 0.215933
0.569969 0.360249 0.223637
0.625175 0.365278 0.232386
0.679613 0.371137 0.242072
0.733353 0.377751 0.252645
0.786339 0.385140 0.263982
0.838839 0.393306 0.276121
0.890517 0.402095 0.288722
0.941676 0.411533 0.301743
0.240677 0.404806 0.212185
0.247024 0.404926 0.212387
0.271113 0.405273 0.213243
0.310492 0.406034 0.214948
0.358783 0.407252 0.217680
0.411303 0.408959 0.221470
0.465642 0.411198 0.226350
0.520494 0.414041 0.232274
0.575229 0.417457 0.239313
0.629602 0.421554 0.247344
0.683433 0.426323 0.256316
0.736782 0.431704 0.266187
0.789372 0.437789 0.276837
0.841455 0.444505 0.288200
0.892882 0.451784 0.300040
0.943817 0.459598 0.312381
0.271172 0.465148 0.233054
0.276283 0.465246 0.233221
0.296253 0.465529 0.233981
0.330520 0.466164 0.235488
0.374385 0.467135 0.237908
0.423560 0.468548 0.241276
0.475379 0.470381 0.245640
0.528430 0.472735 0.251013
0.581895 0.475590 0.257383
0.635233 0.478958 0.264728
0.688313 0.482943 0.273006
0.741065 0.487435 0.282127
0.793106 0.492491 0.291963
0.844765 0.498046 0.302483
0.895855 0.504144 0.313495
0.946498 0.510714 0.325060
0.302067 0.525265 0.255617
0.306206 0.525324 0.255768
0.323005 0.525612 0.256435
0.352749 0.526111 0.257790
0.392261 0.526984 0.259939
0.437943 0.528123 0.262956
0.487078 0.529738 0.266885
0.538093 0.531723 0.271726
0.590020 0.534132 0.277529
0.642179 0.536961 0.284182
0.694273 0.540315 0.291677
0.746193 0.544106 0.299948
0.797600 0.548340 0.308941
0.848811 0.553061 0.318599
0.899416 0.558238 0.328833
0.949723 0.563796 0.339615
0.333183 0.585179 0.279550
0.336683 0.585228 0.279705
0.350859 0.585456 0.280302
0.376746 0.585904 0.281510
0.412222 0.586653 0.283443
0.454333 0.587677 0.286103
0.500652 0.588999 0.289594
0.549405 0.590671 0.293907
0.599473 0.592719 0.299079
0.650231 0.595167 0.305034
0.701244 0.597966 0.311774
0.752300 0.601220 0.319272
0.802937 0.604823 0.327472
0.853561 0.608843 0.336320
0.903671 0.613306 0.345761
0.953516 0.618115 0.355806
0.363967 0.644707 0.304213
0.366928 0.644757 0.304348
0.379030 0.644967 0.304899
0.401733 0.645350 0.305942
0.433547 0.645971 0.307621
0.472244 0.646854 0.309991
0.515599 0.647980 0.313099
0.562008 0.649383 0.316935
0.610251 0.651207 0.321522
0.659456 0.653295 0.326871
0.709270 0.655749 0.332957
0.759144 0.658495 0.339758
0.809170 0.661588 0.347208
0.858974 0.665069 0.355386
0.908575 0.669004 0.364064
0.957950 0.673216 0.373337
0.394149 0.703917 0.329323
0.396737 0.703991 0.329405
0.407241 0.704159 0.329881
0.427230 0.704384 0.330828
0.455832 0.704990 0.332317
0.491348 0.705766 0.334400
0.531895 0.706832 0.337180
0.575891 0.707960 0.340616
0.622122 0.709441 0.344765
0.669781 0.711412 0.349570
0.718251 0.713534 0.355037
0.767105 0.715932 0.361236
0.816118 0.718640 0.368066
0.865253 0.721728 0.375508
0.914142 0.725129 0.383567
0.963043 0.728879 0.392125
0.423841 0.762564 0.354575
0.426039 0.762612 0.354666
0.435298 0.762789 0.355106
0.452964 0.762974 0.355938
0.478802 0.763525 0.357259
0.511432 0.764138 0.359169
0.549304 0.765072 0.361660
0.590924 0.766205 0.364726
0.635132 0.767608 0.368430
0.681089 0.769127 0.372839
0.728096 0.771008 0.377810
0.775890 0.773192 0.383442
0.823902 0.775596 0.389652
0.872227 0.778302 0.396568
0.920431 0.781280 0.403968
0.968651 0.784679 0.411934
0.453057 0.821132 0.380166
0.455042 0.821103 0.380225
0.463217 0.821254 0.380571
0.479006 0.821580 0.381344
0.502412 0.821905 0.382588
0.532363 0.822521 0.384260
0.567680 0.823294 0.386519
0.606964 0.824341 0.389314
0.649199 0.825606 0.392650
0.693393 0.826993 0.396638
0.738905 0.828696 0.401186
0.785470 0.830646 0.406346
0.832490 0.832798 0.412083
0.879913 0.835145 0.418365
0.927335 0.837892 0.425247
0.974922 0.840799 0.432646
0.481797 0.879181 0.405754
0.483507 0.879229 0.405805
0.490858 0.879295 0.406162
0.505045 0.879566 0.406894
0.526288 0.879931 0.407963
0.553950 0.880536 0.409483
0.586833 0.881160 0.411513
0.623936 0.882106 0.414064
0.664136 0.883162 0.417175
0.706614 0.884392 0.420774
0.750646 0.885900 0.424978
0.795883 0.887682 0.429691
0.841855 0.889620 0.434974
0.888309 0.891791 0.440798
0.934953 0.894246 0.447149
0.981838 0.896847 0.453977
0.510183 0.937105 0.431564
0.511737 0.937154 0.431638
0.518316 0.937223 0.431947
0.531197 0.937425 0.432551
0.550599 0.937722 0.433540
0.576063 0.938266 0.434980
0.606710 0.938799 0.436832
0.641692 0.939731 0.439154
0.679975 0.940659 0.441972
0.720617 0.941778 0.445304
0.763265 0.943194 0.449157
0.807160 0.944738 0.453517
0.851900 0.946544 0.458375
0.897471 0.948545 0.463779
0.943249 0.950726 0.469654
0.989361 0.953101 0.476019
0.093374 0.079895 0.193867
0.121611 0.082509 0.194352
0.185936 0.091061 0.196127
0.253528 0.102767 0.199007
0.318979 0.115732 0.202803
0.382070 0.129334 0.207486
0.443197 0.143431 0.213073
0.502550 0.157973 0.219574
0.560518 0.172953 0.227004
0.617207 0.188338 0.235368
0.672718 0.204081 0.244621
0.727429 0.220206 0.254729
0.781139 0.236612 0.265611
0.834123 0.253373 0.277272
0.886331 0.270339 0.289586
0.937923 0.287572 0.302556
0.103050 0.106154 0.195376
0.127737 0.107496 0.195795
0.188485 0.112502 0.197308
0.254745 0.120516 0.199990
0.319682 0.130456 0.203647
0.382540 0.141713 0.208248
0.443504 0.153957 0.213762
0.502778 0.167026 0.220218
0.560673 0.180821 0.227591
0.617347 0.195222 0.235942
0.672926 0.210166 0.245161
0.727561 0.225621 0.255238
0.781177 0.241451 0.266096
0.834278 0.257713 0.277734
0.886366 0.274273 0.290038
0.938007 0.291155 0.302934
0.126844 0.162441 0.200094
0.145187 0.162935 0.200389
0.197247 0.164935 0.201533
0.259435 0.168701 0.203750
0.322528 0.174145 0.207033
0.384453 0.181078 0.211348
0.444885 0.189342 0.216631
0.503864 0.198851 0.222896
0.561572 0.209408 0.230151
0.618106 0.220949 0.238354
0.673516 0.233395 0.247453
0.728084 0.246606 0.257424
0.781690 0.260518 0.268178
0.834667 0.275070 0.279709
0.886785 0.290110 0.291907
0.938339 0.305642 0.304720
0.154127 0.222910 0.207355
0.167730 0.223157 0.207565
0.210898 0.224199 0.208511
0.267638 0.226287 0.210407
0.327852 0.229417 0.213298
0.388177 0.233746 0.217233
0.447665 0.239170 0.222217
0.506069 0.245723 0.228194
0.563328 0.253323 0.235204
0.619568 0.261965 0.243151
0.674793 0.271591 0.252021
0.729215 0.282133 0.261780
0.782616 0.293505 0.272316
0.835503 0.305720 0.283685
0.887536 0.318592 0.295664
0.939016 0.332092 0.308283
0.182619 0.283823 0.217065
0.192864 0.283974 0.217270
0.228248 0.284635 0.218096
0.279096 0.285962 0.219769
0.335705 0.288064 0.222366
0.393883 0.291004 0.225994
0.452022 0.294782 0.230612
0.509505 0.299482 0.236288
0.566130 0.305119 0.242937
0.621929 0.311578 0.250568
0.676822 0.318996 0.259123
0.730976 0.327294 0.268570
0.784219 0.336422 0.278810
0.836938 0.346388 0.289858
0.888856 0.357099 0.301574
0.940099 0.368398 0.313809
0.211789 0.344546 0.229341
0.219732 0.344672 0.229511
0.248775 0.345136 0.230258
0.293626 0.346129 0.231790
0.346149 0.347657 0.234170
0.401706 0.349845 0.237495
0.458063 0.352693 0.241810
0.514347 0.356250 0.247117
0.570157 0.360543 0.253400
0.625293 0.365608 0.260653
0.679698 0.371418 0.268816
0.733422 0.378043 0.277865
0.786385 0.385418 0.287743
0.838891 0.393578 0.298405
0.890610 0.402386 0.309663
0.941686 0.411743 0.321436
0.241591 0.405082 0.244105
0.247875 0.405175 0.244267
0.271821 0.405505 0.244950
0.311038 0.406277 0.246341
0.359180 0.407487 0.248544
0.411679 0.409206 0.251619
0.465885 0.411409 0.255627
0.520675 0.414314 0.260579
0.575417 0.417683 0.266474
0.629741 0.421818 0.273319
0.683549 0.426540 0.281068
0.736912 0.431960 0.289642
0.789399 0.438018 0.299101
0.841559 0.444752 0.309210
0.892901 0.451978 0.319881
0.943883 0.459848 0.331122
0.271915 0.465378 0.261214
0.276972 0.465438 0.261358
0.296899 0.465744 0.261991
0.331040 0.466366 0.263271
0.374754 0.467352 0.265305
0.423893 0.468761 0.268145
0.475660 0.470606 0.271845
0.528667 0.472947 0.276465
