src/luts/blur/14.cube
LUT_3D_SIZE 16
0.029107 0.063696 0.092682
0.031719 0.066105 0.095684
0.040139 0.070650 0.101324
0.057691 0.076515 0.108525
0.086749 0.083459 0.116949
0.127823 0.091508 0.126601
0.181666 0.100842 0.137634
0.248432 0.111618 0.150122
0.327719 0.123813 0.164049
0.418130 0.137746 0.179732
0.517793 0.153921 0.197697
0.624346 0.172701 0.218230
0.731132 0.193496 0.240617
0.834097 0.216303 0.264808
0.919078 0.240991 0.290618
0.964085 0.267793 0.318258
0.032218 0.070964 0.099200
0.034005 0.071895 0.100354
0.041843 0.075303 0.104443
0.059135 0.080621 0.110790
0.087935 0.087385 0.118763
0.128781 0.095440 0.128069
0.182476 0.104921 0.139021
0.249202 0.115693 0.151314
0.328386 0.127875 0.165125
0.418764 0.141873 0.180831
0.518494 0.158019 0.198745
0.624945 0.176742 0.219270
0.731412 0.197415 0.241668
0.834421 0.219980 0.265781
0.919117 0.244388 0.291550
0.964130 0.270964 0.319191
0.038117 0.090247 0.111045
0.039824 0.090796 0.111678
0.047347 0.093054 0.114262
0.064335 0.097572 0.118991
0.092412 0.104124 0.125679
0.132716 0.112194 0.134197
0.186030 0.121701 0.144556
0.252488 0.132533 0.156364
0.331466 0.144863 0.169883
0.421675 0.158972 0.185455
0.521243 0.175114 0.203329
0.627166 0.193493 0.223726
0.732890 0.213507 0.245917
0.835376 0.235225 0.269880
0.919212 0.258683 0.295570
0.964139 0.284073 0.323116
0.046180 0.124346 0.126314
0.048008 0.124740 0.126773
0.056098 0.126373 0.128670
0.072695 0.129577 0.132404
0.100269 0.135636 0.138083
0.140042 0.143545 0.145661
0.192978 0.153164 0.155056
0.259031 0.164292 0.166225
0.337741 0.177060 0.179443
0.427692 0.191449 0.194787
0.527000 0.207636 0.212633
0.631348 0.225365 0.232731
0.735537 0.244175 0.254511
0.836796 0.264355 0.278180
0.919642 0.285940 0.303537
0.964008 0.309459 0.330804
0.057018 0.171988 0.145358
0.059049 0.172272 0.145720
0.067643 0.173560 0.147329
0.084742 0.176092 0.150460
0.111250 0.180083 0.155356
0.150814 0.188359 0.162107
0.203424 0.198477 0.170794
0.269239 0.210327 0.181475
0.347649 0.223743 0.194352
0.437372 0.238631 0.209663
0.535394 0.254706 0.227268
0.637366 0.271300 0.246728
0.739488 0.288605 0.268064
0.838455 0.306769 0.291241
0.920077 0.325998 0.316166
0.963891 0.346962 0.343169
0.071296 0.233029 0.168377
0.073418 0.233331 0.168706
0.082428 0.234438 0.170093
0.100349 0.236652 0.172957
0.128036 0.240253 0.177443
0.165628 0.245372 0.183826
0.218204 0.256375 0.192150
0.283827 0.269090 0.202680
0.362001 0.283291 0.215465
0.450203 0.298280 0.230433
0.545505 0.313450 0.247247
0.644632 0.328746 0.266017
0.743960 0.344260 0.286695
0.841148 0.360351 0.309379
0.920410 0.377128 0.333938
0.963681 0.395198 0.360500
0.090144 0.307764 0.196675
0.092382 0.307870 0.196973
0.101876 0.308994 0.198368
0.120694 0.311109 0.201101
0.149735 0.314515 0.205534
0.189003 0.319369 0.211803
0.238172 0.325780 0.220045
0.303073 0.338826 0.230271
0.379297 0.352710 0.242426
0.464736 0.366720 0.256582
0.556982 0.380847 0.272642
0.653151 0.394808 0.290756
0.749622 0.408613 0.310754
0.844057 0.422620 0.332953
0.921164 0.436917 0.356952
0.963502 0.452245 0.383097
0.115280 0.394230 0.231633
0.117571 0.394481 0.231886
0.127364 0.395357 0.233228
0.146728 0.397118 0.235778
0.176564 0.400010 0.240002
0.216620 0.403923 0.245898
0.266287 0.409058 0.253566
0.324926 0.415378 0.263101
0.398634 0.428382 0.274672
0.481094 0.441569 0.288128
0.570136 0.454569 0.303527
0.662838 0.467081 0.320965
0.756258 0.479243 0.340443
0.847817 0.491126 0.361933
0.922034 0.503076 0.385493
0.963361 0.515886 0.411135
0.146135 0.485590 0.271423
0.148395 0.485816 0.271638
0.158205 0.486496 0.272896
0.177508 0.487933 0.275361
0.207159 0.490146 0.279246
0.247066 0.493256 0.284819
0.296555 0.497376 0.292060
0.354725 0.502436 0.301054
0.420868 0.508696 0.312122
0.500048 0.520701 0.324970
0.585427 0.532468 0.339800
0.674652 0.543667 0.356772
0.764709 0.554074 0.375627
0.853190 0.564172 0.396698
0.923687 0.573899 0.419434
0.962985 0.582696 0.442779
0.183344 0.578112 0.316005
0.185566 0.578289 0.316244
0.194973 0.578823 0.317396
0.213653 0.579911 0.319723
0.242496 0.581592 0.323469
0.281258 0.584063 0.328729
0.329529 0.587393 0.335690
0.386451 0.591568 0.344310
0.451176 0.596655 0.354963
0.522531 0.602780 0.367333
0.603921 0.613098 0.381738
0.689130 0.622776 0.398220
0.775055 0.631628 0.416499
0.859379 0.639123 0.435785
0.924881 0.645004 0.455520
0.962368 0.649885 0.475517
0.227860 0.669013 0.365766
0.229898 0.669098 0.365902
0.238808 0.669570 0.367081
0.256421 0.670407 0.369293
0.283644 0.671804 0.372878
0.320554 0.673817 0.377962
0.366674 0.676486 0.384568
0.421266 0.679950 0.393031
0.483473 0.684143 0.403211
0.552288 0.689235 0.415250
0.626295 0.694933 0.428551
0.705834 0.701973 0.443055
0.785932 0.707534 0.458507
0.864726 0.711621 0.474719
0.925207 0.714126 0.491331
0.960941 0.715079 0.508137
0.280328 0.756373 0.420573
0.282311 0.756487 0.420814
0.290331 0.756731 0.421801
0.306498 0.757313 0.423926
0.331443 0.758310 0.427201
0.365467 0.759769 0.431731
0.408063 0.761626 0.437678
0.458636 0.763999 0.444881
0.516313 0.766600 0.453494
0.579985 0.769607 0.463243
0.648475 0.772801 0.474148
0.721246 0.776398 0.486028
0.795423 0.779094 0.498637
0.868271 0.779896 0.511939
0.924373 0.779290 0.525613
0.958785 0.777067 0.539404
0.333883 0.833596 0.473250
0.335461 0.833579 0.473396
0.342631 0.833779 0.474229
0.356905 0.834120 0.475854
0.378982 0.834580 0.478492
0.409212 0.835184 0.482071
0.447455 0.836091 0.486778
0.493010 0.837188 0.492583
0.545257 0.838526 0.499426
0.603294 0.839853 0.507197
0.666062 0.841314 0.516015
0.732798 0.842778 0.525454
0.802190 0.844047 0.535548
0.869387 0.842171 0.546230
0.921898 0.838747 0.556981
0.955287 0.833713 0.568035
0.383653 0.898457 0.519918
0.385130 0.898418 0.520061
0.391280 0.898447 0.520663
0.403616 0.898565 0.521890
0.422978 0.898677 0.524018
0.449559 0.898685 0.526792
0.483212 0.898829 0.530414
0.523676 0.899029 0.534914
0.570296 0.899002 0.540167
0.622289 0.899029 0.546336
0.678777 0.898935 0.553000
0.739326 0.898690 0.560448
0.802203 0.898241 0.568185
0.867320 0.897318 0.576374
0.917064 0.891869 0.584681
0.949976 0.884184 0.592966
0.427697 0.939971 0.559558
0.428955 0.939941 0.559606
0.434251 0.939939 0.560183
0.444909 0.939744 0.561112
0.461545 0.939712 0.562597
0.484572 0.939461 0.564769
0.513929 0.939166 0.567481
0.549405 0.938668 0.570868
0.590430 0.938134 0.574791
0.636487 0.937380 0.579364
0.686667 0.936421 0.584285
0.740645 0.935350 0.589725
0.797088 0.933840 0.595411
0.855742 0.932103 0.601282
0.908565 0.929789 0.607066
0.941642 0.922608 0.612879
0.464498 0.962149 0.591749
0.465654 0.962124 0.591901
0.470041 0.962150 0.592164
0.479125 0.961987 0.592795
0.493338 0.961748 0.593897
0.513244 0.961400 0.595416
0.538568 0.960957 0.597369
0.569186 0.960278 0.599698
0.604954 0.959535 0.602470
0.645114 0.958568 0.605570
0.689219 0.957357 0.608862
0.736842 0.955770 0.612441
0.786849 0.953965 0.616091
0.838597 0.951645 0.619689
0.889244 0.948868 0.623070
0.928484 0.945353 0.626002
0.029812 0.064890 0.096641
0.032024 0.066584 0.098805
0.040315 0.070921 0.104248
0.057847 0.076715 0.111493
0.086879 0.083602 0.120047
0.127903 0.091608 0.129923
0.181748 0.100947 0.141186
0.248495 0.111723 0.153730
0.327800 0.123901 0.167671
0.418257 0.137830 0.183351
0.517874 0.154031 0.201278
0.624414 0.172795 0.221668
0.731216 0.193599 0.243891
0.834182 0.216402 0.267828
0.919086 0.241101 0.293347
0.964093 0.267923 0.320717
0.032414 0.071292 0.102114
0.034204 0.072224 0.103262
0.042000 0.075507 0.107296
0.059277 0.080704 0.113625
0.088039 0.087303 0.121579
0.128860 0.095195 0.130978
0.182564 0.104531 0.141930
0.249287 0.115132 0.154147
0.328508 0.127248 0.167938
0.418912 0.141172 0.183561
0.518570 0.157253 0.201372
0.624968 0.175988 0.221807
0.731473 0.196719 0.244059
0.834486 0.219358 0.268034
0.919129 0.243981 0.293744
0.964129 0.270739 0.321272
0.038233 0.090432 0.113927
0.039914 0.090985 0.114530
0.047458 0.093235 0.117097
0.064426 0.097658 0.121816
0.092496 0.104076 0.128585
0.132818 0.112042 0.137208
0.186149 0.121348 0.147440
0.252617 0.132044 0.159175
0.331567 0.144291 0.172652
0.421798 0.158287 0.188118
0.521321 0.174406 0.205932
0.627166 0.192828 0.226226
0.732845 0.212901 0.248331
0.835400 0.234631 0.272118
0.919218 0.258222 0.297698
0.964139 0.283777 0.325025
0.046267 0.124496 0.129358
0.048023 0.124882 0.129658
0.056120 0.126501 0.131569
0.072755 0.129656 0.135327
0.100332 0.135644 0.141049
0.140130 0.143427 0.148539
0.193029 0.152910 0.157860
0.259108 0.163933 0.169018
0.337778 0.176579 0.182130
0.427711 0.190836 0.197398
0.527099 0.207078 0.215166
0.631381 0.224783 0.235159
0.735593 0.243627 0.256856
0.836480 0.263887 0.280371
0.919647 0.285670 0.305614
0.963963 0.309275 0.332802
0.057088 0.172075 0.148490
0.058962 0.172350 0.148601
0.067592 0.173649 0.150198
0.084762 0.176199 0.153339
0.111337 0.180177 0.158172
0.150891 0.188338 0.164895
0.203482 0.198379 0.173500
0.269304 0.210086 0.184146
0.347698 0.223387 0.196984
0.437451 0.238229 0.212243
0.535458 0.254233 0.229765
0.637406 0.270873 0.249100
0.739611 0.288126 0.270301
0.838532 0.306432 0.293439
0.920084 0.325736 0.318226
0.963896 0.346889 0.345132
0.071355 0.233096 0.171467
0.073270 0.233408 0.171453
0.082321 0.234551 0.172855
0.100292 0.236771 0.175683
0.128056 0.240364 0.180198
0.165670 0.245440 0.186453
0.218261 0.256335 0.194790
0.283945 0.268973 0.205256
0.362052 0.283117 0.218033
0.450302 0.298014 0.232902
0.545560 0.313112 0.249646
0.644669 0.328428 0.268371
0.744149 0.344014 0.288910
0.841112 0.360127 0.311434
0.920385 0.376942 0.335865
0.963672 0.395142 0.362293
0.090212 0.307739 0.199677
0.092151 0.307938 0.199561
0.101679 0.309025 0.200934
0.120572 0.311199 0.203710
0.149657 0.314598 0.208120
0.189016 0.319445 0.214348
0.238238 0.325843 0.222607
0.303173 0.338817 0.232718
0.379345 0.352532 0.244815
0.464840 0.366655 0.258913
0.556987 0.380700 0.274925
0.653226 0.394631 0.292941
0.749523 0.408398 0.312808
0.844101 0.422409 0.334813
0.921162 0.436773 0.358836
0.963496 0.452121 0.384780
0.115297 0.394278 0.234492
0.117318 0.394535 0.234379
0.127114 0.395409 0.235621
0.146558 0.397185 0.238233
0.176417 0.400078 0.242418
0.216529 0.403983 0.248268
0.266294 0.409082 0.255838
0.324986 0.415434 0.265457
0.398735 0.428381 0.276872
0.481196 0.441512 0.290258
0.570149 0.454424 0.305630
0.662877 0.466944 0.323037
0.756302 0.479105 0.342357
0.847825 0.491046 0.363791
0.922034 0.503080 0.387249
0.963359 0.515867 0.412841
0.146210 0.485677 0.274095
0.148201 0.485826 0.273981
0.157909 0.486595 0.275121
0.177309 0.487954 0.277585
0.207018 0.490195 0.281527
0.246957 0.493264 0.286973
0.296479 0.497386 0.294199
0.354768 0.502515 0.303242
0.420856 0.508683 0.314176
0.500128 0.520750 0.327038
0.585471 0.532459 0.341794
0.674683 0.543595 0.358596
0.764776 0.554075 0.377434
0.853253 0.564181 0.398417
0.923716 0.573885 0.421074
0.963003 0.582739 0.444286
0.183442 0.578119 0.318392
0.185390 0.578388 0.318361
0.194819 0.578753 0.319532
0.213564 0.579958 0.321809
0.242281 0.581679 0.325494
0.281093 0.584165 0.330719
0.329525 0.587456 0.337692
0.386487 0.591585 0.346363
0.451183 0.596719 0.356780
0.522577 0.602812 0.369200
0.603919 0.613081 0.383468
0.689131 0.622756 0.399795
0.775099 0.631598 0.418098
0.859397 0.639103 0.437304
0.924820 0.645032 0.457002
0.962383 0.649919 0.476987
0.227903 0.669026 0.367828
0.229760 0.669184 0.367803
0.238632 0.669556 0.368828
0.256306 0.670411 0.371059
0.283559 0.671844 0.374694
0.320464 0.673822 0.379667
0.366611 0.676526 0.386371
0.421214 0.679972 0.394725
0.483469 0.684152 0.404916
0.552312 0.689358 0.416842
0.626312 0.694950 0.430140
0.705905 0.701964 0.444550
0.786033 0.707685 0.459944
0.864750 0.711597 0.476108
0.925233 0.714139 0.492607
0.960963 0.715165 0.509410
0.280506 0.756424 0.422392
0.282178 0.756429 0.422453
0.290254 0.756725 0.423398
0.306412 0.757345 0.425520
0.331407 0.758341 0.428781
0.365414 0.759799 0.433341
0.408037 0.761629 0.439187
0.458579 0.763998 0.446388
0.516255 0.766574 0.454904
0.580001 0.769596 0.464650
0.648591 0.772917 0.475515
0.721295 0.776381 0.487316
0.795326 0.778992 0.499958
0.868237 0.779840 0.513175
0.924452 0.779284 0.526768
0.958766 0.777065 0.540538
0.333889 0.833611 0.474703
0.335463 0.833655 0.474805
0.342600 0.833792 0.475629
0.356829 0.834197 0.477239
0.378998 0.834572 0.479814
0.409220 0.835265 0.483435
0.447402 0.836163 0.488122
0.493066 0.837184 0.493868
0.545272 0.838473 0.500682
0.603257 0.839836 0.508477
0.666063 0.841326 0.517175
0.732783 0.842776 0.526574
0.802182 0.844040 0.536651
0.869357 0.842137 0.547223
0.921872 0.838756 0.558049
0.955262 0.833722 0.569088
0.383765 0.898444 0.521137
0.385135 0.898408 0.521218
0.391312 0.898433 0.521873
0.403650 0.898551 0.523139
0.422987 0.898663 0.525155
0.449571 0.898669 0.527965
0.483219 0.898811 0.531574
0.523757 0.899010 0.536083
0.570313 0.898980 0.541352
0.622301 0.899039 0.547361
0.678790 0.898907 0.554106
0.739408 0.898659 0.561415
0.802243 0.898266 0.569259
0.867264 0.897354 0.577392
0.917028 0.891844 0.585637
0.949943 0.884162 0.593795
0.427756 0.939981 0.560566
0.429059 0.939920 0.560799
0.434340 0.939918 0.561231
0.444908 0.939723 0.562178
0.461657 0.939690 0.563656
0.484647 0.939481 0.565775
0.513976 0.939143 0.568506
0.549411 0.938684 0.571835
0.590492 0.938109 0.575805
0.636519 0.937404 0.580307
0.686680 0.936394 0.585183
0.740853 0.935287 0.590677
0.797224 0.933880 0.596308
0.855807 0.932140 0.602164
0.908604 0.929822 0.607932
0.941672 0.922591 0.613689
0.464536 0.962123 0.592603
0.465743 0.962187 0.592800
0.470144 0.962141 0.593062
0.479247 0.962013 0.593779
0.493488 0.961760 0.594816
0.513296 0.961432 0.596312
0.538594 0.960950 0.598257
0.569217 0.960249 0.600577
0.604954 0.959521 0.603306
0.645107 0.958536 0.606333
0.689194 0.957323 0.609674
0.736832 0.955757 0.613166
0.786857 0.954011 0.616919
0.838536 0.951601 0.620490
0.889183 0.948821 0.623771
0.928415 0.945301 0.626815
0.031167 0.067178 0.110468
0.033091 0.068338 0.111973
0.041091 0.072074 0.116790
0.058460 0.077527 0.124184
0.087385 0.084233 0.133382
0.128323 0.092183 0.144044
0.182051 0.101462 0.155746
0.248849 0.112174 0.168564
0.328052 0.124311 0.182659
0.418557 0.138273 0.198399
0.518165 0.154416 0.216026
0.624726 0.173229 0.235966
0.731457 0.194013 0.257391
0.834336 0.216740 0.280233
0.919081 0.241448 0.304607
0.964080 0.268292 0.330785
0.033195 0.072640 0.114820
0.034951 0.073454 0.115844
0.042658 0.076483 0.119754
0.059864 0.081475 0.126379
0.088524 0.087926 0.134993
0.129284 0.095730 0.145140
0.183019 0.105012 0.156508
0.249612 0.115581 0.169007
0.328828 0.127646 0.182936
0.419174 0.141529 0.198551
0.518800 0.157689 0.216193
0.625220 0.176357 0.236073
0.731608 0.197118 0.257568
0.834743 0.219832 0.280582
0.919162 0.244331 0.305029
0.964126 0.271083 0.331256
0.038695 0.091236 0.126276
0.040369 0.091778 0.126922
0.047954 0.093973 0.129535
0.064921 0.098052 0.134349
0.092921 0.103854 0.141148
0.133204 0.111184 0.149622
0.186446 0.119919 0.159623
0.252870 0.130026 0.171089
0.331869 0.141784 0.184242
0.422100 0.155478 0.199399
0.521640 0.171461 0.216885
0.627456 0.189949 0.236832
0.732990 0.210232 0.258415
0.835690 0.232574 0.281855
0.919232 0.256582 0.306748
0.964109 0.282861 0.333637
0.046632 0.125067 0.142257
0.048387 0.125432 0.142610
0.056296 0.127048 0.144151
0.073145 0.130194 0.147811
0.100694 0.135707 0.153387
0.140446 0.142950 0.160691
0.193339 0.151871 0.169777
0.259382 0.162399 0.180721
0.338037 0.174561 0.193530
0.427987 0.188569 0.208524
0.527395 0.204599 0.225974
0.631653 0.222417 0.245632
0.735708 0.241401 0.266808
0.836687 0.261964 0.289831
0.919615 0.284138 0.314536
0.963956 0.308372 0.341234
0.057404 0.172501 0.161393
0.059298 0.172802 0.161555
0.067420 0.174060 0.162284
0.084795 0.176625 0.165369
0.111666 0.180578 0.170087
0.151230 0.188312 0.176713
0.203850 0.197873 0.185112
0.269596 0.209065 0.195524
0.347999 0.221927 0.208091
0.437750 0.236487 0.223050
0.535689 0.252362 0.240245
0.637525 0.268926 0.259221
0.739642 0.286392 0.279924
0.838579 0.304921 0.302587
0.920087 0.324645 0.326905
0.963857 0.346169 0.353216
0.071651 0.233503 0.184231
0.073564 0.233798 0.184240
0.081831 0.234922 0.184449
0.100003 0.237127 0.187215
0.128030 0.240721 0.191618
0.165993 0.245802 0.197819
0.218612 0.256271 0.205922
0.284274 0.268554 0.216226
0.362361 0.282236 0.228758
0.450582 0.296788 0.243324
0.545727 0.311719 0.259722
0.644720 0.327039 0.278071
0.744271 0.342694 0.298200
0.841181 0.358921 0.320177
0.920412 0.376037 0.344171
0.963668 0.394695 0.370208
0.090516 0.308147 0.212253
0.092488 0.308365 0.212194
0.100919 0.309480 0.211987
0.119956 0.311594 0.214686
0.149323 0.314896 0.218997
0.189026 0.319877 0.225149
0.238543 0.326168 0.233258
0.303474 0.338822 0.243171
0.379603 0.352160 0.255037
0.465031 0.365959 0.268805
0.557178 0.379858 0.284525
0.653252 0.393724 0.302174
0.749752 0.407565 0.321722
0.844170 0.421670 0.343215
0.921154 0.436239 0.366653
0.963495 0.451937 0.392271
0.115637 0.394583 0.246527
0.117641 0.394789 0.246446
0.126187 0.395785 0.246039
0.145762 0.397478 0.248599
0.175817 0.400284 0.252657
0.216178 0.404229 0.258340
0.266281 0.409402 0.265858
0.325288 0.415693 0.275186
0.398875 0.428360 0.286446
0.481379 0.441247 0.299538
0.570306 0.453968 0.314526
0.662997 0.466492 0.331577
0.756419 0.478621 0.350647
0.847904 0.490580 0.371536
0.922053 0.502791 0.394645
0.963362 0.515765 0.419764
0.146515 0.485945 0.285269
0.148523 0.486085 0.285189
0.156969 0.486841 0.284731
0.176435 0.488146 0.287139
0.206298 0.490417 0.290878
0.246479 0.493556 0.296256
0.296211 0.497546 0.303346
0.354715 0.502724 0.312201
0.421138 0.508974 0.322951
0.500315 0.520724 0.335456
0.585601 0.532366 0.350038
0.674759 0.543305 0.366489
0.764659 0.553821 0.385042
0.853193 0.563900 0.405590
0.923756 0.573812 0.427933
0.962997 0.582799 0.450701
0.183777 0.578394 0.328542
0.185702 0.578468 0.328425
0.193955 0.579086 0.328176
0.212741 0.580118 0.330392
0.241726 0.581804 0.334054
0.280626 0.584231 0.339163
0.329168 0.587562 0.345971
0.386317 0.591750 0.354497
0.451143 0.596909 0.364693
0.522815 0.603039 0.376899
0.604189 0.613172 0.390915
0.689214 0.622730 0.407082
0.775316 0.631540 0.425001
0.859281 0.638970 0.443880
0.924900 0.645005 0.463207
0.962350 0.650023 0.482758
0.228315 0.669147 0.376561
0.230115 0.669224 0.376563
0.237973 0.669743 0.376559
0.255745 0.670537 0.378857
0.283079 0.672030 0.382294
0.320063 0.674031 0.387245
0.366390 0.676763 0.393767
0.421078 0.680078 0.402016
0.483441 0.684330 0.411980
0.552375 0.689374 0.423741
0.626426 0.694965 0.436815
0.706155 0.702046 0.451003
0.786131 0.707664 0.466094
0.864809 0.711575 0.481972
0.925332 0.714179 0.498212
0.960996 0.715338 0.514713
0.280819 0.756494 0.429869
0.282570 0.756478 0.429942
0.289970 0.756713 0.430248
0.306087 0.757482 0.432247
0.331156 0.758566 0.435484
0.365190 0.759876 0.439889
0.407831 0.761841 0.445653
0.458547 0.764077 0.452792
0.516272 0.766600 0.461174
0.579990 0.769721 0.470730
0.648690 0.772951 0.481458
0.721429 0.776540 0.493048
0.795367 0.779089 0.505439
0.868399 0.779903 0.518467
0.924366 0.779288 0.531772
0.958772 0.777167 0.545356
0.334167 0.833674 0.480938
0.335828 0.833645 0.481094
0.342525 0.833946 0.481523
0.356727 0.834104 0.483075
0.378891 0.834872 0.485608
0.409209 0.835382 0.489186
0.447454 0.836224 0.493817
0.493084 0.837184 0.499449
0.545347 0.838530 0.506228
0.603345 0.840024 0.513831
0.666077 0.841348 0.522358
0.732809 0.842778 0.531607
0.802252 0.844129 0.541551
0.869474 0.842200 0.551939
0.921796 0.838731 0.562563
0.955236 0.833777 0.573291
0.383973 0.898390 0.526342
0.385344 0.898479 0.526483
0.391409 0.898509 0.526973
0.403816 0.898468 0.528264
0.423041 0.898623 0.530222
0.449614 0.898629 0.532957
0.483336 0.898756 0.536493
0.523788 0.898953 0.540984
0.570379 0.898978 0.546119
0.622396 0.898981 0.552102
0.678952 0.898952 0.558656
0.739399 0.898597 0.565804
0.802122 0.898216 0.573546
0.867224 0.897271 0.581484
0.916997 0.891845 0.589567
0.949922 0.884227 0.597655
0.427986 0.939930 0.565014
0.429167 0.939869 0.565090
0.434581 0.939866 0.565628
0.445161 0.939738 0.566527
0.461876 0.939652 0.568052
0.484838 0.939429 0.570104
0.514199 0.939079 0.572802
0.549631 0.938634 0.576073
0.590607 0.938121 0.579987
0.636673 0.937358 0.584327
0.687008 0.936432 0.589244
0.740876 0.935362 0.594443
0.797260 0.933833 0.600028
0.855834 0.932126 0.605819
0.908603 0.929820 0.611515
0.941712 0.922641 0.617048
0.464621 0.962153 0.596230
0.465835 0.962171 0.596447
0.470598 0.962125 0.596999
0.479683 0.961954 0.597633
0.493849 0.961699 0.598619
0.513555 0.961393 0.600032
0.538901 0.960891 0.602007
0.569407 0.960257 0.604185
0.605209 0.959550 0.606937
0.645285 0.958525 0.609919
0.689443 0.957266 0.613160
0.736924 0.955712 0.616588
0.786806 0.954018 0.620103
0.838494 0.951611 0.623652
0.889153 0.948733 0.626851
0.928326 0.945229 0.629740
0.032977 0.070198 0.138039
0.034796 0.071038 0.139166
0.042708 0.074119 0.143297
0.059679 0.079092 0.149780
0.088381 0.085536 0.159502
0.129167 0.093278 0.170630
0.182853 0.102480 0.182891
0.249589 0.113072 0.196207
0.328728 0.125180 0.210691
0.419076 0.139108 0.226468
0.518706 0.155272 0.243823
0.625071 0.174092 0.262975
0.731599 0.194813 0.283066
0.834645 0.217599 0.304210
0.919160 0.242245 0.326509
0.964072 0.269148 0.350434
0.034558 0.075007 0.141585
0.036259 0.075581 0.142507
0.044081 0.078305 0.146027
0.060974 0.082947 0.151904
0.089484 0.089176 0.161071
0.130111 0.096858 0.171715
0.183659 0.106004 0.183630
0.250319 0.116510 0.196717
0.329482 0.128509 0.211010
0.419754 0.142414 0.226730
0.519428 0.158520 0.243976
0.625664 0.177234 0.263126
0.731927 0.197929 0.283246
0.834685 0.220576 0.304413
0.919154 0.245178 0.326863
0.964090 0.271900 0.350841
0.039612 0.093167 0.152204
0.041299 0.093598 0.152763
0.048877 0.095383 0.155229
0.065817 0.099322 0.159750
0.093775 0.105055 0.167125
0.133938 0.112227 0.176190
0.187193 0.120845 0.186875
0.253581 0.130899 0.198905
0.332474 0.142650 0.212517
0.422670 0.156322 0.227755
0.522215 0.172294 0.244877
0.627824 0.190832 0.263951
0.733564 0.211018 0.284094
0.835673 0.233266 0.305619
0.919255 0.257439 0.328554
0.964097 0.283672 0.353017
0.047349 0.126177 0.166727
0.049107 0.126545 0.167140
0.057062 0.128092 0.168893
0.073870 0.131190 0.172383
0.101414 0.135880 0.177649
0.141185 0.142075 0.184575
0.194008 0.149875 0.193225
0.259977 0.159333 0.203643
0.338667 0.170656 0.216009
0.428652 0.184043 0.230480
0.527931 0.199794 0.247337
0.632036 0.217540 0.266132
0.735886 0.237113 0.286609
0.836712 0.258390 0.308617
0.919566 0.281627 0.332358
0.963948 0.306878 0.357872
0.058066 0.173359 0.185689
0.059959 0.173678 0.185932
0.068094 0.174953 0.186946
0.084895 0.177462 0.189020
0.112330 0.181446 0.193553
0.151881 0.188259 0.199808
0.204503 0.196817 0.207885
0.270214 0.207142 0.217916
0.348634 0.219195 0.230084
0.438319 0.233170 0.244483
0.536132 0.248654 0.261069
0.638009 0.265219 0.279231
0.739830 0.282944 0.299176
0.838736 0.301991 0.320766
0.920047 0.322600 0.344188
0.963842 0.345094 0.369514
0.072268 0.234284 0.208424
0.074183 0.234564 0.208512
0.082465 0.235642 0.208963
0.099443 0.237947 0.209929
0.128066 0.241567 0.214184
0.166670 0.246581 0.220107
0.219230 0.256193 0.227955
0.284882 0.267622 0.237887
0.363032 0.280625 0.250006
0.451132 0.294662 0.264013
0.546160 0.309195 0.279772
0.645093 0.324364 0.297253
0.744472 0.340224 0.316684
0.841500 0.356899 0.337795
0.920445 0.374629 0.360855
0.963650 0.393986 0.385813
0.091184 0.308840 0.236165
0.093146 0.309093 0.236172
0.101585 0.310152 0.236194
0.118841 0.312182 0.236390
0.148698 0.315612 0.240618
0.189042 0.320547 0.246542
0.239192 0.326862 0.254376
0.304040 0.338699 0.263872
0.380159 0.351448 0.275244
0.465536 0.364684 0.288452
0.557582 0.378233 0.303522
0.653499 0.391886 0.320394
0.749936 0.405891 0.339181
0.844165 0.420247 0.359885
0.921198 0.435336 0.382444
0.963462 0.451608 0.407141
0.116306 0.395168 0.269623
0.118296 0.395406 0.269574
0.126852 0.396256 0.269390
0.144220 0.398071 0.269027
0.174750 0.400897 0.272973
0.215593 0.404786 0.278458
0.266228 0.409896 0.285621
0.325826 0.416254 0.294557
