src/luts/blur/14.cube
LUT_3D_SIZE 6
0.029107 0.063696 0.092682
0.057691 0.076515 0.108525
0.181666 0.100842 0.137634
0.418130 0.137746 0.179732
0.731132 0.193496 0.240617
0.964085 0.267793 0.318258
0.046180 0.124346 0.126314
0.072695 0.129577 0.132404
0.192978 0.153164 0.155056
0.427692 0.191449 0.194787
0.735537 0.244175 0.254511
0.964008 0.309459 0.330804
0.090144 0.307764 0.196675
0.120694 0.311109 0.201101
0.238172 0.325780 0.220045
0.464736 0.366720 0.256582
0.749622 0.408613 0.310754
0.963502 0.452245 0.383097
0.183344 0.578112 0.316005
0.213653 0.579911 0.319723
0.329529 0.587393 0.335690
0.522531 0.602780 0.367333
0.775055 0.631628 0.416499
0.962368 0.649885 0.475517
0.333883 0.833596 0.473250
0.356905 0.834120 0.475854
0.447455 0.836091 0.486778
0.603294 0.839853 0.507197
0.802190 0.844047 0.535548
0.955287 0.833713 0.568035
0.464498 0.962149 0.591749
0.479125 0.961987 0.592795
0.538568 0.960957 0.597369
0.645114 0.958568 0.605570
0.786849 0.953965 0.616091
0.928484 0.945353 0.626002
0.032977 0.070198 0.138039
0.059679 0.079092 0.149780
0.182853 0.102480 0.182891
0.419076 0.139108 0.226468
0.731599 0.194813 0.283066
0.964072 0.269148 0.350434
0.047349 0.126177 0.166727
0.073870 0.131190 0.172383
0.194008 0.149875 0.193225
0.428652 0.184043 0.230480
0.735886 0.237113 0.286609
0.963948 0.306878 0.357872
0.091184 0.308840 0.236165
0.118841 0.312182 0.236390
0.239192 0.326862 0.254376
0.465536 0.364684 0.288452
0.749936 0.405891 0.339181
0.963462 0.451608 0.407141
0.184458 0.578723 0.348101
0.211237 0.580496 0.347545
0.328621 0.588029 0.362514
0.523219 0.603383 0.392276
0.775436 0.631369 0.438724
0.962330 0.650223 0.494458
0.334796 0.833736 0.493397
0.356626 0.834227 0.494866
0.447458 0.836481 0.505200
0.603385 0.840001 0.524527
0.802239 0.844118 0.551265
0.955248 0.833981 0.581840
0.464914 0.962139 0.603586
0.480206 0.961917 0.605231
0.539382 0.960893 0.609450
0.645631 0.958466 0.617080
0.786862 0.953843 0.626824
0.928143 0.945107 0.635825
0.040358 0.082169 0.296799
0.070604 0.088177 0.302584
0.187816 0.109124 0.321172
0.423221 0.144961 0.371419
0.733587 0.200463 0.420848
0.964087 0.274381 0.462685
0.052108 0.138480 0.313536
0.078811 0.137905 0.317545
0.198642 0.155751 0.333478
0.432754 0.189690 0.377600
0.737599 0.242390 0.424061
0.963979 0.311879 0.468021
0.095692 0.313870 0.364918
0.123478 0.317277 0.368332
0.243701 0.331652 0.382699
0.468547 0.358309 0.409084
0.751252 0.398032 0.447876
0.963417 0.453097 0.500874
0.189241 0.581324 0.460516
0.215867 0.583026 0.461058
0.326196 0.590566 0.465898
0.526071 0.605992 0.489106
0.776814 0.631607 0.525777
0.962197 0.653265 0.569626
0.338761 0.834472 0.570563
0.360415 0.834926 0.571762
0.448581 0.836888 0.577943
0.604545 0.840528 0.593103
0.802749 0.844417 0.614139
0.954823 0.835106 0.637794
0.466756 0.961771 0.651532
0.481938 0.961486 0.652788
0.543747 0.960451 0.658418
0.648297 0.957999 0.663841
0.787316 0.953280 0.670422
0.927088 0.944300 0.675411
0.050772 0.098254 0.526306
0.086235 0.103083 0.529251
0.217184 0.121725 0.540952
0.431668 0.156853 0.563097
0.737353 0.211888 0.608589
0.963959 0.285145 0.627233
0.061315 0.157318 0.535934
0.088179 0.150411 0.538591
0.222425 0.167314 0.549511
0.441313 0.201272 0.571585
0.740811 0.253033 0.611352
0.963875 0.322139 0.630440
0.105047 0.340860 0.572664
0.132955 0.340226 0.575115
0.252489 0.340972 0.584262
0.474675 0.366995 0.600498
0.753714 0.406311 0.626936
0.963390 0.461328 0.649934
0.198763 0.586405 0.625832
0.225275 0.588209 0.627481
0.334456 0.595768 0.634453
0.531962 0.611303 0.648740
0.779330 0.636028 0.671329
0.961932 0.664930 0.697621
0.346687 0.835829 0.697035
0.367919 0.836467 0.697741
0.454705 0.838177 0.701654
0.609384 0.841468 0.711331
0.803472 0.845023 0.723307
0.954095 0.838959 0.736088
0.470348 0.961059 0.736446
0.485351 0.960825 0.737236
0.546093 0.959610 0.740247
0.655618 0.957129 0.747531
0.789295 0.952169 0.748871
0.925041 0.942716 0.747139
0.065351 0.119363 0.775707
0.103637 0.123528 0.777481
0.243029 0.140892 0.784869
0.466789 0.175985 0.799499
0.742199 0.229715 0.813243
0.963725 0.302164 0.813548
0.075297 0.178860 0.781512
0.102553 0.169059 0.783245
0.244992 0.185698 0.790622
0.470981 0.219420 0.803781
0.745261 0.269819 0.815504
0.963588 0.338387 0.814949
0.120002 0.364343 0.804278
0.147898 0.361222 0.805340
0.266097 0.355260 0.809541
0.489543 0.380503 0.815961
0.757723 0.419404 0.824736
0.963315 0.474403 0.823645
0.214375 0.602875 0.825373
0.240410 0.603135 0.826103
0.347683 0.606291 0.828861
0.541411 0.619802 0.834518
0.783096 0.643667 0.843411
0.961413 0.670679 0.842887
0.358908 0.837877 0.851957
0.379621 0.838530 0.852490
0.464139 0.840271 0.854026
0.614875 0.842977 0.856491
0.804257 0.845766 0.858864
0.952885 0.847448 0.860315
0.475763 0.959841 0.848922
0.490323 0.959534 0.848945
0.549672 0.958363 0.849356
0.656528 0.955591 0.850342
0.794017 0.950172 0.851431
0.921256 0.939748 0.841903
0.085290 0.146587 0.969258
0.122344 0.150611 0.969628
0.258081 0.167978 0.971570
0.472799 0.202381 0.973590
0.733600 0.254698 0.973938
0.963480 0.326395 0.973342
0.095605 0.202252 0.970708
0.123422 0.195191 0.971124
0.260455 0.211869 0.972692
0.475113 0.244136 0.973869
0.734915 0.293329 0.973876
0.963418 0.361202 0.973362
0.141361 0.377065 0.973874
0.168986 0.374858 0.973946
0.284998 0.374874 0.974006
0.492726 0.399406 0.973894
0.744341 0.438081 0.973456
0.963064 0.491882 0.973081
0.236693 0.603662 0.973378
0.262104 0.604224 0.973402
0.366685 0.609731 0.973319
0.554799 0.631765 0.973248
0.773736 0.653628 0.972704
0.960653 0.678345 0.971347
0.375064 0.825323 0.971328
0.395131 0.825915 0.971348
0.476699 0.828430 0.970895
0.622105 0.834896 0.969900
0.805641 0.846903 0.968015
0.951106 0.847191 0.964434
0.482751 0.957878 0.959772
0.496672 0.957617 0.959544
0.554019 0.956123 0.958247
0.657313 0.953081 0.955368
0.790211 0.947160 0.949812
0.916173 0.935764 0.939354
