src/luts/blur/15.cube
LUT_3D_SIZE 6
0.000000 0.000000 0.001106
0.136985 -0.000813 0.000844
0.359037 -0.001625 -0.001316
0.615510 -0.002438 -0.002278
0.895371 -0.003250 -0.003146
1.000003 -0.004063 -0.003987
-0.001347 0.136731 -0.000897
0.136984 0.136731 -0.001143
0.359036 0.136730 -0.001778
0.615510 0.136728 -0.002528
0.895371 0.136726 -0.003311
1.000003 0.136722 -0.004108
-0.002694 0.341617 -0.002557
0.136981 0.341617 -0.002624
0.359034 0.341616 -0.002885
0.615510 0.341615 -0.003335
0.895370 0.341614 -0.003914
1.000003 0.341612 -0.004574
-0.004041 0.580143 -0.003965
0.136976 0.580143 -0.004002
0.359029 0.580143 -0.004153
0.615508 0.580142 -0.004439
0.895369 0.580142 -0.004849
1.000002 0.580141 -0.005359
-0.005388 0.843308 -0.005338
0.136966 0.843308 -0.005362
0.359047 0.843308 -0.005464
0.615506 0.843308 -0.005662
0.895367 0.843307 -0.005962
1.000001 0.843306 -0.006354
-0.006735 1.000001 -0.006698
0.136956 1.000001 -0.006716
0.359037 1.000001 -0.006791
0.615503 1.000001 -0.006939
0.895363 1.000001 -0.007168
1.000000 1.000000 -0.007475
-0.000518 -0.000518 0.086100
0.136985 -0.000918 0.086100
0.359036 -0.001668 0.086099
0.615510 -0.002462 0.086098
0.895371 -0.003267 0.086096
1.000003 -0.004075 0.086094
-0.001402 0.136731 0.086099
0.136984 0.136731 0.086099
0.430276 0.087868 0.053518
0.681321 0.059679 0.035899
0.936109 0.050229 0.030212
1.000003 0.136722 0.086093
-0.002715 0.341617 0.086097
0.051682 0.352406 0.034801
0.361417 0.343821 0.032495
0.639746 0.333736 0.030119
0.920132 0.326001 0.028623
1.000003 0.341612 0.086091
-0.004053 0.580143 0.086094
0.040942 0.587709 0.028483
0.339809 0.585337 0.028284
0.617119 0.581654 0.028017
0.905578 0.577542 0.027814
1.000002 0.580141 0.086092
-0.005396 0.843308 0.086092
0.039737 0.848823 0.027765
0.332594 0.847923 0.027773
0.606970 0.846327 0.027808
0.896403 0.844379 0.027898
1.000001 0.843306 0.086086
-0.006741 1.000001 0.086084
0.136955 1.000001 0.086084
0.359037 1.000001 0.086083
0.615503 1.000001 0.086082
0.895363 1.000001 0.086080
1.000000 1.000000 0.086078
-0.001036 -0.001036 0.241262
0.136985 -0.001246 0.241262
0.359036 -0.001836 0.241265
0.615510 -0.002564 0.241264
0.895371 -0.003336 0.241263
1.000003 -0.004126 0.241261
-0.001609 0.136731 0.241265
0.116666 0.118048 0.319712
0.415009 0.079209 0.283970
0.674048 0.057834 0.250005
0.933975 0.049803 0.234250
1.000003 0.136722 0.241261
-0.002804 0.341617 0.241264
0.050105 0.349082 0.247328
0.359034 0.341616 0.241263
0.730200 0.289206 0.199333
0.988334 0.221655 0.147361
1.000003 0.341612 0.241260
-0.004105 0.580143 0.241261
0.040818 0.586900 0.227552
0.208728 0.608579 0.133297
0.622137 0.586343 0.120271
0.946262 0.561519 0.106750
1.000002 0.580141 0.241257
-0.005431 0.843308 0.241257
0.039739 0.848528 0.221649
0.149007 0.869807 0.093769
0.561174 0.860566 0.090835
0.900481 0.848717 0.087212
1.000001 0.843306 0.241253
-0.006767 1.000001 0.241251
0.136955 1.000001 0.241252
0.359036 1.000001 0.241251
0.615503 1.000001 0.241250
0.895363 1.000001 0.241249
1.000000 1.000000 0.241247
-0.001554 -0.001554 0.446047
0.136984 -0.001683 0.446047
0.359036 -0.002123 0.446047
0.615510 -0.002754 0.446047
0.895371 -0.003470 0.446046
1.000003 -0.004227 0.446045
-0.001943 0.136730 0.446047
0.082914 0.086995 0.579524
0.393303 0.068179 0.528449
0.662445 0.055001 0.485749
0.930049 0.049084 0.461991
1.000003 0.136721 0.446045
-0.002973 0.341616 0.446047
0.047661 0.343583 0.481926
0.340685 0.324616 0.560594
0.719374 0.270275 0.534712
0.984374 0.212553 0.482404
1.000002 0.341612 0.446045
-0.004207 0.580143 0.446045
0.040599 0.585245 0.450631
0.201383 0.600284 0.464175
0.615508 0.580142 0.446045
0.975520 0.530376 0.401638
1.000002 0.580141 0.446043
-0.005500 0.843308 0.446043
0.039746 0.847885 0.439858
0.147347 0.866482 0.404405
0.431358 0.885332 0.296694
0.904360 0.853000 0.269287
1.000001 0.843306 0.446041
-0.006818 1.000001 0.446041
0.136955 1.000001 0.446041
0.359036 1.000001 0.446040
0.615503 1.000001 0.446040
0.895363 1.000000 0.446039
1.000000 1.000000 0.446039
-0.002072 -0.002072 0.692038
0.136983 -0.002161 0.692038
0.359035 -0.002493 0.692038
0.615510 -0.003024 0.692038
0.895370 -0.003671 0.692037
1.000003 -0.004382 0.692036
-0.002352 0.136729 0.692038
0.061300 0.067010 0.830862
0.373542 0.059091 0.791498
0.649457 0.052074 0.751802
0.924899 0.048230 0.725034
1.000003 0.136721 0.692036
-0.003219 0.341616 0.692037
0.045084 0.337339 0.747655
0.323120 0.308338 0.864211
0.685340 0.262207 0.857431
0.977515 0.200361 0.816575
1.000002 0.341611 0.692036
-0.004362 0.580143 0.692036
0.040320 0.583134 0.710648
0.191345 0.588633 0.792802
0.598624 0.564405 0.825536
0.971985 0.511145 0.802779
1.000002 0.580141 0.692034
-0.005608 0.843308 0.692034
0.039780 0.847041 0.695660
0.144909 0.861580 0.709785
0.418265 0.873850 0.721785
0.895366 0.843307 0.692033
1.000001 0.843306 0.692033
-0.006898 1.000001 0.692032
0.136954 1.000001 0.692032
0.359035 1.000001 0.692032
0.615503 1.000001 0.692031
0.895363 1.000000 0.692031
1.000000 1.000000 0.692030
-0.002591 -0.002591 0.973387
0.136982 -0.002656 0.973387
0.359034 -0.002914 0.973387
0.615510 -0.003358 0.973387
0.895370 -0.003933 0.973387
1.000003 -0.004589 0.973386
-0.002803 0.136728 0.973387
0.136981 0.136728 0.973387
0.359034 0.136727 0.973387
0.615509 0.136725 0.973387
0.895370 0.136723 0.973387
1.000003 0.136719 0.973386
-0.003528 0.341615 0.973387
0.136978 0.341615 0.973387
0.359031 0.341615 0.973387
0.615509 0.341614 0.973387
0.895369 0.341612 0.973386
1.000002 0.341611 0.973386
-0.004571 0.580142 0.973386
0.136972 0.580142 0.973386
0.359027 0.580142 0.973386
0.615507 0.580142 0.973386
0.895368 0.580141 0.973386
1.000002 0.580140 0.973385
-0.005757 0.843308 0.973385
0.136963 0.843308 0.973385
0.359044 0.843307 0.973385
0.615505 0.843307 0.973385
0.895366 0.843306 0.973384
1.000001 0.843305 0.973384
-0.007011 1.000001 0.973383
0.136952 1.000001 0.973383
0.359034 1.000001 0.973383
0.615502 1.000001 0.973383
0.895363 1.000000 0.973383
1.000000 1.000000 0.973382
