src/luts/blur/15.cube
LUT_3D_SIZE 16
0.000000 0.000000 0.001106
0.024624 -0.000271 0.001090
0.074485 -0.000542 0.001018
0.136985 -0.000813 0.000844
0.206121 -0.001083 0.000313
0.280417 -0.001354 -0.000910
0.359037 -0.001625 -0.001316
0.441291 -0.001896 -0.001659
0.526894 -0.002167 -0.001975
0.615510 -0.002438 -0.002278
0.706636 -0.002709 -0.002572
0.800465 -0.002980 -0.002861
0.895371 -0.003250 -0.003146
0.962413 -0.003521 -0.003429
0.993514 -0.003792 -0.003708
1.000003 -0.004063 -0.003987
-0.000449 0.030521 0.001051
0.024624 0.030521 0.001034
0.074485 0.030521 0.000956
0.136985 0.030520 0.000761
0.206121 0.030519 -0.000358
0.280417 0.030518 -0.000976
0.359036 0.030517 -0.001357
0.441291 0.030515 -0.001688
0.526894 0.030512 -0.001999
0.615510 0.030513 -0.002297
0.706636 0.030515 -0.002588
0.800465 0.030511 -0.002875
0.895371 0.030507 -0.003158
0.962413 0.030505 -0.003440
0.993514 0.030502 -0.003718
1.000003 0.030499 -0.003996
-0.000898 0.079213 0.000750
0.024623 0.079213 0.000722
0.074485 0.079213 0.000581
0.136985 0.079213 -0.000393
0.206121 0.079213 -0.000868
0.280417 0.079213 -0.001207
0.359036 0.079212 -0.001514
0.441291 0.079212 -0.001808
0.526894 0.079211 -0.002095
0.615510 0.079210 -0.002377
0.706636 0.079210 -0.002656
0.800465 0.079209 -0.002934
0.895371 0.079209 -0.003210
0.962413 0.079208 -0.003485
0.993514 0.079207 -0.003759
1.000003 0.079205 -0.004033
-0.001347 0.136731 -0.000897
0.024622 0.136731 -0.000918
0.074484 0.136731 -0.001000
0.136984 0.136731 -0.001143
0.206121 0.136731 -0.001330
0.280417 0.136730 -0.001545
0.359036 0.136730 -0.001778
0.441290 0.136730 -0.002021
0.526894 0.136729 -0.002272
0.615510 0.136728 -0.002528
0.706636 0.136728 -0.002786
0.800465 0.136727 -0.003048
0.895371 0.136726 -0.003311
0.962413 0.136725 -0.003576
0.993514 0.136724 -0.003841
1.000003 0.136722 -0.004108
-0.001796 0.200365 -0.001537
0.024620 0.200365 -0.001546
0.074484 0.200365 -0.001588
0.136984 0.200365 -0.001668
0.206120 0.200365 -0.001785
0.280416 0.200365 -0.001935
0.359035 0.200365 -0.002111
0.441290 0.200364 -0.002308
0.526894 0.200364 -0.002521
0.615510 0.200363 -0.002746
0.706636 0.200363 -0.002979
0.800464 0.200362 -0.003219
0.895371 0.200361 -0.003464
0.962413 0.200360 -0.003715
0.993514 0.200359 -0.003967
1.000003 0.200358 -0.004223
-0.002245 0.268894 -0.002064
0.024617 0.268894 -0.002070
0.074483 0.268894 -0.002098
0.136983 0.268894 -0.002153
0.206119 0.268894 -0.002237
0.280416 0.268894 -0.002349
0.359035 0.268894 -0.002486
0.441290 0.268894 -0.002646
0.526893 0.268893 -0.002825
0.615510 0.268893 -0.003019
0.706636 0.268893 -0.003226
0.800464 0.268900 -0.003443
0.895370 0.268900 -0.003667
0.962413 0.268899 -0.003900
0.993514 0.268899 -0.004137
1.000003 0.268898 -0.004379
-0.002694 0.341617 -0.002557
0.024617 0.341617 -0.002562
0.074481 0.341617 -0.002582
0.136981 0.341617 -0.002624
0.206118 0.341616 -0.002688
0.280415 0.341616 -0.002775
0.359034 0.341616 -0.002885
0.441289 0.341616 -0.003017
0.526893 0.341616 -0.003167
0.615510 0.341615 -0.003335
0.706635 0.341615 -0.003516
0.800464 0.341614 -0.003710
0.895370 0.341614 -0.003914
0.962413 0.341613 -0.004127
0.993514 0.341613 -0.004347
1.000003 0.341612 -0.004574
-0.003143 0.417887 -0.003034
0.024615 0.417887 -0.003037
0.074480 0.417887 -0.003054
0.136980 0.417887 -0.003087
0.206117 0.417887 -0.003138
0.280415 0.417887 -0.003209
0.359033 0.417887 -0.003300
0.441289 0.417887 -0.003410
0.526892 0.417886 -0.003537
0.615509 0.417886 -0.003682
0.706635 0.417886 -0.003841
0.800463 0.417885 -0.004014
0.895370 0.417884 -0.004197
0.962412 0.417884 -0.004392
0.993514 0.417883 -0.004595
1.000002 0.417882 -0.004805
-0.003592 0.497555 -0.003502
0.024608 0.497555 -0.003505
0.074478 0.497555 -0.003518
0.136978 0.497555 -0.003546
0.206115 0.497555 -0.003588
0.280423 0.497555 -0.003647
0.359031 0.497555 -0.003723
0.441288 0.497555 -0.003817
0.526891 0.497555 -0.003926
0.615509 0.497554 -0.004052
0.706634 0.497554 -0.004192
0.800462 0.497554 -0.004346
0.895369 0.497553 -0.004511
0.962412 0.497553 -0.004688
0.993514 0.497552 -0.004873
1.000002 0.497552 -0.005068
-0.004041 0.580143 -0.003965
0.024604 0.580143 -0.003968
0.074475 0.580143 -0.003979
0.136976 0.580143 -0.004002
0.206113 0.580143 -0.004038
0.280422 0.580143 -0.004088
0.359029 0.580143 -0.004153
0.441287 0.580143 -0.004234
0.526890 0.580143 -0.004329
0.615508 0.580142 -0.004439
0.706634 0.580142 -0.004563
0.800461 0.580142 -0.004700
0.895369 0.580142 -0.004849
0.962412 0.580142 -0.005009
0.993514 0.580141 -0.005179
1.000002 0.580141 -0.005359
-0.004490 0.665370 -0.004425
0.024596 0.665370 -0.004427
0.074469 0.665370 -0.004437
0.136973 0.665370 -0.004456
0.206111 0.665370 -0.004487
0.280420 0.665370 -0.004531
0.359027 0.665369 -0.004587
0.441286 0.665369 -0.004657
0.526889 0.665369 -0.004741
0.615508 0.665369 -0.004838
0.706633 0.665369 -0.004948
0.800460 0.665369 -0.005071
0.895368 0.665368 -0.005205
0.962411 0.665368 -0.005351
0.993514 0.665368 -0.005506
1.000002 0.665367 -0.005672
-0.004940 0.753210 -0.004882
0.024592 0.753210 -0.004884
0.074466 0.753210 -0.004893
0.136970 0.753210 -0.004910
0.206108 0.753210 -0.004937
0.280419 0.753210 -0.004975
0.359050 0.753210 -0.005024
0.441285 0.753210 -0.005087
0.526888 0.753209 -0.005161
0.615507 0.753209 -0.005247
0.706632 0.753209 -0.005346
0.800459 0.753209 -0.005456
0.895367 0.753208 -0.005577
0.962411 0.753208 -0.005711
0.993514 0.753208 -0.005853
1.000002 0.753207 -0.006005
-0.005388 0.843308 -0.005338
0.024585 0.843308 -0.005339
0.074462 0.843308 -0.005347
0.136966 0.843308 -0.005362
0.206105 0.843308 -0.005386
0.280417 0.843308 -0.005420
0.359047 0.843308 -0.005464
0.441283 0.843308 -0.005519
0.526886 0.843308 -0.005585
0.615506 0.843308 -0.005662
0.706632 0.843308 -0.005752
0.800458 0.843307 -0.005851
0.895367 0.843307 -0.005962
0.962411 0.843307 -0.006083
0.993514 0.843307 -0.006214
1.000001 0.843306 -0.006354
-0.005838 0.928052 -0.005793
0.024572 0.928052 -0.005794
0.074458 0.928052 -0.005801
0.136962 0.928052 -0.005814
0.206102 0.928052 -0.005836
0.280415 0.928052 -0.005866
0.359044 0.928052 -0.005906
0.441282 0.928052 -0.005955
0.526884 0.928052 -0.006014
0.615505 0.928051 -0.006084
0.706631 0.928051 -0.006165
0.800457 0.928051 -0.006256
0.895366 0.928051 -0.006356
0.962410 0.928051 -0.006468
0.993513 0.928051 -0.006588
1.000001 0.928050 -0.006717
-0.006286 0.981538 -0.006246
0.024563 0.981538 -0.006247
0.074453 0.981538 -0.006253
0.136958 0.981538 -0.006265
0.206115 0.981538 -0.006284
0.280413 0.981538 -0.006311
0.359040 0.981538 -0.006347
0.441280 0.981538 -0.006392
0.526882 0.981538 -0.006446
0.615504 0.981538 -0.006510
0.706629 0.981537 -0.006583
0.800455 0.981537 -0.006666
0.895365 0.981537 -0.006758
0.962406 0.981537 -0.006860
0.993513 0.981537 -0.006971
1.000001 0.981537 -0.007091
-0.006735 1.000001 -0.006698
0.024553 1.000001 -0.006700
0.074449 1.000001 -0.006705
0.136956 1.000001 -0.006716
0.206111 1.000001 -0.006733
0.280411 1.000001 -0.006758
0.359037 1.000001 -0.006791
0.441278 1.000001 -0.006832
0.526880 1.000001 -0.006881
0.615503 1.000001 -0.006939
0.706628 1.000001 -0.007006
0.800453 1.000001 -0.007083
0.895363 1.000001 -0.007168
0.962406 1.000000 -0.007262
0.993513 1.000000 -0.007364
1.000000 1.000000 -0.007475
-0.000173 -0.000173 0.018635
0.024624 -0.000306 0.018635
0.074485 -0.000556 0.018635
0.136985 -0.000821 0.018634
0.206121 -0.001089 0.018634
0.280417 -0.001358 0.018634
0.359037 -0.001628 0.018633
0.441291 -0.001898 0.018632
0.526894 -0.002169 0.018632
0.615510 -0.002440 0.018631
0.706636 -0.002710 0.018632
0.800465 -0.002981 0.018630
0.895371 -0.003251 0.018628
0.962413 -0.003522 0.018626
0.993514 -0.003793 0.018625
1.000003 -0.004064 0.018623
-0.000467 0.030521 0.018635
0.024624 0.030521 0.018635
0.091751 0.019385 0.012291
0.153120 0.013113 0.008783
0.219019 0.011038 0.007631
0.290807 0.010348 0.007248
0.367573 0.010147 0.007137
0.448506 0.010157 0.007142
0.533132 0.010277 0.007209
0.620862 0.010481 0.007322
0.711463 0.010734 0.007463
0.804706 0.011045 0.007635
0.898758 0.011395 0.007829
0.964012 0.011786 0.008046
0.994026 0.012215 0.008283
1.000003 0.030499 0.018623
-0.000905 0.079213 0.018634
0.008927 0.081827 0.008562
0.075059 0.079746 0.008095
0.142926 0.077332 0.007612
0.213511 0.075463 0.007307
0.287752 0.074236 0.007163
0.365783 0.073473 0.007129
0.447416 0.072994 0.007161
0.532381 0.072681 0.007241
0.620351 0.072508 0.007357
0.711018 0.072420 0.007501
0.804496 0.072366 0.007672
0.898497 0.072365 0.007867
0.963955 0.072402 0.008084
0.993993 0.072451 0.008321
1.000003 0.079205 0.018622
-0.001351 0.136731 0.018634
0.007073 0.138544 0.007278
0.069846 0.137975 0.007237
0.137355 0.137074 0.007181
0.209007 0.136100 0.007140
0.284495 0.135220 0.007130
0.363487 0.134507 0.007156
0.445838 0.133961 0.007216
0.531254 0.133572 0.007310
0.619588 0.133295 0.007431
0.710513 0.133091 0.007579
0.804032 0.132955 0.007749
0.898257 0.132880 0.007943
0.963825 0.132819 0.008160
0.993955 0.132804 0.008396
1.000003 0.136722 0.018622
-0.001799 0.200365 0.018633
0.006864 0.201692 0.007130
0.068098 0.201479 0.007132
0.134901 0.201109 0.007140
0.206397 0.200611 0.007157
0.282116 0.200088 0.007191
0.361532 0.199598 0.007248
0.444288 0.199165 0.007327
0.530106 0.198794 0.007427
0.618671 0.198515 0.007554
0.709778 0.198299 0.007702
0.803413 0.198104 0.007875
0.897864 0.197980 0.008067
0.963671 0.197884 0.008280
0.993892 0.197827 0.008512
1.000003 0.200358 0.018621
-0.002247 0.268894 0.018632
0.007009 0.269925 0.007233
0.067411 0.269836 0.007243
0.133734 0.269652 0.007263
0.204979 0.269410 0.007296
0.280624 0.269079 0.007344
0.360114 0.268759 0.007410
0.443020 0.268480 0.007495
0.529006 0.268177 0.007603
0.617744 0.267923 0.007729
0.709055 0.267705 0.007879
0.802815 0.267550 0.008048
0.897365 0.267419 0.008238
0.963428 0.267293 0.008450
0.993824 0.267225 0.008680
1.000003 0.268898 0.018620
-0.002696 0.341617 0.018632
0.007316 0.342436 0.007449
0.067136 0.342401 0.007459
0.133148 0.342283 0.007482
0.204186 0.342132 0.007520
0.279706 0.341980 0.007572
0.359191 0.341717 0.007641
0.442110 0.341531 0.007727
0.528170 0.341325 0.007836
0.617039 0.341116 0.007962
0.708382 0.340934 0.008110
0.802173 0.340785 0.008276
0.896992 0.340659 0.008463
0.963272 0.340593 0.008671
0.993853 0.340451 0.008896
1.000003 0.341612 0.018620
-0.003144 0.417887 0.018629
0.007736 0.418622 0.007742
0.067060 0.418606 0.007753
0.132855 0.418579 0.007777
0.203730 0.418435 0.007814
0.279172 0.418310 0.007867
0.358612 0.418258 0.007935
0.441449 0.418069 0.008021
0.527525 0.417898 0.008127
0.616396 0.417776 0.008250
0.707764 0.417598 0.008396
0.801740 0.417501 0.008558
0.896556 0.417383 0.008741
0.963132 0.417274 0.008943
0.993765 0.417201 0.009163
1.000002 0.417882 0.018616
-0.003593 0.497555 0.018625
0.008256 0.498097 0.008101
0.067108 0.498167 0.008112
0.132735 0.498106 0.008135
0.203486 0.498054 0.008170
0.278839 0.497999 0.008220
0.358125 0.497850 0.008288
0.441018 0.497789 0.008373
0.527064 0.497703 0.008475
0.615930 0.497560 0.008596
0.707342 0.497445 0.008735
0.801306 0.497378 0.008895
0.896274 0.497225 0.009070
0.962948 0.497146 0.009267
0.993686 0.497123 0.009482
1.000002 0.497552 0.018613
-0.004042 0.580143 0.018623
0.008855 0.580629 0.008513
0.067236 0.580642 0.008524
0.132714 0.580628 0.008547
0.203382 0.580593 0.008582
0.278650 0.580546 0.008632
0.357930 0.580487 0.008696
0.440699 0.580381 0.008777
0.526767 0.580325 0.008877
0.615590 0.580247 0.008994
0.707004 0.580174 0.009128
0.800988 0.580101 0.009281
0.895938 0.579997 0.009453
0.962767 0.579936 0.009642
0.993620 0.579852 0.009850
1.000002 0.580141 0.018611
-0.004491 0.665370 0.018619
0.009544 0.665780 0.008981
0.067426 0.665770 0.008991
0.132764 0.665798 0.009011
0.203322 0.665768 0.009044
0.278478 0.665727 0.009092
0.357721 0.665623 0.009155
0.440517 0.665631 0.009233
0.526473 0.665611 0.009326
0.615323 0.665539 0.009441
0.706692 0.665390 0.009569
0.800704 0.665390 0.009718
0.895651 0.665316 0.009881
0.962622 0.665245 0.010066
0.993659 0.665171 0.010267
1.000002 0.665367 0.018606
-0.004940 0.753210 0.018615
0.010305 0.753683 0.009494
0.067672 0.753671 0.009504
0.132854 0.753649 0.009524
0.203359 0.753615 0.009556
0.278459 0.753567 0.009601
0.357610 0.753507 0.009661
0.440356 0.753430 0.009736
0.526308 0.753490 0.009827
0.615182 0.753399 0.009935
0.706543 0.753306 0.010060
0.800460 0.753209 0.010200
0.895582 0.753239 0.010359
0.962649 0.753154 0.010537
0.993631 0.753190 0.010729
1.000002 0.753207 0.018604
-0.005389 0.843308 0.018612
0.011137 0.843558 0.010052
0.067971 0.843551 0.010061
0.133001 0.843539 0.010080
0.203402 0.843519 0.010110
0.278466 0.843492 0.010153
0.357527 0.843610 0.010209
0.440297 0.843569 0.010283
0.526245 0.843522 0.010369
0.615052 0.843470 0.010471
0.706454 0.843469 0.010591
0.800440 0.843458 0.010727
0.895404 0.843398 0.010882
0.962505 0.843338 0.011048
0.993577 0.843281 0.011236
1.000001 0.843306 0.018599
-0.005838 0.928052 0.018605
0.012041 0.928273 0.010649
0.068321 0.928269 0.010658
0.133195 0.928261 0.010676
0.203509 0.928248 0.010705
0.278488 0.928301 0.010746
0.357535 0.928279 0.010801
0.440282 0.928253 0.010870
0.526132 0.928222 0.010954
0.614908 0.928187 0.011051
0.706286 0.928150 0.011167
0.800235 0.928111 0.011296
0.895284 0.928069 0.011443
0.962390 0.928056 0.011606
0.993561 0.928057 0.011785
1.000001 0.928050 0.018593
-0.006287 0.981538 0.018598
0.013005 0.981624 0.011284
0.068710 0.981622 0.011292
0.133419 0.981619 0.011308
0.203642 0.981614 0.011338
0.278625 0.981607 0.011377
0.357618 0.981597 0.011429
0.440289 0.981687 0.011496
0.526134 0.981673 0.011574
0.614886 0.981659 0.011668
0.706259 0.981642 0.011777
0.800233 0.981625 0.011901
0.895203 0.981607 0.012044
0.962371 0.981588 0.012199
0.993528 0.981570 0.012373
1.000001 0.981537 0.018586
-0.006736 1.000001 0.018593
0.024552 1.000001 0.018593
0.074449 1.000001 0.018593
0.136955 1.000001 0.018593
0.206111 1.000001 0.018593
0.280411 1.000001 0.018592
0.359037 1.000001 0.018593
0.441278 1.000001 0.018592
0.526880 1.000001 0.018591
0.615503 1.000001 0.018589
0.706628 1.000001 0.018588
0.800453 1.000001 0.018586
0.895363 1.000001 0.018586
0.962406 1.000000 0.018586
0.993513 1.000000 0.018583
1.000000 1.000000 0.018580
-0.000345 -0.000345 0.048005
0.024624 -0.000415 0.048005
0.074485 -0.000612 0.048005
0.136985 -0.000854 0.048004
0.206121 -0.001112 0.048004
0.280417 -0.001375 0.048004
0.359037 -0.001641 0.048004
0.441291 -0.001909 0.048003
0.526894 -0.002178 0.048003
0.615510 -0.002447 0.048002
0.706636 -0.002716 0.048001
0.800465 -0.002987 0.048000
0.895371 -0.003256 0.047999
0.962413 -0.003527 0.047998
0.993514 -0.003797 0.047997
1.000003 -0.004068 0.047996
-0.000536 0.030521 0.048005
0.020658 0.026228 0.062654
0.088047 0.017445 0.055995
0.151358 0.012710 0.049649
0.218240 0.010946 0.046700
0.290416 0.010324 0.045301
0.367336 0.010144 0.044585
0.448384 0.010160 0.044188
0.533035 0.010284 0.043953
0.620809 0.010488 0.043822
0.711398 0.010743 0.043744
0.804653 0.011052 0.043710
0.898731 0.011404 0.043708
0.964000 0.011795 0.043720
0.994023 0.012221 0.043758
1.000003 0.030499 0.047996
-0.000935 0.079213 0.048004
0.008656 0.081011 0.049147
0.074485 0.079213 0.048004
0.165146 0.066620 0.040146
0.248569 0.050429 0.030332
0.323292 0.040127 0.024226
0.398362 0.034116 0.020716
0.476449 0.030681 0.018730
0.558225 0.028711 0.017595
0.643371 0.027570 0.016940
0.731730 0.026919 0.016566
0.823149 0.026561 0.016362
0.912894 0.026395 0.016267
0.970769 0.026361 0.016248
0.995970 0.026421 0.016282
1.000003 0.079205 0.047996
-0.001368 0.136731 0.048004
0.007052 0.138337 0.045442
0.039574 0.143598 0.027669
0.138597 0.138217 0.025193
0.222999 0.132225 0.022604
0.304077 0.126887 0.020452
0.384894 0.122638 0.018886
0.467198 0.119534 0.017830
0.551774 0.117249 0.017143
0.638812 0.115607 0.016712
0.728344 0.114422 0.016453
0.820697 0.113560 0.016313
0.911444 0.112919 0.016253
0.970231 0.112433 0.016253
0.995873 0.112087 0.016301
1.000003 0.136722 0.047995
-0.001810 0.200365 0.048003
0.006865 0.201614 0.044334
0.027035 0.206783 0.020116
0.123674 0.204546 0.019548
0.207529 0.201663 0.018849
0.290170 0.198593 0.018151
0.373521 0.195708 0.017545
0.458220 0.193215 0.017069
0.544820 0.191128 0.016720
0.633552 0.189451 0.016485
0.724363 0.188117 0.016340
0.817424 0.187057 0.016265
0.909367 0.186205 0.016247
0.969437 0.185562 0.016272
0.995716 0.185034 0.016335
1.000003 0.200358 0.047995
-0.002256 0.268894 0.048002
0.007014 0.269889 0.043917
0.022923 0.274260 0.017584
0.116865 0.273164 0.017429
0.199262 0.271707 0.017219
0.281582 0.269957 0.016992
0.365384 0.268122 0.016767
0.451068 0.266342 0.016576
0.538751 0.264697 0.016425
0.628514 0.263263 0.016323
0.720232 0.262027 0.016265
0.814124 0.260969 0.016246
0.907126 0.260089 0.016265
0.968425 0.259384 0.016316
0.995447 0.258788 0.016394
1.000003 0.268898 0.047994
-0.002702 0.341617 0.048001
0.007320 0.342404 0.043746
0.021417 0.346071 0.016646
0.113487 0.345460 0.016601
0.194685 0.344694 0.016535
0.276344 0.343635 0.016461
0.359956 0.342449 0.016388
0.445818 0.341283 0.016324
0.533871 0.340077 0.016277
0.624210 0.338942 0.016250
0.716460 0.337907 0.016248
0.810880 0.336976 0.016272
0.904828 0.336146 0.016321
0.967412 0.335439 0.016391
0.995117 0.334819 0.016482
1.000003 0.341612 0.047996
-0.003149 0.417887 0.048000
0.007742 0.418603 0.043707
0.020879 0.421718 0.016310
0.111653 0.421397 0.016299
0.192024 0.420901 0.016285
0.273078 0.420291 0.016268
0.356361 0.419522 0.016253
0.442124 0.418662 0.016247
0.530258 0.417788 0.016250
0.620755 0.416934 0.016267
0.713348 0.416143 0.016300
0.808039 0.415336 0.016350
0.902606 0.414651 0.016418
0.966413 0.413994 0.016505
0.994939 0.413447 0.016609
1.000002 0.417882 0.047995
-0.003598 0.497555 0.047998
0.008261 0.498087 0.043731
0.020781 0.500813 0.016249
0.110614 0.500671 0.016250
0.190389 0.500316 0.016254
0.270962 0.499943 0.016262
0.353914 0.499407 0.016274
0.439518 0.498813 0.016294
0.527594 0.498185 0.016323
0.618116 0.497556 0.016363
0.710759 0.496927 0.016415
0.805686 0.496324 0.016481
0.900687 0.495716 0.016566
0.965556 0.495153 0.016662
0.994662 0.494642 0.016774
1.000002 0.497552 0.047993
-0.004046 0.580143 0.047996
0.008861 0.580625 0.043804
0.020925 0.583010 0.016339
0.110003 0.582884 0.016346
0.189337 0.582687 0.016358
0.269579 0.582391 0.016375
0.352304 0.582044 0.016400
0.437615 0.581657 0.016433
0.525600 0.581193 0.016474
0.616086 0.580685 0.016528
0.708747 0.580221 0.016593
0.803853 0.579741 0.016670
0.899064 0.579207 0.016759
0.964761 0.578767 0.016863
0.994428 0.578309 0.016984
1.000002 0.580141 0.047997
-0.004494 0.665370 0.047993
0.009549 0.665776 0.043911
0.021227 0.667982 0.016527
0.109660 0.667825 0.016537
0.188679 0.667728 0.016553
0.268653 0.667567 0.016574
0.351151 0.667289 0.016605
0.436300 0.666952 0.016645
0.524222 0.666638 0.016693
0.614522 0.666304 0.016752
0.707187 0.665893 0.016823
0.802091 0.665419 0.016906
0.897766 0.665049 0.017002
0.964096 0.664683 0.017111
0.994151 0.664299 0.017232
1.000002 0.665367 0.047995
-0.004943 0.753210 0.047994
0.010310 0.753679 0.044055
0.021641 0.755572 0.016788
0.109527 0.755517 0.016797
0.188267 0.755306 0.016815
0.268011 0.755162 0.016841
0.350305 0.754932 0.016874
0.435329 0.754750 0.016917
0.523040 0.754580 0.016970
0.613342 0.754349 0.017032
0.705943 0.754084 0.017105
0.800879 0.753683 0.017193
0.896627 0.753327 0.017291
0.963422 0.753070 0.017402
0.994000 0.752719 0.017524
1.000002 0.753207 0.047992
-0.005391 0.843308 0.047997
0.011145 0.843556 0.044231
0.022154 0.845337 0.017106
0.109500 0.845318 0.017119
0.187989 0.845198 0.017136
0.267563 0.845081 0.017163
0.349704 0.844984 0.017199
0.434617 0.844771 0.017243
0.522272 0.844523 0.017297
0.612446 0.844448 0.017363
0.704962 0.844204 0.017436
0.799936 0.843912 0.017523
0.895647 0.843606 0.017624
0.963023 0.843468 0.017735
0.993882 0.843166 0.017859
1.000001 0.843306 0.047988
-0.005841 0.928052 0.047994
0.012045 0.928271 0.044428
0.022754 0.929384 0.017479
0.109562 0.929441 0.017489
0.187854 0.929363 0.017510
0.267284 0.929345 0.017537
0.349261 0.929206 0.017571
0.434084 0.929106 0.017617
0.521633 0.929079 0.017671
0.611752 0.928926 0.017737
0.704215 0.928777 0.017812
0.799140 0.928584 0.017900
0.894928 0.928500 0.018001
0.962632 0.928300 0.018112
0.993654 0.928159 0.018236
1.000001 0.928050 0.047985
-0.006288 0.981538 0.047989
0.013008 0.981624 0.044649
0.023429 0.982258 0.017897
0.109710 0.982237 0.017908
0.187828 0.982203 0.017929
0.267118 0.982156 0.017955
0.348986 0.982153 0.017991
0.433700 0.982077 0.018036
0.521157 0.982036 0.018090
0.611239 0.982003 0.018154
0.703634 0.981892 0.018230
0.798398 0.981829 0.018319
0.894378 0.981824 0.018417
0.962217 0.981776 0.018527
0.993603 0.981633 0.018652
1.000001 0.981537 0.047982
-0.006737 1.000001 0.047985
0.024552 1.000001 0.047985
0.074449 1.000001 0.047985
0.136955 1.000001 0.047985
0.206111 1.000001 0.047985
0.280411 1.000001 0.047985
0.359037 1.000001 0.047984
0.441278 1.000001 0.047987
0.526880 1.000001 0.047987
0.615503 1.000001 0.047984
0.706628 1.000001 0.047983
0.800453 1.000001 0.047982
0.895363 1.000001 0.047981
0.962406 1.000000 0.047980
0.993513 1.000000 0.047979
1.000000 1.000000 0.047978
-0.000518 -0.000518 0.086100
0.024624 -0.000561 0.086100
0.074485 -0.000708 0.086100
0.136985 -0.000918 0.086100
0.206121 -0.001157 0.086100
0.280417 -0.001409 0.086099
0.359036 -0.001668 0.086099
0.441291 -0.001931 0.086099
0.526894 -0.002196 0.086098
0.615510 -0.002462 0.086098
0.706636 -0.002730 0.086097
0.800465 -0.002998 0.086097
0.895371 -0.003267 0.086096
0.962413 -0.003536 0.086095
0.993514 -0.003805 0.086095
1.000003 -0.004075 0.086094
-0.000648 0.030521 0.086100
0.014383 0.019191 0.110769
0.082787 0.014992 0.101357
0.148492 0.012087 0.093453
0.216842 0.010785 0.089046
0.289667 0.010284 0.086720
0.366938 0.010140 0.085417
0.448126 0.010167 0.084665
0.532880 0.010294 0.084181
0.620734 0.010500 0.083872
0.711251 0.010756 0.083683
0.804686 0.011065 0.083560
0.898677 0.011418 0.083470
0.963975 0.011809 0.083427
0.994016 0.012236 0.083398
1.000003 0.030498 0.086094
-0.000991 0.079213 0.086100
0.008233 0.079696 0.092739
0.070054 0.075127 0.107273
0.162488 0.062082 0.102494
0.244791 0.048273 0.092833
0.320624 0.039173 0.084717
0.396564 0.033686 0.079371
0.475300 0.030482 0.075945
0.557385 0.028614 0.073747
0.642803 0.027524 0.072262
0.731364 0.026893 0.071266
0.822747 0.026550 0.070555
0.912738 0.026390 0.070064
0.970714 0.026362 0.069696
0.995938 0.026423 0.069432
1.000003 0.079205 0.086093
-0.001402 0.136731 0.086099
0.007012 0.137974 0.086955
0.037987 0.141579 0.089447
0.136984 0.136731 0.086099
0.239290 0.124189 0.077522
0.340198 0.105171 0.064786
0.430276 0.087868 0.053518
0.514164 0.075088 0.045405
0.597065 0.066000 0.039760
0.681321 0.059679 0.035899
0.767815 0.055321 0.033263
0.856975 0.052310 0.031455
0.936109 0.050229 0.030212
0.981488 0.048787 0.029348
0.998605 0.047771 0.028746
1.000003 0.136722 0.086093
-0.001833 0.200365 0.086099
0.006867 0.201470 0.084953
0.026693 0.205969 0.078366
0.091993 0.210617 0.058352
0.208680 0.202716 0.053234
0.307573 0.193817 0.047928
0.399919 0.185224 0.043112
0.489166 0.177714 0.039113
0.577494 0.171523 0.035979
0.666244 0.166585 0.033615
0.756160 0.162751 0.031867
0.848028 0.159749 0.030591
0.931399 0.157408 0.029671
0.979672 0.155595 0.029003
0.998214 0.154182 0.028536
1.000003 0.200358 0.086093
-0.002273 0.268894 0.086098
0.007023 0.269833 0.084106
0.022835 0.273880 0.073716
0.064378 0.280677 0.042159
0.184236 0.276423 0.040424
0.283120 0.271373 0.038438
0.376871 0.266046 0.036425
0.468726 0.260932 0.034562
0.560107 0.256240 0.032953
0.651883 0.252137 0.031621
0.744452 0.248631 0.030567
0.838524 0.245726 0.029742
0.925892 0.243321 0.029112
0.977579 0.241290 0.028645
0.997831 0.239641 0.028307
1.000003 0.268898 0.086092
-0.002715 0.341617 0.086097
0.007331 0.342398 0.083699
0.021389 0.345862 0.071493
0.051682 0.352406 0.034801
0.170689 0.350068 0.034148
0.268020 0.347115 0.033356
0.361417 0.343821 0.032495
0.453847 0.340346 0.031635
0.546490 0.336960 0.030833
0.639746 0.333736 0.030119
