src/luts/blur/2.cube
TITLE "Generated by Resolve"
LUT_3D_SIZE 9
0.025391 0.025391 0.025391
0.107927 0.0439307 0.0343175
0.230106 0.0586404 0.0365454
0.346075 0.0519417 0.04094
0.454139 0.0581216 0.0633249
0.574685 0.0779583 0.107485
0.710521 0.106752 0.167758
0.826886 0.202426 0.252171
0.847654 0.26508 0.304448
0.000137331 0.0789502 0.0629892
0.100313 0.0823987 0.0419165
0.222416 0.0937972 0.0205844
0.35404 0.107103 0.000381476
0.470176 0.114717 0.00634775
0.582925 0.11487 0.0341497
0.710689 0.106218 0.0893721
0.819074 0.181933 0.177203
0.842527 0.250248 0.247379
1.5259e-05 0.16318 0.110353
0.0719921 0.177646 0.0759594
0.220462 0.182788 0.035874
0.340978 0.192538 0.00349432
0.463981 0.211109 0
0.585336 0.211109 0.0074464
0.706554 0.2038 0.0499886
0.827359 0.209888 0.112245
0.84329 0.2542 0.175204
1.5259e-05 0.270146 0.180774
0.0425727 0.290105 0.1458
0.220233 0.302449 0.101198
0.356939 0.308721 0.0767224
0.476127 0.317174 0.00517281
0.591562 0.326238 0.00141909
0.711894 0.325048 0.033341
0.833707 0.313527 0.0943618
0.869062 0.324285 0.146563
0.000915541 0.385229 0.266407
0.0719005 0.40148 0.230015
0.238392 0.418158 0.200366
0.358572 0.42742 0.166934
0.481376 0.432609 0.161975
0.600076 0.432654 0.0766766
0.716182 0.43679 0.0659495
0.838544 0.43505 0.100374
0.906676 0.420066 0.142351
0.0237278 0.500481 0.361303
0.130526 0.512871 0.328389
0.276555 0.526421 0.297932
0.377874 0.538231 0.274403
0.483604 0.546349 0.251377
0.597498 0.550118 0.248936
0.718181 0.550256 0.186999
0.838148 0.547112 0.167437
0.94374 0.529076 0.171023
0.0959182 0.615671 0.460914
0.197055 0.624033 0.430488
0.31519 0.633539 0.402533
0.425834 0.645655 0.372381
0.49688 0.65539 0.353567
0.599634 0.66183 0.336034
0.710994 0.664668 0.328725
0.835935 0.6636 0.272938
0.951293 0.651316 0.241947
0.169894 0.725521 0.558312
0.253788 0.731548 0.529625
0.352316 0.739223 0.502785
0.475135 0.751888 0.468116
0.532998 0.759548 0.448341
0.606104 0.769497 0.431037
0.711254 0.776501 0.414542
0.828122 0.779797 0.394934
0.95494 0.774212 0.322942
0.212314 0.815015 0.682536
0.287831 0.818143 0.651499
0.360845 0.823285 0.622492
0.476875 0.835691 0.589883
0.560739 0.846082 0.559884
0.614664 0.854398 0.544579
0.693797 0.864683 0.51632
0.810437 0.877348 0.486915
0.943709 0.885481 0.439338
0.00770581 0.0372625 0.0681468
0.102617 0.047715 0.0665293
0.230747 0.0624552 0.0715953
0.348211 0.067216 0.0908827
0.460197 0.0954147 0.131304
0.579263 0.134997 0.182742
0.706249 0.169604 0.239994
0.840452 0.242557 0.319265
0.857084 0.293294 0.35964
0.00180056 0.0948043 0.111604
0.0877241 0.105119 0.102861
0.232746 0.112001 0.0835126
0.357244 0.119692 0.0887007
0.467247 0.136706 0.114794
0.581567 0.158618 0.154086
0.705898 0.176059 0.200366
0.837781 0.235035 0.275303
0.854871 0.286702 0.322042
0.00015259 0.188663 0.18854
0.0172122 0.196551 0.153338
0.214939 0.205783 0.129213
0.355016 0.206699 0.0878614
0.47248 0.213107 0.0874342
0.587442 0.216709 0.0989853
0.707805 0.21413 0.130022
0.835477 0.230655 0.185962
0.850858 0.274876 0.245502
0.00177005 0.30309 0.286213
0.0123598 0.303548 0.227787
0.194583 0.317952 0.189822
0.349371 0.324773 0.166476
0.478721 0.324407 0.114397
0.59353 0.328298 0.10454
0.711925 0.331334 0.124941
0.832441 0.315877 0.159457
0.870527 0.328313 0.195697
0.00764477 0.4112 0.367559
0.031342 0.412329 0.312932
0.210132 0.426673 0.267063
0.345083 0.438254 0.239933
0.475319 0.442908 0.224674
0.598459 0.443107 0.170809
0.716075 0.444266 0.157351
0.837949 0.441855 0.174899
0.906416 0.421057 0.193088
0.0332799 0.519005 0.449424
0.0845197 0.52166 0.402762
0.2383 0.532906 0.359731
0.368627 0.543816 0.328466
0.473945 0.553841 0.304036
0.592721 0.557321 0.294865
0.715801 0.558007 0.24097
0.83801 0.554162 0.223011
0.943084 0.530098 0.217014
0.0836042 0.628061 0.532753
0.154437 0.631678 0.494209
0.275166 0.639673 0.45597
0.415946 0.650355 0.415427
0.492897 0.660044 0.396704
0.593011 0.667811 0.375647
0.707607 0.670451 0.365286
0.834363 0.669337 0.30631
0.950957 0.656428 0.277684
0.136263 0.733593 0.617868
0.212009 0.73843 0.585962
0.311452 0.744488 0.550591
0.457328 0.756176 0.506783
0.528969 0.763806 0.481804
0.603281 0.77435 0.464942
0.706569 0.782132 0.446082
0.825833 0.785306 0.424598
0.954314 0.778958 0.347387
0.105287 0.822049 0.73875
0.247761 0.824552 0.705455
0.326528 0.82739 0.668986
0.449241 0.837812 0.625254
0.551553 0.849439 0.588449
0.609888 0.857832 0.570993
0.688991 0.86891 0.545815
0.80502 0.88127 0.510933
0.941909 0.889937 0.464912
0.000549325 0.0470436 0.13959
0.10576 0.055848 0.128618
0.216342 0.0733349 0.134813
0.343191 0.0846571 0.151141
0.461387 0.110399 0.183581
0.581537 0.147616 0.227573
0.707118 0.181994 0.277729
0.84387 0.252506 0.351324
0.861784 0.307225 0.394659
4.57771e-05 0.1149 0.189746
0.0472877 0.124529 0.187579
0.209888 0.143343 0.172976
0.343114 0.165621 0.192416
0.462165 0.189212 0.219959
0.577554 0.21651 0.256809
0.697581 0.243915 0.299474
0.82443 0.262821 0.344976
0.866361 0.320729 0.388525
0.000122072 0.208743 0.256306
0.0212406 0.219806 0.247364
0.196353 0.232029 0.224903
0.352392 0.233722 0.189471
0.475685 0.239597 0.19176
0.591485 0.246921 0.210895
0.712215 0.249393 0.235523
0.838071 0.274678 0.291264
0.865034 0.316243 0.334768
0.00430304 0.320836 0.344305
0.0571298 0.328801 0.332433
0.143679 0.335576 0.27454
0.333898 0.345953 0.265812
0.4757 0.343282 0.205325
0.594629 0.346944 0.200488
0.714076 0.348104 0.210483
0.833829 0.329534 0.23212
0.873732 0.338094 0.260456
0.0453346 0.434089 0.441215
0.0830243 0.436011 0.410163
0.145403 0.439551 0.351858
0.334188 0.450904 0.321736
0.465293 0.45745 0.306798
0.594339 0.455985 0.24329
0.714839 0.456611 0.229694
0.837949 0.453101 0.236728
0.905837 0.421744 0.243168
0.097322 0.541512 0.522103
0.121752 0.541314 0.49015
0.172213 0.543084 0.439246
0.353109 0.552361 0.390951
0.464637 0.563546 0.374762
0.585031 0.567361 0.360678
0.711513 0.566751 0.294865
0.836332 0.562387 0.273716
0.942229 0.530953 0.258259
0.145083 0.648737 0.604425
0.164385 0.647623 0.573297
0.217639 0.648463 0.528298
0.394919 0.658274 0.470115
0.487541 0.66659 0.449805
0.584726 0.67628 0.432197
0.701778 0.678462 0.417502
0.831342 0.676356 0.346624
0.949706 0.662226 0.313237
0.182773 0.753658 0.692287
0.198291 0.751659 0.660258
0.250584 0.75256 0.618921
0.416632 0.761685 0.558877
0.520516 0.76965 0.523812
0.599924 0.780713 0.509499
0.699504 0.7897 0.490974
0.821591 0.792721 0.46714
0.952636 0.785443 0.381643
0.118959 0.836728 0.806592
0.147753 0.834089 0.775219
0.262913 0.834714 0.736736
0.399298 0.840269 0.675624
0.536004 0.853574 0.6262
0.602106 0.862211 0.606058
0.68217 0.874281 0.585
0.796536 0.886534 0.546685
0.938247 0.895994 0.501793
0 0.0657359 0.225025
0.102861 0.061738 0.205554
0.224552 0.0915084 0.218524
0.337911 0.112581 0.226429
0.456718 0.136263 0.250187
0.579431 0.167971 0.284932
0.705348 0.20029 0.326574
0.84126 0.263752 0.391363
0.864637 0.315557 0.429572
0.000183108 0.140658 0.274937
0.0236973 0.146227 0.269383
0.21532 0.160845 0.261555
0.337743 0.18587 0.259281
0.46038 0.209689 0.282811
0.579217 0.233921 0.312596
0.69894 0.257496 0.347265
0.820951 0.280324 0.390661
0.872557 0.33901 0.436316
0 0.231418 0.348135
0.00654612 0.243183 0.339971
0.140856 0.256672 0.330999
0.318227 0.276326 0.308705
0.441901 0.305776 0.334157
0.569833 0.324224 0.354818
0.693126 0.33611 0.376074
0.817044 0.33727 0.400763
0.881865 0.365759 0.431937
0.00366217 0.340047 0.411856
0.0387121 0.347387 0.399252
0.161349 0.35584 0.384894
0.323903 0.369574 0.358785
0.468147 0.372213 0.319554
0.594583 0.375998 0.316182
0.715877 0.375647 0.322148
0.836042 0.360067 0.334356
0.883131 0.366827 0.360616
0.038941 0.44918 0.491798
0.110735 0.453513 0.478965
0.200748 0.457786 0.449912
0.300389 0.467185 0.400259
0.448234 0.477714 0.406806
0.587015 0.47538 0.34052
0.712505 0.475883 0.326131
0.837873 0.46865 0.324361
0.905776 0.425788 0.316777
0.131411 0.557961 0.580789
0.18854 0.559426 0.564065
0.234668 0.56112 0.526497
0.309728 0.566354 0.465843
0.45623 0.575769 0.45098
0.572473 0.581521 0.445838
0.704463 0.58024 0.373587
0.833127 0.575906 0.348348
0.943297 0.542977 0.325017
0.20531 0.665766 0.669779
0.22948 0.665156 0.643854
0.262867 0.665553 0.609903
0.334722 0.669322 0.548119
0.474266 0.675975 0.509377
0.576501 0.686671 0.502525
0.692393 0.689647 0.488731
0.825986 0.687373 0.409674
0.947417 0.672267 0.368826
0.229252 0.771084 0.758114
0.247166 0.769741 0.732097
0.27277 0.768902 0.69926
0.340703 0.770413 0.638712
0.499962 0.777981 0.575708
0.593774 0.788663 0.563073
0.690471 0.799634 0.550927
0.81413 0.80264 0.527031
0.948882 0.79527 0.433753
0.178866 0.851713 0.869688
0.217166 0.850156 0.844053
0.25832 0.848447 0.812772
0.331762 0.846937 0.756146
0.498604 0.856809 0.67538
0.58706 0.867308 0.650431
0.673747 0.8813 0.635828
0.783261 0.894499 0.603861
0.931395 0.904524 0.554314
0 0.0991684 0.314473
0.0675212 0.0690471 0.281453
0.240497 0.118013 0.305394
0.347616 0.142123 0.311269
0.455238 0.169482 0.322789
0.573266 0.198306 0.349401
0.699351 0.226078 0.381704
0.827039 0.258625 0.427649
0.867918 0.324819 0.471122
0.000122072 0.174502 0.361929
0.0142367 0.175891 0.3523
0.213275 0.177523 0.348684
0.343084 0.209918 0.341054
0.45536 0.234958 0.349279
0.573953 0.259998 0.37435
0.695811 0.278981 0.401724
0.817014 0.293782 0.435767
0.875685 0.348379 0.478523
0.000640879 0.264637 0.423697
0.0146944 0.270237 0.416449
0.129961 0.278538 0.40795
0.327733 0.293446 0.38822
0.446586 0.318822 0.387869
0.565698 0.346456 0.41416
0.687404 0.36379 0.438972
0.810132 0.369879 0.464179
0.890074 0.390951 0.496544
0.000488289 0.361929 0.500145
0.00961318 0.36907 0.487709
0.0960861 0.379385 0.468574
0.297627 0.39234 0.449256
0.438422 0.407004 0.427543
0.563699 0.425864 0.443336
0.689815 0.435859 0.456031
0.816831 0.432868 0.468803
0.901747 0.424216 0.482704
0.0337377 0.467323 0.558648
0.0834516 0.471336 0.54493
0.178698 0.476188 0.525383
0.320653 0.484413 0.497993
0.442435 0.497047 0.483253
0.576059 0.499825 0.443
0.707515 0.50132 0.432959
0.837568 0.489586 0.426657
0.91046 0.445853 0.411154
0.117891 0.57319 0.636912
0.173312 0.574517 0.621958
0.256199 0.576028 0.601678
0.339147 0.58056 0.559853
0.429938 0.592111 0.518761
0.556786 0.60061 0.533822
0.694804 0.598062 0.46508
0.829587 0.59379 0.438895
0.943053 0.566934 0.410605
0.199344 0.679713 0.727123
0.252903 0.679423 0.710491
0.307027 0.679576 0.682414
0.369924 0.682246 0.630228
0.436362 0.68954 0.575906
0.567742 0.699016 0.569116
0.67834 0.704723 0.569802
0.818433 0.701885 0.487861
0.944442 0.686824 0.443946
0.254704 0.785336 0.826963
0.283116 0.784451 0.800473
0.312901 0.783734 0.768658
0.372259 0.785031 0.717098
0.457252 0.789517 0.643839
0.576806 0.798642 0.618677
0.681758 0.81117 0.616693
0.802747 0.815854 0.599832
0.943557 0.808347 0.500664
0.206989 0.863111 0.92047
0.249409 0.863066 0.901732
0.289723 0.862623 0.877852
0.349218 0.861677 0.829435
0.416297 0.859083 0.751812
0.553506 0.87129 0.701442
0.658961 0.888228 0.68986
0.766796 0.904143 0.672816
0.919707 0.915511 0.620554
0 0.147738 0.407721
0.0133364 0.116365 0.376486
0.243854 0.145968 0.388952
0.366323 0.173251 0.396429
0.464988 0.202838 0.401846
0.572183 0.23444 0.417807
0.692149 0.259556 0.442405
0.815183 0.273548 0.472007
0.871809 0.336522 0.518975
0.000701915 0.216785 0.450156
0.0175326 0.213901 0.436484
0.184726 0.195895 0.425254
0.357748 0.231601 0.429114
0.463905 0.255894 0.423514
0.569055 0.288258 0.437568
0.687663 0.308385 0.460578
0.809979 0.31397 0.485039
0.879255 0.359457 0.526787
0.00352483 0.300221 0.505486
0.0193637 0.301656 0.49633
0.113375 0.303838 0.484047
0.329351 0.304875 0.481224
0.456809 0.334234 0.454536
0.562921 0.363088 0.468879
0.68127 0.38439 0.492714
0.80592 0.388067 0.51426
0.89308 0.401053 0.544549
0.000610361 0.39263 0.580423
0.0152743 0.396475 0.568368
0.0934462 0.402243 0.552041
0.265919 0.411551 0.539681
0.441703 0.423133 0.505013
0.54612 0.449226 0.510109
0.659251 0.476509 0.536202
0.788922 0.486702 0.558007
0.904189 0.481285 0.581048
0.0111543 0.489586 0.650126
0.0418097 0.492409 0.635508
0.112612 0.497688 0.616724
0.247486 0.504845 0.587304
0.426825 0.51722 0.564157
0.553841 0.528496 0.538399
0.682994 0.539178 0.544823
0.817273 0.535592 0.546777
0.925093 0.508202 0.547814
0.0943008 0.59115 0.711803
0.142275 0.592248 0.695521
0.212787 0.594095 0.673503
0.322606 0.596597 0.646052
0.443458 0.606912 0.609155
0.551598 0.618402 0.6009
0.682612 0.619928 0.555535
0.823529 0.616892 0.536446
0.941314 0.590234 0.510521
0.177127 0.694987 0.794568
0.219532 0.69482 0.776211
0.281941 0.694652 0.752529
0.375586 0.694621 0.719097
0.456947 0.702647 0.668879
0.540398 0.715846 0.631983
0.663905 0.723613 0.65182
0.808759 0.719554 0.573037
0.941009 0.703914 0.529641
0.218784 0.797742 0.887221
0.256413 0.796994 0.868467
0.313756 0.796323 0.844022
0.391516 0.796902 0.79144
0.459281 0.800656 0.735744
0.535424 0.810651 0.682246
0.667979 0.823896 0.678904
0.784909 0.832898 0.683177
0.93698 0.824598 0.577142
0.0287175 0.86479 0.954269
0.173205 0.868589 0.948882
0.297581 0.872297 0.931411
0.365545 0.873991 0.893141
0.442039 0.874144 0.825315
0.482918 0.870161 0.751476
0.625406 0.892882 0.743313
0.747387 0.913725 0.741238
0.899886 0.929686 0.709575
6.10361e-05 0.202716 0.508415
0.0110323 0.182528 0.476951
0.230915 0.175677 0.469825
0.379889 0.210742 0.484077
0.482597 0.238788 0.490562
0.580453 0.269764 0.493812
0.689479 0.295979 0.509056
0.808408 0.304036 0.527611
0.876493 0.350805 0.568612
0.00115969 0.263691 0.544137
0.0193942 0.257404 0.526024
0.130358 0.230594 0.502632
0.360967 0.258534 0.515038
0.475471 0.288533 0.512291
0.575097 0.313466 0.508797
0.682292 0.339315 0.523339
0.802594 0.344625 0.542
0.883467 0.37258 0.576867
0.00418097 0.337697 0.593194
0.0269932 0.336996 0.582147
0.103517 0.334188 0.565881
0.311009 0.321889 0.565316
0.46006 0.353155 0.546578
0.571969 0.373236 0.533822
0.675776 0.404471 0.548943
0.798047 0.412863 0.56936
0.896468 0.412421 0.594858
0.00965896 0.42417 0.660639
0.0312352 0.42565 0.648951
0.103166 0.428046 0.632975
0.258564 0.431556 0.615167
0.433234 0.432532 0.613474
0.561975 0.459754 0.568139
0.663188 0.486702 0.584649
0.784695 0.502052 0.608408
0.900694 0.49131 0.628092
0.00508125 0.515587 0.755184
0.0275883 0.51754 0.738643
0.0914168 0.521096 0.715267
0.217838 0.524987 0.681788
0.385031 0.53547 0.670787
0.54165 0.54612 0.63418
0.64213 0.569741 0.629709
0.750378 0.597589 0.655619
0.884733 0.595132 0.674052
0.0609293 0.612009 0.812711
0.0935073 0.613001 0.796139
0.146761 0.614893 0.773358
0.25275 0.61854 0.73962
0.387945 0.62533 0.712657
0.536171 0.63827 0.682765
0.668559 0.644923 0.645762
0.810925 0.646387 0.64004
0.934234 0.6206 0.627131
0.141619 0.711009 0.876539
0.181231 0.711498 0.859419
0.230701 0.712016 0.836225
0.328725 0.712902 0.797787
0.440635 0.716854 0.772061
0.552132 0.729946 0.722698
0.65745 0.74136 0.718624
0.796429 0.740764 0.660731
0.937301 0.723888 0.622934
0.0982223 0.812192 0.94052
0.181872 0.811078 0.932708
0.264042 0.809567 0.913878
0.347356 0.810117 0.876402
0.449592 0.813367 0.831662
0.544182 0.823957 0.78027
0.630915 0.839139 0.74255
0.766781 0.851713 0.766247
0.928908 0.843549 0.660655
0.0361486 0.86569 0.954406
0.0556497 0.86807 0.954787
0.0932631 0.871244 0.955566
0.330358 0.879088 0.950759
0.426291 0.885008 0.907118
0.493965 0.887739 0.851514
0.56347 0.890883 0.791806
0.712154 0.919951 0.799023
0.867399 0.94403 0.803632
0 0.260426 0.619272
0.0125734 0.238895 0.580148
0.177066 0.2065 0.552819
0.383978 0.248722 0.577478
0.500145 0.274296 0.579858
0.593393 0.308751 0.585901
0.695079 0.330282 0.585153
0.806897 0.341985 0.595819
0.881971 0.367285 0.620371
0.00328069 0.313878 0.64799
0.024445 0.30428 0.624582
0.101213 0.280934 0.593881
0.353933 0.286717 0.603555
0.487251 0.315526 0.602472
0.582956 0.349798 0.600534
0.685954 0.366613 0.595743
0.798138 0.378271 0.607706
0.888151 0.386831 0.628107
0.012665 0.377676 0.693202
0.035172 0.374701 0.678584
0.106188 0.369146 0.656977
0.287602 0.352041 0.644846
0.462531 0.371817 0.63624
0.569818 0.403861 0.623636
0.680079 0.419577 0.615732
0.791577 0.437079 0.630076
0.900252 0.43125 0.648966
0.00747692 0.455848 0.754665
0.037171 0.455283 0.741787
0.106783 0.454719 0.723323
0.243671 0.453285 0.696559
0.419608 0.44329 0.70605
0.55288 0.477119 0.667277
0.676707 0.490898 0.646952
0.782208 0.515969 0.662867
0.894942 0.504509 0.679088
0.0235904 0.539742 0.835538
0.0439918 0.54081 0.821149
0.093904 0.542718 0.800534
0.206638 0.544671 0.768872
0.377188 0.550927 0.74934
0.53135 0.55761 0.741833
0.661418 0.579965 0.684398
0.764126 0.602792 0.702876
0.884642 0.607553 0.725658
0.00543221 0.643244 0.900465
0.0107576 0.642313 0.899519
0.0560922 0.639429 0.887602
0.18883 0.637446 0.849302
0.338994 0.642466 0.801389
0.494621 0.655116 0.79588
0.651072 0.666102 0.743801
0.753674 0.685344 0.742031
0.877028 0.697505 0.760891
0.0292668 0.737758 0.923323
0.0396277 0.735805 0.922332
0.0719005 0.73431 0.921477
0.241932 0.729961 0.900328
0.359655 0.735088 0.856382
0.499794 0.746365 0.837339
0.636042 0.761624 0.80795
0.780224 0.766003 0.755673
0.932403 0.748333 0.727886
0.104372 0.827741 0.944244
0.144762 0.826902 0.944045
0.201907 0.826139 0.943938
0.300771 0.8262 0.944747
0.389105 0.82623 0.914244
0.517327 0.837003 0.885359
0.633677 0.852811 0.840482
0.750576 0.868727 0.840452
0.918074 0.866606 0.75433
0.0488899 0.867247 0.954665
0.0649271 0.8692 0.954971
0.104097 0.871931 0.955779
0.188266 0.877317 0.957534
0.35024 0.886351 0.961135
0.475715 0.899275 0.941207
0.570886 0.908644 0.895659
0.663996 0.920424 0.855436
0.830808 0.9552 0.886046
7.62951e-05 0.315847 0.738949
0.0174868 0.296178 0.69247
0.101595 0.255039 0.652873
0.37702 0.284749 0.674968
0.508263 0.312276 0.680781
0.611475 0.33431 0.679896
0.708965 0.360235 0.677089
0.811948 0.376806 0.676356
0.889097 0.388357 0.683589
0.00697337 0.360449 0.75758
0.0290837 0.351156 0.731716
0.095491 0.334493 0.698329
0.331395 0.313878 0.695521
0.488823 0.346029 0.701305
0.599084 0.368933 0.694224
0.695613 0.397681 0.685039
0.801068 0.408118 0.684855
0.894224 0.405127 0.689128
0.0133669 0.415915 0.797238
0.0406043 0.411688 0.780697
0.102571 0.405219 0.756146
0.25359 0.387915 0.726558
0.45449 0.394705 0.732433
0.579385 0.417975 0.716289
0.682002 0.447242 0.701778
0.793561 0.456626 0.702419
0.897841 0.455985 0.712367
0.0018616 0.507164 0.858
0.0257267 0.49369 0.840497
0.104143 0.479988 0.816709
0.215549 0.475013 0.785397
0.40351 0.46392 0.782147
0.555596 0.482811 0.762432
0.669108 0.516411 0.733883
0.788937 0.524346 0.730968
0.89366 0.525368 0.741268
0.00863661 0.584863 0.882277
0.0124056 0.582879 0.881086
0.0303502 0.580682 0.879438
0.185168 0.562509 0.855451
0.359991 0.564538 0.829282
0.521065 0.56112 0.834241
0.653544 0.593225 0.783459
0.782116 0.605249 0.76585
0.887465 0.61677 0.781964
0.0157473 0.672663 0.907546
0.0265507 0.670176 0.906371
0.0479591 0.667781 0.905028
0.132403 0.665095 0.904234
0.289677 0.657542 0.891905
0.468009 0.663706 0.880827
0.640192 0.675486 0.855833
0.75874 0.700465 0.808896
0.868849 0.714412 0.828428
0.0234531 0.770489 0.931609
0.0297246 0.76759 0.930358
0.0448157 0.764874 0.929015
0.1122 0.761563 0.927947
0.280049 0.758358 0.929473
0.431739 0.759487 0.916579
0.605661 0.775631 0.901671
0.765484 0.7879 0.8551
0.876616 0.801801 0.854795
0.0850996 0.84509 0.948745
0.120912 0.844297 0.948226
0.17319 0.843656 0.947921
0.262181 0.843626 0.948135
0.366751 0.84477 0.94995
0.468238 0.84976 0.954009
0.589029 0.864591 0.941726
0.722637 0.883955 0.930068
0.89601 0.894972 0.872297
0.0676432 0.869535 0.955032
0.0919356 0.871153 0.955535
0.12668 0.873396 0.956252
0.197635 0.877852 0.957763
0.32221 0.885161 0.960678
0.431388 0.895949 0.964813
0.530404 0.9131 0.971206
0.668589 0.936355 0.954604
0.810346 0.962844 0.960708
