src/luts/blur/2.cube
TITLE "Generated by Resolve"
LUT_3D_SIZE 5
0.025391 0.025391 0.025391
0.230106 0.0586404 0.0365454
0.454139 0.0581216 0.0633249
0.710521 0.106752 0.167758
0.847654 0.26508 0.304448
1.5259e-05 0.16318 0.110353
0.220462 0.182788 0.035874
0.463981 0.211109 0
0.706554 0.2038 0.0499886
0.84329 0.2542 0.175204
0.000915541 0.385229 0.266407
0.238392 0.418158 0.200366
0.481376 0.432609 0.161975
0.716182 0.43679 0.0659495
0.906676 0.420066 0.142351
0.0959182 0.615671 0.460914
0.31519 0.633539 0.402533
0.49688 0.65539 0.353567
0.710994 0.664668 0.328725
0.951293 0.651316 0.241947
0.212314 0.815015 0.682536
0.360845 0.823285 0.622492
0.560739 0.846082 0.559884
0.693797 0.864683 0.51632
0.943709 0.885481 0.439338
0.000549325 0.0470436 0.13959
0.216342 0.0733349 0.134813
0.461387 0.110399 0.183581
0.707118 0.181994 0.277729
0.861784 0.307225 0.394659
0.000122072 0.208743 0.256306
0.196353 0.232029 0.224903
0.475685 0.239597 0.19176
0.712215 0.249393 0.235523
0.865034 0.316243 0.334768
0.0453346 0.434089 0.441215
0.145403 0.439551 0.351858
0.465293 0.45745 0.306798
0.714839 0.456611 0.229694
0.905837 0.421744 0.243168
0.145083 0.648737 0.604425
0.217639 0.648463 0.528298
0.487541 0.66659 0.449805
0.701778 0.678462 0.417502
0.949706 0.662226 0.313237
0.118959 0.836728 0.806592
0.262913 0.834714 0.736736
0.536004 0.853574 0.6262
0.68217 0.874281 0.585
0.938247 0.895994 0.501793
0 0.0991684 0.314473
0.240497 0.118013 0.305394
0.455238 0.169482 0.322789
0.699351 0.226078 0.381704
0.867918 0.324819 0.471122
0.000640879 0.264637 0.423697
0.129961 0.278538 0.40795
0.446586 0.318822 0.387869
0.687404 0.36379 0.438972
0.890074 0.390951 0.496544
0.0337377 0.467323 0.558648
0.178698 0.476188 0.525383
0.442435 0.497047 0.483253
0.707515 0.50132 0.432959
0.91046 0.445853 0.411154
0.199344 0.679713 0.727123
0.307027 0.679576 0.682414
0.436362 0.68954 0.575906
0.67834 0.704723 0.569802
0.944442 0.686824 0.443946
0.206989 0.863111 0.92047
0.289723 0.862623 0.877852
0.416297 0.859083 0.751812
0.658961 0.888228 0.68986
0.919707 0.915511 0.620554
6.10361e-05 0.202716 0.508415
0.230915 0.175677 0.469825
0.482597 0.238788 0.490562
0.689479 0.295979 0.509056
0.876493 0.350805 0.568612
0.00418097 0.337697 0.593194
0.103517 0.334188 0.565881
0.46006 0.353155 0.546578
0.675776 0.404471 0.548943
0.896468 0.412421 0.594858
0.00508125 0.515587 0.755184
0.0914168 0.521096 0.715267
0.385031 0.53547 0.670787
0.64213 0.569741 0.629709
0.884733 0.595132 0.674052
0.141619 0.711009 0.876539
0.230701 0.712016 0.836225
0.440635 0.716854 0.772061
0.65745 0.74136 0.718624
0.937301 0.723888 0.622934
0.0361486 0.86569 0.954406
0.0932631 0.871244 0.955566
0.426291 0.885008 0.907118
0.56347 0.890883 0.791806
0.867399 0.94403 0.803632
7.62951e-05 0.315847 0.738949
0.101595 0.255039 0.652873
0.508263 0.312276 0.680781
0.708965 0.360235 0.677089
0.889097 0.388357 0.683589
0.0133669 0.415915 0.797238
0.102571 0.405219 0.756146
0.45449 0.394705 0.732433
0.682002 0.447242 0.701778
0.897841 0.455985 0.712367
0.00863661 0.584863 0.882277
0.0303502 0.580682 0.879438
0.359991 0.564538 0.829282
0.653544 0.593225 0.783459
0.887465 0.61677 0.781964
0.0234531 0.770489 0.931609
0.0448157 0.764874 0.929015
0.280049 0.758358 0.929473
0.605661 0.775631 0.901671
0.876616 0.801801 0.854795
0.0676432 0.869535 0.955032
0.12668 0.873396 0.956252
0.32221 0.885161 0.960678
0.530404 0.9131 0.971206
0.810346 0.962844 0.960708
