src/luts/blur/2.cube
TITLE "Generated by Resolve"
LUT_3D_SIZE 33
0.025391 0.025391 0.025391
0.0399481 0.0293889 0.0293431
0.0589914 0.033341 0.0315099
0.0802167 0.0386206 0.0327153
0.107927 0.0439307 0.0343175
0.135653 0.0489509 0.0356298
0.166674 0.0534371 0.0365454
0.198596 0.0565652 0.036759
0.230106 0.0586404 0.0365454
0.260731 0.0591287 0.0341497
0.290532 0.0579538 0.033814
0.318791 0.0555734 0.0371099
0.346075 0.0519417 0.04094
0.37258 0.0496071 0.0438239
0.399237 0.0508431 0.0480201
0.426459 0.0544137 0.0535592
0.454139 0.0581216 0.0633249
0.482887 0.061738 0.072282
0.512535 0.0651713 0.0827192
0.543023 0.070573 0.0948501
0.574685 0.0779583 0.107485
0.606882 0.0835889 0.121187
0.640177 0.090135 0.135485
0.674891 0.0984207 0.151034
0.710521 0.106752 0.167758
0.746441 0.117632 0.185931
0.784115 0.136416 0.2103
0.820829 0.184726 0.237873
0.826886 0.202426 0.252171
0.8327 0.219516 0.266194
0.837827 0.235126 0.279377
0.842756 0.250263 0.292012
0.847654 0.26508 0.304448
0.0205997 0.0358282 0.0328069
0.0386969 0.0364691 0.030869
0.058732 0.0381018 0.030396
0.0830396 0.0416571 0.0307012
0.112947 0.0461738 0.0306096
0.141802 0.0505074 0.0296025
0.173419 0.054078 0.0283055
0.205386 0.0563516 0.025864
0.235767 0.0579385 0.0229648
0.265354 0.0586099 0.018204
0.294804 0.0576486 0.0146944
0.323095 0.0569162 0.0168765
0.35053 0.0555276 0.0202487
0.376989 0.0539559 0.0214237
0.403052 0.0538949 0.0238499
0.429953 0.0556802 0.0289158
0.457572 0.060914 0.040116
0.486 0.0639506 0.0497749
0.515129 0.0666972 0.0615854
0.545419 0.072755 0.0742809
0.57673 0.0796979 0.0873274
0.608637 0.0848859 0.101839
0.641566 0.0901198 0.117021
0.675898 0.0973068 0.132616
0.711208 0.105501 0.15053
0.746899 0.11603 0.170321
0.78468 0.136294 0.195621
0.819883 0.182467 0.222461
0.825956 0.200137 0.237552
0.8318 0.217227 0.252323
0.837003 0.232898 0.266468
0.842008 0.248127 0.279988
0.846952 0.26302 0.293004
0.00843824 0.0485389 0.041413
0.025742 0.0491798 0.0370336
0.057145 0.0500954 0.0351415
0.0770428 0.0509957 0.0323491
0.107485 0.0542458 0.0312505
0.135958 0.0584115 0.0298619
0.169421 0.0616312 0.0265812
0.204593 0.0637675 0.0212406
0.237675 0.0655222 0.016144
0.269108 0.0665293 0.00885023
0.299535 0.0676432 0.0030518
0.329061 0.0690776 0.000610361
0.357183 0.0704967 0.00148013
0.384054 0.0716716 0.00419623
0.41088 0.071809 0.00839246
0.436683 0.071519 0.0123751
0.46334 0.0710765 0.0179446
0.490623 0.0707713 0.0244602
0.519127 0.0714733 0.0363165
0.548837 0.0759289 0.050309
0.579507 0.0805219 0.0637675
0.610773 0.0850233 0.0781872
0.643122 0.0888075 0.0944839
0.676799 0.0941634 0.110689
0.71162 0.1019 0.128801
0.746975 0.112139 0.150225
0.78468 0.13402 0.177447
0.817914 0.177401 0.203433
0.82417 0.195346 0.219806
0.830198 0.212863 0.235721
0.83566 0.229191 0.251011
0.840833 0.24477 0.265919
0.845899 0.259968 0.280049
0.00399786 0.0620737 0.0513924
0.0170291 0.0630808 0.0446784
0.0478981 0.0633555 0.0405585
0.0755169 0.0639506 0.0386969
0.102541 0.0642557 0.0346227
0.128008 0.0679637 0.032517
0.159152 0.0722972 0.0301976
0.196582 0.0756237 0.0244907
0.232578 0.0788586 0.0170748
0.266026 0.0820935 0.0112764
0.297902 0.0850538 0.00556954
0.328939 0.0874037 0.0018616
0.359091 0.0890669 0.000167849
0.388037 0.0917678 3.0518e-05
0.415579 0.0937667 0.00215152
0.441917 0.093904 0.00587472
0.467948 0.0935683 0.0105592
0.494484 0.0925612 0.0149081
0.523262 0.0915236 0.0242161
0.552346 0.0926986 0.0352026
0.582238 0.0931411 0.0476234
0.612833 0.0923781 0.0598611
0.644495 0.0905776 0.0723583
0.67776 0.0914321 0.0872816
0.712001 0.0980697 0.105791
0.746822 0.107393 0.127962
0.784283 0.130816 0.156466
0.815366 0.170748 0.182086
0.821759 0.188907 0.199741
0.827924 0.206638 0.216861
0.833738 0.223758 0.233295
0.839109 0.239826 0.24921
0.844312 0.25539 0.264729
0.000137331 0.0789502 0.0629892
0.00932326 0.0792706 0.0541085
0.0379339 0.080827 0.0486152
0.0690623 0.0810101 0.0440375
0.100313 0.0823987 0.0419165
0.124651 0.0834821 0.0367742
0.151431 0.0867628 0.0331426
0.185046 0.0903792 0.0286259
0.222416 0.0937972 0.0205844
0.257511 0.0975204 0.0124666
0.29044 0.101274 0.00669871
0.322652 0.104341 0.0028687
0.35404 0.107103 0.000381476
0.384787 0.110033 0.000106813
0.415015 0.112779 1.5259e-05
0.443076 0.11429 0.00189212
0.470176 0.114717 0.00634775
0.497368 0.114046 0.0108797
0.525048 0.113542 0.0155032
0.553429 0.113405 0.0225376
0.582925 0.11487 0.0341497
0.612818 0.11371 0.0461891
0.644541 0.110491 0.0623941
0.676905 0.107515 0.0747234
0.710689 0.106218 0.0893721
0.745296 0.108888 0.107942
0.782742 0.127413 0.13344
0.812436 0.162753 0.1579
0.819074 0.181933 0.177203
0.825422 0.199969 0.195789
0.831449 0.217472 0.213519
0.837186 0.234379 0.230747
0.842527 0.250248 0.247379
1.5259e-05 0.0972457 0.0746319
0.00495918 0.098146 0.0640726
0.0269474 0.100267 0.0581216
0.0594339 0.101305 0.0509499
0.0972915 0.10161 0.0466163
0.125658 0.103487 0.0437629
0.150393 0.105013 0.0377966
0.179614 0.107851 0.0326085
0.215702 0.11136 0.0242466
0.250187 0.115724 0.0144198
0.283177 0.1205 0.00720226
0.315465 0.124819 0.00321965
0.347539 0.128298 0.00131228
0.379644 0.131182 0.00030518
0.411048 0.133715 6.10361e-05
0.441291 0.135576 0.000228885
0.469917 0.136553 0.00256352
0.497581 0.135683 0.00709545
0.525307 0.134371 0.0109712
0.553735 0.133211 0.0158236
0.583001 0.133532 0.0243076
0.612772 0.133516 0.0361486
0.642924 0.132265 0.0484016
0.674586 0.130053 0.0611276
0.707485 0.127169 0.074052
0.742229 0.125658 0.0950942
0.777325 0.131838 0.117556
0.813199 0.16582 0.142199
0.818647 0.181399 0.158938
0.824033 0.196765 0.175219
0.829343 0.211994 0.191196
0.834669 0.227405 0.207355
0.840269 0.243915 0.225452
0 0.117693 0.0856947
0.00222782 0.119585 0.0749828
0.0152438 0.122316 0.0685893
0.0485695 0.124224 0.0608225
0.0910048 0.124498 0.0523232
0.123949 0.124575 0.0479896
0.15346 0.126619 0.0443275
0.179873 0.127153 0.037171
0.213443 0.129412 0.0286412
0.247181 0.13286 0.0179141
0.279393 0.137407 0.00892653
0.310384 0.142443 0.00436408
0.34197 0.147402 0.00227359
0.373892 0.151827 0.000854505
0.405997 0.155596 0.000244144
0.437552 0.158297 1.5259e-05
0.468071 0.160357 0.00062562
0.497307 0.160678 0.00396735
0.525582 0.15906 0.00749218
0.55436 0.157153 0.0107729
0.583398 0.156268 0.0169375
0.612787 0.155871 0.0277256
0.642786 0.155001 0.0399786
0.673732 0.152712 0.0513313
0.705867 0.149905 0.0642252
0.738506 0.147234 0.0793317
0.772 0.147707 0.0988785
0.810162 0.173892 0.123491
0.81883 0.183505 0.13521
0.825284 0.201266 0.16083
0.830396 0.215747 0.177005
0.835294 0.229816 0.192798
0.839948 0.243427 0.208362
0 0.139391 0.0962234
0 0.142977 0.0874952
0.00877394 0.146304 0.080415
0.0390784 0.149065 0.0727398
0.0807355 0.150439 0.0622416
0.121614 0.149981 0.05243
0.154635 0.150744 0.0476387
0.184558 0.152712 0.0416876
0.213733 0.152819 0.031754
0.246952 0.154818 0.0210575
0.279179 0.158312 0.0107576
0.30959 0.163027 0.00541695
0.339681 0.16817 0.00274662
0.370398 0.173007 0.00138857
0.402243 0.177386 0.000427253
0.434043 0.181445 6.10361e-05
0.465873 0.185122 1.5259e-05
0.496666 0.187823 0.00117494
0.525917 0.186633 0.00450141
0.555016 0.184253 0.00769055
0.584176 0.182162 0.0113222
0.613809 0.181292 0.0194858
0.643534 0.180468 0.0322271
0.674022 0.178454 0.0445258
0.70573 0.175982 0.0568399
0.737835 0.172808 0.0699474
0.770062 0.171588 0.0881819
0.805066 0.18294 0.110109
0.822095 0.193805 0.123903
0.826993 0.207416 0.140703
0.831708 0.22063 0.156786
0.836271 0.233616 0.172549
0.84152 0.248554 0.194614
1.5259e-05 0.16318 0.110353
4.57771e-05 0.167636 0.10164
0.00560006 0.171817 0.0937362
0.0289616 0.175235 0.0854353
0.0719921 0.177646 0.0759594
0.115908 0.178088 0.0635386
0.154482 0.177966 0.0519417
0.188479 0.180087 0.0455634
0.220462 0.182788 0.035874
0.249073 0.182818 0.0229496
0.28072 0.184833 0.0135805
0.311238 0.188098 0.0065919
0.340978 0.192538 0.00349432
0.370855 0.197345 0.00184634
0.401266 0.202152 0.000610361
0.432166 0.206836 0.000183108
0.463981 0.211109 0
0.495583 0.214466 0.000488289
0.525994 0.215259 0.00230411
0.555642 0.213306 0.00509651
0.585336 0.211109 0.0074464
0.614939 0.2094 0.0139315
0.644724 0.208148 0.0251926
0.675258 0.206439 0.0373693
0.706554 0.2038 0.0499886
0.738338 0.201144 0.0633249
0.769726 0.199451 0.0801099
0.801282 0.198901 0.0991073
0.827359 0.209888 0.112245
0.831235 0.220569 0.128939
0.835035 0.231159 0.144213
0.839078 0.242451 0.159564
0.84329 0.2542 0.175204
0 0.188159 0.126574
7.62951e-05 0.193835 0.117556
0.00273136 0.19852 0.10927
0.0192569 0.202472 0.101183
0.0592813 0.205936 0.0923018
0.110353 0.207904 0.0798047
0.150912 0.207858 0.0657511
0.189487 0.208209 0.052781
0.222507 0.210681 0.0475624
0.255222 0.213382 0.0367437
0.285863 0.215015 0.0169985
0.315206 0.217075 0.0089723
0.344106 0.2206 0.00488289
0.373465 0.224613 0.00251774
0.40325 0.22916 0.00108339
0.433005 0.233539 0.000335698
0.463798 0.237919 1.5259e-05
0.495262 0.241749 0.000228885
0.526085 0.243687 0.00143435
0.556146 0.242664 0.00311284
0.586191 0.240513 0.0053254
0.616297 0.23888 0.00819409
0.646281 0.237308 0.0187686
0.67657 0.23566 0.0312352
0.707912 0.233692 0.044892
0.739452 0.230579 0.0582742
0.770535 0.227604 0.073228
0.801022 0.226688 0.091783
0.83389 0.236698 0.106279
0.837354 0.239048 0.119265
0.840726 0.248234 0.1355
0.84419 0.257435 0.150286
0.847669 0.266819 0.165026
0 0.214603 0.143694
0.000183108 0.221027 0.134707
0.00140383 0.226307 0.126284
0.0169833 0.230289 0.117952
0.0462501 0.233875 0.108919
0.103563 0.237476 0.0988632
0.146517 0.238911 0.0857862
0.186419 0.239261 0.0701762
0.223926 0.240208 0.0586252
0.256901 0.242893 0.0582437
0.289815 0.244862 0.049012
0.321248 0.246479 0.0216983
0.351217 0.249393 0.00755322
0.379095 0.252522 0.00343328
0.407599 0.256275 0.00149538
0.436927 0.260471 0.000518807
0.466545 0.264881 0.000106813
0.496727 0.268833 0.000381476
0.52694 0.271382 0.00106813
0.557092 0.271458 0.00215152
0.58735 0.270207 0.00350958
0.61767 0.268681 0.00401312
0.648035 0.267643 0.0143587
0.678294 0.266148 0.026566
0.709163 0.263996 0.0394293
0.740734 0.26096 0.0535897
0.771832 0.257893 0.0687572
0.801953 0.255512 0.0860304
0.834562 0.264759 0.104921
0.844816 0.26041 0.110323
0.847745 0.268009 0.127932
0.850675 0.275868 0.143038
0.853681 0.28368 0.157427
0 0.242084 0.161624
0.000183108 0.248615 0.152239
0.00411994 0.253971 0.143694
0.0161135 0.258228 0.135454
0.0453193 0.262181 0.127443
0.0965744 0.266285 0.118212
0.142367 0.269108 0.106264
0.183856 0.270619 0.0928359
0.222675 0.271565 0.0787823
0.258442 0.272709 0.0697337
0.291264 0.275334 0.072343
0.323903 0.276738 0.060441
0.35523 0.277348 0.0314946
0.38558 0.280476 0.0138094
0.414603 0.284291 0.00500496
0.443244 0.288304 0.0016022
0.471824 0.292256 0.00111391
0.500465 0.295567 0.00132753
0.529335 0.297902 0.00149538
0.558907 0.298894 0.0018616
0.589014 0.298787 0.00250248
0.619348 0.298253 0.00198367
0.649531 0.297475 0.0113527
0.679881 0.296544 0.0233921
0.710735 0.294728 0.035584
0.742092 0.292363 0.0492561
0.773281 0.289097 0.0652018
0.803433 0.285725 0.0808728
0.832868 0.285145 0.0978256
0.853819 0.284871 0.102831
0.856046 0.290486 0.120653
0.85832 0.296422 0.136629
0.860716 0.302693 0.151431
1.5259e-05 0.270146 0.180774
0.000259403 0.276783 0.171038
0.00534066 0.282078 0.16228
0.0163882 0.28629 0.153903
0.0425727 0.290105 0.1458
0.0908827 0.29456 0.137331
0.140719 0.298589 0.127733
0.182727 0.30106 0.115862
0.220233 0.302449 0.101198
0.258335 0.303853 0.0873121
0.292699 0.305089 0.0825055
0.324636 0.307866 0.0886702
0.356939 0.308721 0.0767224
0.38854 0.308553 0.0417945
0.418814 0.310582 0.0205539
0.447669 0.31368 0.0096437
0.476127 0.317174 0.00517281
0.504356 0.320394 0.00326543
0.533089 0.32311 0.002121
0.562066 0.325139 0.00166323
0.591562 0.326238 0.00141909
0.621454 0.326726 0.00436408
0.651362 0.326863 0.0124208
0.6813 0.326375 0.0229953
0.711894 0.325048 0.033341
0.743221 0.323369 0.0469368
0.774624 0.320821 0.0615549
0.804868 0.316655 0.0778058
0.833707 0.313527 0.0943618
0.864225 0.318318 0.100313
0.865446 0.314992 0.113115
0.867155 0.319387 0.131518
0.869062 0.324285 0.146563
0 0.298711 0.200504
0.00175479 0.30486 0.190555
0.00646983 0.309804 0.181292
0.0238193 0.314107 0.173373
0.0491035 0.317983 0.165805
0.089601 0.322408 0.157687
0.141527 0.327077 0.148379
0.18439 0.330465 0.138125
0.221225 0.332753 0.127062
0.255894 0.334508 0.114885
0.292515 0.335836 0.103288
0.326314 0.337392 0.102663
0.357229 0.339803 0.109575
0.389242 0.34052 0.0999924
0.420722 0.340063 0.062501
0.450874 0.34107 0.0347448
0.480095 0.343038 0.0163119
0.508751 0.345785 0.00798047
0.537179 0.34844 0.00422675
0.565698 0.350851 0.00343328
0.594675 0.352804 0.00537118
0.623911 0.354086 0.0101472
0.653254 0.354772 0.0170291
0.682902 0.355093 0.0253452
0.7131 0.354574 0.034226
0.744167 0.353445 0.0461738
0.77557 0.351583 0.0608072
0.806302 0.348135 0.0754559
0.835431 0.34406 0.0925307
0.866239 0.34818 0.110277
0.875334 0.339849 0.108537
0.87657 0.343206 0.128023
0.878035 0.346975 0.14313
0.000289921 0.327779 0.221897
0.00163272 0.333257 0.211551
0.0107881 0.337835 0.201709
0.0291295 0.342 0.193423
0.0530404 0.345678 0.186007
0.0920577 0.350195 0.178668
0.144137 0.355047 0.170047
0.187762 0.359014 0.161517
0.222477 0.361715 0.151904
0.256825 0.363958 0.140551
0.291173 0.365743 0.129091
0.326284 0.3673 0.122362
0.359075 0.368795 0.121767
0.389136 0.370993 0.129122
0.420584 0.371649 0.118791
0.451835 0.370993 0.0878462
0.481758 0.371435 0.060441
0.511162 0.372717 0.0380713
0.540169 0.374853 0.026627
0.568658 0.376867 0.0210422
0.597299 0.378866 0.0205692
0.625818 0.380301 0.0222934
0.654734 0.381399 0.025742
0.684184 0.382193 0.0316625
0.714137 0.382879 0.0394598
0.744991 0.382589 0.0491035
0.776318 0.381598 0.0628977
0.807202 0.37879 0.0757916
0.836851 0.374914 0.092668
0.864683 0.371237 0.107576
0.885771 0.365362 0.106126
0.886549 0.367681 0.125353
0.88751 0.370428 0.140917
0 0.356527 0.243732
0.00309758 0.361593 0.233265
0.014786 0.36585 0.223194
0.033463 0.369757 0.214969
0.0621653 0.37351 0.20763
0.0990463 0.377722 0.200137
0.147387 0.382513 0.192111
0.193942 0.386938 0.184207
0.229267 0.390265 0.176318
0.258854 0.392737 0.16701
0.291402 0.395087 0.156603
0.325261 0.396902 0.147463
0.359243 0.398276 0.14168
0.391073 0.399741 0.142947
0.420279 0.401755 0.150195
0.451301 0.40238 0.140429
0.48246 0.401785 0.11014
0.511986 0.40177 0.0864424
0.540963 0.40206 0.0643168
0.570123 0.40322 0.0494087
0.598886 0.404807 0.0429541
0.627619 0.406455 0.0402533
0.656275 0.407721 0.0399939
0.685328 0.40885 0.0422675
0.715114 0.409995 0.0492256
0.745541 0.410651 0.0575875
0.776608 0.410224 0.0679332
0.807782 0.408728 0.0811017
0.837934 0.405371 0.0937362
0.865797 0.400519 0.109453
0.89546 0.399496 0.118471
0.896452 0.392935 0.125719
0.897078 0.394934 0.140719
0.000915541 0.385229 0.266407
0.00762951 0.389868 0.255756
0.0202792 0.393851 0.245579
0.0438849 0.397848 0.237415
0.0719005 0.40148 0.230015
0.108476 0.405158 0.222797
0.153506 0.409705 0.214847
0.200793 0.414496 0.207065
0.238392 0.418158 0.200366
0.266789 0.42089 0.192538
0.295293 0.423377 0.183764
0.32607 0.425727 0.174975
0.358572 0.42742 0.166934
0.391546 0.428733 0.162753
0.422278 0.430121 0.164279
0.450797 0.431937 0.171618
0.481376 0.432609 0.161975
0.512505 0.432151 0.134478
0.541909 0.43212 0.113329
0.571084 0.432227 0.0925002
0.600076 0.432654 0.0766766
0.629114 0.433692 0.0684215
0.657969 0.434745 0.0641489
0.686748 0.435691 0.0633402
0.716182 0.43679 0.0659495
0.746105 0.437598 0.0717174
0.776761 0.438193 0.0792096
0.808072 0.437552 0.0893416
0.838544 0.43505 0.100374
0.867231 0.430838 0.11339
0.896849 0.431632 0.130678
0.906325 0.418647 0.127703
0.906676 0.420066 0.142351
0.00393683 0.413947 0.289601
0.0123598 0.418219 0.279103
0.0304265 0.422187 0.269215
0.0554055 0.425834 0.260899
0.0857099 0.429191 0.253605
0.119631 0.432654 0.246357
0.161624 0.436881 0.238361
0.209751 0.441535 0.230304
0.24802 0.445655 0.223743
0.276005 0.448692 0.217411
0.302785 0.451286 0.210315
0.330007 0.453788 0.202457
0.359457 0.456077 0.194263
0.39115 0.457588 0.18735
0.42298 0.458824 0.183963
0.452857 0.46009 0.186114
0.480507 0.461769 0.193286
0.510933 0.462394 0.183917
0.542138 0.462226 0.157885
0.57142 0.462211 0.139605
0.600702 0.462074 0.121401
0.629847 0.462165 0.106462
0.658915 0.462623 0.0970626
0.688258 0.463447 0.0918898
0.717372 0.464088 0.0898146
0.746944 0.464881 0.0914321
0.777203 0.465644 0.0957351
0.807965 0.465522 0.102464
0.838697 0.463981 0.111009
0.867735 0.460105 0.119921
0.895048 0.456062 0.13463
0.916045 0.44509 0.131899
0.916152 0.446006 0.14548
0.00704967 0.442603 0.313054
0.0206302 0.446769 0.30277
0.0415351 0.450446 0.293309
0.069398 0.453758 0.285008
0.100023 0.457038 0.277928
0.132815 0.460166 0.270817
0.171801 0.464073 0.263157
0.216648 0.468437 0.254887
0.257603 0.472648 0.247303
0.287175 0.476005 0.241672
0.310613 0.478676 0.235813
0.336446 0.481346 0.229129
0.362905 0.483818 0.221775
0.391684 0.485969 0.214343
0.422568 0.487358 0.208225
0.453666 0.488487 0.205722
0.482643 0.489662 0.208164
0.509819 0.491203 0.215274
0.540078 0.49192 0.205707
0.571298 0.49189 0.181613
0.600687 0.492012 0.164935
0.630106 0.491814 0.148425
0.659464 0.491676 0.134569
0.688762 0.491798 0.125093
0.718151 0.491966 0.119417
0.747738 0.492332 0.116747
0.777569 0.492638 0.117128
0.807904 0.49279 0.120073
0.8383 0.491829 0.12488
0.867994 0.489281 0.132342
0.895613 0.484962 0.142611
0.924666 0.482033 0.148959
0.925414 0.472847 0.15079
0.0123903 0.471595 0.337026
0.0309606 0.475395 0.327276
0.0555428 0.478706 0.318074
0.0846418 0.481865 0.309789
0.114809 0.484916 0.302724
0.146166 0.487877 0.295872
0.182635 0.491279 0.288396
0.224475 0.495369 0.280598
0.268559 0.499687 0.272221
0.299657 0.503166 0.265827
0.323293 0.505943 0.260487
0.345495 0.508568 0.25507
0.369482 0.511269 0.248554
0.394949 0.51371 0.241627
0.423148 0.515679 0.234852
0.453437 0.516991 0.229587
0.48368 0.517983 0.227832
0.512078 0.519036 0.230472
0.53872 0.520348 0.237018
0.568902 0.521202 0.227466
0.600214 0.52137 0.204761
0.629709 0.521523 0.189593
0.659251 0.52134 0.174578
0.688899 0.521096 0.16144
0.718441 0.520806 0.152422
0.748074 0.520516 0.146304
0.778241 0.520378 0.143603
0.808118 0.520134 0.143297
0.838331 0.519585 0.144152
0.867842 0.517769 0.148211
0.896147 0.514138 0.154528
0.925292 0.515145 0.167163
0.934524 0.500389 0.158694
0.0237278 0.500481 0.361303
0.0454108 0.503868 0.351995
0.0727092 0.507134 0.343297
0.100725 0.510033 0.335195
0.130526 0.512871 0.328389
0.159625 0.515557 0.321859
0.194903 0.518669 0.314519
0.233997 0.522393 0.306493
0.276555 0.526421 0.297932
0.312993 0.53019 0.290486
0.337407 0.533089 0.285145
0.357092 0.535561 0.279866
0.377874 0.538231 0.274403
0.400854 0.540948 0.268421
0.426169 0.543359 0.262058
0.453941 0.545144 0.25594
0.483604 0.546349 0.251377
0.513237 0.547265 0.249866
0.541024 0.548165 0.252567
0.567346 0.549386 0.258305
0.597498 0.550118 0.248936
0.628977 0.55053 0.226993
0.658488 0.550805 0.213291
0.688167 0.550622 0.199527
0.718181 0.550256 0.186999
0.748074 0.549676 0.177996
0.778073 0.548791 0.171832
0.808286 0.548058 0.168765
0.838148 0.547112 0.167437
0.867735 0.545754 0.166979
0.896391 0.543206 0.170382
0.923949 0.540291 0.176791
0.94374 0.529076 0.171023
0.0398108 0.529335 0.386145
0.0638437 0.53257 0.377356
0.0903944 0.535515 0.368795
0.118135 0.538186 0.360845
0.145968 0.540658 0.353811
0.17496 0.543145 0.347601
0.207721 0.546059 0.340444
0.244724 0.549477 0.332708
0.284657 0.553216 0.324315
0.322667 0.557 0.315908
0.350042 0.560113 0.309651
0.370108 0.562676 0.304616
0.388479 0.565103 0.299474
0.408789 0.567773 0.294057
0.43154 0.570413 0.288518
0.456703 0.572732 0.282719
0.484092 0.574411 0.277165
0.513283 0.57554 0.273121
0.542351 0.576288 0.271763
0.56968 0.577111 0.274159
0.595758 0.57821 0.279713
0.625925 0.578988 0.269749
0.657588 0.579568 0.248585
0.687114 0.579843 0.235523
0.717021 0.579614 0.222812
0.747372 0.579095 0.210819
0.777691 0.578012 0.20174
0.807843 0.576654 0.195117
0.838224 0.575341 0.190555
0.867796 0.573861 0.188937
0.896483 0.571847 0.189288
0.923796 0.568078 0.191379
0.952651 0.56701 0.190219
0.0571908 0.558312 0.411261
0.082826 0.561151 0.40264
0.10901 0.563836 0.394461
0.135897 0.566339 0.38674
0.162524 0.568627 0.379477
0.190066 0.570825 0.373236
0.221759 0.573358 0.366369
0.257404 0.576333 0.358526
0.293416 0.57995 0.35024
0.331563 0.583764 0.341482
0.360281 0.587045 0.334493
0.381842 0.589685 0.329274
0.399481 0.59202 0.324422
0.418845 0.594553 0.319417
0.438834 0.597177 0.314015
0.461265 0.599664 0.308476
0.486397 0.601907 0.30309
0.51371 0.603494 0.298085
0.542321 0.604501 0.294682
0.571038 0.605203 0.293385
0.598108 0.605859 0.29543
0.623972 0.606912 0.300832
0.654231 0.607599 0.289937
0.686061 0.608255 0.269368
0.715785 0.60856 0.256855
0.745983 0.608286 0.244358
0.776654 0.607477 0.233188
0.807263 0.606043 0.224292
0.837949 0.604273 0.217029
0.868086 0.602426 0.212665
0.896681 0.60029 0.21033
0.924254 0.597604 0.209155
0.953689 0.6009 0.211154
0.0764935 0.587121 0.436133
0.101167 0.589624 0.427695
0.128115 0.59205 0.419837
0.153841 0.594308 0.412268
0.179782 0.596384 0.405097
0.205753 0.598489 0.398871
0.235523 0.600793 0.392325
0.269062 0.603479 0.384802
0.304158 0.606683 0.376379
0.340093 0.610346 0.367529
0.373159 0.61387 0.359197
0.394568 0.616556 0.353414
0.411658 0.618814 0.34876
0.429252 0.62121 0.344091
0.447944 0.623819 0.339162
0.468193 0.626398 0.33402
0.490578 0.62884 0.328695
0.515602 0.630823 0.323384
0.542763 0.632273 0.318837
0.571115 0.633265 0.315663
0.599451 0.633875 0.314443
0.626276 0.634607 0.31664
0.652003 0.63566 0.321721
0.682551 0.636194 0.309895
0.714641 0.636881 0.288853
0.744747 0.63711 0.276844
0.775143 0.636728 0.264515
0.806195 0.635615 0.253788
0.837034 0.633799 0.24477
0.867491 0.631571 0.237873
0.897108 0.629007 0.233036
0.92459 0.626261 0.228977
0.952178 0.625925 0.226703
0.0959182 0.615671 0.460914
0.121263 0.618051 0.452735
0.146807 0.620172 0.444923
0.172259 0.622126 0.437598
0.197055 0.624033 0.430488
0.221271 0.625818 0.423896
0.24921 0.628031 0.417548
0.280888 0.63061 0.410361
0.31519 0.633539 0.402533
0.350042 0.637018 0.393866
0.38407 0.640635 0.384527
0.408606 0.643458 0.377447
0.425834 0.645655 0.372381
0.44062 0.647776 0.367956
0.458 0.650217 0.363455
0.476295 0.652796 0.358572
0.49688 0.65539 0.353567
0.519371 0.65774 0.348653
0.544335 0.659556 0.343542
0.571527 0.660975 0.339101
0.599634 0.66183 0.336034
0.62771 0.662425 0.334844
0.654505 0.663203 0.336782
0.680079 0.664195 0.341787
0.710994 0.664668 0.328725
0.743542 0.665431 0.30782
0.773846 0.665583 0.295674
0.804791 0.665034 0.283726
0.835935 0.6636 0.272938
0.866972 0.66125 0.263355
0.896941 0.658518 0.255558
0.925322 0.655238 0.249165
0.951293 0.651316 0.241947
0.115801 0.643854 0.485374
0.140932 0.645899 0.477424
0.165316 0.647837 0.469856
0.189166 0.649775 0.462791
0.213245 0.65156 0.455985
0.236316 0.653239 0.449149
0.26244 0.655283 0.442756
0.293004 0.657649 0.43592
0.326284 0.66038 0.428077
0.359197 0.663539 0.419516
0.393011 0.667109 0.410254
0.420554 0.670283 0.401999
0.439124 0.672602 0.396262
0.453971 0.674586 0.391684
0.46894 0.676753 0.387488
0.486 0.67924 0.382986
0.504616 0.681773 0.378256
0.525093 0.684276 0.373358
0.547631 0.686458 0.368505
0.572808 0.688258 0.363622
0.599863 0.68954 0.359319
0.627909 0.690303 0.355947
0.655818 0.691035 0.354742
0.682673 0.691951 0.356374
0.70837 0.692912 0.361028
0.739757 0.693263 0.346853
0.772732 0.694072 0.325216
0.803433 0.694118 0.313313
0.83473 0.693385 0.301396
0.866087 0.691524 0.290517
0.896834 0.688823 0.280476
0.92575 0.685054 0.271489
0.952148 0.681132 0.262654
0.135317 0.671504 0.509636
0.158862 0.673396 0.501854
0.182345 0.675227 0.494423
0.205631 0.677012 0.487511
0.228199 0.678691 0.480674
0.250874 0.680308 0.474083
0.275151 0.682048 0.467475
0.304509 0.684428 0.460945
0.335943 0.687129 0.453651
0.368658 0.690074 0.445243
0.400687 0.693385 0.436011
0.431495 0.696803 0.426673
0.452033 0.69929 0.419852
0.467292 0.701259 0.414984
0.481117 0.703243 0.410895
0.497002 0.705592 0.406897
