src/luts/blur/3.cube
TITLE "Generated by Resolve"
LUT_3D_SIZE 5
0.0242313 0.0280461 0.0256809
0.190524 0.0603037 0.0345617
0.437171 0.0485695 0.0463874
0.710948 0.0833906 0.159136
0.846143 0.255451 0.320684
0 0.151354 0.103105
0.172595 0.16733 0.0409247
0.44976 0.194858 0
0.71104 0.1888 0.0350042
0.842649 0.24654 0.16965
0 0.377493 0.275456
0.188083 0.413275 0.199496
0.474937 0.430701 0.145174
0.730755 0.439094 0.0390326
0.909804 0.427314 0.126696
0.0660105 0.618311 0.471122
0.281239 0.639323 0.414862
0.493538 0.663096 0.365728
0.727855 0.673335 0.339391
0.954406 0.659205 0.242527
0.182071 0.826139 0.673091
0.338582 0.834836 0.616053
0.569543 0.858122 0.557336
0.70985 0.876661 0.517815
0.947784 0.896391 0.450126
0.000183108 0.0484321 0.135149
0.174151 0.0717937 0.127504
0.443046 0.0932937 0.17998
0.710048 0.155734 0.288487
0.861387 0.301839 0.410269
4.57771e-05 0.194232 0.265507
0.149538 0.215427 0.229969
0.461799 0.222278 0.18883
0.717998 0.231693 0.241215
0.865721 0.314137 0.353521
0.0193484 0.430518 0.452506
0.100664 0.436805 0.366674
0.456306 0.457801 0.318029
0.729046 0.455451 0.230915
0.910063 0.431022 0.258503
0.109346 0.654215 0.603433
0.175265 0.654459 0.533165
0.482216 0.675273 0.459648
0.718074 0.688441 0.428519
0.952728 0.670741 0.326345
0.116884 0.848219 0.796643
0.239765 0.846387 0.725948
0.542367 0.865675 0.619318
0.698436 0.886015 0.580957
0.942504 0.906508 0.50753
0 0.0810407 0.327474
0.196094 0.104875 0.319295
0.43682 0.149432 0.336095
0.704952 0.204837 0.392874
0.868116 0.32134 0.481453
3.0518e-05 0.251347 0.433204
0.0877852 0.264805 0.418616
0.432181 0.308675 0.401205
0.699672 0.356619 0.449622
0.892363 0.394675 0.507317
0.0156252 0.465095 0.560678
0.132052 0.476493 0.530404
0.428443 0.500099 0.491646
0.72282 0.504067 0.444144
0.914885 0.456397 0.429923
0.160204 0.687816 0.718929
0.273701 0.688334 0.67602
0.421897 0.69955 0.577096
0.693935 0.717128 0.571267
0.947784 0.697215 0.454963
0.195438 0.874434 0.912734
0.273091 0.874037 0.869184
0.411292 0.872267 0.743542
0.675074 0.899641 0.679133
0.925399 0.925017 0.616648
0 0.180728 0.506584
0.187427 0.155184 0.471504
0.470985 0.218753 0.493019
0.698665 0.281758 0.512795
0.877653 0.349523 0.570459
0.000320439 0.327977 0.589349
0.0705425 0.324376 0.564385
0.448936 0.345586 0.548775
0.689052 0.400473 0.551568
0.899062 0.41706 0.596948
0.00129702 0.51516 0.743679
0.0645151 0.52285 0.706142
0.361837 0.540154 0.665034
0.656107 0.575998 0.627329
0.890394 0.601801 0.668574
0.114885 0.720607 0.867155
0.197421 0.72256 0.827008
0.4271 0.729091 0.763684
0.671748 0.757122 0.711452
0.940917 0.737652 0.620706
0.0729381 0.877882 0.947677
0.141833 0.883818 0.949798
0.421881 0.896376 0.900282
0.579751 0.904234 0.786236
0.87686 0.951797 0.792523
3.0518e-05 0.304051 0.719509
0.0726177 0.236774 0.637812
0.504967 0.29984 0.668742
0.720729 0.352056 0.668132
0.891951 0.392981 0.679271
0.00486763 0.41181 0.780163
0.0749981 0.401038 0.740902
0.443641 0.39089 0.720684
0.695827 0.445899 0.693217
0.899367 0.45893 0.704723
0.00650034 0.59057 0.872099
0.0219272 0.586908 0.869093
0.336233 0.570184 0.817777
0.668162 0.599832 0.774273
0.892989 0.62443 0.7738
0.0242161 0.784543 0.924758
0.0395056 0.779675 0.922271
0.250294 0.775097 0.923262
0.618692 0.794003 0.895155
0.884291 0.82063 0.847623
0.116335 0.882017 0.949035
0.176638 0.885924 0.950652
0.355749 0.897795 0.955825
0.550851 0.924468 0.967117
0.823957 0.969604 0.957305
