src/luts/blur/3.cube
TITLE "Generated by Resolve"
LUT_3D_SIZE 33
0.0242313 0.0280461 0.0256809
0.0360876 0.0318761 0.0293431
0.0507668 0.0353552 0.0312963
0.0660258 0.040177 0.0327764
0.0856641 0.0452277 0.0343786
0.105531 0.0499428 0.0357824
0.129198 0.0547341 0.0362402
0.157931 0.0581216 0.0360571
0.190524 0.0603037 0.0345617
0.223865 0.0609598 0.0310521
0.256825 0.0599374 0.0279088
0.288472 0.0564431 0.0294957
0.318273 0.0512093 0.0320439
0.347539 0.0470741 0.0333562
0.376928 0.0457923 0.0347143
0.406363 0.0459144 0.0383154
0.437171 0.0485695 0.0463874
0.469062 0.0489357 0.0544289
0.502541 0.0470741 0.0638743
0.536568 0.0492256 0.0758068
0.571237 0.053727 0.0887617
0.605905 0.0588998 0.103426
0.64065 0.0654307 0.119844
0.675593 0.0733806 0.137621
0.710948 0.0833906 0.159136
0.745754 0.0952163 0.183108
0.781277 0.115068 0.212284
0.81622 0.164324 0.244724
0.822583 0.183368 0.26096
0.828977 0.202747 0.276844
0.835019 0.22121 0.292393
0.840574 0.238499 0.306905
0.846143 0.255451 0.320684
0.0204318 0.0379339 0.0324865
0.0350347 0.038468 0.0306706
0.0508278 0.0399176 0.0302434
0.0677806 0.0428016 0.0308537
0.0890822 0.0471962 0.0310826
0.110033 0.0514076 0.0304417
0.135119 0.0554208 0.02916
0.164813 0.0581216 0.0266728
0.196826 0.0599374 0.0231937
0.229419 0.0605173 0.0169223
0.261845 0.0597391 0.0118563
0.293217 0.0577859 0.0124208
0.323659 0.0559854 0.0153048
0.352667 0.0532387 0.0158999
0.381674 0.0515755 0.0170748
0.410925 0.050721 0.0204013
0.441321 0.0519875 0.0267033
0.472786 0.0525673 0.0347753
0.50602 0.0512856 0.04448
0.539544 0.052781 0.0562448
0.573602 0.0565805 0.0694438
0.607828 0.0607767 0.082536
0.642115 0.0654307 0.0989395
0.676631 0.0725261 0.116777
0.711574 0.082063 0.137087
0.746059 0.0938888 0.162066
0.781506 0.114458 0.193301
0.815229 0.161654 0.226429
0.821607 0.180865 0.244404
0.828092 0.200427 0.261509
0.83418 0.219089 0.277882
0.83978 0.236194 0.293599
0.845365 0.253086 0.308385
0.0105745 0.0486458 0.0399329
0.0249027 0.0491493 0.0362097
0.0490272 0.0499428 0.0344244
0.0631571 0.0507515 0.0321202
0.0849012 0.0536965 0.0314641
0.105852 0.0576333 0.0306249
0.130938 0.0612345 0.0281682
0.162585 0.0635233 0.0229191
0.197208 0.0650187 0.0171664
0.231907 0.0659953 0.00941482
0.265568 0.0668193 0.00285344
0.298299 0.0673838 0.000274662
0.329442 0.0679179 0.000122072
0.359167 0.0682994 0.00233463
0.38854 0.0671397 0.00575265
0.417517 0.065919 0.00877394
0.446921 0.0631266 0.0126955
0.477989 0.060853 0.0171969
0.510369 0.0566262 0.0232853
0.543297 0.057908 0.0352331
0.576761 0.0596628 0.0473335
0.610086 0.0617838 0.0603799
0.643671 0.064622 0.0756237
0.677638 0.0701915 0.0924849
0.711955 0.0789197 0.112459
0.746029 0.0902571 0.136965
0.78117 0.111803 0.169223
0.813275 0.156329 0.203174
0.819776 0.176028 0.223575
0.826444 0.195758 0.242725
0.832822 0.215045 0.260792
0.838499 0.232502 0.27776
0.844312 0.249943 0.294316
0.00517281 0.0597238 0.0486152
0.0167391 0.0607309 0.0429236
0.0408331 0.0610361 0.0393683
0.0623484 0.0616312 0.0378271
0.079881 0.0619059 0.034287
0.10042 0.0650187 0.0323796
0.122744 0.069688 0.0304112
0.153735 0.073518 0.0254978
0.190784 0.0764477 0.0179141
0.227649 0.078996 0.01149
0.262928 0.0811627 0.00497444
0.296971 0.0828717 0.00132753
0.330037 0.0838331 6.10361e-05
0.362051 0.0850233 0
0.392752 0.0854047 0.000640879
0.422477 0.0851606 0.00366217
0.452293 0.0834974 0.00714122
0.482628 0.0815137 0.0106661
0.514382 0.0766613 0.0158236
0.546868 0.0740673 0.022385
0.5794 0.0722667 0.0325628
0.612055 0.0703899 0.0433051
0.645121 0.0673075 0.0544137
0.678721 0.0684672 0.0688029
0.712352 0.0758679 0.087602
0.745876 0.0860456 0.111238
0.780591 0.108553 0.142535
0.81062 0.148638 0.176257
0.817334 0.169482 0.198596
0.824201 0.189258 0.220508
0.830747 0.208789 0.240711
0.836744 0.226871 0.25919
0.842512 0.244434 0.27689
0.000885023 0.0734112 0.0588998
0.0105135 0.0740215 0.0513771
0.0342718 0.0753338 0.0465705
0.0582742 0.0749371 0.0429236
0.078233 0.0757763 0.041062
0.0981155 0.0764019 0.0365911
0.116548 0.0795911 0.0334325
0.142779 0.0834211 0.0299382
0.179904 0.0866102 0.0221256
0.218097 0.0899519 0.0131228
0.254795 0.0932937 0.00691234
0.290791 0.0952316 0.00265507
0.32549 0.0973831 0.000122072
0.359518 0.0995651 3.0518e-05
0.392294 0.101579 0
0.424201 0.102831 0.000579843
0.454398 0.102373 0.00393683
0.484596 0.101686 0.00764477
0.516228 0.0993362 0.0108644
0.548409 0.0971542 0.0145724
0.580362 0.0941176 0.0208438
0.612451 0.0932631 0.0307164
0.645426 0.0868086 0.0447242
0.678141 0.083772 0.0565652
0.711284 0.084062 0.0706035
0.744488 0.0874647 0.0894026
0.77911 0.105348 0.115663
0.807614 0.140429 0.145342
0.814649 0.162097 0.169482
0.821698 0.182208 0.193957
0.828504 0.202045 0.217151
0.834653 0.220554 0.237964
0.840543 0.238636 0.25716
7.62951e-05 0.08925 0.0693065
0.0061799 0.0898756 0.0607156
0.0251469 0.0915389 0.0556039
0.0499123 0.0921645 0.0497139
0.074464 0.0924392 0.0458228
0.0969406 0.0939956 0.0436255
0.114916 0.0956588 0.0380865
0.137438 0.0988479 0.0335546
0.170962 0.102312 0.0268864
0.208499 0.106126 0.0166934
0.246036 0.110018 0.00820935
0.282521 0.113481 0.00341802
0.318105 0.116045 0.000869764
0.353902 0.117876 9.15541e-05
0.38854 0.119387 1.5259e-05
0.4224 0.120668 1.5259e-05
0.454749 0.121843 0.00102235
0.486061 0.121004 0.00480659
0.517632 0.119234 0.00827039
0.549447 0.117678 0.0106508
0.581292 0.116274 0.0145418
0.612833 0.114534 0.0226139
0.644343 0.111894 0.0325933
0.676097 0.107698 0.0436255
0.708522 0.105409 0.0561379
0.742229 0.104845 0.0765545
0.77528 0.112718 0.0994583
0.808957 0.145937 0.126665
0.814801 0.163272 0.147127
0.8206 0.179812 0.168154
0.826413 0.196536 0.188968
0.831968 0.212985 0.20972
0.838239 0.231861 0.232136
0 0.107561 0.0798962
0.00303655 0.109041 0.0708019
0.0153201 0.110842 0.0654612
0.0394903 0.112337 0.0591745
0.0686809 0.11249 0.0518807
0.0950027 0.112413 0.0482185
0.115862 0.114031 0.045243
0.13724 0.115557 0.0388495
0.167102 0.118471 0.0315251
0.203342 0.12221 0.0208591
0.240116 0.126528 0.0101167
0.275822 0.131319 0.00459297
0.311818 0.135149 0.00195315
0.347723 0.138231 0.000366217
0.383719 0.141039 7.62951e-05
0.418891 0.142733 0
0.453391 0.144167 0.000213626
0.486336 0.14406 0.00241093
0.518425 0.142519 0.00564584
0.550607 0.140826 0.00830091
0.582437 0.139376 0.0108186
0.613703 0.137362 0.0153964
0.644938 0.136309 0.0255741
0.676127 0.133547 0.035935
0.707652 0.128588 0.0462348
0.739071 0.126909 0.0616312
0.770764 0.128862 0.0802472
0.805234 0.152407 0.103731
0.815442 0.166323 0.118502
0.822141 0.184878 0.150515
0.827771 0.201328 0.171099
0.833158 0.217182 0.192004
0.838361 0.2327 0.2121
0 0.12813 0.0896925
0 0.1308 0.0823072
0.007187 0.133318 0.0765698
0.0285954 0.135348 0.0703593
0.059617 0.136477 0.0612497
0.090425 0.135744 0.0532235
0.115618 0.136477 0.0491951
0.140627 0.138796 0.0442817
0.167117 0.139651 0.0359503
0.202167 0.141924 0.0250248
0.23801 0.145403 0.0136568
0.272908 0.149905 0.00634775
0.307652 0.154849 0.00296025
0.342672 0.159228 0.00117494
0.379217 0.16321 0.000183108
0.41532 0.165988 1.5259e-05
0.451637 0.168643 0
0.486305 0.170245 0.000717174
0.519707 0.169665 0.00340276
0.552377 0.167666 0.00587472
0.584283 0.165713 0.00816358
0.615595 0.164233 0.0119783
0.646616 0.162707 0.019501
0.677638 0.161715 0.0296788
0.708705 0.159304 0.0406348
0.739391 0.156176 0.0536202
0.769802 0.155077 0.0704204
0.801831 0.164584 0.0902724
0.819074 0.177935 0.105974
0.824155 0.192294 0.125536
0.829404 0.206973 0.145815
0.83447 0.221866 0.166094
0.840192 0.238666 0.194522
0 0.151354 0.103105
1.5259e-05 0.154818 0.0952163
0.0028687 0.157687 0.0880751
0.0216068 0.160525 0.0817121
0.0488899 0.162707 0.0733806
0.082887 0.163119 0.0631113
0.11397 0.163134 0.0536507
0.142473 0.165026 0.0480201
0.172595 0.16733 0.0409247
0.20351 0.167819 0.0281376
0.238911 0.170275 0.0170901
0.273991 0.173953 0.00817884
0.307881 0.178546 0.00390631
0.342046 0.183093 0.00181582
0.377447 0.187381 0.000350958
0.413306 0.191501 6.10361e-05
0.44976 0.194858 0
0.485817 0.19762 0.000198367
0.520455 0.198611 0.00170901
0.553964 0.197177 0.00395209
0.586435 0.195193 0.00595102
0.618128 0.193606 0.00720226
0.649241 0.192432 0.0146181
0.680018 0.190692 0.0242924
0.71104 0.1888 0.0350042
0.741451 0.186587 0.0472114
0.771099 0.185901 0.0628824
0.800046 0.185748 0.0800793
0.825498 0.198291 0.0943618
0.829786 0.209873 0.112596
0.833951 0.221637 0.131624
0.83827 0.234073 0.150668
0.842649 0.24654 0.16965
0 0.17644 0.119127
3.0518e-05 0.180468 0.11078
0.00190738 0.184131 0.103014
0.0106203 0.187564 0.0955825
0.036408 0.1906 0.087541
0.0767987 0.19266 0.0775006
0.108446 0.193072 0.0651713
0.142 0.193668 0.0537423
0.174594 0.196109 0.0484627
0.209339 0.1991 0.0375677
0.243519 0.201053 0.0196231
0.277775 0.203494 0.0106508
0.311269 0.207126 0.00553903
0.3449 0.21117 0.00262455
0.378866 0.21529 0.000823987
0.413748 0.219532 0.00015259
0.449546 0.223194 0
0.486229 0.226795 9.15541e-05
0.521691 0.229038 0.000793469
0.555993 0.228733 0.00231937
0.588754 0.22681 0.00424201
0.620996 0.225483 0.00514229
0.652216 0.223774 0.0101015
0.683101 0.22182 0.0189364
0.71397 0.220157 0.0299687
0.744457 0.218402 0.0421302
0.773465 0.216312 0.0564126
0.801678 0.216648 0.0733654
0.831952 0.226291 0.0874952
0.836942 0.231769 0.101808
0.840436 0.241794 0.121065
0.844266 0.252094 0.14023
0.847944 0.262226 0.158984
0 0.203311 0.136889
1.5259e-05 0.208255 0.127886
0.00077821 0.212375 0.119127
0.00691234 0.216358 0.11165
0.029099 0.219715 0.103761
0.0649271 0.223133 0.0932937
0.101534 0.22475 0.0810712
0.136858 0.225315 0.0678569
0.175113 0.22678 0.0560464
0.210864 0.229892 0.053727
0.247868 0.232486 0.0442969
0.284184 0.234913 0.0201267
0.318669 0.237781 0.0078584
0.351766 0.241352 0.00354009
0.384512 0.245075 0.00135805
0.418662 0.249256 0.000274662
0.453071 0.253315 3.0518e-05
0.48838 0.257328 0.000122072
0.523735 0.260029 0.000610361
0.5579 0.260182 0.00148013
0.591424 0.259464 0.00247196
0.623606 0.257893 0.00344854
0.655528 0.256733 0.0056611
0.686763 0.255512 0.014725
0.717174 0.253346 0.0252537
0.747372 0.250996 0.0376593
0.776501 0.248768 0.0513924
0.804227 0.247471 0.0675212
0.833341 0.254429 0.0820172
0.845655 0.257084 0.0922408
0.848371 0.264546 0.111406
0.851484 0.27277 0.131151
0.854597 0.281315 0.14963
0 0.231403 0.156863
7.62951e-05 0.236759 0.146899
0.000549325 0.241688 0.137819
0.00773632 0.245609 0.129351
0.0232395 0.249409 0.120851
0.0598459 0.253376 0.111025
0.0971389 0.25658 0.100084
0.131258 0.25832 0.0869154
0.172534 0.259846 0.0724651
0.212558 0.261723 0.0634165
0.249805 0.264897 0.0642557
0.287297 0.266712 0.0523537
0.323964 0.268284 0.0275425
0.359304 0.271702 0.011841
0.39321 0.2757 0.00390631
0.426032 0.279423 0.00120546
0.459632 0.283391 0.000686656
0.493278 0.287022 0.000640879
0.527092 0.289525 0.000839246
0.560708 0.290776 0.00115969
0.594232 0.290913 0.00169375
0.626596 0.290517 0.0012665
0.658671 0.290013 0.002121
0.689891 0.288975 0.0120699
0.720699 0.28748 0.0222171
0.750607 0.28484 0.0323796
0.779721 0.282216 0.0470588
0.807477 0.279973 0.0621958
0.834089 0.279255 0.0769665
0.855558 0.284291 0.0830091
0.85774 0.290196 0.102373
0.86009 0.296223 0.12285
0.862638 0.303059 0.141863
0 0.259876 0.178775
1.5259e-05 0.2654 0.167315
0.00187686 0.27042 0.158022
0.00842298 0.274739 0.149111
0.0212863 0.278584 0.140612
0.057084 0.283146 0.130892
0.0941939 0.287129 0.120027
0.129183 0.290044 0.106859
0.169329 0.292439 0.0936446
0.211505 0.29424 0.0790417
0.251698 0.296254 0.0715801
0.288685 0.299275 0.076173
0.326345 0.300649 0.0610208
0.363317 0.301701 0.0319066
0.398413 0.304524 0.0157931
0.432258 0.307927 0.00732433
0.465599 0.311452 0.0037995
0.498619 0.314916 0.00222782
0.53225 0.317876 0.00134279
0.565026 0.319997 0.000885023
0.597711 0.321355 0.000854505
0.630121 0.322179 0.00122072
0.661738 0.322347 0.00355535
0.692988 0.322301 0.0121157
0.723415 0.320882 0.0205844
0.753338 0.318791 0.0292363
0.782925 0.316274 0.0420233
0.810529 0.313039 0.0581979
0.83682 0.310277 0.0734875
0.864988 0.316167 0.0777752
0.867933 0.316793 0.0908064
0.869627 0.321523 0.113649
0.87158 0.326574 0.136172
0 0.288716 0.202075
7.62951e-05 0.294377 0.190341
0.00274662 0.299275 0.179706
0.00836194 0.303593 0.170657
0.0264591 0.307546 0.161837
0.0572671 0.312078 0.152087
0.094728 0.317037 0.141711
0.129992 0.320974 0.13077
0.167926 0.323903 0.117891
0.208881 0.326299 0.102327
0.251087 0.328389 0.0877546
0.290898 0.330617 0.0846265
0.327474 0.333242 0.0920729
0.365011 0.334234 0.0788891
0.401892 0.33492 0.0418097
0.437049 0.337118 0.0203861
0.470954 0.339834 0.00773632
0.504723 0.342916 0.00392157
0.537484 0.3458 0.00201419
0.570138 0.34844 0.0009308
0.602411 0.350637 7.62951e-05
0.633967 0.352255 0.00148013
0.665034 0.353399 0.00708019
0.695827 0.353872 0.0137484
0.725933 0.353185 0.0202335
0.75581 0.351659 0.0280308
0.785275 0.34963 0.039765
0.813504 0.346548 0.05449
0.839796 0.342565 0.0713664
0.867582 0.345846 0.0843366
0.878111 0.342855 0.0857404
0.879454 0.346639 0.108156
0.880858 0.350378 0.131151
0 0.31812 0.226093
0.000534066 0.323537 0.214786
0.00241093 0.328038 0.203677
0.0133059 0.332326 0.194263
0.0310216 0.336248 0.185321
0.0574807 0.34081 0.176089
0.0982986 0.346197 0.165209
0.134295 0.350713 0.155047
0.169833 0.35407 0.143343
0.208988 0.357122 0.131075
0.24947 0.35967 0.118242
0.291081 0.36202 0.109407
0.329992 0.363912 0.106874
0.365621 0.36614 0.113298
0.402502 0.366949 0.0997024
0.439063 0.367361 0.0619364
0.474311 0.369085 0.0362097
0.508568 0.371313 0.0195468
0.542473 0.373938 0.0115511
0.574884 0.376516 0.00903334
0.606302 0.378866 0.00894179
0.637583 0.380728 0.0102083
0.668009 0.382055 0.0130007
0.6981 0.382971 0.0178836
0.727779 0.382971 0.021561
0.757656 0.38265 0.0291905
0.787213 0.381415 0.0403754
0.815686 0.378866 0.0532387
0.842664 0.374807 0.0694285
0.86775 0.371237 0.0862593
0.889036 0.369955 0.0836957
0.889876 0.372641 0.105058
0.890867 0.375616 0.126986
0 0.347829 0.251026
3.0518e-05 0.352728 0.23949
0.00450141 0.357107 0.228412
0.0175631 0.361166 0.218997
0.0363928 0.364996 0.210361
0.0645609 0.369619 0.201083
0.102144 0.374899 0.191409
0.141695 0.380163 0.181277
0.176852 0.383932 0.171206
0.212543 0.38703 0.159609
0.251102 0.38996 0.14667
0.290639 0.39263 0.134615
0.330953 0.394629 0.12668
0.368475 0.396262 0.126131
0.402838 0.398352 0.133959
0.438987 0.398962 0.120134
0.475334 0.398901 0.0843977
0.510246 0.400015 0.0583047
0.544411 0.401816 0.0403754
0.577646 0.404028 0.0294499
0.609308 0.406058 0.0250095
0.639811 0.407874 0.022858
0.670207 0.40943 0.0219425
0.699825 0.410636 0.0236362
0.729473 0.411643 0.028687
0.759121 0.411887 0.0345769
0.78851 0.411475 0.0439765
0.817349 0.409674 0.0558785
0.844694 0.406104 0.0687724
0.870207 0.402426 0.0867933
0.897581 0.402762 0.0961776
0.899779 0.398749 0.105211
0.900206 0.400748 0.126741
0 0.377493 0.275456
0.00172427 0.382147 0.264591
0.00888075 0.386252 0.253666
0.0225223 0.390234 0.244465
0.0450141 0.394263 0.235599
0.0719158 0.398428 0.22681
0.107362 0.403464 0.21767
0.150256 0.408911 0.208042
0.188083 0.413275 0.199496
0.220981 0.41651 0.189761
0.255863 0.419745 0.179065
0.292287 0.422614 0.167452
0.330419 0.42504 0.156268
0.369635 0.426749 0.149523
0.405722 0.428214 0.150698
0.439109 0.430091 0.159182
0.474937 0.430701 0.145174
0.511284 0.430701 0.108064
0.545647 0.431296 0.0834516
0.578546 0.432135 0.0631266
0.610559 0.43331 0.0478981
0.641566 0.434928 0.0403754
0.671809 0.436637 0.0376898
0.701457 0.437903 0.0361181
0.730755 0.439094 0.0390326
0.760159 0.439902 0.0452735
0.789242 0.440009 0.0527047
0.818158 0.438956 0.0614786
0.846235 0.436927 0.0741741
0.872328 0.433036 0.0890059
0.899046 0.433646 0.106325
0.909712 0.426047 0.107042
0.909804 0.427314 0.126696
0.000839246 0.407309 0.301091
0.00483711 0.411765 0.290135
0.0139773 0.415686 0.279164
0.0317082 0.419821 0.269657
0.0551003 0.423468 0.261295
0.0825513 0.42742 0.253422
0.114748 0.432212 0.244266
0.158984 0.437675 0.234516
0.201617 0.442329 0.226627
0.233387 0.44593 0.219272
0.263569 0.448951 0.210834
0.297093 0.452171 0.200443
0.331945 0.455055 0.189609
0.369406 0.457008 0.180255
0.406973 0.458457 0.174945
0.442023 0.459754 0.177066
0.474723 0.461509 0.185229
0.510323 0.462181 0.171572
0.54638 0.462135 0.135454
0.579492 0.462547 0.112154
0.611856 0.462989 0.0912032
0.643244 0.463905 0.0754711
0.673487 0.464866 0.06598
0.703334 0.46598 0.0619059
0.732357 0.466911 0.0600137
0.76109 0.467613 0.0616922
0.789746 0.468101 0.0670024
0.818647 0.467796 0.0741436
0.847227 0.466468 0.0833143
0.873838 0.46302 0.0952163
0.898726 0.459876 0.111482
0.919341 0.454002 0.111086
0.919371 0.45481 0.128389
0.00178531 0.437415 0.326665
0.00694286 0.441581 0.315923
0.0212253 0.445701 0.305623
0.0417639 0.449363 0.295857
0.0668803 0.453056 0.288136
0.0932326 0.456565 0.280079
0.124147 0.461128 0.271427
0.166751 0.466148 0.26186
0.213275 0.471107 0.253315
0.247135 0.474968 0.246723
0.275257 0.478111 0.239963
0.30457 0.481147 0.231998
0.336187 0.48426 0.222644
0.370489 0.486946 0.213245
0.406729 0.488533 0.205478
0.443244 0.489723 0.201495
0.477577 0.490913 0.203586
0.509483 0.492699 0.212375
0.54461 0.493339 0.198734
0.580011 0.493294 0.164721
0.612451 0.493614 0.142046
0.643641 0.493782 0.121859
0.674235 0.493996 0.104997
0.704036 0.494606 0.0948196
0.733547 0.495323 0.0884718
0.762173 0.495796 0.0860914
0.790845 0.496315 0.0877089
0.81915 0.496101 0.0919509
0.847715 0.495338 0.0975662
0.874861 0.493004 0.10695
0.900084 0.489265 0.119188
0.926558 0.488869 0.122606
0.928817 0.483345 0.133074
0.00263981 0.467689 0.351888
0.0110628 0.471855 0.341772
0.0300298 0.475639 0.331701
0.0538491 0.479072 0.322576
0.0795453 0.482628 0.314931
0.103899 0.486076 0.307546
0.134524 0.49015 0.298894
0.175219 0.494896 0.289799
0.223728 0.499855 0.280613
0.262272 0.503899 0.27332
0.289647 0.507118 0.267338
0.315465 0.510201 0.260792
0.343801 0.513191 0.253361
0.374441 0.51632 0.245487
0.40766 0.518547 0.237095
0.443091 0.519951 0.230396
0.479118 0.520882 0.227283
0.512367 0.521965 0.230259
0.543313 0.523598 0.23801
0.577691 0.524224 0.225605
0.612375 0.524285 0.194247
0.6439 0.524544 0.173434
0.67454 0.524453 0.153094
0.704738 0.524407 0.136187
0.733883 0.524315 0.124971
0.76289 0.524392 0.118059
0.79144 0.524453 0.114214
0.819837 0.5243 0.115114
0.847898 0.523583 0.117388
0.875364 0.52195 0.12311
0.901167 0.519173 0.132219
0.927779 0.521065 0.147021
0.938277 0.512825 0.14052
0.00640879 0.498314 0.376699
0.0218814 0.502235 0.366903
0.0434577 0.505791 0.357931
0.0685588 0.509331 0.349279
0.0920119 0.512383 0.341588
0.116182 0.515541 0.33492
0.147204 0.519173 0.326635
0.186069 0.523583 0.318013
0.233448 0.528191 0.308598
0.275517 0.532479 0.300389
0.305211 0.535912 0.294133
0.330129 0.53872 0.288258
0.353994 0.541711 0.282185
0.381033 0.544625 0.275349
0.411444 0.547539 0.267872
0.443641 0.549447 0.260792
0.478996 0.550774 0.25539
0.513924 0.551675 0.253239
0.546181 0.552743 0.25597
0.576043 0.553964 0.262074
0.6094 0.554589 0.251148
0.643305 0.554757 0.223377
0.67425 0.554955 0.204349
0.704524 0.554757 0.185489
0.734371 0.554421 0.168872
0.763058 0.553918 0.157076
0.791775 0.553307 0.149859
0.820127 0.552666 0.144579
0.848112 0.55198 0.144305
0.875837 0.550729 0.145159
0.901915 0.548302 0.150698
0.926818 0.545617 0.159075
0.947738 0.543252 0.155276
0.019028 0.528878 0.400702
0.037644 0.532586 0.391928
0.0605631 0.536004 0.383307
0.0832074 0.539055 0.375219
0.104936 0.542092 0.367758
0.129137 0.544778 0.361181
0.160632 0.548165 0.354147
0.199405 0.552102 0.345708
0.243534 0.556359 0.336721
0.287373 0.560647 0.327398
0.31957 0.564034 0.320897
0.343465 0.566934 0.315373
0.367071 0.569635 0.309499
0.390402 0.572534 0.30367
0.416983 0.575525 0.297276
0.446906 0.578027 0.29041
0.479088 0.579721 0.28394
0.513802 0.580941 0.279393
0.547707 0.581704 0.277409
0.578653 0.582742 0.280003
0.607431 0.583917 0.285969
0.640055 0.584573 0.274388
0.67335 0.584863 0.248859
0.703807 0.584985 0.232776
0.733715 0.584588 0.216052
0.763027 0.584085 0.200885
0.791714 0.582956 0.188937
0.82031 0.581765 0.17998
0.8486 0.580377 0.174365
0.876081 0.579156 0.173342
0.902602 0.577371 0.175036
0.927565 0.574319 0.178332
0.954986 0.57763 0.180819
0.0341344 0.559243 0.424964
0.0538033 0.56257 0.416297
0.0770275 0.565698 0.408087
0.0978408 0.568505 0.400381
0.119951 0.571038 0.392889
0.144183 0.573785 0.386664
0.175738 0.576608 0.379675
0.21471 0.580072 0.372137
0.254917 0.58407 0.363577
0.298695 0.588388 0.354635
0.332204 0.591974 0.347082
0.357946 0.594812 0.341497
0.378851 0.597253 0.336217
0.401679 0.600061 0.33048
0.425544 0.602747 0.32459
0.451911 0.605524 0.318654
0.481636 0.608026 0.312551
0.514275 0.609583 0.306767
0.547631 0.610605 0.302586
0.580148 0.611399 0.30103
0.610101 0.61239 0.303487
0.638132 0.613458 0.309651
0.670054 0.613993 0.297002
0.702724 0.614404 0.272602
0.732586 0.614466 0.257725
0.762081 0.614023 0.242969
0.791333 0.613016 0.228794
0.820096 0.61149 0.217762
0.848707 0.609735 0.208774
0.876722 0.60824 0.203723
0.903319 0.606485 0.201999
0.928527 0.604013 0.201648
0.955718 0.608133 0.204318
0.0489052 0.58909 0.448417
0.0708324 0.592142 0.440146
0.0918593 0.594873 0.432441
0.113756 0.597543 0.424872
0.135729 0.600061 0.417929
0.160372 0.602213 0.411521
0.191363 0.605035 0.405142
0.228656 0.608133 0.397711
0.268254 0.611704 0.389609
0.309331 0.615732 0.380636
0.348577 0.619684 0.372198
0.373846 0.622538 0.366155
0.39353 0.624964 0.361181
0.413977 0.627405 0.356573
0.435721 0.630243 0.351263
0.46006 0.633066 0.345632
0.486748 0.635615 0.340169
0.515846 0.637827 0.334325
0.547906 0.639414 0.329183
0.580102 0.640391 0.325368
0.61146 0.641001 0.32398
0.640604 0.641886 0.326146
0.667597 0.643168 0.331792
0.699214 0.643549 0.318547
0.73135 0.6439 0.294774
0.760845 0.643915 0.2804
0.790387 0.643336 0.26685
0.819562 0.641978 0.254246
0.848539 0.640192 0.243854
0.877104 0.637797 0.234714
0.904067 0.635462 0.229358
0.929442 0.633158 0.225528
0.954574 0.632609 0.224063
0.0660105 0.618311 0.471122
0.0883192 0.621225 0.463462
0.108598 0.623789 0.455665
0.12961 0.626108 0.448829
0.153216 0.628367 0.441962
0.176883 0.630442 0.435538
0.206989 0.633021 0.429358
0.242542 0.63595 0.422354
0.281239 0.639323 0.414862
0.321538 0.643107 0.406394
0.361654 0.647059 0.396933
0.389944 0.650202 0.390021
0.409766 0.652461 0.384771
0.427604 0.65481 0.380362
0.447623 0.657542 0.376013
0.469093 0.660182 0.370993
0.493538 0.663096 0.365728
0.519982 0.665537 0.360449
0.549371 0.667506 0.355413
0.580133 0.669215 0.350774
0.611383 0.670085 0.347433
0.641932 0.670756 0.346136
0.670146 0.671595 0.347631
0.696468 0.672892 0.352865
0.727855 0.673335 0.339391
0.759686 0.673732 0.316258
0.788983 0.673686 0.302571
0.818463 0.672847 0.289219
0.847669 0.671153 0.277317
0.876753 0.668666 0.266255
0.904463 0.66601 0.257115
0.930526 0.662852 0.249912
0.954406 0.659205 0.242527
0.084596 0.647349 0.493767
0.105089 0.649973 0.486015
0.125139 0.652186 0.478843
0.146487 0.654368 0.472007
0.170047 0.656611 0.465629
0.194018 0.658488 0.459174
0.22211 0.6607 0.452766
0.257023 0.663767 0.446571
0.294286 0.666819 0.439292
0.332296 0.670436 0.430961
0.371084 0.674372 0.422095
0.403433 0.677806 0.413809
0.425299 0.680323 0.408316
0.442985 0.682582 0.403723
0.461067 0.684855 0.399451
0.480568 0.687617 0.395163
0.502373 0.69044 0.390448
0.526436 0.693111 0.385382
0.552834 0.695659 0.380301
0.581445 0.697826 0.375677
0.611475 0.699245 0.37113
0.641932 0.700236 0.367895
0.671351 0.700893 0.366674
0.69894 0.701717 0.367834
0.724819 0.703075 0.372549
0.756024 0.703426 0.358022
0.787793 0.703975 0.335576
0.817243 0.703853 0.323049
0.846906 0.702846 0.30959
0.87657 0.700725 0.296284
0.905013 0.697978 0.285267
0.931472 0.694148 0.276127
0.95555 0.690349 0.267597
0.10164 0.676219 0.515923
0.121141 0.678599 0.508675
0.141649 0.680751 0.501488
0.16347 0.682857 0.495033
0.18706 0.68484 0.488533
0.210941 0.686687 0.4822
0.237034 0.688746 0.475929
0.270542 0.691615 0.469764
0.305867 0.694575 0.46305
0.343221 0.697993 0.455329
0.380102 0.701579 0.446448
0.416205 0.705501 0.437568
0.440146 0.708247 0.430884
