src/luts/blur/3.cube
TITLE "Generated by Resolve"
LUT_3D_SIZE 9
0.0242313 0.0280461 0.0256809
0.0856641 0.0452277 0.0343786
0.190524 0.0603037 0.0345617
0.318273 0.0512093 0.0320439
0.437171 0.0485695 0.0463874
0.571237 0.053727 0.0887617
0.710948 0.0833906 0.159136
0.822583 0.183368 0.26096
0.846143 0.255451 0.320684
0.000885023 0.0734112 0.0588998
0.078233 0.0757763 0.041062
0.179904 0.0866102 0.0221256
0.32549 0.0973831 0.000122072
0.454398 0.102373 0.00393683
0.580362 0.0941176 0.0208438
0.711284 0.084062 0.0706035
0.814649 0.162097 0.169482
0.840543 0.238636 0.25716
0 0.151354 0.103105
0.0488899 0.162707 0.0733806
0.172595 0.16733 0.0409247
0.307881 0.178546 0.00390631
0.44976 0.194858 0
0.586435 0.195193 0.00595102
0.71104 0.1888 0.0350042
0.825498 0.198291 0.0943618
0.842649 0.24654 0.16965
0 0.259876 0.178775
0.0212863 0.278584 0.140612
0.169329 0.292439 0.0936446
0.326345 0.300649 0.0610208
0.465599 0.311452 0.0037995
0.597711 0.321355 0.000854505
0.723415 0.320882 0.0205844
0.83682 0.310277 0.0734875
0.87158 0.326574 0.136172
0 0.377493 0.275456
0.0450141 0.394263 0.235599
0.188083 0.413275 0.199496
0.330419 0.42504 0.156268
0.474937 0.430701 0.145174
0.610559 0.43331 0.0478981
0.730755 0.439094 0.0390326
0.846235 0.436927 0.0741741
0.909804 0.427314 0.126696
0.00640879 0.498314 0.376699
0.0920119 0.512383 0.341588
0.233448 0.528191 0.308598
0.353994 0.541711 0.282185
0.478996 0.550774 0.25539
0.6094 0.554589 0.251148
0.734371 0.554421 0.168872
0.848112 0.55198 0.144305
0.947738 0.543252 0.155276
0.0660105 0.618311 0.471122
0.153216 0.628367 0.441962
0.281239 0.639323 0.414862
0.409766 0.652461 0.384771
0.493538 0.663096 0.365728
0.611383 0.670085 0.347433
0.727855 0.673335 0.339391
0.847669 0.671153 0.277317
0.954406 0.659205 0.242527
0.13341 0.733303 0.560555
0.216724 0.740673 0.533654
0.324331 0.749599 0.508461
0.46775 0.764431 0.476219
0.53547 0.773236 0.457359
0.617548 0.784573 0.440742
0.727275 0.792752 0.424475
0.840208 0.79675 0.40618
0.95877 0.790478 0.335103
0.182071 0.826139 0.673091
0.258686 0.829679 0.643656
0.338582 0.834836 0.616053
0.473365 0.847639 0.585367
0.569543 0.858122 0.557336
0.628153 0.866331 0.542962
0.70985 0.876661 0.517815
0.823224 0.889097 0.492058
0.947784 0.896391 0.450126
0.0107271 0.0393988 0.0628061
0.0815747 0.0483711 0.0616617
0.190219 0.0633402 0.0647593
0.318853 0.0630655 0.0794995
0.442176 0.0800641 0.118044
0.576242 0.108736 0.177142
0.708354 0.142397 0.24654
0.837598 0.228382 0.334493
0.856428 0.287358 0.377203
0.00341802 0.0867933 0.102663
0.0691844 0.0943465 0.0942245
0.187716 0.101839 0.0755932
0.326452 0.107042 0.075288
0.450111 0.118303 0.098436
0.578973 0.134737 0.1402
0.707973 0.149325 0.199069
0.834974 0.221164 0.287648
0.8542 0.280354 0.339727
4.57771e-05 0.173877 0.187137
0.00665293 0.180056 0.146654
0.168338 0.1888 0.1205
0.322942 0.190997 0.0768292
0.457801 0.195422 0.0669413
0.588678 0.196658 0.0773022
0.712001 0.193561 0.110338
0.833478 0.218448 0.183185
0.850507 0.268391 0.256397
0.000457771 0.292805 0.298528
0.00445563 0.292592 0.233875
0.142565 0.307622 0.188281
0.319005 0.316197 0.157946
0.46923 0.316365 0.0957504
0.600534 0.320394 0.0814832
0.722744 0.322881 0.103746
0.834974 0.311101 0.146181
0.872999 0.330251 0.19968
0.00199893 0.405661 0.38262
0.013611 0.406394 0.327062
0.156115 0.422599 0.275685
0.314275 0.436316 0.244419
0.468391 0.441672 0.225376
0.608942 0.441657 0.152468
0.730022 0.443397 0.136751
0.844724 0.441093 0.160159
0.910048 0.429206 0.195407
0.0153811 0.519005 0.460822
0.0553597 0.522286 0.416831
0.190661 0.535454 0.373327
0.342611 0.54786 0.340978
0.46688 0.558999 0.314443
0.603998 0.562509 0.303517
0.732067 0.562371 0.240055
0.847791 0.558221 0.220264
0.947127 0.54432 0.22385
0.057557 0.631418 0.537606
0.114916 0.636027 0.501839
0.236057 0.645624 0.465446
0.397665 0.657694 0.427222
0.488472 0.668208 0.40882
0.604074 0.676783 0.387686
0.724117 0.679744 0.377203
0.846281 0.677501 0.315908
0.953933 0.6645 0.285359
0.108171 0.741482 0.615763
0.174044 0.747951 0.586114
0.27892 0.755459 0.552834
0.446891 0.769451 0.512261
0.530953 0.778302 0.488975
0.614298 0.789853 0.472908
0.722301 0.798886 0.45481
0.837919 0.802426 0.434302
0.958129 0.795544 0.360311
0.10103 0.833097 0.72784
0.222339 0.835935 0.695201
0.30135 0.839155 0.660136
0.441581 0.84979 0.61828
0.559731 0.861479 0.583551
0.623453 0.869841 0.567559
0.704982 0.880781 0.545007
0.818128 0.892973 0.514351
0.945998 0.900649 0.473625
0.000183108 0.0484321 0.135149
0.0829633 0.0556954 0.12163
0.174151 0.0717937 0.127504
0.31191 0.0764477 0.14316
0.443046 0.0932937 0.17998
0.579156 0.122026 0.231922
0.710048 0.155734 0.288487
0.841428 0.239643 0.367285
0.861387 0.301839 0.410269
1.5259e-05 0.103563 0.189532
0.0375982 0.110948 0.185962
0.164401 0.12871 0.168414
0.310124 0.148425 0.190646
0.445121 0.169284 0.223331
0.577508 0.195422 0.264759
0.703593 0.225086 0.312093
0.823819 0.249454 0.359609
0.866514 0.317449 0.405035
4.57771e-05 0.194232 0.265507
0.0140993 0.203525 0.255985
0.149538 0.215427 0.229969
0.321004 0.216861 0.186252
0.461799 0.222278 0.18883
0.594232 0.228641 0.211765
0.717998 0.231693 0.241215
0.836088 0.260639 0.302831
0.865721 0.314137 0.353521
0.000518807 0.311666 0.359472
0.0316014 0.319753 0.348043
0.0963149 0.326787 0.284962
0.301686 0.338994 0.274815
0.466484 0.335622 0.204913
0.601862 0.338994 0.197787
0.72491 0.340414 0.210681
0.83653 0.324086 0.238788
0.876219 0.339529 0.274983
0.0193484 0.430518 0.452506
0.0495308 0.432761 0.423636
0.100664 0.436805 0.366674
0.300786 0.450263 0.334569
0.456306 0.457801 0.318029
0.604852 0.455222 0.246586
0.729046 0.455451 0.230915
0.844694 0.452506 0.241825
0.910063 0.431022 0.258503
0.0687419 0.543923 0.527779
0.0870069 0.543893 0.49839
0.12723 0.546105 0.450828
0.322621 0.557061 0.403998
0.455192 0.569177 0.387808
0.595102 0.573297 0.373373
0.727886 0.572015 0.303807
0.846464 0.566842 0.281468
0.946853 0.546746 0.27422
0.109346 0.654215 0.603433
0.125338 0.653254 0.574853
0.175265 0.654459 0.533165
0.37319 0.665858 0.478599
0.482216 0.675273 0.459648
0.594675 0.686015 0.442802
0.718074 0.688441 0.428519
0.843412 0.685374 0.358907
0.952728 0.670741 0.326345
0.14873 0.764721 0.685176
0.162951 0.762493 0.654795
0.21445 0.76379 0.616419
0.399344 0.775341 0.560433
0.521065 0.784817 0.528023
0.610681 0.796933 0.514565
0.714946 0.806836 0.497047
0.833768 0.810086 0.474464
0.956512 0.80235 0.394903
0.116884 0.848219 0.796643
0.140169 0.845685 0.765072
0.239765 0.846387 0.725948
0.38471 0.852354 0.665919
0.542367 0.865675 0.619318
0.614984 0.874128 0.599878
0.698436 0.886015 0.580957
0.810071 0.89807 0.547768
0.942504 0.906508 0.50753
1.5259e-05 0.0566262 0.235752
0.0774243 0.0590829 0.213825
0.180514 0.0850996 0.226993
0.305165 0.101411 0.23444
0.43798 0.117601 0.259174
0.578027 0.144244 0.295506
0.709209 0.175128 0.33959
0.838224 0.247242 0.402838
0.864424 0.31104 0.442847
6.10361e-05 0.12491 0.285878
0.00813306 0.129763 0.28011
0.169894 0.144305 0.27158
0.304234 0.168185 0.268391
0.44416 0.190402 0.293477
0.580621 0.213382 0.324529
0.706004 0.239841 0.360937
0.821973 0.269368 0.404318
0.873396 0.338109 0.450248
0 0.218173 0.362097
0.00285344 0.227878 0.354223
0.0954604 0.241642 0.345098
0.283055 0.263432 0.322362
0.426307 0.294514 0.348653
0.574533 0.313695 0.369329
0.704097 0.326314 0.390311
0.821103 0.330602 0.414389
0.883589 0.367529 0.447257
0 0.331899 0.424292
0.0177462 0.339574 0.41297
0.112001 0.348974 0.398993
0.289845 0.364874 0.3738
0.458671 0.36733 0.333455
0.603601 0.370932 0.330007
0.728283 0.370153 0.336645
0.839811 0.35581 0.349889
0.885832 0.370413 0.380301
0.0163729 0.44622 0.499428
0.0751965 0.451652 0.487343
0.150912 0.457191 0.460548
0.260349 0.467704 0.413611
0.435462 0.479576 0.419959
0.596582 0.476677 0.354208
0.72723 0.477104 0.339696
0.845396 0.469947 0.339361
0.910552 0.436271 0.339162
0.0961318 0.561608 0.58172
0.143938 0.563745 0.566247
0.190143 0.565881 0.531655
0.273686 0.571542 0.475105
0.444709 0.582101 0.461204
0.580926 0.588342 0.456321
0.720699 0.586374 0.386175
0.843656 0.581384 0.362325
0.9467 0.558312 0.346426
0.165072 0.67303 0.664118
0.189288 0.672541 0.639887
0.223758 0.673091 0.608576
0.303792 0.677333 0.551324
0.466529 0.684977 0.515297
0.58558 0.697276 0.508995
0.708309 0.700694 0.49546
0.838178 0.69749 0.42092
0.950591 0.681544 0.383276
0.194614 0.784741 0.749187
0.21326 0.783307 0.723644
0.239185 0.782452 0.691707
0.312139 0.784207 0.634791
0.496651 0.793393 0.576013
0.604028 0.805432 0.564248
0.705943 0.817166 0.552697
0.826566 0.820569 0.530053
0.953063 0.812512 0.44419
0.170214 0.863111 0.861051
0.204379 0.861708 0.83476
0.240589 0.860227 0.803098
0.31664 0.859144 0.745632
0.499886 0.868849 0.665187
0.598871 0.87921 0.641978
0.689723 0.892805 0.627665
0.797345 0.905562 0.59942
0.936004 0.914595 0.55581
0 0.0810407 0.327474
0.0474098 0.0581674 0.295415
0.196094 0.104875 0.319295
0.315389 0.125734 0.325032
0.43682 0.149432 0.336095
0.572686 0.176181 0.3617
0.704952 0.204837 0.392874
0.825971 0.242924 0.436835
0.868116 0.32134 0.481453
3.0518e-05 0.155383 0.372427
0.00650034 0.155627 0.363745
0.167773 0.15938 0.360906
0.311055 0.191836 0.354574
0.439246 0.216678 0.362234
0.576303 0.242054 0.386297
0.704143 0.262791 0.412863
0.819181 0.283864 0.446097
0.876707 0.347799 0.489357
3.0518e-05 0.251347 0.433204
0.00495918 0.255741 0.426612
0.0877852 0.264805 0.418616
0.294347 0.28159 0.401404
0.432181 0.308675 0.401205
0.57055 0.338094 0.4262
0.699672 0.356619 0.449622
0.816114 0.364904 0.473594
0.892363 0.394675 0.507317
1.5259e-05 0.354971 0.506096
0.00285344 0.361624 0.494469
0.0614328 0.373465 0.477241
0.257435 0.388998 0.459586
0.423697 0.40502 0.439643
0.570108 0.42443 0.454353
0.703929 0.434379 0.466087
0.824582 0.431388 0.478187
0.904601 0.431067 0.495613
0.0156252 0.465095 0.560678
0.0547189 0.470039 0.548287
0.132052 0.476493 0.530404
0.284794 0.48629 0.505058
0.428443 0.500099 0.491646
0.584619 0.502876 0.453941
0.72282 0.504067 0.444144
0.84564 0.491646 0.438834
0.914885 0.456397 0.429923
0.0854505 0.577081 0.633448
0.130968 0.579156 0.619577
0.215213 0.581521 0.600961
0.30753 0.586587 0.562524
0.413672 0.59884 0.524285
0.562799 0.608011 0.538293
0.710689 0.604929 0.473793
0.84033 0.60032 0.449699
0.945312 0.578271 0.426596
0.160204 0.687816 0.718929
0.213886 0.687907 0.702907
0.273701 0.688334 0.67602
0.344259 0.691554 0.627359
0.421897 0.69955 0.577096
0.575463 0.710277 0.570855
0.693935 0.717128 0.571267
0.830823 0.713573 0.494621
0.947784 0.697215 0.454963
0.221103 0.799969 0.818082
0.251606 0.799222 0.791531
0.284108 0.79884 0.760067
0.348089 0.800275 0.709148
0.44622 0.805035 0.639231
0.584939 0.815213 0.615885
0.696651 0.829007 0.613764
0.815427 0.833875 0.597833
0.947723 0.826017 0.506798
0.195438 0.874434 0.912734
0.23508 0.874403 0.894148
0.273091 0.874037 0.869184
0.333501 0.873457 0.820371
0.411292 0.872267 0.743542
0.564248 0.883467 0.690761
0.675074 0.899641 0.679133
0.782116 0.91487 0.663218
0.925399 0.925017 0.616648
0 0.124437 0.414038
0.00381476 0.0940871 0.385153
0.199985 0.128679 0.398322
0.336568 0.153384 0.405478
0.449241 0.181949 0.411185
0.572839 0.214008 0.426581
0.699443 0.242283 0.450309
0.816831 0.262043 0.479026
0.872511 0.334264 0.525277
4.57771e-05 0.196933 0.454475
0.00697337 0.193469 0.442084
0.140581 0.176333 0.431067
0.328115 0.213046 0.436805
0.450156 0.238331 0.432303
0.572183 0.273228 0.446235
0.697581 0.29546 0.468116
0.813962 0.305623 0.491997
0.880583 0.359655 0.533516
3.0518e-05 0.287785 0.5084
0.00788891 0.289372 0.500832
0.077348 0.291707 0.489158
0.296605 0.293172 0.487617
0.444572 0.325475 0.463798
0.568414 0.356252 0.477195
0.694347 0.379049 0.499596
0.81323 0.383856 0.519753
0.895247 0.404913 0.551171
6.10361e-05 0.38555 0.578912
0.00401312 0.390692 0.569024
0.0615244 0.397391 0.55407
0.22211 0.40911 0.543084
0.427863 0.421927 0.511666
0.550423 0.449348 0.516411
0.673213 0.47776 0.540505
0.800046 0.4878 0.56054
0.905638 0.483986 0.581827
0.00128176 0.488197 0.644968
0.0216831 0.491844 0.631617
0.079408 0.49836 0.614298
0.203601 0.50724 0.587457
0.410208 0.521279 0.56643
0.559579 0.533272 0.542809
0.698207 0.54406 0.548455
0.827726 0.539513 0.550393
0.927092 0.517891 0.55404
0.0688945 0.5953 0.703731
0.106798 0.597116 0.687999
0.170428 0.599664 0.667628
0.289693 0.602991 0.642069
0.429679 0.614221 0.608164
0.557122 0.626307 0.600549
0.698299 0.627649 0.558282
0.835019 0.624079 0.54023
0.943252 0.59942 0.518471
0.14229 0.703731 0.785107
0.181308 0.703761 0.7673
0.246448 0.704265 0.744259
0.351293 0.704799 0.711482
0.44593 0.713939 0.663523
0.544213 0.728542 0.629206
0.678828 0.737484 0.647425
0.821576 0.732952 0.573602
0.944518 0.715999 0.534798
0.18851 0.812238 0.879164
0.225086 0.812085 0.860212
0.285451 0.811765 0.835538
0.372244 0.813031 0.782803
0.4495 0.816892 0.727596
0.537881 0.826993 0.67541
0.682353 0.841001 0.672023
0.798062 0.850813 0.675792
0.941238 0.842069 0.577554
0.063447 0.877012 0.947402
0.193103 0.880049 0.942458
0.285557 0.883558 0.924086
0.353429 0.885466 0.88539
0.437629 0.886213 0.816785
0.490898 0.884596 0.746761
0.642588 0.904524 0.732433
0.764187 0.924102 0.729625
0.906538 0.938323 0.698985
0 0.180728 0.506584
0.00444038 0.156313 0.477028
0.187427 0.155184 0.471504
0.352956 0.190188 0.486076
0.470985 0.218753 0.493019
0.583703 0.251896 0.497276
0.698665 0.281758 0.512795
0.81207 0.295262 0.53109
0.877653 0.349523 0.570459
4.57771e-05 0.247074 0.541711
0.00886549 0.239094 0.525154
0.0915541 0.211658 0.502556
0.333059 0.241596 0.516274
0.46479 0.273625 0.514824
0.579828 0.300496 0.512551
0.693614 0.329412 0.527001
0.808316 0.338048 0.544732
0.885161 0.373388 0.578943
0.000320439 0.327977 0.589349
0.011902 0.326909 0.579538
0.0705425 0.324376 0.564385
0.276616 0.31191 0.56466
0.448936 0.345586 0.548775
0.578515 0.366857 0.537346
0.689052 0.400473 0.551568
0.806561 0.409949 0.570581
0.899062 0.41706 0.596948
0.00225834 0.419486 0.653132
0.0144503 0.421057 0.642481
0.0717479 0.424796 0.628122
0.215579 0.430137 0.612222
0.417853 0.431632 0.611475
0.568612 0.460258 0.56997
0.677363 0.488365 0.58529
0.796536 0.503975 0.607095
0.902831 0.495018 0.625345
0.00129702 0.51516 0.743679
0.0119326 0.518425 0.728222
0.0645151 0.52285 0.706142
0.174334 0.528298 0.674708
0.361837 0.540154 0.665034
0.545571 0.551568 0.631312
0.656107 0.575998 0.627329
0.76495 0.604044 0.651316
0.890394 0.601801 0.668574
0.0440223 0.616449 0.801785
0.0729686 0.618006 0.785687
0.113359 0.620661 0.763531
0.214282 0.625147 0.730785
0.365499 0.632731 0.705135
0.539498 0.646922 0.676966
0.683711 0.653803 0.642222
0.823163 0.654475 0.636545
0.936675 0.628992 0.624842
0.114885 0.720607 0.867155
0.147921 0.721325 0.85008
0.197421 0.72256 0.827008
0.299092 0.724056 0.788693
0.4271 0.729091 0.763684
0.557473 0.743999 0.715297
0.671748 0.757122 0.711452
0.809339 0.756237 0.6551
0.940917 0.737652 0.620706
0.0910658 0.826551 0.934005
0.165759 0.825544 0.925017
0.237858 0.82472 0.906249
0.324788 0.825925 0.868482
0.440787 0.82974 0.823484
0.548257 0.84065 0.771954
0.643565 0.855512 0.734173
0.780072 0.868498 0.757687
0.933547 0.860563 0.654643
0.0729381 0.877882 0.947677
0.0954757 0.880385 0.948363
0.141833 0.883818 0.949798
0.331304 0.89044 0.944671
0.421881 0.896376 0.900282
0.501778 0.900099 0.845472
0.579751 0.904234 0.786236
0.731228 0.930282 0.7888
0.87686 0.951797 0.792523
0 0.243259 0.608637
0.00425727 0.217502 0.572625
0.134035 0.18558 0.546242
0.359503 0.230259 0.572168
0.493538 0.256886 0.575479
0.599741 0.294774 0.58262
0.705791 0.319005 0.5832
0.812329 0.335576 0.594308
0.88394 0.368704 0.618662
0.000991836 0.30071 0.636896
0.0110933 0.290852 0.616129
0.0696574 0.26537 0.587213
0.325902 0.27245 0.597665
0.479896 0.303609 0.59823
0.589807 0.340963 0.597665
0.697993 0.358831 0.593835
0.805539 0.373526 0.605524
0.890379 0.389441 0.62623
0.00373846 0.37026 0.680827
0.018204 0.367468 0.667872
0.0738994 0.362142 0.648173
0.2495 0.344915 0.637324
0.45211 0.365698 0.6309
0.576638 0.400168 0.620233
0.693416 0.416648 0.613245
0.801175 0.435676 0.626886
0.901244 0.433585 0.644694
0.00294499 0.453056 0.741436
0.0166934 0.453147 0.729503
0.0769818 0.453178 0.711849
0.201678 0.452979 0.687205
0.402396 0.442725 0.696956
0.558389 0.478431 0.661341
0.691112 0.492561 0.642756
0.794308 0.518761 0.657801
0.898054 0.509529 0.673472
0.0141299 0.542046 0.822065
0.0319982 0.543618 0.808225
0.0721141 0.546181 0.788098
0.166659 0.549004 0.758022
0.352605 0.555947 0.739971
0.534051 0.563088 0.733318
0.676204 0.586328 0.678294
0.777966 0.609339 0.696101
0.890318 0.614649 0.718196
0.00337224 0.649729 0.891569
0.00782788 0.64921 0.8907
0.0505837 0.644862 0.876417
0.155886 0.64448 0.838651
0.310109 0.650309 0.791882
0.491081 0.663996 0.786984
0.665583 0.675959 0.736156
0.768154 0.696162 0.734493
0.884627 0.708247 0.753048
0.0272831 0.750484 0.916335
0.0358892 0.748714 0.915358
0.0568246 0.747433 0.914351
0.211749 0.74255 0.891737
0.336736 0.748302 0.84773
0.498054 0.761761 0.829374
0.6495 0.779263 0.800412
0.793667 0.784207 0.74786
0.936309 0.763928 0.719966
0.0966812 0.84062 0.937743
0.127642 0.840146 0.937591
0.179232 0.84007 0.937697
0.2813 0.841123 0.938842
0.374853 0.841932 0.907164
0.520256 0.85304 0.878386
0.647318 0.868894 0.833173
0.764385 0.884367 0.833021
0.922957 0.882506 0.745403
0.0885786 0.879561 0.948135
0.111315 0.881651 0.948882
0.152056 0.884474 0.950088
0.245563 0.889921 0.952377
0.369375 0.898238 0.956115
0.482399 0.910292 0.935424
0.586389 0.920226 0.892042
0.682338 0.931548 0.850889
0.842405 0.962432 0.880034
3.0518e-05 0.304051 0.719509
0.00727855 0.281376 0.675929
0.0726177 0.236774 0.637812
0.353201 0.270268 0.661448
0.504967 0.29984 0.668742
0.620676 0.323781 0.669322
0.720729 0.352056 0.668132
0.81799 0.372656 0.668742
0.891951 0.392981 0.679271
0.00201419 0.352377 0.73994
0.0129244 0.34229 0.715099
0.0673533 0.324819 0.683742
0.301946 0.303151 0.68162
0.482826 0.337255 0.68954
0.608377 0.361822 0.683955
0.708431 0.392752 0.67657
0.808972 0.404852 0.677058
0.897185 0.41059 0.684688
0.00486763 0.41181 0.780163
0.0209506 0.407721 0.764431
0.0749981 0.401038 0.740902
0.213687 0.383886 0.713527
0.443641 0.39089 0.720684
0.587655 0.415106 0.706188
0.695827 0.445899 0.693217
0.803265 0.456168 0.694286
0.899367 0.45893 0.704723
0.000122072 0.507485 0.8439
0.0199741 0.492576 0.824735
0.079469 0.48069 0.801648
0.176043 0.47602 0.771969
0.385016 0.464622 0.769741
0.561578 0.484291 0.751995
0.683604 0.519661 0.725078
0.800168 0.52755 0.722179
0.897047 0.530968 0.733135
0.00650034 0.59057 0.872099
0.00981155 0.588754 0.870909
0.0219272 0.586908 0.869093
0.152102 0.567468 0.842649
0.336233 0.570184 0.817777
0.523217 0.566934 0.823423
0.668162 0.599832 0.774273
0.794812 0.611795 0.757549
0.892989 0.62443 0.7738
0.0124514 0.680842 0.899351
0.0239261 0.678599 0.898253
0.0420691 0.676493 0.896834
0.107713 0.674144 0.895888
0.261845 0.665446 0.881819
0.462654 0.673198 0.87187
0.654917 0.68574 0.847578
0.773083 0.712169 0.800641
0.876707 0.726452 0.820386
0.0242161 0.784543 0.924758
0.029099 0.782055 0.923659
0.0395056 0.779675 0.922271
0.0964218 0.777447 0.921386
0.250294 0.775097 0.923262
0.424765 0.775937 0.909239
0.618692 0.794003 0.895155
0.779324 0.806531 0.847822
0.884291 0.82063 0.847623
0.0804456 0.856504 0.942275
0.107881 0.856077 0.941878
0.153109 0.856031 0.941756
0.241749 0.856565 0.942077
0.351583 0.858686 0.944289
0.463508 0.864668 0.949157
0.602365 0.879362 0.936172
0.738338 0.897993 0.924697
0.901854 0.908339 0.865599
0.116335 0.882017 0.949035
0.140459 0.883726 0.949767
0.176638 0.885924 0.950652
0.254444 0.890471 0.952621
0.355749 0.897795 0.955825
0.441733 0.908309 0.960174
0.550851 0.924468 0.967117
0.686641 0.945296 0.9505
0.823957 0.969604 0.957305
