src/luts/blur/4.cube
TITLE "Generated by Resolve"
LUT_3D_SIZE 33
0.0242313 0.0280461 0.0256809
0.0356909 0.0315557 0.0291752
0.0497292 0.034699 0.0309911
0.0639506 0.0393835 0.0323949
0.0824598 0.0439765 0.0335241
0.101289 0.0483406 0.0348821
0.122087 0.0527504 0.035172
0.147555 0.0562142 0.0352483
0.177417 0.0587472 0.0343175
0.208453 0.0597086 0.0316777
0.239216 0.0594034 0.0274662
0.269352 0.0576181 0.0267796
0.298344 0.0532082 0.0286107
0.32575 0.0446784 0.0302586
0.353109 0.0402075 0.0314488
0.380514 0.0375525 0.0328985
0.40827 0.0372168 0.0377203
0.436728 0.0391699 0.0460822
0.466453 0.0381933 0.0539864
0.497398 0.0360418 0.0632944
0.5299 0.0341497 0.0740215
0.562921 0.0350958 0.086305
0.595514 0.0393225 0.100328
0.62855 0.0455024 0.116014
0.662242 0.051667 0.133059
0.6963 0.06009 0.153185
0.730282 0.0702525 0.176043
0.765148 0.0878614 0.203723
0.804135 0.130816 0.23711
0.812741 0.15259 0.254185
0.818738 0.171069 0.269093
0.824598 0.188846 0.284031
0.830533 0.206973 0.298573
0.0209049 0.0379187 0.0324102
0.0343786 0.0386358 0.0310826
0.0490883 0.0399481 0.0302129
0.0647593 0.0423285 0.0306401
0.0850996 0.0461891 0.0305791
0.104768 0.0501106 0.0297704
0.127245 0.0538949 0.0281834
0.154543 0.0565652 0.0254826
0.184192 0.0585641 0.0225528
0.214542 0.0594797 0.0171511
0.244724 0.059144 0.0104219
0.274922 0.0584878 0.0084535
0.303807 0.0560769 0.00967422
0.332006 0.051667 0.0117952
0.359091 0.0485542 0.0131075
0.386007 0.0450904 0.0150607
0.413428 0.0435187 0.0197452
0.441306 0.0437171 0.0263371
0.470665 0.0423133 0.0341344
0.501381 0.040177 0.0431983
0.533608 0.0376898 0.0538491
0.565881 0.0382239 0.0662852
0.59791 0.0411688 0.0794385
0.630793 0.0461128 0.0949416
0.664118 0.0521859 0.111864
0.697658 0.0602884 0.131106
0.731731 0.0705577 0.154208
0.766323 0.0882124 0.183352
0.804852 0.13077 0.217639
0.812192 0.151705 0.235767
0.818143 0.16997 0.252262
0.824063 0.1879 0.267903
0.83006 0.205875 0.28365
0.0115053 0.0486 0.0396887
0.0241245 0.0493629 0.0366217
0.0474708 0.0504005 0.0352483
0.0605936 0.0510262 0.0326848
0.07953 0.0535286 0.031693
0.10013 0.0567788 0.0307317
0.121523 0.0603647 0.0286412
0.149722 0.0628519 0.0242161
0.182574 0.0644083 0.0181888
0.215488 0.0651255 0.0116732
0.247654 0.06598 0.00474556
0.27892 0.0662699 0.00120546
0.308949 0.0663462 3.0518e-05
0.337942 0.0657206 1.5259e-05
0.366583 0.0641184 0.00177005
0.393469 0.0626993 0.00389105
0.419883 0.0588083 0.00735485
0.447272 0.0550088 0.0107118
0.476173 0.050782 0.0153353
0.506539 0.0475776 0.0222934
0.538064 0.0438697 0.0332952
0.569482 0.0435187 0.0451972
0.601129 0.04477 0.0577096
0.633356 0.0476234 0.0725719
0.666041 0.0527962 0.0889448
0.699214 0.0600443 0.10808
0.732967 0.0704967 0.130388
0.767224 0.0881666 0.160098
0.805127 0.129488 0.195117
0.811337 0.149767 0.215
0.817349 0.1682 0.233082
0.823301 0.186236 0.250477
0.829465 0.204395 0.266911
0.00584421 0.0598001 0.0482032
0.0163882 0.0609598 0.0436408
0.037583 0.0616312 0.0400549
0.0608988 0.0626841 0.0391699
0.074342 0.0625467 0.035584
0.0953078 0.0647288 0.0332799
0.114107 0.0687572 0.0314488
0.140246 0.0727855 0.0281529
0.174411 0.0756085 0.0205997
0.209583 0.0784772 0.0138705
0.243915 0.0806287 0.00769055
0.27689 0.0821546 0.00296025
0.308644 0.0831922 0.000320439
0.339788 0.0836042 3.0518e-05
0.369711 0.0836652 0
0.398672 0.082826 0
0.426108 0.0809339 0.00216678
0.45449 0.0784772 0.00491341
0.482368 0.0749981 0.00796521
0.512627 0.066331 0.0123903
0.542794 0.0597848 0.016907
0.573327 0.0533608 0.0257877
0.604456 0.0496529 0.0355688
0.636072 0.0486 0.0484169
0.668086 0.051957 0.0632639
0.700679 0.0577249 0.080354
0.733593 0.0673991 0.102647
0.767117 0.0850538 0.131136
0.802823 0.123156 0.166125
0.809262 0.14403 0.188052
0.815534 0.163531 0.209079
0.821866 0.181979 0.228824
0.828061 0.200504 0.24744
0.00125124 0.0733501 0.0581979
0.0110475 0.0743572 0.05243
0.0320287 0.0758526 0.0480659
0.0554971 0.0760357 0.0438544
0.0744488 0.0771038 0.0426642
0.093019 0.0771496 0.0382086
0.109606 0.0796979 0.0351568
0.131365 0.0834516 0.032166
0.162799 0.0866255 0.0265049
0.198978 0.0896468 0.0175479
0.234806 0.0927596 0.0102235
0.269184 0.0951095 0.0047303
0.302922 0.09691 0.00141909
0.335714 0.0984054 7.62951e-05
0.367971 0.0995804 1.5259e-05
0.398856 0.101183 0
0.429282 0.101854 0
0.458289 0.101198 0.00201419
0.486778 0.0993057 0.00518807
0.51574 0.0956741 0.0081178
0.546441 0.0911421 0.0104982
0.576471 0.0844892 0.0139773
0.607584 0.078584 0.024033
0.638178 0.0717632 0.0338293
0.669764 0.0648661 0.0445563
0.701595 0.0629282 0.0573434
0.734142 0.0658122 0.0736706
0.767391 0.0808576 0.0981613
0.799466 0.113695 0.129458
0.806271 0.13521 0.152392
0.812711 0.155657 0.175494
0.819196 0.174853 0.198276
0.82565 0.193576 0.220188
0.000122072 0.0891127 0.0684215
0.00709545 0.0903639 0.0618143
0.0236057 0.092195 0.0572671
0.0468757 0.0932021 0.0517586
0.0705577 0.0935836 0.0468452
0.0924392 0.09514 0.0454414
0.109148 0.0965438 0.040589
0.128908 0.0993973 0.0359503
0.155367 0.1028 0.0310369
0.190219 0.10634 0.0224002
0.225757 0.110033 0.0125734
0.2607 0.113558 0.00585946
0.295186 0.11635 0.00234989
0.328908 0.117952 0.000259403
0.362661 0.119493 6.10361e-05
0.395575 0.120439 0
0.427436 0.120958 1.5259e-05
0.458106 0.121645 0.000183108
0.48809 0.121004 0.00256352
0.517922 0.118791 0.0055848
0.548165 0.115709 0.00796521
0.578332 0.113008 0.00981155
0.608362 0.10927 0.0132906
0.638407 0.104509 0.0210117
0.669017 0.0979782 0.0307317
0.699886 0.091722 0.0418402
0.732448 0.0881056 0.0601816
0.764431 0.0933089 0.078584
0.798764 0.118639 0.101854
0.805524 0.134157 0.120592
0.810605 0.150698 0.139391
0.815961 0.166491 0.159365
0.822568 0.185077 0.183429
9.15541e-05 0.107637 0.0787823
0.00411994 0.10959 0.0720378
0.0145724 0.111635 0.0673991
0.0359197 0.113405 0.0616007
0.062974 0.114168 0.0543374
0.0901656 0.114153 0.049485
0.110323 0.115831 0.0472267
0.130053 0.11693 0.0420081
0.153597 0.119173 0.0358434
0.186038 0.122606 0.027512
0.220615 0.126543 0.0167697
0.255085 0.130816 0.00805676
0.288823 0.134737 0.00363165
0.322744 0.13814 0.00146487
0.356786 0.140764 0.000198367
0.390555 0.14284 6.10361e-05
0.424247 0.144549 0
0.456703 0.145281 4.57771e-05
0.488533 0.145571 0.000640879
0.51902 0.143664 0.00325017
0.549386 0.141131 0.00563058
0.579263 0.138598 0.00729381
0.60914 0.135241 0.00952163
0.638865 0.132357 0.0142061
0.668467 0.127337 0.022797
0.698848 0.12195 0.0323033
0.729229 0.115785 0.044419
0.760037 0.114427 0.0605173
0.792447 0.129015 0.0784009
0.808499 0.14609 0.101015
0.81355 0.160388 0.119326
0.818479 0.174563 0.138384
0.823529 0.189014 0.157931
0 0.128954 0.0898299
0.000167849 0.131655 0.0835737
0.0071107 0.134142 0.0785382
0.0271 0.136492 0.0728161
0.0539254 0.138125 0.0649424
0.0829175 0.138277 0.0560769
0.109392 0.13843 0.0509651
0.133089 0.140887 0.0477455
0.156954 0.142138 0.0404364
0.186069 0.143954 0.0311894
0.219776 0.147097 0.0206302
0.253498 0.150774 0.0105592
0.285908 0.155215 0.00517281
0.318883 0.159503 0.00248722
0.352422 0.163394 0.000854505
0.386969 0.166629 0.00015259
0.421118 0.168841 0
0.455161 0.171099 0
0.488212 0.172259 0.000213626
0.520043 0.172107 0.00144961
0.551339 0.170367 0.00358587
0.581201 0.167254 0.00556954
0.611063 0.164721 0.00672923
0.640558 0.161608 0.0104372
0.670008 0.158022 0.0164187
0.699825 0.154955 0.0258793
0.729412 0.1505 0.0368811
0.758709 0.146151 0.0505074
0.788205 0.145663 0.0665293
0.812222 0.158679 0.0776074
0.816266 0.17026 0.0949264
0.820508 0.181781 0.112215
0.825315 0.19556 0.130236
1.5259e-05 0.152514 0.103029
1.5259e-05 0.155871 0.0965133
0.00392157 0.158953 0.0903792
0.021912 0.161929 0.084184
0.0443122 0.164508 0.077821
0.0764935 0.165698 0.0688792
0.105455 0.165759 0.0587778
0.133379 0.166873 0.0513619
0.162036 0.16994 0.0476234
0.191272 0.171664 0.0346227
0.222049 0.172854 0.0233005
0.254948 0.175723 0.0131533
0.287526 0.179675 0.00677501
0.319478 0.183948 0.00349432
0.351995 0.188037 0.00149538
0.385336 0.191821 0.000259403
0.419348 0.195575 4.57771e-05
0.453574 0.198306 0
0.487938 0.200916 1.5259e-05
0.520912 0.202029 0.000701915
0.552789 0.201129 0.00221256
0.583642 0.198993 0.0037232
0.613489 0.196246 0.00541695
0.643198 0.193423 0.00575265
0.672831 0.190753 0.0124056
0.702327 0.187442 0.0208743
0.73167 0.184024 0.0300908
0.76022 0.180972 0.0429236
0.788571 0.179126 0.057557
0.818402 0.186557 0.0678874
0.823102 0.191913 0.0814374
0.826658 0.201465 0.0988479
0.830564 0.212222 0.116213
1.5259e-05 0.178271 0.119127
6.10361e-05 0.182116 0.112123
0.002533 0.185748 0.105348
0.0106203 0.189166 0.098558
0.0341802 0.192401 0.0918746
0.0695048 0.195071 0.0826581
0.100542 0.195941 0.0720836
0.131212 0.196658 0.0610513
0.163638 0.198322 0.0519722
0.195392 0.201663 0.0485847
0.228656 0.204211 0.0317235
0.261219 0.206638 0.0165103
0.29247 0.209491 0.00901808
0.324117 0.213458 0.00491341
0.355489 0.21738 0.00231937
0.387778 0.221195 0.000595102
0.420737 0.224994 0.000122072
0.454337 0.228305 0
0.488746 0.231342 0
0.522362 0.233234 0.000411994
0.55491 0.233539 0.00114443
0.586099 0.231891 0.00241093
0.61648 0.229618 0.00393683
0.646708 0.22742 0.00421149
0.676143 0.224567 0.00706493
0.705608 0.221347 0.0159915
0.73492 0.218494 0.0256809
0.763287 0.215244 0.0367132
0.790417 0.212818 0.0502937
0.818921 0.217487 0.0633707
0.832044 0.218387 0.0694896
0.834669 0.225711 0.086717
0.83772 0.234089 0.103914
0 0.205951 0.136736
0.000137331 0.210544 0.128954
0.00122072 0.214603 0.121736
0.00875868 0.218387 0.11458
0.0298924 0.221714 0.10782
0.0602121 0.225315 0.0991684
0.0947585 0.227771 0.0891127
0.126726 0.228885 0.0768749
0.162158 0.229969 0.0647135
0.19791 0.232334 0.0560922
0.231693 0.235554 0.0565347
0.266484 0.237644 0.0404517
0.300359 0.240604 0.0196078
0.332799 0.244053 0.00709545
0.363333 0.247333 0.00328069
0.394339 0.251057 0.00112917
0.426093 0.254871 0.000228885
0.458671 0.258747 4.57771e-05
0.491508 0.26215 0.000137331
0.524636 0.264759 0.000381476
0.55729 0.265476 0.000885023
0.588678 0.264988 0.00134279
0.619486 0.263676 0.00218204
0.650019 0.261784 0.00271611
0.68011 0.259861 0.00389105
0.709499 0.257481 0.0116274
0.738308 0.253834 0.0215915
0.766659 0.250202 0.0314488
0.793652 0.247425 0.0442054
0.819593 0.245365 0.057496
0.842893 0.249058 0.0598154
0.844556 0.254078 0.0767071
0.846555 0.259754 0.0936751
1.5259e-05 0.23508 0.156741
0.00015259 0.239734 0.148028
0.00247196 0.24416 0.140108
0.0112917 0.24799 0.132647
0.0255131 0.251743 0.125216
0.0584573 0.255604 0.117128
0.0923781 0.258976 0.10782
0.122225 0.261341 0.0966964
0.159884 0.263386 0.084123
0.198016 0.265217 0.0718547
0.234882 0.267353 0.0650339
0.269673 0.270069 0.0664683
0.304967 0.271794 0.0481422
0.338399 0.27422 0.0274815
0.371298 0.277501 0.0126802
0.402823 0.281392 0.00512703
0.434165 0.285191 0.00213626
0.465843 0.289204 0.00112917
0.497185 0.292515 0.000991836
0.528954 0.294972 0.000823987
0.560525 0.29662 0.000808728
0.592187 0.29723 0.00128176
0.622614 0.296727 0.000991836
0.653468 0.296117 0.000366217
0.683787 0.295125 0.00138857
0.713405 0.293126 0.0102693
0.742107 0.290227 0.018555
0.770291 0.286198 0.0276951
0.79707 0.282597 0.0400397
0.823102 0.280095 0.0527352
0.850721 0.285893 0.0556802
0.855268 0.283375 0.0661326
0.85687 0.287755 0.0836042
1.5259e-05 0.264347 0.178164
0.000183108 0.269154 0.16849
0.00433356 0.27364 0.159823
0.01149 0.277485 0.152285
0.0283665 0.2813 0.14493
0.0594644 0.28542 0.136965
0.0911727 0.289555 0.128267
0.122881 0.292714 0.117861
0.157961 0.295323 0.104814
0.196216 0.29778 0.0918898
0.236103 0.299977 0.0788739
0.273289 0.301961 0.0751965
0.307683 0.304524 0.0766155
0.342763 0.305852 0.0584726
0.376089 0.307347 0.0333104
0.408835 0.31017 0.0167391
0.440787 0.313649 0.00802625
0.471824 0.317128 0.00437934
0.503212 0.3205 0.00250248
0.53463 0.323644 0.00131228
0.565515 0.325917 0.00077821
0.596246 0.327642 0.000411994
0.626612 0.328664 0.000686656
0.657008 0.328954 0.000213626
0.687068 0.329046 0.00396735
0.716533 0.327932 0.0108186
0.745159 0.325612 0.0179599
0.773373 0.322118 0.0240177
0.800458 0.318349 0.0360266
0.826307 0.31426 0.0496529
0.852262 0.314763 0.0591745
0.867079 0.313619 0.0540475
0.867964 0.316411 0.0717021
0 0.294209 0.201663
0.00187686 0.298894 0.19118
0.00605783 0.303029 0.182193
0.0177005 0.306966 0.173922
0.034638 0.310719 0.166812
0.0627909 0.314977 0.158602
0.0955215 0.319539 0.149706
0.125841 0.323507 0.140688
0.158053 0.326635 0.130327
0.196643 0.329763 0.117723
0.234775 0.332082 0.103365
0.274449 0.334142 0.0924086
0.311452 0.336202 0.0894026
0.345113 0.338491 0.0940108
0.379675 0.339818 0.0772717
0.412772 0.340642 0.0476692
0.445747 0.342672 0.02327
0.477806 0.345418 0.010956
0.509621 0.348501 0.00421149
0.540627 0.351675 0.00207523
0.571252 0.354452 0.0009308
0.60174 0.356909 7.62951e-05
0.631418 0.358755 0.000137331
0.660899 0.359945 0.0033875
0.690089 0.360678 0.0080415
0.719188 0.360555 0.013077
0.747753 0.359182 0.0176547
0.775876 0.356558 0.0230564
0.803326 0.353216 0.0333104
0.829694 0.349065 0.0470741
0.853986 0.344503 0.0610361
0.878721 0.342763 0.0493172
0.879072 0.344579 0.0668498
0.000595102 0.324437 0.225803
0.00207523 0.328588 0.215732
0.0104524 0.332616 0.2065
0.024094 0.336385 0.19823
0.0426795 0.340139 0.190234
0.0687266 0.344259 0.182116
0.102205 0.349035 0.173587
0.133455 0.353338 0.16556
0.163851 0.356832 0.156268
0.198413 0.359915 0.144549
0.236179 0.363149 0.132784
0.274159 0.365408 0.121981
0.312779 0.367544 0.113436
0.348821 0.369253 0.110048
0.381979 0.371283 0.113161
0.415274 0.372503 0.100481
0.448234 0.372976 0.0704204
0.481132 0.37464 0.0438697
0.513588 0.376822 0.0261692
0.54548 0.379568 0.0164034
0.576242 0.382254 0.0111238
0.605905 0.384939 0.0102235
0.635248 0.386923 0.0100404
0.664225 0.388708 0.0112001
0.692897 0.389746 0.0136568
0.721218 0.390265 0.0170443
0.749508 0.389746 0.0191196
0.777752 0.388983 0.0257877
0.805692 0.386694 0.0349889
0.832273 0.382727 0.0465095
0.857145 0.378332 0.0610513
0.883101 0.379004 0.0658579
0.8907 0.373175 0.066331
0 0.354589 0.250721
0.00518807 0.358419 0.240375
0.0160372 0.36231 0.231266
0.0318608 0.365927 0.223453
0.0534676 0.369741 0.215656
0.0778363 0.373632 0.207782
0.111131 0.378378 0.199115
0.143557 0.382849 0.191577
0.174212 0.386618 0.184024
0.205112 0.389853 0.174289
0.239567 0.39321 0.163561
0.275807 0.396155 0.151385
0.313085 0.39826 0.139666
0.3505 0.400031 0.131243
0.385672 0.401633 0.12903
0.418051 0.40354 0.133211
0.450324 0.404883 0.125475
0.483406 0.405112 0.0940719
0.515892 0.405844 0.0681773
0.547646 0.407309 0.0478981
0.578729 0.409628 0.0357061
0.608896 0.411826 0.0285801
0.638209 0.413901 0.024445
0.666545 0.415671 0.0218814
0.694926 0.417151 0.0206912
0.72311 0.418433 0.0233463
0.751217 0.418921 0.0262913
0.779248 0.418677 0.0317388
0.807157 0.417548 0.039292
0.834104 0.414862 0.0497597
0.859342 0.4103 0.0621805
0.883513 0.406882 0.0769513
0.901534 0.401785 0.0680858
0.00357061 0.384787 0.275349
0.0111849 0.388647 0.265232
0.0230106 0.392233 0.256733
0.0431525 0.396048 0.248951
0.0650492 0.399527 0.241596
0.0904707 0.403342 0.234043
0.121233 0.40763 0.225849
0.156069 0.412146 0.218265
0.189075 0.416022 0.211566
0.217151 0.419409 0.204135
0.247761 0.422705 0.195071
0.280491 0.42594 0.184512
0.314702 0.428733 0.172824
0.351125 0.430503 0.161883
0.387442 0.432166 0.154971
0.421683 0.433555 0.152941
0.452964 0.435233 0.15729
0.484321 0.436667 0.154055
0.517769 0.436866 0.12076
0.549859 0.437583 0.0952163
0.580713 0.4383 0.0738537
0.610788 0.439582 0.057023
0.639994 0.441215 0.0464485
0.668635 0.442893 0.0396429
0.696818 0.444526 0.0363012
0.724758 0.445853 0.0359045
0.752499 0.446876 0.0392309
0.780133 0.447242 0.0438239
0.807736 0.446815 0.0492561
0.835126 0.445228 0.056733
0.861158 0.441947 0.0669413
0.885328 0.437995 0.0808881
0.910735 0.435569 0.0827192
0.00836194 0.415335 0.300786
0.0189059 0.419028 0.291478
0.0353704 0.422507 0.282429
0.0574655 0.426078 0.274891
0.080415 0.429511 0.267948
0.103731 0.43299 0.260868
0.132769 0.43714 0.253422
0.170489 0.44152 0.245197
0.204776 0.445426 0.238285
0.232258 0.448722 0.231891
0.259266 0.451911 0.224887
0.288304 0.455207 0.216785
0.319112 0.458351 0.206699
0.352712 0.460792 0.195789
0.388174 0.46273 0.186084
0.423499 0.463905 0.179873
0.456504 0.465171 0.178897
0.487419 0.466682 0.182635
0.517647 0.468269 0.183505
0.551263 0.468452 0.150042
0.582162 0.468971 0.125673
0.612451 0.469474 0.104005
0.641932 0.470466 0.0861372
0.670726 0.471351 0.0732433
0.698863 0.472709 0.0658885
0.726604 0.473732 0.060914
0.753765 0.474617 0.0592508
0.781125 0.475334 0.0608988
0.808194 0.475273 0.0643015
0.835737 0.474464 0.0695048
0.862318 0.472358 0.0777295
0.886839 0.468803 0.0883345
0.912291 0.469474 0.0978408
0.0154269 0.446204 0.326802
0.0294804 0.449699 0.317556
0.0511482 0.453086 0.308873
0.0736706 0.456352 0.301778
0.0961624 0.459663 0.294713
0.118105 0.462715 0.28809
0.14696 0.46656 0.280705
0.184863 0.470741 0.272175
0.220172 0.474662 0.265095
0.248417 0.478019 0.258885
0.272526 0.480934 0.252857
0.299046 0.484169 0.246006
0.327062 0.487449 0.238132
0.356985 0.490425 0.229068
0.38967 0.492607 0.219379
0.424002 0.494316 0.211002
0.458549 0.495369 0.205737
0.490654 0.496452 0.205112
0.521035 0.497887 0.209018
0.550286 0.499474 0.213352
0.583246 0.499733 0.179934
0.613535 0.500282 0.157748
0.642939 0.500587 0.13576
0.671824 0.501091 0.117327
0.700084 0.501793 0.103426
0.727657 0.502327 0.0939498
0.755154 0.503029 0.0880446
0.782284 0.503487 0.0851759
0.809247 0.503624 0.0863966
0.836225 0.503151 0.0886854
0.862974 0.501823 0.0929274
0.888075 0.498878 0.101045
0.91191 0.49601 0.111421
0.0271153 0.477211 0.352026
0.0465705 0.480369 0.343343
0.0689555 0.483665 0.335378
0.0909438 0.486854 0.328161
0.112016 0.489799 0.321736
0.134112 0.492668 0.315251
0.162692 0.495949 0.307958
0.198764 0.499947 0.300099
0.236316 0.503761 0.292103
0.266316 0.50721 0.285847
0.28983 0.510109 0.280125
0.312764 0.512978 0.274037
0.337804 0.516289 0.267338
0.364569 0.519524 0.259831
0.39382 0.522164 0.251606
0.425177 0.524208 0.243366
0.459266 0.525704 0.235996
0.492729 0.52665 0.231479
0.5243 0.527718 0.231159
0.553979 0.528923 0.234348
0.581537 0.530465 0.240803
0.614282 0.530892 0.210071
0.643763 0.53135 0.189532
0.67274 0.531579 0.169055
0.70103 0.531807 0.149493
0.728893 0.531868 0.135119
0.756039 0.531914 0.124376
0.783337 0.531868 0.117601
0.81004 0.531945 0.11368
0.836759 0.531441 0.113298
0.863157 0.530373 0.114092
0.889006 0.528466 0.118868
0.912871 0.525338 0.12604
0.045655 0.508049 0.37612
0.0663005 0.511284 0.368353
0.0870069 0.514122 0.360769
0.107622 0.517098 0.354345
0.12903 0.519966 0.348013
0.152453 0.522484 0.341894
0.180804 0.525567 0.335286
0.215335 0.528954 0.327535
0.253666 0.53283 0.319524
0.283482 0.536019 0.31281
0.308324 0.538872 0.30721
0.329152 0.54168 0.301686
0.351171 0.544594 0.295598
0.374334 0.547768 0.288792
0.400214 0.550759 0.281941
0.429023 0.553246 0.274372
0.459968 0.555047 0.266636
0.493385 0.556497 0.260426
0.526131 0.557382 0.256596
0.557 0.558373 0.256214
0.585657 0.559533 0.258457
0.612131 0.560861 0.26421
0.643992 0.561486 0.238499
0.672786 0.562127 0.220752
0.701442 0.56231 0.20148
0.729519 0.562234 0.183322
0.756909 0.561868 0.168887
0.783902 0.561303 0.157397
0.810773 0.560723 0.148821
0.837324 0.560037 0.143755
0.863569 0.559121 0.141741
0.88925 0.557519 0.14229
0.91371 0.55494 0.146532
0.0658579 0.538705 0.399817
0.0864118 0.541695 0.392157
0.105287 0.544366 0.385245
0.125826 0.546868 0.378714
0.148943 0.549523 0.373053
0.172625 0.552041 0.36759
0.201114 0.554559 0.361364
0.232898 0.557916 0.354482
0.268849 0.561349 0.346487
0.299779 0.564508 0.33959
0.324132 0.567315 0.333623
0.344213 0.569802 0.328374
0.365652 0.572732 0.323186
0.386435 0.575616 0.317113
0.409369 0.5785 0.310658
0.434867 0.581338 0.304006
0.463371 0.583764 0.296849
0.494591 0.585672 0.289754
0.526848 0.58674 0.283833
0.558907 0.587579 0.279942
0.588342 0.588495 0.279637
0.615991 0.589487 0.281849
0.641688 0.590845 0.286809
0.672679 0.591714 0.263798
0.701106 0.592218 0.247822
0.729259 0.592386 0.231159
0.757092 0.592096 0.21503
0.784344 0.591394 0.200458
0.811124 0.590326 0.188952
0.8383 0.589136 0.178195
0.864744 0.5879 0.173526
0.890196 0.586465 0.17142
0.914641 0.584421 0.171649
0.0869917 0.568856 0.422858
0.105592 0.571481 0.416037
0.125673 0.574166 0.409308
0.146319 0.576501 0.403037
0.169863 0.578698 0.397665
0.194629 0.580941 0.392172
0.2215 0.583307 0.386465
0.251347 0.586023 0.379629
0.284566 0.589456 0.372305
0.316732 0.592737 0.36495
0.340581 0.595376 0.35903
0.360693 0.597955 0.35433
0.3785 0.600427 0.349447
0.399558 0.603098 0.344152
0.420584 0.606027 0.338476
0.443565 0.608881 0.331991
0.469245 0.611536 0.325246
0.497185 0.613764 0.318624
0.527886 0.615534 0.312367
0.559304 0.616709 0.306996
0.590204 0.617517 0.303273
0.618631 0.618219 0.302663
0.645411 0.619104 0.304204
0.67068 0.620569 0.308904
0.700954 0.621469 0.286961
0.728817 0.622019 0.272831
0.756603 0.622049 0.257298
0.784131 0.6215 0.242954
0.811475 0.620493 0.229282
0.838346 0.618906 0.218112
0.865232 0.617243 0.208408
0.891051 0.615656 0.203433
0.915801 0.613718 0.199847
0.107637 0.598718 0.445548
0.126452 0.601068 0.438804
0.146883 0.603265 0.432792
0.169009 0.605478 0.426581
0.192264 0.60766 0.421103
0.216785 0.609674 0.416342
0.241733 0.611811 0.410986
0.270756 0.614389 0.404822
0.301854 0.617472 0.397498
0.334615 0.620768 0.389853
0.358877 0.623392 0.383627
0.37821 0.625727 0.378363
0.395697 0.628031 0.374075
0.413352 0.630594 0.369406
0.433066 0.633463 0.36434
0.454307 0.636378 0.358984
0.476921 0.6392 0.35314
0.502525 0.641764 0.346822
0.530617 0.643778 0.340261
0.56022 0.64538 0.334462
0.590707 0.646601 0.329458
0.620249 0.647303 0.325933
0.647791 0.648051 0.324712
0.674022 0.649073 0.325887
0.698955 0.650233 0.329732
0.728634 0.650996 0.309316
0.756161 0.651499 0.295857
0.783597 0.651591 0.280934
0.811185 0.650919 0.267323
0.838529 0.64976 0.255268
0.86569 0.6477 0.244327
0.892103 0.64564 0.234958
0.916915 0.643275 0.22858
0.128725 0.627939 0.46746
0.149203 0.630259 0.461524
0.170077 0.632288 0.455299
0.192493 0.634195 0.449485
0.215259 0.636194 0.444144
0.238178 0.638193 0.439231
0.262318 0.640314 0.434501
0.289952 0.642496 0.428504
0.319966 0.645487 0.42182
0.349935 0.648585 0.414313
0.37705 0.651301 0.407599
0.396628 0.653635 0.401968
0.413138 0.655787 0.397284
0.428428 0.658106 0.393194
0.446906 0.660761 0.388754
0.465736 0.663554 0.383795
0.4869 0.666468 0.378592
0.50956 0.66923 0.373114
0.534768 0.671839 0.367163
0.562234 0.67393 0.360998
0.591104 0.675303 0.355367
0.620706 0.676387 0.350774
0.649256 0.677333 0.347509
0.676463 0.678035 0.345953
0.702281 0.679072 0.346288
0.72668 0.680156 0.349432
0.755749 0.681086 0.330816
0.783093 0.681544 0.317571
0.810513 0.681483 0.304006
0.838163 0.680613 0.290684
0.865675 0.678889 0.27805
0.892683 0.676616 0.26685
0.918029 0.673899 0.257206
0.151247 0.656916 0.489219
0.171832 0.658869 0.483223
0.193637 0.660929 0.477592
0.215213 0.662852 0.471733
0.238132 0.664851 0.466423
0.2598 0.666682 0.462181
0.283024 0.668574 0.457328
0.30837 0.670817 0.451926
0.33666 0.673457 0.445441
0.365896 0.676234 0.438285
0.393683 0.679301 0.430777
0.414023 0.681666 0.425269
0.430884 0.683787 0.420432
0.445457 0.685756 0.416175
0.461555 0.688273 0.412207
0.479408 0.691051 0.408011
0.498192 0.693797 0.403174
0.51931 0.696773 0.397971
0.542214 0.699702 0.392782
0.56669 0.702174 0.386938
0.593011 0.704189 0.38114
0.621454 0.705791 0.375463
0.649744 0.706844 0.370855
0.677729 0.707805 0.367498
0.704601 0.708583 0.365316
0.729763 0.709636 0.365408
0.753994 0.710628 0.367941
0.782544 0.711513 0.350881
0.810101 0.712032 0.337407
0.837858 0.711849 0.323751
0.865797 0.710719 0.310719
0.893233 0.708507 0.297429
0.919356 0.705806 0.285801
0.174517 0.685817 0.510399
0.195132 0.687755 0.50486
0.217227 0.689708 0.499199
0.238376 0.691569 0.493843
0.259892 0.693233 0.488441
0.280797 0.695048 0.48397
0.30248 0.697032 0.479713
0.326268 0.699199 0.47451
0.353613 0.70164 0.468788
0.380179 0.704433 0.461631
0.408576 0.70753 0.454032
