src/luts/blur/4.cube
TITLE "Generated by Resolve"
LUT_3D_SIZE 9
0.0242313 0.0280461 0.0256809
0.0824598 0.0439765 0.0335241
0.177417 0.0587472 0.0343175
0.298344 0.0532082 0.0286107
0.40827 0.0372168 0.0377203
0.5299 0.0341497 0.0740215
0.662242 0.051667 0.133059
0.804135 0.130816 0.23711
0.830533 0.206973 0.298573
0.00125124 0.0733501 0.0581979
0.0744488 0.0771038 0.0426642
0.162799 0.0866255 0.0265049
0.302922 0.09691 0.00141909
0.429282 0.101854 0
0.546441 0.0911421 0.0104982
0.669764 0.0648661 0.0445563
0.799466 0.113695 0.129458
0.82565 0.193576 0.220188
1.5259e-05 0.152514 0.103029
0.0443122 0.164508 0.077821
0.162036 0.16994 0.0476234
0.287526 0.179675 0.00677501
0.419348 0.195575 4.57771e-05
0.552789 0.201129 0.00221256
0.672831 0.190753 0.0124056
0.788571 0.179126 0.057557
0.830564 0.212222 0.116213
1.5259e-05 0.264347 0.178164
0.0283665 0.2813 0.14493
0.157961 0.295323 0.104814
0.307683 0.304524 0.0766155
0.440787 0.313649 0.00802625
0.565515 0.325917 0.00077821
0.687068 0.329046 0.00396735
0.800458 0.318349 0.0360266
0.867964 0.316411 0.0717021
0.00357061 0.384787 0.275349
0.0650492 0.399527 0.241596
0.189075 0.416022 0.211566
0.314702 0.428733 0.172824
0.452964 0.435233 0.15729
0.580713 0.4383 0.0738537
0.696818 0.444526 0.0363012
0.807736 0.446815 0.0492561
0.910735 0.435569 0.0827192
0.045655 0.508049 0.37612
0.12903 0.519966 0.348013
0.253666 0.53283 0.319524
0.351171 0.544594 0.295598
0.459968 0.555047 0.266636
0.585657 0.559533 0.258457
0.701442 0.56231 0.20148
0.810773 0.560723 0.148821
0.91371 0.55494 0.146532
0.128725 0.627939 0.46746
0.215259 0.636194 0.444144
0.319966 0.645487 0.42182
0.413138 0.655787 0.397284
0.4869 0.666468 0.378592
0.591104 0.675303 0.355367
0.702281 0.679072 0.346288
0.810513 0.681483 0.304006
0.918029 0.673899 0.257206
0.217914 0.743114 0.552529
0.294926 0.749935 0.531273
0.382452 0.758114 0.512612
0.481468 0.769253 0.485939
0.536309 0.777508 0.469902
0.607691 0.788602 0.452247
0.704753 0.798001 0.431617
0.810956 0.80322 0.415091
0.920501 0.804242 0.366217
0.278141 0.833417 0.652369
0.339864 0.837736 0.630945
0.409079 0.843595 0.612848
0.509728 0.854124 0.589075
0.571969 0.861372 0.570565
0.624598 0.86978 0.560403
0.694148 0.879911 0.541558
0.792676 0.890532 0.505592
0.910323 0.900526 0.471199
0.00860609 0.0393225 0.0675212
0.0760052 0.0476081 0.0670939
0.17171 0.0616922 0.0712749
0.296376 0.0610819 0.0821393
0.410971 0.0657511 0.11249
0.534798 0.0817273 0.16199
0.662211 0.109346 0.224781
0.787381 0.151995 0.297063
0.844526 0.249805 0.363836
0.00370794 0.087602 0.108202
0.0667277 0.0954452 0.100099
0.176562 0.101839 0.085359
0.305592 0.107988 0.0869612
0.422614 0.116609 0.106249
0.543709 0.127977 0.140139
0.665125 0.137621 0.188327
0.788083 0.158709 0.255344
0.84329 0.246723 0.323919
0.000106813 0.175235 0.189227
0.016083 0.183291 0.162036
0.15552 0.192081 0.13315
0.302403 0.193332 0.0886854
0.432242 0.195926 0.0746166
0.557 0.193164 0.0734112
0.673991 0.185962 0.0932174
0.786984 0.173449 0.13875
0.838468 0.232837 0.219287
0.00228885 0.296452 0.299672
0.00949111 0.297627 0.246754
0.135317 0.310307 0.206149
0.299474 0.320211 0.173266
0.442847 0.321202 0.116625
0.570291 0.322896 0.0884565
0.686992 0.324376 0.0949874
0.799023 0.313909 0.121416
0.867628 0.316075 0.160555
0.00991836 0.410407 0.380133
0.0345922 0.41352 0.335409
0.161013 0.426276 0.292836
0.301946 0.439384 0.264195
0.445441 0.44593 0.238758
0.578149 0.447547 0.180331
0.696559 0.447349 0.145663
0.806332 0.448142 0.148135
0.908675 0.434989 0.177005
0.0433661 0.524163 0.454185
0.0985122 0.530098 0.420096
0.220233 0.540551 0.384894
0.340597 0.550683 0.358083
0.449577 0.562417 0.33167
0.579431 0.566873 0.314366
0.698054 0.569039 0.26537
0.810025 0.566522 0.230823
0.91281 0.558907 0.225071
0.102586 0.63679 0.527184
0.17879 0.644099 0.500679
0.28484 0.651804 0.472358
0.401633 0.660853 0.441947
0.483131 0.671275 0.424781
0.584161 0.681468 0.400565
0.697978 0.685145 0.386664
0.808194 0.686656 0.340551
0.917418 0.678553 0.303166
0.181064 0.751461 0.604471
0.258015 0.757229 0.579492
0.34548 0.763577 0.553857
0.467597 0.774441 0.521828
0.532418 0.782055 0.503609
0.605646 0.793698 0.487587
0.699748 0.803494 0.465095
0.808087 0.808423 0.445396
0.918975 0.808438 0.393759
0.25127 0.839963 0.703258
0.307607 0.842908 0.67686
0.372457 0.846677 0.651118
0.483619 0.856367 0.620844
0.562814 0.864515 0.597131
0.619883 0.872953 0.585199
0.690074 0.883635 0.567926
0.787259 0.894438 0.533837
0.90753 0.904418 0.49575
0.000900282 0.045594 0.151369
0.0779126 0.0552834 0.139864
0.158129 0.0725719 0.148714
0.283497 0.0790265 0.161975
0.407935 0.0875868 0.189822
0.535454 0.102647 0.231006
0.661936 0.127794 0.279637
0.78468 0.165743 0.338445
0.848615 0.261875 0.39971
6.10361e-05 0.106813 0.207874
0.0383612 0.112612 0.204639
0.159304 0.125566 0.18822
0.286519 0.145617 0.205921
0.416663 0.161013 0.231495
0.542565 0.179934 0.264881
0.662089 0.20209 0.304631
0.777249 0.224613 0.350195
0.858366 0.292729 0.406485
9.15541e-05 0.19762 0.280079
0.014023 0.207675 0.269825
0.143816 0.218769 0.249424
0.304295 0.22179 0.221103
0.439902 0.222354 0.219516
0.562509 0.229908 0.23859
0.677806 0.238605 0.26714
0.789654 0.245716 0.305684
0.85977 0.296864 0.358267
0.00299077 0.315129 0.363272
0.0500343 0.323354 0.352102
0.115053 0.331853 0.3178
0.283192 0.344884 0.299596
0.440116 0.342199 0.240803
0.573571 0.342489 0.224918
0.69099 0.340841 0.22623
0.802365 0.32575 0.240528
0.870298 0.323705 0.267353
0.0488441 0.433082 0.44712
0.0978714 0.438392 0.429419
0.133532 0.443473 0.390234
0.291035 0.45391 0.359716
0.431937 0.463081 0.34165
0.572732 0.462562 0.283757
0.695689 0.460792 0.255756
0.806897 0.459068 0.251713
0.90692 0.436454 0.263523
0.118593 0.547921 0.522866
0.138537 0.550027 0.500298
0.168353 0.553033 0.46598
0.319661 0.561044 0.427634
0.442115 0.572793 0.412589
0.569039 0.578485 0.392721
0.692424 0.579293 0.340734
0.807889 0.575402 0.304738
0.912291 0.56585 0.292973
0.168673 0.658259 0.594568
0.188266 0.659327 0.572274
0.230488 0.661646 0.54168
0.379004 0.669749 0.498451
0.477287 0.678584 0.480751
0.576638 0.690364 0.464637
0.690913 0.694392 0.44564
0.804044 0.695125 0.395224
0.915816 0.684901 0.35288
0.208469 0.769284 0.670329
0.225666 0.769589 0.647013
0.288396 0.772549 0.617594
0.431922 0.781369 0.571801
0.521691 0.788922 0.547768
0.602472 0.800458 0.535073
0.693263 0.81149 0.515129
0.802869 0.816312 0.492256
0.915892 0.81532 0.435386
0.235492 0.851682 0.770825
0.259052 0.851148 0.74699
0.327138 0.853529 0.715023
0.432258 0.858808 0.66807
0.544106 0.868635 0.635019
0.610636 0.877241 0.620188
0.684703 0.888914 0.606394
0.778408 0.900267 0.576242
0.90193 0.910201 0.534493
0 0.0549172 0.260624
0.06981 0.0560311 0.240391
0.172656 0.0880446 0.258595
0.283131 0.103044 0.265248
0.401205 0.117418 0.280949
0.530129 0.135256 0.308614
0.656947 0.156954 0.342885
0.77789 0.187549 0.385351
0.852964 0.274159 0.441016
9.15541e-05 0.130999 0.311589
0.014313 0.133257 0.304692
0.161273 0.143664 0.304097
0.287358 0.162814 0.295995
0.409522 0.187335 0.312581
0.5402 0.205844 0.337652
0.661967 0.224689 0.365805
0.775692 0.243107 0.399374
0.862486 0.304936 0.44799
0 0.226001 0.377951
0.00640879 0.234699 0.371633
0.112612 0.244068 0.364981
0.28217 0.259098 0.343511
0.404166 0.286656 0.361624
0.538781 0.309041 0.385306
0.66186 0.325704 0.408362
0.774777 0.335393 0.432609
0.878859 0.362875 0.469001
0.00213626 0.337713 0.439231
0.0266117 0.345907 0.428443
0.11162 0.354971 0.414221
0.284642 0.369024 0.39707
0.435599 0.374975 0.375631
0.577432 0.374945 0.36846
0.697643 0.371664 0.3729
0.805295 0.365194 0.386297
0.885664 0.371862 0.41033
0.0410468 0.450782 0.503349
0.101961 0.456504 0.491157
0.189593 0.461631 0.479683
0.288243 0.472404 0.450263
0.419684 0.48484 0.441611
0.564431 0.484779 0.399344
0.694713 0.483406 0.377859
0.810208 0.47602 0.369345
0.906691 0.445823 0.365484
0.134646 0.56379 0.575296
0.200488 0.566751 0.562722
0.253086 0.569238 0.544198
0.304814 0.576425 0.50959
0.432639 0.586313 0.486763
0.554253 0.594263 0.481422
0.684321 0.594461 0.433371
0.805203 0.590631 0.399145
0.912276 0.577371 0.379873
0.246494 0.674037 0.652476
0.276616 0.675639 0.634668
0.30573 0.677958 0.611841
0.350973 0.682826 0.573266
0.45713 0.689845 0.542947
0.571694 0.701015 0.534997
0.68014 0.707424 0.520317
0.797986 0.707805 0.469047
0.913359 0.697215 0.423819
0.276738 0.786496 0.730297
0.297658 0.787533 0.711192
0.32604 0.788968 0.688426
0.376898 0.792035 0.647807
0.492393 0.797864 0.602243
0.595041 0.809262 0.589349
0.687037 0.821744 0.578195
0.794324 0.827176 0.555749
0.910903 0.825849 0.496239
0.281239 0.866453 0.830625
0.307256 0.866529 0.811505
0.331579 0.866484 0.788861
0.369528 0.866102 0.74905
0.501625 0.872312 0.684779
0.591089 0.882246 0.665843
0.675746 0.89543 0.655253
0.767208 0.908217 0.633692
0.892729 0.918563 0.589792
0 0.0861982 0.357412
0.0328679 0.0607004 0.327626
0.184634 0.109743 0.353353
0.304707 0.12755 0.361089
0.410224 0.150591 0.368307
0.528466 0.174868 0.384817
0.65069 0.198413 0.408591
0.769284 0.217975 0.437171
0.858198 0.289082 0.4878
4.57771e-05 0.167163 0.401556
0.010956 0.163531 0.391333
0.151339 0.16173 0.389838
0.302327 0.188952 0.39324
0.415106 0.210666 0.391653
0.533791 0.23978 0.407477
0.655482 0.259297 0.429175
0.770245 0.270848 0.453025
0.867414 0.318654 0.495384
0.000289921 0.262486 0.458701
0.0127413 0.26598 0.452186
0.0992905 0.269993 0.444373
0.285603 0.275425 0.444114
0.420706 0.296529 0.427146
0.535485 0.328908 0.442893
0.657542 0.348775 0.464286
0.772107 0.356054 0.484367
0.873457 0.371572 0.514809
0.000457771 0.365454 0.527642
0.0124208 0.372076 0.51667
0.0884413 0.380346 0.500679
0.255039 0.391959 0.496391
0.406134 0.405295 0.477317
0.517891 0.431067 0.488716
0.641123 0.454536 0.510506
0.765057 0.460288 0.524941
0.871656 0.446983 0.536217
0.0328069 0.472206 0.577279
0.0753033 0.477791 0.565515
0.144961 0.483558 0.548959
0.277546 0.492454 0.538857
0.421622 0.504662 0.518349
0.55639 0.511284 0.499779
0.692073 0.511604 0.489799
0.813382 0.498573 0.481758
0.909957 0.4757 0.48368
0.119631 0.581384 0.637736
0.169512 0.584024 0.624125
0.245838 0.58616 0.606683
0.350896 0.590936 0.599222
0.434333 0.602411 0.566613
0.54725 0.613245 0.558236
0.674495 0.613733 0.525032
0.802594 0.610376 0.497597
0.913359 0.589456 0.474708
0.215076 0.689372 0.709209
0.270924 0.690349 0.693477
0.331411 0.690822 0.676677
0.39266 0.694926 0.656413
0.451637 0.704433 0.62179
0.558389 0.716152 0.599588
0.668559 0.724468 0.600275
0.79057 0.723857 0.551751
0.911269 0.713603 0.506874
0.294423 0.799908 0.790219
0.346471 0.799924 0.771969
0.385061 0.800824 0.751354
0.421118 0.803983 0.720867
0.470268 0.810025 0.680446
0.568597 0.820096 0.648646
0.679622 0.832975 0.642908
0.782712 0.841474 0.630442
0.905089 0.839094 0.5691
0.320165 0.877714 0.880644
0.341115 0.878309 0.863996
0.370794 0.878935 0.844266
0.419532 0.880034 0.808469
0.464012 0.880751 0.761059
0.547677 0.886229 0.721889
0.65774 0.90193 0.709865
0.754849 0.917281 0.698665
0.878096 0.930083 0.666362
0 0.137636 0.452079
0.00898756 0.113771 0.424216
0.185367 0.136797 0.434699
0.325597 0.165713 0.44828
0.434531 0.18349 0.4551
0.541146 0.213962 0.462806
0.651804 0.242252 0.478737
0.763897 0.260624 0.498817
0.864454 0.307195 0.537621
0.000808728 0.214191 0.491142
0.0152285 0.205295 0.476112
0.117968 0.18471 0.464851
0.312154 0.219196 0.478935
0.434226 0.243305 0.479896
0.542535 0.268788 0.481117
0.651347 0.296574 0.494987
0.762966 0.309392 0.513634
0.867887 0.33666 0.545769
0.00204471 0.302937 0.54258
0.0163729 0.303304 0.534691
0.0920424 0.300694 0.522057
0.27657 0.295415 0.527016
0.426459 0.322103 0.515984
0.545998 0.340261 0.508324
0.651698 0.372122 0.522057
0.763897 0.384619 0.540856
0.862531 0.377966 0.55819
0.00260929 0.399313 0.604242
0.0244602 0.403235 0.595132
0.0925612 0.407019 0.581491
0.248249 0.413367 0.574273
0.409125 0.415641 0.575799
0.543801 0.438529 0.544717
0.645823 0.464866 0.559075
0.757626 0.481346 0.579461
0.865202 0.473503 0.595209
0.0104067 0.49929 0.675105
0.0475929 0.503319 0.660945
0.112612 0.508064 0.64126
0.238407 0.514138 0.61677
0.398657 0.525856 0.614847
0.535912 0.535317 0.592691
0.638819 0.555688 0.596353
0.75375 0.571756 0.613626
0.873091 0.561257 0.621256
0.093431 0.602029 0.723934
0.131624 0.60441 0.709239
0.193851 0.60737 0.690242
0.296941 0.61088 0.665766
0.420401 0.620188 0.663096
0.548363 0.63183 0.634028
0.665873 0.637461 0.613733
0.799817 0.635157 0.59794
0.915465 0.605997 0.577264
0.182376 0.707271 0.788785
0.226825 0.708598 0.771878
0.289006 0.709621 0.750454
0.374929 0.711391 0.72723
0.478782 0.718883 0.716991
0.563531 0.73254 0.681361
0.659922 0.744717 0.670237
0.781399 0.744213 0.637217
0.909483 0.732921 0.597192
0.242863 0.814099 0.864744
0.287465 0.814649 0.84593
0.345342 0.815183 0.822431
0.421485 0.816434 0.803082
0.499138 0.823255 0.776944
0.563439 0.833371 0.736934
0.656535 0.846571 0.708385
0.76994 0.857694 0.712108
0.898741 0.855528 0.650095
0.286687 0.88423 0.935668
0.337011 0.886458 0.920775
0.372061 0.887831 0.901839
0.411917 0.889632 0.882139
0.47483 0.893339 0.851041
0.53254 0.897307 0.807538
0.609949 0.905623 0.769665
0.734936 0.925444 0.764477
0.857557 0.94229 0.751308
0 0.198169 0.556756
0.0120241 0.174212 0.52166
0.16585 0.172091 0.517082
0.337606 0.207904 0.539574
0.460761 0.231189 0.545495
0.564813 0.253391 0.554299
0.663737 0.282109 0.558145
0.765515 0.304814 0.570596
0.86566 0.331319 0.591196
0.00125124 0.268986 0.587274
0.018265 0.256687 0.568689
0.0874647 0.235111 0.549233
0.312383 0.253437 0.565866
0.45153 0.279408 0.569406
0.560937 0.304402 0.571679
0.660319 0.328511 0.571557
0.760494 0.348409 0.582116
0.856229 0.348363 0.594141
0.00608835 0.347448 0.635386
0.0277867 0.34519 0.624689
0.0905776 0.337407 0.606821
0.252369 0.323827 0.608454
0.431083 0.346609 0.603662
0.552361 0.370901 0.59617
0.658915 0.387198 0.591287
0.758267 0.411109 0.602762
0.857328 0.407263 0.6159
0.0134279 0.435126 0.693049
0.0399786 0.435996 0.682765
0.0977188 0.436454 0.667857
0.240696 0.436545 0.653147
0.39736 0.429496 0.666331
0.541985 0.455177 0.638468
0.660838 0.47068 0.622278
0.756497 0.494896 0.634577
0.860151 0.495445 0.651102
0.025864 0.528405 0.76704
0.0573739 0.530922 0.753811
0.110231 0.533013 0.734661
0.22063 0.535348 0.70663
0.388022 0.542748 0.703639
0.525811 0.543755 0.71281
0.653391 0.566979 0.661158
0.747768 0.587091 0.674891
0.851972 0.598718 0.695567
0.0643168 0.624231 0.839078
0.0939498 0.626841 0.823667
0.137835 0.630014 0.802182
0.24036 0.632807 0.765393
0.3823 0.640284 0.740291
0.528939 0.650752 0.739834
0.656275 0.658701 0.709773
0.752819 0.675334 0.70602
0.867674 0.680262 0.719265
0.139864 0.724926 0.886427
0.175586 0.727321 0.871962
0.222919 0.729839 0.852613
0.311116 0.732357 0.81825
0.424704 0.738247 0.796674
0.544411 0.749874 0.794659
0.660471 0.764019 0.75761
0.770367 0.770489 0.732738
0.909224 0.755566 0.699428
0.166613 0.829709 0.934981
0.233249 0.829984 0.927016
0.279896 0.829801 0.910384
0.358236 0.831342 0.878019
0.466072 0.836408 0.862654
0.571191 0.846571 0.846616
0.657511 0.860609 0.806363
0.749767 0.875319 0.788342
0.888731 0.875883 0.74815
0.143999 0.883955 0.949859
0.189105 0.88658 0.950927
0.268376 0.890181 0.952667
0.379431 0.895933 0.941787
0.453407 0.902678 0.931807
0.538857 0.911543 0.909255
0.607858 0.919249 0.869734
0.686458 0.929381 0.829084
0.832502 0.953674 0.837018
0 0.263584 0.672709
0.015198 0.241703 0.628794
0.0963149 0.209888 0.607874
0.33991 0.253147 0.63621
0.476326 0.280095 0.646311
0.588556 0.29781 0.64918
0.682719 0.32285 0.657267
0.776486 0.342153 0.656184
0.86717 0.361486 0.662913
0.00483711 0.324071 0.691844
0.0255131 0.311528 0.670527
0.0820478 0.290333 0.645579
0.301442 0.289448 0.656703
0.458152 0.319234 0.667445
0.578912 0.338521 0.665949
0.674327 0.363653 0.668818
0.769711 0.380331 0.665263
0.858656 0.386633 0.668482
0.0133516 0.392294 0.739147
0.0367437 0.388891 0.725338
0.0934157 0.379416 0.702754
0.23389 0.365103 0.688792
0.426886 0.375875 0.697841
0.561502 0.396155 0.689754
0.6636 0.419013 0.684565
0.764324 0.429358 0.68011
0.856504 0.438392 0.686717
0.0214237 0.469047 0.793271
0.0510262 0.468193 0.782025
0.103288 0.465812 0.764477
0.225956 0.460868 0.739696
0.384314 0.451575 0.747051
0.541497 0.467414 0.734066
0.655344 0.493629 0.718029
0.76669 0.499413 0.708675
0.858549 0.514519 0.717174
0.00926223 0.572931 0.864713
0.0450599 0.562509 0.848341
0.108446 0.55523 0.828962
0.204547 0.554696 0.800778
0.375174 0.55848 0.790433
0.515465 0.554223 0.803372
0.644541 0.577798 0.771267
0.764309 0.592355 0.743389
0.857954 0.604547 0.757031
0.0234073 0.661387 0.89308
0.0367895 0.660838 0.892317
0.0746471 0.66006 0.891875
0.194842 0.649058 0.869993
0.351232 0.654246 0.840742
0.504692 0.66331 0.841871
0.635111 0.667796 0.846357
0.752667 0.691493 0.792477
0.85008 0.70222 0.805478
0.0391546 0.762554 0.918364
0.0538643 0.76173 0.917571
0.0865492 0.760845 0.917189
0.176974 0.759609 0.918059
0.343832 0.755291 0.888716
0.499947 0.768673 0.874708
0.640894 0.780011 0.873594
0.764736 0.791318 0.839246
0.865248 0.801694 0.829053
0.164141 0.846372 0.939193
0.203449 0.846754 0.939483
0.254795 0.847532 0.940078
0.327642 0.848814 0.941665
0.407462 0.851301 0.937255
0.508675 0.858701 0.928908
0.63299 0.872206 0.92282
0.7467 0.889326 0.893629
0.871443 0.899016 0.873594
0.170275 0.885588 0.950515
0.212528 0.887816 0.951461
0.255589 0.890547 0.952651
0.332189 0.895384 0.954803
0.398398 0.902235 0.957732
0.498329 0.915038 0.963333
0.588357 0.928374 0.962036
0.692119 0.944778 0.938399
0.798856 0.960967 0.920531
0.000183108 0.368429 0.791333
0.0231937 0.312001 0.741192
0.0851759 0.284947 0.71548
0.326894 0.301183 0.733715
0.477302 0.328481 0.751308
0.597833 0.34403 0.756436
0.700359 0.357122 0.760754
0.794217 0.377752 0.764996
0.882002 0.402716 0.764782
0.000732433 0.413214 0.810346
0.021973 0.38555 0.785748
0.0868849 0.345846 0.747936
0.260105 0.330236 0.748928
0.451347 0.358236 0.767163
0.582528 0.376379 0.771588
0.688823 0.390356 0.771847
0.78233 0.412619 0.773236
0.870588 0.419684 0.766232
0.00234989 0.46833 0.830335
0.00720226 0.46334 0.827634
0.0517739 0.443626 0.809506
0.208865 0.405478 0.774746
0.406928 0.40293 0.791333
0.558419 0.424323 0.793042
0.672282 0.440574 0.787015
0.766796 0.461662 0.784039
0.864302 0.460792 0.778088
0.0110475 0.532921 0.85211
0.0222171 0.529274 0.850095
0.0614176 0.522713 0.847272
0.176059 0.503136 0.832609
0.357916 0.482948 0.824857
0.523262 0.481926 0.827482
0.655451 0.502388 0.818235
0.756893 0.529107 0.810803
0.865721 0.523613 0.80325
0.0181277 0.609201 0.876295
0.030808 0.606973 0.875044
0.0605478 0.603342 0.87332
0.144671 0.595438 0.872251
0.338811 0.592676 0.877195
0.48307 0.591012 0.88603
0.635813 0.579583 0.870893
0.746639 0.609659 0.852186
0.868681 0.607736 0.837049
0.0673686 0.693828 0.901442
0.0867475 0.691798 0.900557
0.121706 0.688945 0.899825
0.20383 0.683909 0.899687
0.336431 0.679286 0.903075
0.487144 0.685481 0.912398
0.619852 0.690013 0.921798
0.734737 0.698421 0.910857
0.863432 0.710384 0.875441
0.0652781 0.795132 0.925887
0.0891585 0.793256 0.925338
0.12546 0.790921 0.924941
0.22707 0.786831 0.925338
0.363485 0.780499 0.927016
0.490791 0.786618 0.933745
0.617044 0.797162 0.942489
0.735698 0.80415 0.951064
0.843412 0.818982 0.933501
0.127413 0.864805 0.944259
0.16202 0.8654 0.944152
0.208667 0.865904 0.944259
0.283314 0.86717 0.945129
0.377874 0.868284 0.947295
0.486412 0.873564 0.951705
0.608072 0.887083 0.959472
0.732158 0.901137 0.968399
0.863203 0.912703 0.969055
0.217212 0.888121 0.951583
0.246616 0.889982 0.952407
0.281361 0.892149 0.953353
0.338567 0.89604 0.955077
0.398611 0.902266 0.957748
0.4636 0.911421 0.961517
0.561944 0.926268 0.96788
0.67245 0.945678 0.975937
0.806836 0.969558 0.985275
