src/luts/blur/4.cube
TITLE "Generated by Resolve"
LUT_3D_SIZE 5
0.0242313 0.0280461 0.0256809
0.177417 0.0587472 0.0343175
0.40827 0.0372168 0.0377203
0.662242 0.051667 0.133059
0.830533 0.206973 0.298573
1.5259e-05 0.152514 0.103029
0.162036 0.16994 0.0476234
0.419348 0.195575 4.57771e-05
0.672831 0.190753 0.0124056
0.830564 0.212222 0.116213
0.00357061 0.384787 0.275349
0.189075 0.416022 0.211566
0.452964 0.435233 0.15729
0.696818 0.444526 0.0363012
0.910735 0.435569 0.0827192
0.128725 0.627939 0.46746
0.319966 0.645487 0.42182
0.4869 0.666468 0.378592
0.702281 0.679072 0.346288
0.918029 0.673899 0.257206
0.278141 0.833417 0.652369
0.409079 0.843595 0.612848
0.571969 0.861372 0.570565
0.694148 0.879911 0.541558
0.910323 0.900526 0.471199
0.000900282 0.045594 0.151369
0.158129 0.0725719 0.148714
0.407935 0.0875868 0.189822
0.661936 0.127794 0.279637
0.848615 0.261875 0.39971
9.15541e-05 0.19762 0.280079
0.143816 0.218769 0.249424
0.439902 0.222354 0.219516
0.677806 0.238605 0.26714
0.85977 0.296864 0.358267
0.0488441 0.433082 0.44712
0.133532 0.443473 0.390234
0.431937 0.463081 0.34165
0.695689 0.460792 0.255756
0.90692 0.436454 0.263523
0.168673 0.658259 0.594568
0.230488 0.661646 0.54168
0.477287 0.678584 0.480751
0.690913 0.694392 0.44564
0.915816 0.684901 0.35288
0.235492 0.851682 0.770825
0.327138 0.853529 0.715023
0.544106 0.868635 0.635019
0.684703 0.888914 0.606394
0.90193 0.910201 0.534493
0 0.0861982 0.357412
0.184634 0.109743 0.353353
0.410224 0.150591 0.368307
0.65069 0.198413 0.408591
0.858198 0.289082 0.4878
0.000289921 0.262486 0.458701
0.0992905 0.269993 0.444373
0.420706 0.296529 0.427146
0.657542 0.348775 0.464286
0.873457 0.371572 0.514809
0.0328069 0.472206 0.577279
0.144961 0.483558 0.548959
0.421622 0.504662 0.518349
0.692073 0.511604 0.489799
0.909957 0.4757 0.48368
0.215076 0.689372 0.709209
0.331411 0.690822 0.676677
0.451637 0.704433 0.62179
0.668559 0.724468 0.600275
0.911269 0.713603 0.506874
0.320165 0.877714 0.880644
0.370794 0.878935 0.844266
0.464012 0.880751 0.761059
0.65774 0.90193 0.709865
0.878096 0.930083 0.666362
0 0.198169 0.556756
0.16585 0.172091 0.517082
0.460761 0.231189 0.545495
0.663737 0.282109 0.558145
0.86566 0.331319 0.591196
0.00608835 0.347448 0.635386
0.0905776 0.337407 0.606821
0.431083 0.346609 0.603662
0.658915 0.387198 0.591287
0.857328 0.407263 0.6159
0.025864 0.528405 0.76704
0.110231 0.533013 0.734661
0.388022 0.542748 0.703639
0.653391 0.566979 0.661158
0.851972 0.598718 0.695567
0.139864 0.724926 0.886427
0.222919 0.729839 0.852613
0.424704 0.738247 0.796674
0.660471 0.764019 0.75761
0.909224 0.755566 0.699428
0.143999 0.883955 0.949859
0.268376 0.890181 0.952667
0.453407 0.902678 0.931807
0.607858 0.919249 0.869734
0.832502 0.953674 0.837018
0.000183108 0.368429 0.791333
0.0851759 0.284947 0.71548
0.477302 0.328481 0.751308
0.700359 0.357122 0.760754
0.882002 0.402716 0.764782
0.00234989 0.46833 0.830335
0.0517739 0.443626 0.809506
0.406928 0.40293 0.791333
0.672282 0.440574 0.787015
0.864302 0.460792 0.778088
0.0181277 0.609201 0.876295
0.0605478 0.603342 0.87332
0.338811 0.592676 0.877195
0.635813 0.579583 0.870893
0.868681 0.607736 0.837049
0.0652781 0.795132 0.925887
0.12546 0.790921 0.924941
0.363485 0.780499 0.927016
0.617044 0.797162 0.942489
0.843412 0.818982 0.933501
0.217212 0.888121 0.951583
0.281361 0.892149 0.953353
0.398611 0.902266 0.957748
0.561944 0.926268 0.96788
0.806836 0.969558 0.985275
