src/luts/blur/5.cube
TITLE "Generated by Resolve"
LUT_3D_SIZE 33
0 0 0
0.0336461 0 0
0.0672465 0 0
0.100801 0 0
0.134371 0 0
0.167987 0 0
0.201602 0 0
0.235142 0 0
0.268513 0 0
0.301747 0 0
0.334859 0 0
0.367864 0 0
0.400824 0 0
0.433768 0 0
0.466804 0 0
0.499962 0 0
0.533196 0 0
0.566461 0 0
0.599741 0 0
0.633005 0 0
0.66627 0 0
0.699535 0 0
0.732845 0 0
0.766155 0 0
0.799481 0 0
0.832792 0 0
0.866102 0 0
0.899413 0 0
0.933089 0 0
0.969253 0 0
1 0 0
1 0 0
1 0 0
0.0204776 0.026154 0
0.0494698 0.0252995 0.00767529
0.0673838 0.0305638 0
0.100633 0.0300603 0
0.133852 0.0295415 0
0.167178 0.0289921 0
0.200732 0.0284276 0
0.234363 0.0278325 0
0.267887 0.0272526 0
0.301213 0.0267033 0
0.33434 0.0261692 0
0.36733 0.0256504 0
0.400198 0.0251316 0
0.433021 0.0246128 0
0.465797 0.0241093 0
0.498589 0.0236057 0
0.531472 0.0230716 0
0.564523 0.0225376 0
0.597696 0.0219883 0
0.630945 0.0214237 0
0.664195 0.0208743 0
0.697459 0.0203098 0
0.730694 0.0197604 0
0.763989 0.0191958 0
0.797299 0.0186313 0
0.830625 0.0180667 0
0.863935 0.0175021 0
0.897246 0.0169375 0
0.93106 0.0163272 0
0.967498 0.0154726 0
1 0.0144045 0
1 0.013138 0
1 0.0118868 0
0.0442817 0.0514382 0
0.0827649 0.0467994 0.00888075
0.105318 0.0483406 0.0192111
0.101305 0.0616159 0
0.134478 0.0611734 0
0.167788 0.0606851 0
0.201175 0.0601511 0
0.234699 0.0596017 0
0.268269 0.0590372 0
0.30164 0.0584878 0
0.334783 0.057969 0
0.367697 0.0574655 0
0.400458 0.0569924 0
0.433158 0.0565042 0
0.465797 0.0560311 0
0.498405 0.0555428 0
0.530999 0.0550698 0
0.563607 0.0545815 0
0.596292 0.0540932 0
0.629129 0.0535744 0
0.662181 0.0530404 0
0.695354 0.052491 0
0.728588 0.0519417 0
0.761822 0.0513771 0
0.795132 0.0508125 0
0.828443 0.050248 0
0.861769 0.0496834 0
0.895079 0.0491188 0
0.929076 0.0484932 0
0.965759 0.0475929 0
1 0.0464332 0
1 0.0450752 0
1 0.0436408 0
0.066865 0.0770581 0
0.109911 0.0711223 0.000808728
0.141711 0.0681926 0.0267643
0.157153 0.0726177 0.0294652
0.135073 0.092668 0
0.168414 0.0922408 0
0.202075 0.091722 0
0.235523 0.0912032 0
0.269322 0.0906386 0
0.302922 0.0900893 0
0.336065 0.0895857 0
0.368841 0.089128 0
0.401587 0.0886702 0
0.43418 0.0882277 0
0.466682 0.0877852 0
0.499123 0.0873426 0
0.531548 0.0869001 0
0.563958 0.0864576 0
0.596384 0.0859998 0
0.628809 0.0855421 0
0.66128 0.0850843 0
0.693889 0.084596 0
0.726726 0.0840925 0
0.759777 0.0835584 0
0.792966 0.0830091 0
0.826276 0.0824445 0
0.859586 0.0818799 0
0.892943 0.0813153 0
0.927184 0.0806439 0
0.964157 0.0796826 0
1 0.0784466 0
1 0.076997 0
1 0.0754559 0
0.0888533 0.102861 0
0.135561 0.095964 0
0.169085 0.0924392 0.0188602
0.197742 0.0903182 0.0449989
0.208576 0.0969711 0.0400244
0.171023 0.122881 0
0.20209 0.123339 0
0.236088 0.122774 0
0.270039 0.12221 0
0.303883 0.121645 0
0.337484 0.121111 0
0.370703 0.120623 0
0.403494 0.12018 0
0.435859 0.119783 0
0.468147 0.119402 0
0.500404 0.119005 0
0.532616 0.118608 0
0.564843 0.118196 0
0.59707 0.1178 0
0.629343 0.117372 0
0.661631 0.116945 0
0.693965 0.116503 0
0.726345 0.11606 0
0.758801 0.115602 0
0.791424 0.115114 0
0.824323 0.114611 0
0.85742 0.114061 0
0.891096 0.113466 0
0.925673 0.112749 0
0.963073 0.111727 0
1 0.11043 0
1 0.108904 0
1 0.107271 0
0.110323 0.128786 0
0.160357 0.12108 0
0.196612 0.116747 0.0103456
0.22472 0.114611 0.0373693
0.253529 0.112474 0.0635538
0.259602 0.121355 0.0508583
0.212222 0.151263 0
0.235737 0.154437 0
0.269993 0.153857 0
0.304143 0.153262 0
0.338109 0.152682 0
0.371756 0.152148 0
0.404974 0.151675 0
0.437736 0.151263 0
0.470207 0.150866 0
0.50248 0.1505 0
0.53463 0.150134 0
0.56672 0.149767 0
0.598779 0.149401 0
0.630823 0.149035 0
0.662882 0.148653 0
0.694972 0.148257 0
0.727092 0.14786 0
0.759258 0.147448 0
0.791531 0.147021 0
0.82385 0.146578 0
0.856596 0.14609 0
0.890135 0.145495 0
0.924895 0.144762 0
0.962554 0.143679 0
1 0.142336 0
1 0.14078 0
1 0.139071 0
0.130922 0.154971 0
0.18085 0.147509 0
0.165225 0.158633 0
0.197147 0.156619 0.0140383
0.227451 0.155138 0.0307317
0.257191 0.153841 0.0469215
0.268879 0.161227 0.0327764
0.24596 0.181918 0
0.265415 0.186328 0
0.298619 0.185901 0
0.331945 0.185412 0
0.365179 0.184924 0
0.39823 0.184466 0
0.431037 0.184039 0
0.463569 0.183627 0
0.496025 0.18323 0
0.528466 0.182818 0
0.560861 0.182422 0
0.593164 0.18201 0
0.625406 0.181613 0
0.657618 0.181216 0
0.689998 0.180789 0
0.722423 0.180346 0
0.754925 0.179904 0
0.787625 0.179416 0
0.82063 0.178897 0
0.85391 0.178332 0
0.887739 0.177707 0
0.922194 0.177005 0
0.957977 0.17612 0
0.995285 0.175067 0
1 0.173877 0
1 0.172625 0
0.0879072 0.197833 0
0.156466 0.185992 0
0.214847 0.176165 0
0.256474 0.170672 0.0150454
0.283497 0.169558 0.03682
0.301228 0.171664 0.0536049
0.31899 0.174197 0.0664683
0.318624 0.186328 0.0413062
0.288701 0.209781 0
0.299565 0.217243 0
0.332113 0.21706 0
0.365209 0.216632 0
0.398123 0.216205 0
0.430808 0.215808 0
0.46331 0.215427 0
0.495674 0.215061 0
0.527962 0.214694 0
0.56022 0.214313 0
0.592447 0.213947 0
0.624659 0.213565 0
0.656855 0.213169 0
0.689036 0.212787 0
0.721202 0.21239 0
0.753384 0.211994 0
0.785931 0.211536 0
0.818723 0.211048 0
0.85185 0.210513 0
0.885603 0.209888 0
0.920119 0.209155 0
0.955993 0.20827 0
0.993423 0.207172 0
1 0.205951 0
1 0.204639 0
0.100404 0.226108 0
0.174594 0.212757 0
0.240726 0.200763 0
0.291447 0.192477 0.00910964
0.326345 0.188647 0.0348058
0.347799 0.189105 0.056611
0.363958 0.191745 0.0731365
0.379126 0.195392 0.0834363
0.371206 0.21059 0.0505989
0.33463 0.236667 0
0.33637 0.247379 0
0.366171 0.248112 0
0.39881 0.247791 0
0.43122 0.247456 0
0.463478 0.247135 0
0.495628 0.24683 0
0.527687 0.246509 0
0.559716 0.246189 0
0.591714 0.245853 0
0.623697 0.245518 0
0.655665 0.245182 0
0.687633 0.244831 0
0.7196 0.24448 0
0.751598 0.244114 0
0.783673 0.243732 0
0.816434 0.243244 0
0.849485 0.242725 0
0.883223 0.2421 0
0.917754 0.241367 0
0.953811 0.240436 0
0.991455 0.239277 0
1 0.23801 0
1 0.236652 0
0.113024 0.254353 0
0.19086 0.24007 0
0.260548 0.227146 0
0.315496 0.21767 0.00115969
0.355917 0.212024 0.0282444
0.383261 0.210376 0.0536049
0.403388 0.211353 0.0745861
0.419806 0.214069 0.0901961
0.433585 0.218509 0.0973678
0.421271 0.235676 0.0588235
0.380941 0.26331 0.000122072
0.374395 0.276997 0
0.399832 0.279225 0
0.432013 0.278996 0
0.464073 0.278752 0
0.496025 0.278477 0
0.527901 0.278218 0
0.559716 0.277943 0
0.591485 0.277668 0
0.62324 0.277394 0
0.654978 0.277104 0
0.686748 0.276799 0
0.718532 0.276478 0
0.750393 0.276143 0
0.782345 0.275792 0
0.814557 0.275395 0
0.847456 0.274891 0
0.881071 0.274281 0
0.915648 0.273533 0
0.951843 0.272572 0
0.989685 0.271382 0
1 0.270054 0
1 0.268605 0
0.125048 0.282765 0
0.2056 0.267796 0
0.277821 0.254292 0
0.334829 0.244327 0
0.376974 0.238178 0.019379
0.406912 0.235569 0.0459297
0.430945 0.235065 0.0697642
0.451926 0.235996 0.0894636
0.470726 0.238148 0.104463
0.483742 0.243244 0.10811
0.468544 0.261707 0.065568
0.426398 0.29012 0.00454719
0.413184 0.306249 0
0.43328 0.310338 0
0.464958 0.310262 0
0.496788 0.310048 0
0.528496 0.30985 0
0.560143 0.309621 0
0.591714 0.309392 0
0.62327 0.309163 0
0.654795 0.308919 0
0.686351 0.308659 0
0.717983 0.308385 0
0.749737 0.30808 0
0.781659 0.307729 0
0.813825 0.307347 0
0.84625 0.30692 0
0.879561 0.306371 0
0.914046 0.305623 0
0.950317 0.304631 0
0.988235 0.30341 0
1 0.302068 0
1 0.300511 0
0.137011 0.311177 0
0.21944 0.29575 0
0.293629 0.281834 0
0.352361 0.271534 0
0.3953 0.265248 0.0100252
0.425315 0.262562 0.036408
0.449882 0.261692 0.0612955
0.473121 0.261662 0.083299
0.495933 0.262272 0.101701
0.516976 0.26389 0.115923
0.529793 0.269505 0.115801
0.514092 0.28835 0.0713359
0.471717 0.316976 0.00910964
0.45301 0.335149 0
0.467765 0.34107 0
0.497826 0.341527 0
0.529366 0.34139 0
0.560861 0.341222 0
0.592309 0.341039 0
0.623713 0.340856 0
0.6551 0.340642 0
0.686488 0.340429 0
0.717968 0.340185 0
0.749569 0.339925 0
0.781353 0.339605 0
0.813397 0.339254 0
0.845792 0.338842 0
0.87895 0.338308 0
0.913161 0.337606 0
0.949355 0.336614 0
0.987213 0.335393 0
1 0.334035 0
1 0.332403 0
0.149691 0.339406 0
0.23331 0.323705 0
0.308598 0.309636 0
0.365789 0.300114 0
0.370062 0.305562 0
0.399451 0.303944 0.0166018
0.425467 0.303349 0.0359503
0.449729 0.30341 0.0540169
0.473289 0.303868 0.0705272
0.496269 0.304738 0.085008
0.518288 0.306218 0.0968338
0.532647 0.311528 0.0943618
0.5252 0.327047 0.0572671
0.497139 0.350195 0.00584421
0.484337 0.366308 0
0.498177 0.372534 0
0.526711 0.373526 0
0.558465 0.373342 0
0.590295 0.373114 0
0.622049 0.372885 0
0.653712 0.372641 0
0.685283 0.372412 0
0.716823 0.372168 0
0.74844 0.371908 0
0.780194 0.371618 0
0.812177 0.371283 0
0.844465 0.370886 0
0.87747 0.370367 0
0.91162 0.36968 0
0.947585 0.368719 0
0.985061 0.367529 0
1 0.365942 0
1 0.36434 0
0.116609 0.379751 0
0.195773 0.365545 0
0.271412 0.351736 0
0.336919 0.3402 0
0.391653 0.331304 0
0.430228 0.326848 0.0114443
0.455985 0.326177 0.0320439
0.473396 0.328252 0.0496681
0.490532 0.330724 0.0647593
0.509483 0.332937 0.07776
0.530053 0.334951 0.0888838
0.550744 0.337163 0.097734
0.562844 0.343648 0.0906844
0.555825 0.358968 0.054078
0.531456 0.380652 0.00576791
0.519112 0.396597 0
0.530755 0.403525 0
0.556985 0.405264 0
0.588342 0.405173 0
0.619928 0.40499 0
0.65153 0.404776 0
0.683131 0.404547 0
0.714763 0.404303 0
0.746471 0.404028 0
0.778271 0.403738 0
0.810224 0.403403 0
0.842405 0.403037 0
0.875212 0.402564 0
0.909056 0.401923 0
0.944762 0.400977 0
0.981842 0.399832 0
1 0.39823 0
1 0.396597 0
0.120043 0.410437 0
0.201099 0.395773 0
0.278111 0.381659 0
0.346639 0.369345 0
0.406241 0.359075 0
0.451881 0.352483 0.00491341
0.482353 0.350286 0.0269322
0.499962 0.352163 0.0457465
0.512901 0.355871 0.0607309
0.526345 0.359854 0.0724651
0.54313 0.363119 0.0822919
0.561654 0.36611 0.0901503
0.580316 0.369314 0.0956893
0.590021 0.376913 0.0847181
0.58352 0.391913 0.0491951
0.563012 0.411994 0.00444038
0.552316 0.427329 0
0.562783 0.434638 0
0.587243 0.436957 0
0.617899 0.437064 0
0.64921 0.436927 0
0.680583 0.436759 0
0.711986 0.436545 0
0.743496 0.436332 0
0.775097 0.436072 0
0.806851 0.435782 0
0.838849 0.435447 0
0.871519 0.434989 0
0.905348 0.434348 0
0.940917 0.433417 0
0.978439 0.432181 0
1 0.430686 0
1 0.428946 0
0.127352 0.44007 0
0.211307 0.424643 0
0.289937 0.410101 0
0.35967 0.397513 0
0.420539 0.386938 0
0.468116 0.379797 0
0.501823 0.376547 0.0202487
0.523934 0.376898 0.04094
0.539467 0.379599 0.0580911
0.551385 0.383886 0.0710307
0.562417 0.388922 0.0799573
0.574792 0.393927 0.0859083
0.589715 0.398383 0.0900435
0.60592 0.402686 0.0920577
0.613977 0.411078 0.0780194
0.608606 0.425589 0.0437171
0.592187 0.444053 0.00233463
0.583978 0.458518 0
0.594186 0.465919 0
0.617472 0.46862 0
0.647227 0.469001 0
0.678309 0.46891 0
0.709499 0.468757 0
0.740871 0.468559 0
0.772442 0.468315 0
0.804318 0.468009 0
0.836439 0.467658 0
0.869078 0.467216 0
0.902571 0.466621 0
0.937667 0.465766 0
0.974716 0.464591 0
1 0.463127 0
1 0.461311 0
0.128557 0.471351 0
0.213169 0.455787 0
0.29279 0.441077 0
0.363622 0.42829 0
0.425467 0.417594 0
0.473381 0.410483 0
0.507576 0.407156 0.0111086
0.531197 0.406989 0.0319066
0.549859 0.408606 0.050248
0.56585 0.411444 0.0652476
0.580041 0.415305 0.0765545
0.592889 0.419989 0.0840925
0.605524 0.425132 0.0883192
0.618891 0.43032 0.0900435
0.631922 0.435981 0.0881361
0.637247 0.445518 0.0707103
0.632197 0.4598 0.037171
0.619257 0.476875 0
0.613825 0.490318 0
0.624537 0.497505 0
0.647257 0.500374 0
0.676219 0.501015 0
0.707179 0.500938 0
0.738415 0.500771 0
0.769985 0.500542 0
0.802121 0.500191 0
0.834409 0.499825 0
0.867063 0.499367 0
0.90042 0.498802 0
0.935714 0.497902 0
0.972625 0.496742 0
1 0.495323 0
1 0.493675 0
0.131624 0.502129 0
0.215045 0.486931 0
0.29482 0.472236 0
0.365942 0.45948 0
0.428367 0.448768 0
0.476371 0.44181 0
0.510338 0.438666 0.00195315
0.533501 0.438666 0.0220645
0.552422 0.440131 0.0404517
0.570245 0.442298 0.0563516
0.587777 0.444968 0.0693217
0.603998 0.448447 0.0790112
0.618662 0.452766 0.0852369
0.632349 0.45774 0.0882277
0.645899 0.463035 0.0885634
0.658061 0.4692 0.0841535
0.662943 0.479057 0.065095
0.65919 0.492821 0.032639
0.649134 0.508782 0
0.645594 0.521569 0
0.65626 0.528786 0
0.678264 0.531884 0
0.706447 0.532769 0
0.737331 0.532723 0
0.769131 0.532464 0
0.801251 0.532143 0
0.833326 0.531807 0
0.865827 0.53138 0
0.898909 0.530861 0
0.933776 0.530037 0
0.970428 0.528908 0
1 0.527474 0
1 0.525902 0
0.138888 0.531792 0
0.220188 0.517174 0
0.297902 0.503105 0
0.368688 0.490547 0
0.432883 0.4795 0
0.482963 0.472221 0
0.475593 0.481575 0
0.501411 0.481437 0.00546273
0.522225 0.482856 0.0202487
0.540429 0.485222 0.0333257
0.558114 0.487922 0.0446784
0.575753 0.490867 0.0540932
0.593072 0.494209 0.0612192
0.609354 0.498177 0.0655375
0.62472 0.502739 0.0669566
0.639612 0.507713 0.0658274
0.652689 0.513756 0.0595102
0.660624 0.522484 0.0418097
0.663432 0.533669 0.0151827
0.662959 0.545968 0
0.667842 0.555734 0
0.682963 0.56144 0
0.706661 0.564004 0
0.735348 0.564782 0
0.766552 0.564706 0
0.798703 0.56437 0
0.830961 0.564019 0
0.863294 0.563622 0
0.896361 0.563104 0
0.931243 0.562264 0
0.96791 0.56112 0
1 0.55964 0
1 0.557946 0
0.139071 0.563333 0
0.221286 0.548501 0
0.293202 0.536095 0
0.353475 0.526558 0
0.408545 0.518257 0
0.455482 0.512078 0
0.494057 0.508141 0
0.520668 0.507683 0.00015259
0.538323 0.509972 0.0151217
0.550958 0.514 0.0275731
0.563378 0.51838 0.0376745
0.577523 0.522515 0.0457771
0.593317 0.52639 0.052079
0.609445 0.530419 0.0563516
0.624918 0.53489 0.0582284
0.639506 0.539879 0.057557
0.653529 0.545281 0.0545052
0.66537 0.551919 0.045716
0.673259 0.560678 0.0275273
0.678035 0.570993 0.00321965
0.681743 0.581598 0
0.691157 0.589654 0
0.709468 0.594232 0
0.735363 0.596109 0
0.764981 0.596658 0
0.796567 0.596536 0
0.828565 0.596231 0
0.860929 0.59585 0
0.893797 0.595361 0
0.928191 0.594614 0
0.964187 0.593576 0
1 0.592157 0
1 0.590463 0
0.126268 0.598337 0
0.213169 0.582345 0
0.289174 0.568902 0
0.351736 0.558831 0
0.408225 0.550195 0
0.456626 0.543648 0
0.496788 0.539315 0
0.526207 0.538033 0
0.546883 0.539391 0.00875868
0.560983 0.542931 0.0217594
0.572213 0.547646 0.0319371
0.583276 0.552758 0.0393988
0.595758 0.557748 0.0445716
0.609705 0.562539 0.047837
0.624262 0.567346 0.0493019
0.63856 0.572396 0.0488289
0.652247 0.577829 0.0462043
0.665537 0.583597 0.0413977
0.676814 0.590539 0.030808
0.685496 0.599008 0.0128939
0.692744 0.60827 0
0.702235 0.616693 0
0.71696 0.622843 0
0.738018 0.626505 0
0.764462 0.628168 0
0.794232 0.628641 0
0.825559 0.62855 0
0.858396 0.628092 0
0.891722 0.627527 0
0.925978 0.626795 0
0.961166 0.625895 0
0.998291 0.624659 0
1 0.622995 0
0.119905 0.631632 0
0.211246 0.614481 0
0.295171 0.598901 0
0.364385 0.586999 0
0.424063 0.577462 0
0.472892 0.570794 0
0.511955 0.566751 0
0.534997 0.567361 0
0.547478 0.571206 0.0015259
0.559442 0.575372 0.0141604
0.571557 0.579751 0.0247959
0.584634 0.584176 0.0330968
0.598444 0.588647 0.0392462
0.613367 0.593088 0.0432136
0.629343 0.597513 0.0450446
0.643671 0.602609 0.0446021
0.656947 0.608148 0.0422675
0.669886 0.613947 0.0380713
0.682719 0.619989 0.0316167
0.693874 0.627161 0.0193484
0.704753 0.634882 0.00250248
0.716335 0.642527 0
0.728115 0.650019 0
0.74403 0.65568 0
0.76614 0.65893 0
0.793698 0.660212 0
0.824628 0.660395 0
0.857313 0.660044 0
0.890791 0.65948 0
0.924605 0.658839 0
0.95906 0.658061 0
0.994995 0.657038 0
1 0.655604 0
0.101305 0.668193 0
0.191913 0.651362 0
0.278492 0.635172 0
0.351431 0.62237 0
0.413931 0.612161 0
0.463401 0.605432 0
0.499733 0.602243 0
0.511788 0.606256 0
0.52932 0.608698 0
0.545663 0.611643 0.00456245
0.559228 0.615671 0.0146487
0.571466 0.620386 0.0222782
0.583368 0.625544 0.0272984
0.595575 0.630915 0.0298009
0.60882 0.63624 0.0302434
0.623636 0.64126 0.0292821
0.640055 0.645869 0.0274815
0.657313 0.650294 0.0248264
0.674723 0.654749 0.0210269
0.691691 0.65951 0.0153201
0.706859 0.665278 0.00482185
0.720684 0.671885 0
0.734081 0.678782 0
0.749249 0.684932 0
0.769024 0.689189 0
0.794659 0.691264 0
0.824598 0.691859 0
0.857267 0.691646 0
0.891356 0.691066 0
0.926741 0.690181 0
0.962982 0.689097 0
0.999634 0.687938 0
1 0.686732 0
0.115694 0.695949 0
0.198108 0.6813 0
0.274861 0.667826 0
0.344305 0.656062 0
0.405844 0.646235 0
0.453468 0.640055 0
0.475166 0.641291 0
0.496651 0.64271 0
0.517784 0.644205 0
0.533745 0.647364 0
0.547234 0.651438 0.00526436
0.560113 0.65597 0.0127413
0.573404 0.660655 0.0180209
0.587625 0.665354 0.0212406
0.602975 0.669947 0.0226291
0.619654 0.674311 0.0226139
0.637156 0.678569 0.0213626
0.655039 0.682795 0.018967
0.672831 0.68716 0.0153506
0.690532 0.69163 0.0105135
0.70782 0.696406 0.00376898
0.723659 0.702022 0
0.739284 0.707958 0
0.756008 0.713588 0
0.775448 0.718166 0
0.799115 0.721111 0
0.827054 0.722484 0
0.858412 0.722728 0
0.891539 0.722484 0
0.925994 0.72192 0
0.961563 0.72108 0
0.998672 0.719844 0
1 0.718486 0
0.136065 0.722103 0
0.219623 0.707088 0
0.293782 0.694301 0
0.35375 0.685145 0
0.406485 0.677806 0
0.436103 0.676875 0
0.467353 0.675593 0
0.502663 0.673075 0
0.475959 0.688975 0
0.499916 0.690089 0
0.517433 0.693233 0
0.531762 0.697505 0
0.545708 0.702068 0.00154116
0.560876 0.706447 0.00437934
0.577813 0.71046 0.00605783
0.596048 0.714244 0.00654612
0.614893 0.717998 0.00573739
0.633814 0.721874 0.00354009
0.652766 0.725856 9.15541e-05
0.671946 0.72987 0
0.691539 0.733822 0
0.711833 0.737682 0
0.732662 0.741573 0
0.754772 0.745144 0
0.777752 0.748486 0
0.802579 0.751125 0
0.830076 0.752758 0
0.860777 0.753307 0
0.893156 0.753323 0
0.926787 0.753033 0
0.960998 0.752621 0
0.996567 0.751888 0
1 0.750652 0
0.140093 0.752636 0
0.223331 0.737713 0
0.312917 0.720714 0
0.3729 0.711528 0
0.415442 0.707012 0
0.429679 0.710521 0
0.452476 0.711742 0
0.475731 0.712856 0
0.495064 0.71519 0
0.510201 0.718883 0
0.522042 0.723705 0
0.532113 0.72929 0
0.542473 0.734997 0
0.554665 0.740353 0
0.569467 0.745068 0
0.586419 0.749279 0
0.604608 0.753231 0
0.623178 0.757214 0
0.64184 0.761303 0
0.661082 0.765316 0
0.681636 0.768963 0
0.704143 0.772015 0
0.728023 0.77467 0
0.752346 0.77731 0
0.777157 0.779889 0
0.803433 0.78201 0
0.831998 0.783322 0
0.863249 0.783719 0
0.895628 0.78378 0
0.928878 0.783627 0
0.962127 0.78352 0
0.996155 0.783246 0
1 0.782696 0
0.120882 0.789364 0
0.207965 0.773495 0
0.29984 0.755932 0
0.364431 0.745571 0
0.411139 0.739986 0
0.435416 0.740719 0
0.462013 0.740795 0
0.484245 0.742199 0
0.502922 0.744701 0
0.517937 0.748394 0
0.529503 0.753277 0
0.538415 0.759182 0
0.546288 0.765637 0
0.555093 0.772061 0
0.56614 0.777996 0
0.579934 0.783261 0
0.595987 0.787945 0
0.613748 0.792218 0
0.633066 0.796078 0
0.654032 0.799481 0
0.676722 0.802365 0
0.700587 0.804883 0
0.725185 0.807202 0
0.749859 0.809613 0
0.774975 0.811978 0
0.801953 0.813764 0
0.831342 0.814755 0
0.863706 0.81474 0
0.897246 0.814404 0
0.930663 0.814191 0
0.962585 0.814466 0
0.99443 0.814771 0
1 0.814725 0
0.0899214 0.829267 0
0.184085 0.811582 0
0.293523 0.789349 0
0.390051 0.770169 0
0.467002 0.755947 0
0.497383 0.754772 0
0.53196 0.752331 0
0.555978 0.752911 0
0.572824 0.755657 0
