src/luts/blur/5.cube
TITLE "Generated by Resolve"
LUT_3D_SIZE 9
0 0 0
0.134371 0 0
0.268513 0 0
0.400824 0 0
0.533196 0 0
0.66627 0 0
0.799481 0 0
0.933089 0 0
1 0 0
0.0888533 0.102861 0
0.208576 0.0969711 0.0400244
0.270039 0.12221 0
0.403494 0.12018 0
0.532616 0.118608 0
0.661631 0.116945 0
0.791424 0.115114 0
0.925673 0.112749 0
1 0.107271 0
0.100404 0.226108 0
0.326345 0.188647 0.0348058
0.371206 0.21059 0.0505989
0.39881 0.247791 0
0.527687 0.246509 0
0.655665 0.245182 0
0.783673 0.243732 0
0.917754 0.241367 0
1 0.236652 0
0.149691 0.339406 0
0.370062 0.305562 0
0.473289 0.303868 0.0705272
0.5252 0.327047 0.0572671
0.526711 0.373526 0
0.653712 0.372641 0
0.780194 0.371618 0
0.91162 0.36968 0
1 0.36434 0
0.128557 0.471351 0
0.425467 0.417594 0
0.549859 0.408606 0.050248
0.605524 0.425132 0.0883192
0.632197 0.4598 0.037171
0.647257 0.500374 0
0.769985 0.500542 0
0.90042 0.498802 0
1 0.493675 0
0.126268 0.598337 0
0.408225 0.550195 0
0.546883 0.539391 0.00875868
0.595758 0.557748 0.0445716
0.652247 0.577829 0.0462043
0.692744 0.60827 0
0.764462 0.628168 0
0.891722 0.627527 0
1 0.622995 0
0.136065 0.722103 0
0.406485 0.677806 0
0.475959 0.688975 0
0.545708 0.702068 0.00154116
0.614893 0.717998 0.00573739
0.691539 0.733822 0
0.777752 0.748486 0
0.893156 0.753323 0
1 0.750652 0
0.0879988 0.861402 0
0.422293 0.800259 0
0.545586 0.795666 0
0.569162 0.821897 0
0.597345 0.850782 0
0.675837 0.865843 0
0.769314 0.876844 0
0.90901 0.872663 0
1 0.861662 0
0.202289 0.957321 0
0.503716 0.904524 0
0.557107 0.919921 0
0.549416 0.95584 0
0.561425 0.98941 0
0.632212 1 0
0.747295 1 0
0.913207 0.996399 0
1 0.957748 0.0115663
0 0 0.129503
0.133928 0 0.12636
0.266392 0 0.127687
0.399252 0 0.126406
0.53228 0 0.124468
0.665537 0 0.122179
0.798642 0 0.120027
0.932235 0 0.117464
1 0 0.110033
0 0.127245 0.118746
0.128481 0.124895 0.115923
0.260624 0.12285 0.116777
0.392508 0.12076 0.116716
0.523827 0.1187 0.116564
0.656641 0.116487 0.114595
0.789822 0.114244 0.112306
0.923705 0.111925 0.10956
1 0.108064 0.0998245
0 0.255421 0.11078
0.179278 0.238102 0.0905013
0.296605 0.236774 0.127123
0.390753 0.248386 0.104204
0.518502 0.246983 0.106462
0.648432 0.245182 0.106477
0.781155 0.243 0.104494
0.915343 0.24062 0.101671
1 0.236469 0.0913405
0 0.383642 0.0941482
0.269093 0.341054 0.0563211
0.39968 0.332021 0.128084
0.454261 0.35172 0.137545
0.518318 0.374258 0.0941939
0.644205 0.373251 0.0962844
0.772534 0.37174 0.0966354
0.906233 0.369421 0.0941024
1 0.364538 0.0829938
0 0.50898 0.0625772
0.323278 0.452918 0.0341497
0.426123 0.452277 0.102388
0.506508 0.460853 0.14519
0.570428 0.480583 0.128283
0.636332 0.501762 0.0885023
0.763867 0.500496 0.0888075
0.897185 0.498238 0.0864729
1 0.493874 0.0783856
0.00337224 0.633249 0.0508125
0.312306 0.581842 0.0285191
0.439551 0.57583 0.0811322
0.520714 0.584283 0.122805
0.58027 0.602808 0.128466
0.647639 0.622827 0.0965896
0.756085 0.629084 0.0807355
0.889281 0.626856 0.0783551
1 0.622873 0.0720378
0 0.762249 0.0562753
0.30309 0.710445 0.0218662
0.408621 0.711528 0.0666972
0.492958 0.72018 0.0984054
0.567132 0.734096 0.10724
0.65272 0.746654 0.096849
0.75462 0.755261 0.0775311
0.882445 0.755123 0.0706951
1 0.752621 0.0668345
0.014023 0.882719 0.0328985
0.325902 0.830671 0.00643931
0.434699 0.830884 0.0502327
0.473167 0.852934 0.0817731
0.546181 0.867582 0.0879835
0.645136 0.875502 0.0844892
0.745892 0.883955 0.0700847
0.890394 0.877928 0.0736706
1 0.877256 0.0622263
0.0702831 0.995407 0
0.243198 0.978927 0.018677
0.362066 0.977996 0.0452277
0.421393 0.995056 0.0665446
0.506691 1 0.0701762
0.613993 1 0.0657664
0.734295 1 0.0599832
0.891829 1 0.0732891
1 0.966125 0.123919
0 0 0.265507
0.13138 0 0.26537
0.264683 0 0.263035
0.397971 0 0.260716
0.53138 0 0.258183
0.664469 0 0.256229
0.797543 0 0.254185
0.931212 0 0.251347
1 0 0.24416
0 0.12668 0.255253
0.125719 0.124285 0.249638
0.259281 0.122026 0.248325
0.389731 0.120012 0.252247
0.522545 0.117784 0.250736
0.65565 0.115541 0.248646
0.788861 0.113283 0.246387
0.922652 0.110979 0.243488
1 0.108034 0.233005
0 0.254795 0.241428
0.123491 0.251957 0.231998
0.252827 0.250355 0.238651
0.381643 0.248676 0.243854
0.514092 0.246509 0.242679
0.646937 0.244297 0.240879
0.780179 0.242039 0.23856
0.914 0.239719 0.235737
1 0.236072 0.220462
0 0.383032 0.232807
0.118914 0.379782 0.221973
0.294072 0.366537 0.210727
0.40531 0.367819 0.238849
0.510323 0.374563 0.229877
0.63827 0.373053 0.233051
0.771496 0.370809 0.230747
0.904845 0.368536 0.228336
1 0.364401 0.214343
0 0.511604 0.226703
0.122591 0.507012 0.194675
0.354788 0.47718 0.182361
0.451438 0.480171 0.233997
0.517372 0.497459 0.233417
0.629618 0.501808 0.225193
0.762829 0.499565 0.222919
0.896071 0.497307 0.2206
1 0.493797 0.211948
0 0.640955 0.223651
0.141512 0.630991 0.157107
0.361654 0.601312 0.174334
0.430259 0.613199 0.219089
0.513542 0.624567 0.226963
0.624186 0.629526 0.218555
0.754147 0.628321 0.215091
0.887388 0.626062 0.212772
1 0.622904 0.206714
0 0.770092 0.216098
0.154604 0.753536 0.147433
0.343099 0.732204 0.172824
0.431235 0.739559 0.206546
0.528679 0.746258 0.219928
0.624857 0.755138 0.214694
0.745495 0.757061 0.207279
0.879698 0.754635 0.204486
1 0.752087 0.200961
0 0.898878 0.208148
0.165789 0.876387 0.139818
0.349462 0.856779 0.162295
0.422583 0.868513 0.196246
0.52134 0.874968 0.208301
0.614282 0.884642 0.204837
0.736858 0.885801 0.199481
0.87892 0.880613 0.201251
1 0.880278 0.193759
0 1 0.183963
0.140826 1 0.152789
0.301793 0.995621 0.167376
0.381186 1 0.191058
0.482673 1 0.196979
0.600565 1 0.195071
0.728374 1 0.191714
0.87866 1 0.198428
1 0.996597 0.206455
0 0 0.401053
0.130327 0 0.399863
0.263569 0 0.397543
0.396979 0 0.39472
0.530221 0 0.392477
0.663355 0 0.390509
0.796567 0 0.388266
0.930037 0 0.385565
1 0 0.380484
0 0.125856 0.392966
0.121843 0.123613 0.391333
0.255039 0.121355 0.389319
0.388418 0.119081 0.386725
0.521553 0.116838 0.384756
0.654658 0.114595 0.382742
0.787884 0.112337 0.380453
0.921508 0.110048 0.377584
1 0.1075 0.369741
0 0.254459 0.382757
0.115633 0.252049 0.377417
0.248295 0.249897 0.377325
0.38027 0.247776 0.378012
0.512718 0.245609 0.377249
0.64596 0.243351 0.374945
0.779202 0.241093 0.372625
0.912703 0.238804 0.370001
1 0.235676 0.356405
0 0.38262 0.368048
0.113527 0.379751 0.357763
0.24799 0.377432 0.355276
0.372091 0.376455 0.369635
0.504036 0.374365 0.369451
0.637278 0.372107 0.367132
0.770535 0.369848 0.364813
0.903777 0.36759 0.362493
1 0.364111 0.34931
0 0.511116 0.360403
0.111086 0.507286 0.342535
0.239551 0.505974 0.349844
0.371862 0.503166 0.357443
0.49543 0.503105 0.361593
0.628611 0.500862 0.359304
0.761852 0.498604 0.356985
0.895094 0.496345 0.354665
1 0.49337 0.346838
0 0.640558 0.360235
0.102693 0.635798 0.337881
0.236316 0.634073 0.333181
0.390402 0.625086 0.338125
0.496254 0.629145 0.353262
0.619974 0.629602 0.351492
0.75317 0.627359 0.349172
0.886427 0.625101 0.346853
1 0.622522 0.342443
0 0.769558 0.354559
0.0902876 0.765179 0.337057
0.237827 0.761013 0.314763
0.387335 0.752163 0.330373
0.483192 0.759182 0.345388
0.611246 0.758373 0.343664
0.744503 0.756115 0.341344
0.877745 0.753857 0.339025
1 0.751598 0.336706
0 0.898344 0.347005
0.0842145 0.893919 0.322789
0.240467 0.886641 0.305043
0.366217 0.883955 0.328771
0.475059 0.8878 0.33727
0.602625 0.887114 0.335836
0.735821 0.884871 0.333516
0.870924 0.882033 0.331853
1 0.880232 0.32845
0 1 0.338125
0.0636454 1 0.333089
0.225635 1 0.309911
0.358007 1 0.321477
0.470863 1 0.328634
0.596063 1 0.328084
0.727138 1 0.325704
0.86598 1 0.325704
1 1 0.325795
0 0 0.536019
0.129351 0 0.533944
0.262608 0 0.531594
0.395987 0 0.528756
0.529198 0 0.526635
0.662348 0 0.524651
0.79559 0 0.522347
0.928847 0 0.520012
1 0 0.516686
0 0.124926 0.528435
0.120668 0.122667 0.526116
0.254002 0.120409 0.523491
0.387274 0.118151 0.521172
0.520424 0.115892 0.519158
0.653666 0.113634 0.516838
0.786908 0.111376 0.514519
0.920348 0.109117 0.511849
1 0.106767 0.507149
0 0.253681 0.520302
0.112398 0.251392 0.517052
0.245335 0.249165 0.51574
0.378515 0.246906 0.513603
0.511742 0.244648 0.511345
0.644984 0.24239 0.509026
0.778241 0.240131 0.506706
0.911559 0.237873 0.50425
1 0.235325 0.496742
0 0.382269 0.509346
0.105165 0.379934 0.505867
0.236713 0.377905 0.50782
0.369818 0.375662 0.505837
0.503059 0.373404 0.503517
0.636316 0.371145 0.501198
0.769558 0.368887 0.498878
0.9028 0.366644 0.496559
1 0.363912 0.487907
0 0.510842 0.499962
0.103197 0.507622 0.48481
0.233829 0.505821 0.489021
0.362371 0.504265 0.495827
0.494392 0.502174 0.495689
0.627634 0.499916 0.49337
0.760876 0.497658 0.491051
0.894133 0.495399 0.488731
1 0.492943 0.484367
0 0.639826 0.495766
0.0945754 0.636255 0.479316
0.223377 0.634775 0.485542
0.352483 0.633173 0.49015
0.48571 0.63093 0.487877
0.618952 0.628672 0.485557
0.752209 0.626413 0.483238
0.885451 0.624155 0.480919
1 0.621759 0.477455
0 0.768688 0.489097
0.0843824 0.765194 0.4757
0.214023 0.763607 0.479484
0.34403 0.761898 0.481987
0.477028 0.759686 0.480049
0.610285 0.757427 0.477729
0.743526 0.755169 0.47541
0.876768 0.752911 0.473091
1 0.750652 0.470771
0 0.897475 0.481514
0.0753948 0.89395 0.469444
0.207599 0.891951 0.468925
0.339925 0.889952 0.467765
0.469627 0.888136 0.471595
0.601602 0.886183 0.469917
0.734844 0.883925 0.467597
0.868101 0.881666 0.465278
1 0.879408 0.462959
0 1 0.473686
0.0603494 1 0.470817
0.196185 1 0.464393
0.328801 1 0.464225
0.459678 1 0.464408
0.59292 1 0.462089
0.726177 1 0.45977
0.860212 1 0.457649
0.993393 1 0.455283
0 0 0.670329
0.128374 0 0.668009
0.261646 0 0.665614
0.394888 0 0.66334
0.528115 0 0.661051
0.661372 0 0.658732
0.794614 0 0.656413
0.927871 0 0.654093
1 0 0.651774
0 0.12398 0.662516
0.119707 0.121721 0.660197
0.252979 0.119463 0.657755
0.386206 0.117205 0.655543
0.519448 0.114946 0.653223
0.652689 0.112688 0.650904
0.785946 0.11043 0.648585
0.919188 0.108171 0.646265
1 0.105913 0.643778
0 0.252735 0.654688
0.111025 0.250477 0.652369
0.244266 0.248219 0.65005
0.377523 0.24596 0.64773
0.510765 0.243702 0.645411
0.644022 0.241443 0.643091
0.777264 0.239185 0.640772
0.910521 0.236927 0.638453
1 0.234638 0.635569
0 0.381476 0.64651
0.10248 0.379217 0.644144
0.235599 0.376974 0.642222
0.368841 0.374716 0.639902
0.502098 0.372457 0.637583
0.63534 0.370199 0.635264
0.768582 0.367941 0.632944
0.901839 0.365682 0.630625
1 0.363363 0.627344
0 0.510231 0.638865
0.0937819 0.507973 0.636454
0.226917 0.50573 0.634409
0.360159 0.503471 0.63209
0.493416 0.501213 0.62977
0.626657 0.498955 0.627451
0.759915 0.496696 0.625132
0.893156 0.494438 0.622812
1 0.49218 0.620417
0 0.638987 0.631067
0.0873121 0.636393 0.623957
0.218235 0.634485 0.626581
0.351492 0.632227 0.624262
0.484733 0.629969 0.621942
0.61799 0.62771 0.619623
0.751232 0.625452 0.617304
0.884489 0.623194 0.614984
1 0.62092 0.612436
0 0.767758 0.623407
0.0773327 0.765332 0.619135
0.209796 0.76321 0.618341
0.342809 0.760983 0.616449
0.476066 0.758724 0.61413
0.609308 0.756466 0.611811
0.74255 0.754208 0.609476
0.875807 0.751949 0.607156
1 0.749691 0.604837
0 0.896513 0.615579
0.068864 0.894041 0.611139
0.201053 0.891966 0.610666
0.334127 0.889738 0.608621
0.467384 0.88748 0.606302
0.600626 0.885222 0.603983
0.733883 0.882963 0.601663
0.867124 0.880705 0.599344
1 0.878462 0.597025
0 1 0.607767
0.0589914 1 0.605386
0.192508 1 0.60267
0.32546 1 0.600793
0.458701 1 0.598474
0.591959 1 0.596155
0.7252 1 0.593835
0.858457 1 0.591516
0.991699 1 0.589197
0 0 0.804395
0.127413 0 0.802075
0.260655 0 0.799756
0.393896 0 0.797436
0.527153 0 0.795117
0.660395 0 0.792798
0.793652 0 0.790478
0.926894 0 0.788159
1 0 0.78584
0 0.123018 0.796582
0.11873 0.12076 0.794263
0.251972 0.118502 0.791943
0.385229 0.116243 0.789624
0.518471 0.113985 0.787305
0.651728 0.111727 0.784985
0.78497 0.109468 0.782666
0.918227 0.10721 0.780346
1 0.104952 0.778012
0 0.251774 0.788754
0.110048 0.249516 0.786435
0.243305 0.247257 0.784115
0.376547 0.244999 0.781796
0.509804 0.242741 0.779477
0.643046 0.240482 0.777157
0.776287 0.238224 0.774838
0.909545 0.235966 0.772519
1 0.233707 0.770199
0 0.380529 0.780941
0.101381 0.378271 0.778622
0.234623 0.376013 0.776303
0.367864 0.373754 0.773983
0.501122 0.371496 0.771664
0.634363 0.369238 0.769329
0.76762 0.366979 0.76701
0.900862 0.364721 0.764691
1 0.362478 0.762371
0 0.509285 0.773114
0.0926986 0.507027 0.770794
0.22594 0.504768 0.768475
0.359197 0.502525 0.766155
0.492439 0.500267 0.763836
0.625696 0.498009 0.761517
0.758938 0.49575 0.759197
0.892195 0.493492 0.756878
1 0.491234 0.754559
0 0.638056 0.765286
0.0840162 0.635798 0.762966
0.217273 0.633539 0.760647
0.350515 0.631281 0.758328
0.483772 0.629023 0.756008
0.617014 0.626764 0.753689
0.750256 0.624506 0.751369
0.883513 0.622248 0.74905
1 0.619989 0.746731
0 0.766812 0.757473
0.075349 0.764553 0.755154
0.208591 0.762295 0.752834
0.341833 0.760037 0.750515
0.47509 0.757778 0.748196
0.608331 0.75552 0.745876
0.741588 0.753262 0.743557
0.87483 0.751003 0.741238
1 0.748745 0.738918
0 0.895567 0.749645
0.0666667 0.893309 0.747326
0.199908 0.891051 0.745007
0.333165 0.888792 0.742687
0.466407 0.886534 0.740368
0.599664 0.884276 0.738048
0.732906 0.882017 0.735729
0.866163 0.879759 0.73341
0.999405 0.877501 0.73109
0 1 0.741833
0.0579843 1 0.739513
0.191241 1 0.737194
0.324483 1 0.734874
0.45774 1 0.732555
0.590982 1 0.730236
0.724224 1 0.727916
0.857481 1 0.725597
0.990723 1 0.723262
0 0 0.938476
0.126436 0 0.936156
0.259678 0 0.933822
0.392935 0 0.931502
0.526177 0 0.929183
0.659434 0 0.926863
0.792676 0 0.924544
0.925917 0 0.922225
1 0 0.919905
0 0.122072 0.930648
0.117754 0.119814 0.928328
0.251011 0.117556 0.926009
0.384253 0.115297 0.92369
0.51751 0.113039 0.92137
0.650752 0.11078 0.919051
0.783993 0.108522 0.916732
0.91725 0.106264 0.914412
1 0.104005 0.912093
0 0.250828 0.92282
0.109087 0.248569 0.920501
0.242329 0.246311 0.918181
0.37557 0.244053 0.915862
0.508827 0.241794 0.913542
0.642069 0.239536 0.911223
0.775326 0.237278 0.908904
0.908568 0.235019 0.906584
1 0.232761 0.904265
0 0.379583 0.915007
0.100404 0.377325 0.912688
0.233646 0.375067 0.910369
0.366903 0.372808 0.908049
0.500145 0.37055 0.90573
0.633402 0.368292 0.90341
0.766644 0.366033 0.901091
0.899901 0.363775 0.898772
1 0.361517 0.896452
0 0.508339 0.907179
0.091722 0.506081 0.90486
0.224979 0.503822 0.902541
0.358221 0.501564 0.900221
0.491478 0.499306 0.897902
0.62472 0.497047 0.895582
0.757961 0.494789 0.893263
0.891218 0.492531 0.890944
1 0.490272 0.888624
0 0.637095 0.899367
0.0830549 0.634836 0.897047
0.216297 0.632578 0.894728
0.349538 0.63032 0.892409
0.482795 0.628061 0.890089
0.616037 0.625803 0.88777
0.749294 0.623545 0.885451
0.882536 0.621286 0.883116
1 0.619028 0.880796
0 0.76585 0.891539
0.0743725 0.763592 0.88922
0.207614 0.761334 0.8869
0.340871 0.759075 0.884581
0.474113 0.756817 0.882261
0.60737 0.754559 0.879942
0.740612 0.7523 0.877623
0.873869 0.750042 0.875303
1 0.747784 0.872984
0 0.894606 0.883726
0.0656901 0.892348 0.881407
0.198947 0.890089 0.879088
0.332189 0.887831 0.876753
0.465446 0.885573 0.874434
0.598688 0.883314 0.872114
0.731929 0.881056 0.869795
0.865187 0.878798 0.867475
0.998428 0.876554 0.865156
0 1 0.875898
0.057023 1 0.873579
0.190265 1 0.87126
0.323507 1 0.86894
0.456764 1 0.866621
0.590005 1 0.864302
0.723262 1 0.861982
0.856504 1 0.859663
0.989761 1 0.857343
0 0 1
0.12546 0 1
0.258717 0 1
0.391959 0 1
0.525216 0 1
0.658457 0 1
0.791699 0 1
0.924956 0 1
1 0 1
0 0.121111 1
0.116793 0.118853 1
0.250034 0.116594 1
0.383276 0.114336 1
0.516533 0.112078 1
0.649775 0.109819 1
0.783032 0.107561 1
0.916274 0.105303 1
1 0.103044 1
0 0.249866 1
0.10811 0.247608 1
0.241352 0.24535 1
0.374609 0.243091 1
0.507851 0.240833 1
0.641108 0.238575 1
0.77435 0.236316 1
0.907607 0.234058 1
1 0.2318 1
0 0.378622 1
0.0994278 0.376364 1
0.232685 0.374105 1
0.365927 0.371847 1
0.499184 0.369589 1
0.632425 0.36733 1
0.765667 0.365072 1
0.898924 0.362814 1
1 0.360571 1
0 0.507378 1
0.0907607 0.505119 1
0.224002 0.502861 1
0.357244 0.500603 1
0.490501 0.49836 1
0.623743 0.496101 1
0.757 0.493843 1
0.890242 0.491585 1
1 0.489326 1
0 0.636149 1
0.0820783 0.63389 1
0.21532 0.631632 1
0.348577 0.629374 1
0.481819 0.627115 1
0.615076 0.624857 1
0.748318 0.622599 1
0.881575 0.62034 1
1 0.618082 1
0 0.764904 1
0.0733959 0.762646 1
0.206653 0.760388 1
0.339895 0.758129 1
0.473152 0.755871 1
0.606394 0.753613 1
0.739635 0.751354 1
0.872892 0.749096 1
1 0.746838 1
0 0.89366 1
0.0647288 0.891402 1
0.197971 0.889143 1
0.331212 0.886885 1
0.464469 0.884627 1
0.597711 0.882368 1
0.730968 0.88011 1
0.86421 0.877852 1
0.997467 0.875593 0.999222
0 1 1
0.0560464 1 1
0.189288 1 1
0.322545 1 1
0.455787 1 1
0.589044 1 0.998367
0.722286 1 0.996048
0.855543 1 0.993729
0.988785 1 0.991409
