src/luts/blur/5.cube
TITLE "Generated by Resolve"
LUT_3D_SIZE 5
0 0 0
0.268513 0 0
0.533196 0 0
0.799481 0 0
1 0 0
0.100404 0.226108 0
0.371206 0.21059 0.0505989
0.527687 0.246509 0
0.783673 0.243732 0
1 0.236652 0
0.128557 0.471351 0
0.549859 0.408606 0.050248
0.632197 0.4598 0.037171
0.769985 0.500542 0
1 0.493675 0
0.136065 0.722103 0
0.475959 0.688975 0
0.614893 0.717998 0.00573739
0.777752 0.748486 0
1 0.750652 0
0.202289 0.957321 0
0.557107 0.919921 0
0.561425 0.98941 0
0.747295 1 0
1 0.957748 0.0115663
0 0 0.265507
0.264683 0 0.263035
0.53138 0 0.258183
0.797543 0 0.254185
1 0 0.24416
0 0.254795 0.241428
0.252827 0.250355 0.238651
0.514092 0.246509 0.242679
0.780179 0.242039 0.23856
1 0.236072 0.220462
0 0.511604 0.226703
0.354788 0.47718 0.182361
0.517372 0.497459 0.233417
0.762829 0.499565 0.222919
1 0.493797 0.211948
0 0.770092 0.216098
0.343099 0.732204 0.172824
0.528679 0.746258 0.219928
0.745495 0.757061 0.207279
1 0.752087 0.200961
0 1 0.183963
0.301793 0.995621 0.167376
0.482673 1 0.196979
0.728374 1 0.191714
1 0.996597 0.206455
0 0 0.536019
0.262608 0 0.531594
0.529198 0 0.526635
0.79559 0 0.522347
1 0 0.516686
0 0.253681 0.520302
0.245335 0.249165 0.51574
0.511742 0.244648 0.511345
0.778241 0.240131 0.506706
1 0.235325 0.496742
0 0.510842 0.499962
0.233829 0.505821 0.489021
0.494392 0.502174 0.495689
0.760876 0.497658 0.491051
1 0.492943 0.484367
0 0.768688 0.489097
0.214023 0.763607 0.479484
0.477028 0.759686 0.480049
0.743526 0.755169 0.47541
1 0.750652 0.470771
0 1 0.473686
0.196185 1 0.464393
0.459678 1 0.464408
0.726177 1 0.45977
0.993393 1 0.455283
0 0 0.804395
0.260655 0 0.799756
0.527153 0 0.795117
0.793652 0 0.790478
1 0 0.78584
0 0.251774 0.788754
0.243305 0.247257 0.784115
0.509804 0.242741 0.779477
0.776287 0.238224 0.774838
1 0.233707 0.770199
0 0.509285 0.773114
0.22594 0.504768 0.768475
0.492439 0.500267 0.763836
0.758938 0.49575 0.759197
1 0.491234 0.754559
0 0.766812 0.757473
0.208591 0.762295 0.752834
0.47509 0.757778 0.748196
0.741588 0.753262 0.743557
1 0.748745 0.738918
0 1 0.741833
0.191241 1 0.737194
0.45774 1 0.732555
0.724224 1 0.727916
0.990723 1 0.723262
0 0 1
0.258717 0 1
0.525216 0 1
0.791699 0 1
1 0 1
0 0.249866 1
0.241352 0.24535 1
0.507851 0.240833 1
0.77435 0.236316 1
1 0.2318 1
0 0.507378 1
0.224002 0.502861 1
0.490501 0.49836 1
0.757 0.493843 1
1 0.489326 1
0 0.764904 1
0.206653 0.760388 1
0.473152 0.755871 1
0.739635 0.751354 1
1 0.746838 1
0 1 1
0.189288 1 1
0.455787 1 1
0.722286 1 0.996048
0.988785 1 0.991409
