src/luts/blur/6.cube
TITLE "Generated by Resolve"
LUT_3D_SIZE 5
0.025391 0.025391 0.025391
0.217365 0.056733 0.0354772
0.426886 0.0426795 0.0518502
0.66128 0.0720989 0.145922
0.83415 0.223514 0.285451
1.5259e-05 0.164752 0.110338
0.20943 0.184939 0.0451362
0.437446 0.211017 0.000137331
0.668376 0.206455 0.0215305
0.831968 0.222614 0.13196
0.0111238 0.392309 0.265568
0.237858 0.420722 0.210117
0.46247 0.436759 0.170657
0.682078 0.441962 0.0644083
0.908019 0.429572 0.106691
0.171145 0.623682 0.457664
0.34873 0.639124 0.409689
0.49131 0.658701 0.366201
0.68571 0.670329 0.335515
0.911589 0.665812 0.255421
0.305638 0.821744 0.66067
0.421485 0.83151 0.618677
0.562921 0.849393 0.574517
0.677989 0.868345 0.543557
0.902876 0.889967 0.463859
0.00141909 0.0443885 0.153079
0.20061 0.0743267 0.153017
0.429816 0.101762 0.190372
0.65948 0.156756 0.269886
0.850492 0.272633 0.384634
0.000137331 0.212741 0.269947
0.191043 0.23505 0.242054
0.456474 0.239734 0.216632
0.671321 0.256413 0.258473
0.859922 0.301564 0.3402
0.0825208 0.436286 0.43534
0.184894 0.445228 0.375891
0.444755 0.462409 0.328649
0.680934 0.461295 0.250889
0.905104 0.431754 0.250965
0.211002 0.651514 0.594827
0.268986 0.654887 0.53753
0.483177 0.669688 0.472358
0.675074 0.683879 0.435431
0.909255 0.676265 0.339574
0.258549 0.840146 0.781949
0.348318 0.841459 0.725414
0.536812 0.856397 0.642741
0.668574 0.87744 0.613367
0.893889 0.899947 0.532311
0 0.106447 0.345998
0.229694 0.125292 0.34107
0.431937 0.170504 0.356008
0.646021 0.220188 0.398733
0.858976 0.296605 0.480156
0.002533 0.275944 0.451072
0.144793 0.283574 0.435706
0.436652 0.308003 0.415656
0.646143 0.356786 0.455268
0.873198 0.376013 0.509621
0.0550393 0.473823 0.576577
0.192279 0.482841 0.545556
0.436591 0.501411 0.512154
0.677058 0.5084 0.481575
0.908537 0.472007 0.473945
0.254078 0.680797 0.71722
0.358511 0.681315 0.682948
0.461891 0.693889 0.624094
0.653971 0.711849 0.60116
0.90454 0.702022 0.500267
0.338659 0.866148 0.888914
0.386542 0.867216 0.853178
0.465339 0.868528 0.771557
0.641672 0.890623 0.721523
0.868711 0.920729 0.675914
9.15541e-05 0.221347 0.564004
0.209766 0.193118 0.520455
0.47274 0.250355 0.547906
0.654826 0.297475 0.559197
0.865797 0.337118 0.593347
0.017319 0.3561 0.643565
0.127626 0.346151 0.612314
0.444831 0.354269 0.606638
0.646754 0.392157 0.592279
0.85333 0.408103 0.618021
0.0424506 0.526818 0.77879
0.145724 0.530083 0.745357
0.407858 0.537957 0.71165
0.639735 0.561318 0.666362
0.843198 0.592615 0.702388
0.169604 0.714382 0.895552
0.254536 0.718547 0.86157
0.437507 0.725429 0.805493
0.646738 0.747662 0.765194
0.902617 0.740719 0.707103
0.0953231 0.871366 0.955596
0.239216 0.878569 0.95819
0.453239 0.891722 0.938079
0.590524 0.908019 0.875563
0.818387 0.94551 0.84564
0.00135805 0.379004 0.811856
0.114366 0.297459 0.7355
0.483146 0.336889 0.767849
0.687694 0.363378 0.775326
0.881254 0.404318 0.777111
0.00579843 0.468864 0.844633
0.0646677 0.447776 0.827375
0.421469 0.405173 0.806912
0.658473 0.44155 0.799939
0.859937 0.459586 0.78909
0.0228122 0.602289 0.885954
0.0755322 0.596368 0.883391
0.358846 0.587335 0.888228
0.621256 0.5738 0.881086
0.861723 0.601144 0.846418
0.0680858 0.779629 0.932479
0.142245 0.774639 0.931365
0.378164 0.762905 0.932952
0.604456 0.776761 0.94696
0.832853 0.799832 0.939086
0.161089 0.875608 0.95697
0.227054 0.87953 0.958434
0.3785 0.889754 0.962448
0.540856 0.915053 0.971939
0.789258 0.963058 0.988846
