src/luts/blur/6.cube
TITLE "Generated by Resolve"
LUT_3D_SIZE 33
0.025391 0.025391 0.025391
0.0394598 0.0290684 0.02916
0.0576944 0.0326696 0.0311589
0.077409 0.0376593 0.0323186
0.103777 0.0426337 0.0334478
0.129442 0.047303 0.0347448
0.157778 0.0515755 0.0353704
0.187564 0.054612 0.0358129
0.217365 0.056733 0.0354772
0.245991 0.057557 0.0342718
0.273915 0.057145 0.031754
0.301106 0.0550851 0.0332036
0.327291 0.0502174 0.0355993
0.352331 0.0437781 0.0387884
0.376974 0.0406348 0.0413825
0.401999 0.0409247 0.0453193
0.426886 0.0426795 0.0518502
0.452949 0.0463111 0.0623178
0.479759 0.0476539 0.0704509
0.507637 0.0462501 0.0799115
0.536339 0.0493172 0.0915389
0.566018 0.054551 0.104082
0.596796 0.0590372 0.116976
0.628382 0.0648966 0.130846
0.66128 0.0720989 0.145922
0.695491 0.0802625 0.162402
0.730526 0.0897841 0.179843
0.767254 0.107179 0.202518
0.810056 0.157168 0.233738
0.817472 0.173144 0.24654
0.823133 0.190723 0.259724
0.828809 0.207416 0.272969
0.83415 0.223514 0.285451
0.0211337 0.0358129 0.0327306
0.0377813 0.0366522 0.031281
0.0567483 0.0381933 0.0303807
0.0786297 0.0411536 0.030518
0.107286 0.0451209 0.0301366
0.134646 0.0491493 0.028809
0.164233 0.0525216 0.0268406
0.194766 0.0548104 0.0242924
0.223575 0.0565347 0.0217746
0.251438 0.057084 0.016495
0.278859 0.0568704 0.0121157
0.305989 0.0561074 0.0111696
0.33225 0.0528878 0.0131685
0.357549 0.0505989 0.0158846
0.382071 0.0475471 0.0178988
0.406363 0.0462043 0.0202487
0.431159 0.0466468 0.0280919
0.456809 0.0499428 0.0380255
0.483452 0.0511177 0.0476081
0.511086 0.0492561 0.05832
0.539391 0.0529488 0.0706645
0.568811 0.0575723 0.0832532
0.599252 0.0611887 0.0970169
0.63061 0.0661326 0.111788
0.663157 0.0723888 0.127184
0.6972 0.0806287 0.144289
0.732067 0.0899519 0.163439
0.768597 0.107591 0.186877
0.810346 0.155138 0.216541
0.816938 0.172351 0.230533
0.82266 0.189929 0.244617
0.82829 0.206439 0.258549
0.833661 0.222293 0.272145
0.00949111 0.0484932 0.0411383
0.0247959 0.049424 0.0374762
0.0550088 0.0506294 0.035996
0.0730449 0.0512398 0.0330205
0.101061 0.0540627 0.0316777
0.127932 0.0580453 0.0302892
0.157946 0.0611734 0.0274662
0.191302 0.0630503 0.0220188
0.223743 0.0645457 0.0166476
0.253941 0.0656443 0.0109407
0.282902 0.0665904 0.00471504
0.311101 0.0671855 0.00141909
0.338521 0.0675822 6.10361e-05
0.364767 0.0679332 3.0518e-05
0.390372 0.0669261 0.00297551
0.414359 0.066041 0.00579843
0.438209 0.0635996 0.00981155
0.46244 0.0603342 0.0138247
0.488441 0.0580148 0.0209812
0.515618 0.0574197 0.0336004
0.543328 0.0593729 0.0472877
0.572198 0.0614786 0.0605325
0.601984 0.0642405 0.0744182
0.632944 0.0672923 0.0900587
0.665125 0.0725261 0.106249
0.698878 0.0805066 0.123842
0.733486 0.0899519 0.143511
0.769543 0.107469 0.168795
0.8103 0.152438 0.197604
0.81619 0.170932 0.213062
0.821912 0.188342 0.228107
0.827588 0.204807 0.242878
0.832914 0.220523 0.257191
0.00474556 0.0621347 0.0508888
0.0166171 0.0633555 0.0454871
0.0440375 0.0641337 0.0413062
0.0729686 0.0652628 0.0401617
0.095964 0.0650187 0.0358892
0.121035 0.0677806 0.033463
0.148058 0.0716411 0.0313726
0.180987 0.0752422 0.0274052
0.216754 0.0779736 0.0199893
0.249561 0.0808423 0.0131533
0.280461 0.0839399 0.00784314
0.310338 0.0861677 0.00347906
0.339345 0.0877241 0.000671397
0.367742 0.0890364 9.15541e-05
0.394537 0.0899214 1.5259e-05
0.420661 0.0908064 0.000747692
0.445426 0.0900435 0.00361639
0.470085 0.0878462 0.00724804
0.494621 0.0854047 0.0108186
0.520943 0.0779736 0.0174868
0.548333 0.0759289 0.0269627
0.576257 0.0725719 0.0383917
0.605219 0.0686656 0.049958
0.635599 0.0684062 0.0643931
0.667292 0.0714122 0.0800488
0.700236 0.0776837 0.0982376
0.734295 0.0865797 0.119234
0.769543 0.104036 0.145434
0.808011 0.146456 0.174395
0.81413 0.165896 0.191379
0.820127 0.183734 0.208042
0.825986 0.200626 0.224247
0.831617 0.217075 0.239902
0.000274662 0.0788128 0.0621958
0.00985733 0.0796979 0.0552224
0.0349737 0.0815137 0.0501869
0.0653849 0.0821088 0.0450599
0.0940108 0.08365 0.0436713
0.119249 0.0844434 0.0386511
0.142535 0.0873426 0.0349126
0.171298 0.0909743 0.0313878
0.206271 0.0941482 0.0247349
0.240116 0.0974289 0.0162203
0.27245 0.100847 0.00936904
0.303197 0.103883 0.00453193
0.333364 0.106294 0.00169375
0.363012 0.108293 0.000244144
0.392309 0.110353 4.57771e-05
0.420661 0.112322 1.5259e-05
0.447745 0.113695 0.000137331
0.47303 0.113039 0.00361639
0.498711 0.111742 0.00766003
0.52488 0.109178 0.0110475
0.551614 0.10573 0.015259
0.579355 0.103014 0.0229801
0.608667 0.0993362 0.0375982
0.637736 0.0921035 0.0484016
0.668559 0.0861219 0.0608072
0.700954 0.0833448 0.0740215
0.73492 0.0852369 0.0916152
0.770092 0.0997024 0.116045
0.804761 0.137606 0.144732
0.811078 0.15787 0.163439
0.817288 0.17644 0.181659
0.823301 0.1935 0.19939
0.829068 0.210132 0.216434
3.0518e-05 0.0972763 0.0734722
0.00602731 0.0987564 0.0654765
0.024918 0.100969 0.0599374
0.0549172 0.102602 0.0531777
0.091249 0.102876 0.047715
0.119554 0.104784 0.0458076
0.143069 0.106188 0.0404212
0.168429 0.108782 0.0352636
0.200412 0.11194 0.0289769
0.233631 0.115694 0.0198978
0.265522 0.11986 0.0107576
0.296239 0.1243 0.00541695
0.326787 0.127886 0.00248722
0.357107 0.130602 0.000823987
0.387411 0.133089 0.000213626
0.416953 0.134844 3.0518e-05
0.445518 0.13608 6.10361e-05
0.47303 0.13695 0.000640879
0.499489 0.136172 0.00407416
0.525811 0.133974 0.00764477
0.552621 0.130953 0.0104067
0.58053 0.129 0.0147707
0.608835 0.127001 0.0231785
0.637537 0.124117 0.0339513
0.667353 0.117479 0.0448615
0.698894 0.112566 0.0573281
0.732464 0.108629 0.0771191
0.7664 0.112047 0.0971847
0.80412 0.143557 0.121645
0.809949 0.156024 0.136873
0.814923 0.170382 0.15288
0.82005 0.185122 0.169039
0.826047 0.202258 0.18764
0 0.117891 0.0843519
0.00270085 0.120394 0.0766003
0.0144198 0.123232 0.0706798
0.04448 0.125475 0.0636606
0.0830396 0.126604 0.054902
0.117082 0.126436 0.0494087
0.145998 0.12845 0.0466468
0.170413 0.129442 0.0406653
0.199145 0.13106 0.0331121
0.231708 0.134005 0.0239109
0.262577 0.137728 0.0140078
0.292561 0.142168 0.007187
0.321889 0.146822 0.00361639
0.35172 0.151186 0.00184634
0.381964 0.154849 0.000564584
0.412284 0.157839 0.000183108
0.441993 0.159945 1.5259e-05
0.470985 0.161654 0.000198367
0.499245 0.162661 0.00134279
0.526146 0.16083 0.00451667
0.553262 0.157961 0.00732433
0.580926 0.154955 0.00976577
0.608698 0.152239 0.0150759
0.637324 0.15079 0.02533
0.66659 0.146761 0.0356603
0.697093 0.140993 0.0460822
0.728573 0.135653 0.059968
0.760739 0.133364 0.0772564
0.796628 0.150912 0.0993973
0.812238 0.163882 0.119753
0.816999 0.177844 0.135912
0.821836 0.191531 0.151507
0.826719 0.205188 0.166842
1.5259e-05 0.140566 0.0964828
1.5259e-05 0.144076 0.08925
0.00984207 0.147433 0.0824292
0.0366217 0.150454 0.0759442
0.0734569 0.152331 0.0668803
0.111742 0.152438 0.0561227
0.146639 0.152865 0.0493629
0.176654 0.155535 0.0455482
0.202991 0.156207 0.0369116
0.232212 0.157443 0.026688
0.26305 0.160159 0.0169375
0.292668 0.163806 0.0087129
0.321019 0.168292 0.00448615
0.349676 0.1729 0.00238041
0.378943 0.177096 0.00111391
0.408942 0.180941 0.000350958
0.438941 0.184466 1.5259e-05
0.468818 0.187427 0
0.498039 0.189807 0.000549325
0.526192 0.189639 0.00227359
0.553841 0.18732 0.00471504
0.581506 0.183978 0.007187
0.609613 0.181277 0.0100557
0.637995 0.178439 0.0170748
0.666987 0.175891 0.0281987
0.696849 0.171725 0.0391089
0.727565 0.167193 0.0507515
0.758495 0.162707 0.0662547
0.790509 0.162295 0.084184
0.814771 0.17348 0.0966964
0.819028 0.18529 0.113512
0.823606 0.197955 0.129778
0.828046 0.21033 0.144686
1.5259e-05 0.164752 0.110338
0.000198367 0.169238 0.103151
0.00677501 0.17319 0.0960555
0.0278325 0.176776 0.0888838
0.0662242 0.179583 0.0806287
0.107759 0.18085 0.0698253
0.14406 0.180667 0.057908
0.178668 0.181933 0.0491798
0.20943 0.184939 0.0451362
0.238346 0.18674 0.0299077
0.266011 0.187961 0.0190433
0.294942 0.190524 0.0103304
0.323262 0.194293 0.0059968
0.351202 0.198474 0.00325017
0.379522 0.202914 0.00166323
0.408392 0.207034 0.000534066
0.437446 0.211017 0.000137331
0.467353 0.214588 0
0.497124 0.217502 9.15541e-05
0.526101 0.218967 0.00103761
0.554421 0.217807 0.00273136
0.582559 0.214893 0.00489815
0.610864 0.212116 0.00640879
0.639323 0.209232 0.0120851
0.668376 0.206455 0.0215305
0.69807 0.202838 0.032166
0.728344 0.198642 0.0438239
0.758572 0.195026 0.0579843
0.788815 0.191897 0.0741131
0.820981 0.200198 0.0876936
0.824826 0.202991 0.100099
0.828443 0.212909 0.116396
0.831968 0.222614 0.13196
1.5259e-05 0.190799 0.126589
0.000396735 0.196017 0.119036
0.00325017 0.200397 0.111467
0.0214237 0.204227 0.10454
0.0563211 0.207736 0.0970169
0.101396 0.210346 0.0871138
0.13994 0.211093 0.0748455
0.177813 0.211292 0.0613107
0.211963 0.212924 0.051194
0.242329 0.215991 0.0493629
0.27274 0.218021 0.0315709
0.301289 0.220371 0.0144198
0.328069 0.222843 0.0077821
0.355123 0.226474 0.00444038
0.382559 0.230381 0.00227359
0.410773 0.234546 0.000885023
0.438865 0.238483 0.000289921
0.467796 0.242359 1.5259e-05
0.497276 0.245853 7.62951e-05
0.526452 0.247959 0.000762951
0.55494 0.247608 0.00178531
0.58349 0.245823 0.00323491
0.612161 0.24332 0.00463874
0.640986 0.240833 0.00708019
0.670054 0.237995 0.0158083
0.69958 0.234821 0.0269017
0.729793 0.230869 0.0384833
0.759655 0.226719 0.0513008
0.789075 0.223651 0.0668498
0.820249 0.228458 0.0813916
0.832502 0.225681 0.0879988
0.835142 0.233066 0.104829
0.838087 0.241123 0.121157
1.5259e-05 0.218357 0.143816
0.000503548 0.223789 0.135943
0.00436408 0.22858 0.128511
0.0207523 0.232441 0.121386
0.0460822 0.235966 0.113863
0.0996109 0.239567 0.105196
0.138277 0.241825 0.0944991
0.175051 0.242725 0.0813001
0.21178 0.243534 0.0676585
0.245365 0.24535 0.0600443
0.275731 0.248051 0.0620584
0.306203 0.249531 0.0441901
0.335119 0.25185 0.0214694
0.363302 0.255344 0.007187
0.389441 0.258381 0.00332647
0.416022 0.261982 0.00132753
0.443458 0.265858 0.000457771
0.471229 0.269871 0.000198367
0.499382 0.273396 0.000396735
0.527749 0.276265 0.000732433
0.556115 0.276661 0.00135805
0.584726 0.275959 0.00205997
0.613581 0.274479 0.00263981
0.642817 0.272496 0.00297551
0.671916 0.270344 0.0126345
0.70135 0.267628 0.0224308
0.731258 0.263661 0.0335546
0.761105 0.259525 0.0471656
0.790326 0.255604 0.0610056
0.818616 0.252918 0.0757763
0.841901 0.252522 0.0783398
0.843503 0.256992 0.0947433
0.845731 0.262898 0.111666
7.62951e-05 0.24654 0.161303
0.000320439 0.252064 0.153216
0.00761425 0.256672 0.145739
0.0196078 0.2607 0.138613
0.0509804 0.264454 0.13196
0.0946517 0.268513 0.124285
0.135744 0.271687 0.115038
0.172824 0.273564 0.102876
0.21033 0.275105 0.0904402
0.245426 0.276097 0.0785229
0.278874 0.277852 0.0723278
0.308614 0.280461 0.0754101
0.338994 0.281376 0.0568246
0.36759 0.282704 0.0324865
0.395697 0.28571 0.0151369
0.42295 0.28954 0.00648508
0.449805 0.293355 0.00280766
0.476677 0.2972 0.00169375
0.503685 0.30045 0.00146487
0.530785 0.302937 0.00132753
0.558572 0.304555 0.00129702
0.58677 0.304662 0.00172427
0.615457 0.304219 0.00169375
0.644663 0.303517 0.00167849
0.673732 0.302098 0.0110323
0.703059 0.299779 0.0206455
0.732815 0.296742 0.0296635
0.762829 0.293034 0.0432136
0.792096 0.288609 0.0569009
0.820325 0.285161 0.0712596
0.850233 0.290608 0.0786145
0.853529 0.284001 0.0865187
0.854994 0.287953 0.104005
3.0518e-05 0.275608 0.180331
0.00283818 0.280797 0.171633
0.00927749 0.285222 0.16408
0.0261845 0.289128 0.157092
0.0519875 0.292851 0.150408
0.0936294 0.296925 0.142931
0.137591 0.300893 0.135363
0.176364 0.303868 0.126085
0.209323 0.305882 0.11458
0.244556 0.307408 0.100725
0.279103 0.308568 0.0893416
0.311681 0.310445 0.0865034
0.340719 0.312795 0.0919356
0.370794 0.313573 0.0752575
0.399313 0.313893 0.0447089
0.427482 0.315892 0.0234226
0.454734 0.318822 0.010956
0.481498 0.322133 0.00582895
0.50811 0.325399 0.0037995
0.535027 0.328222 0.00231937
0.562325 0.330465 0.00157168
0.590066 0.332036 0.000747692
0.618265 0.332784 0.00125124
0.646708 0.332906 0.00552377
0.6757 0.332799 0.013138
0.704631 0.331243 0.020737
0.734173 0.328832 0.0289769
0.764187 0.325963 0.0403601
0.79382 0.32192 0.0537575
0.821698 0.317021 0.0689097
0.850431 0.317968 0.0797284
0.864576 0.312291 0.076051
0.865385 0.314778 0.0939956
0.00151064 0.304723 0.199985
0.00500496 0.309392 0.190951
0.0166323 0.313619 0.183337
0.0356146 0.317403 0.176303
0.0607462 0.321126 0.170214
0.0990463 0.325261 0.163317
0.142306 0.329519 0.156008
0.180102 0.332982 0.148089
0.214252 0.335683 0.138155
0.244495 0.337728 0.127657
0.278111 0.339544 0.116548
0.311849 0.340871 0.109163
0.343694 0.34255 0.106935
0.372168 0.344579 0.111437
0.401617 0.345525 0.0991531
0.429969 0.345663 0.0705425
0.458137 0.346593 0.0426795
0.48571 0.348424 0.0207065
0.512749 0.351095 0.0117189
0.539498 0.353704 0.007187
0.566461 0.356283 0.00543221
0.593668 0.358373 0.00547799
0.621225 0.35993 0.00794995
0.649256 0.360922 0.0120851
0.677363 0.361349 0.0178378
0.705959 0.361059 0.0234684
0.735348 0.359701 0.0305333
0.765316 0.357702 0.0415808
0.795071 0.354452 0.0525368
0.823606 0.349966 0.0677348
0.850217 0.344854 0.0809186
0.875685 0.339773 0.0713664
0.876036 0.341299 0.0891127
0.00187686 0.334081 0.221149
0.00958267 0.338323 0.212039
0.0238651 0.34229 0.20412
0.0440223 0.345846 0.196887
0.0722362 0.349538 0.190326
0.105562 0.353475 0.183948
0.149477 0.357717 0.177432
0.18645 0.361486 0.170825
0.216693 0.364401 0.162921
0.248112 0.367147 0.153521
0.27863 0.369284 0.143053
0.311498 0.371023 0.133364
0.344167 0.37229 0.126635
0.375036 0.373846 0.125231
0.402899 0.375753 0.129763
0.431479 0.376822 0.120684
0.4598 0.376806 0.0959029
0.487663 0.377111 0.06981
0.51516 0.378317 0.0472419
0.542733 0.380331 0.0330663
0.569619 0.382406 0.0256657
0.596674 0.384466 0.0228275
0.623606 0.386023 0.0219577
0.651057 0.387411 0.0230411
0.678889 0.38819 0.0254826
0.70724 0.389013 0.030808
0.736263 0.388907 0.0363317
0.766079 0.387793 0.0447395
0.795834 0.385672 0.0563821
0.824872 0.38175 0.067628
0.85211 0.377127 0.082948
0.881407 0.379339 0.0961166
0.887373 0.368521 0.0887007
0.00537118 0.36321 0.242832
0.0158236 0.367147 0.233768
0.0315099 0.370764 0.225864
0.0567483 0.374441 0.218769
0.0842145 0.377844 0.212222
0.11783 0.381476 0.206058
0.158145 0.385718 0.199115
0.195468 0.389532 0.193194
0.227405 0.392813 0.186801
0.253666 0.395544 0.179156
0.28249 0.398352 0.170703
0.31223 0.400519 0.161303
0.34406 0.402121 0.152209
0.375799 0.403357 0.146715
0.405692 0.404791 0.145861
0.43299 0.406516 0.150103
0.46067 0.407889 0.145342
0.489113 0.407782 0.120165
0.516777 0.407843 0.0962997
0.543999 0.408225 0.0745708
0.571252 0.409094 0.0572671
0.598444 0.410407 0.0473182
0.625589 0.412161 0.0425879
0.65272 0.41355 0.0399176
0.680232 0.414832 0.0392309
0.708309 0.415869 0.0415656
0.737179 0.416709 0.0474861
0.7664 0.416663 0.0543984
0.79617 0.415427 0.0629892
0.82565 0.41268 0.0730755
0.853391 0.40827 0.0861372
0.88014 0.405112 0.100221
0.898054 0.395605 0.0923781
0.0111238 0.392309 0.265568
0.0239414 0.395987 0.256565
0.0455177 0.399634 0.248569
0.0709392 0.403098 0.24152
0.10042 0.406134 0.235309
0.131884 0.409522 0.229191
0.169329 0.413397 0.2224
0.206607 0.417319 0.215793
0.237858 0.420722 0.210117
0.263584 0.423636 0.204334
0.289189 0.426368 0.197208
0.316426 0.429038 0.188922
0.345129 0.431159 0.179782
0.376059 0.432654 0.171984
0.406714 0.433845 0.167224
0.435706 0.435142 0.16669
0.46247 0.436759 0.170657
0.489235 0.438239 0.169177
0.517922 0.438254 0.144869
0.545419 0.438376 0.124575
0.572808 0.438544 0.103975
0.600198 0.439063 0.0863813
0.627588 0.439902 0.074876
0.654826 0.440879 0.0677958
0.682078 0.441962 0.0644083
0.709728 0.442908 0.0630961
0.737819 0.443702 0.0654307
0.766629 0.444205 0.0691539
0.796246 0.444114 0.0754253
0.826001 0.442481 0.0835279
0.854215 0.438819 0.0924086
0.880598 0.434226 0.105211
0.908019 0.429572 0.106691
0.0193179 0.421546 0.288869
0.0375372 0.425025 0.280171
0.0627909 0.428351 0.272465
0.0891432 0.43151 0.265766
0.118166 0.434562 0.259709
0.147784 0.437552 0.253605
0.182376 0.441169 0.246723
0.220401 0.444938 0.239597
0.250095 0.44831 0.233768
0.27538 0.451209 0.228489
0.298146 0.454017 0.222583
0.322835 0.456809 0.215625
0.349096 0.459403 0.207599
0.377096 0.461448 0.199344
0.407095 0.462837 0.19234
0.436927 0.463996 0.18822
0.465095 0.465202 0.187976
0.491356 0.466682 0.191745
0.517327 0.468269 0.193149
0.546334 0.468467 0.1691
0.573724 0.46865 0.150851
0.601236 0.468711 0.132891
0.628702 0.468849 0.116518
0.656046 0.469108 0.104524
0.683772 0.469902 0.0965744
0.711269 0.470497 0.0914473
0.739116 0.471214 0.0893873
0.76762 0.471855 0.0902724
0.796628 0.471931 0.0930495
0.825925 0.471092 0.0981155
0.854627 0.468696 0.104982
0.881468 0.464439 0.113741
0.909789 0.465187 0.126711
0.0326238 0.450797 0.312978
0.0565194 0.453971 0.304585
0.0818494 0.456992 0.29688
0.109636 0.459983 0.29044
0.136873 0.462776 0.284245
0.164782 0.465461 0.278401
0.19678 0.468772 0.271611
0.233143 0.47248 0.264271
0.26389 0.4757 0.258045
0.287984 0.478645 0.252766
0.308873 0.481254 0.247333
0.332006 0.484092 0.241306
0.355215 0.486946 0.234607
0.380453 0.489464 0.227237
0.407935 0.491341 0.219654
0.437201 0.492653 0.213169
0.466316 0.493721 0.209567
0.493874 0.494865 0.209537
0.519829 0.496254 0.213031
0.544915 0.497841 0.216663
0.574319 0.498222 0.19324
0.601709 0.498604 0.176852
0.629389 0.498695 0.160143
0.657023 0.498619 0.144961
0.684611 0.498665 0.133165
0.712337 0.498787 0.124987
0.74023 0.499077 0.119203
0.768475 0.499321 0.116365
0.796902 0.499519 0.11603
0.825711 0.499123 0.117067
0.854536 0.497429 0.120623
0.882002 0.49395 0.125963
0.908125 0.490761 0.136721
0.0518807 0.479881 0.337209
0.0771344 0.482933 0.32929
0.102525 0.485679 0.321721
0.129366 0.488502 0.315358
0.155993 0.49102 0.309316
0.182223 0.493446 0.303456
0.212482 0.496422 0.296941
0.246632 0.499855 0.289662
0.279561 0.503166 0.282826
0.303532 0.506004 0.277165
0.323415 0.508568 0.27216
0.342733 0.511254 0.266667
0.364813 0.514061 0.260761
0.387076 0.516899 0.254444
0.411307 0.519295 0.247456
0.438178 0.521065 0.24036
0.466773 0.522316 0.234455
0.495232 0.523308 0.23122
0.522271 0.524361 0.231266
0.547951 0.525673 0.234302
0.572274 0.52726 0.239765
0.602029 0.52784 0.216739
0.629496 0.528252 0.201633
0.657298 0.528405 0.186374
0.685161 0.528252 0.17229
0.713024 0.528084 0.160784
0.741039 0.527901 0.152178
0.769192 0.52752 0.146609
0.797559 0.527306 0.14316
0.825879 0.526741 0.141695
0.854353 0.525673 0.141146
0.882124 0.523293 0.143862
0.908248 0.519188 0.149538
0.0750134 0.508919 0.361349
0.0991836 0.51162 0.353689
0.124208 0.514153 0.346456
0.149554 0.516747 0.340185
0.175448 0.519265 0.334401
0.200839 0.521523 0.328847
0.228977 0.524102 0.322576
0.260807 0.527184 0.315587
0.294408 0.53051 0.307958
0.320043 0.533364 0.301915
0.339132 0.535851 0.296788
0.356695 0.538277 0.29189
0.375021 0.540978 0.28658
0.395224 0.54377 0.280629
0.417456 0.546578 0.274372
0.441459 0.548928 0.267948
0.467781 0.550591 0.261357
0.495857 0.551812 0.255924
0.523812 0.552728 0.252781
0.550332 0.553674 0.25275
0.575799 0.554879 0.255268
0.599939 0.556191 0.260471
0.629541 0.557092 0.239063
0.657084 0.557687 0.22533
0.685039 0.55787 0.211551
0.713054 0.557702 0.198047
0.741253 0.557275 0.186786
0.769619 0.556649 0.177966
0.797971 0.555718 0.171908
0.82649 0.554864 0.167651
0.854658 0.553811 0.164935
0.88217 0.552056 0.16437
0.908873 0.549111 0.166918
0.0982223 0.537942 0.385626
0.121981 0.540322 0.378195
0.146319 0.542596 0.371191
0.171466 0.54493 0.364981
0.196078 0.547204 0.359167
0.219928 0.549355 0.353735
0.246509 0.551614 0.347829
0.275883 0.554513 0.3411
0.306737 0.557717 0.333623
0.333562 0.560525 0.327123
0.353979 0.563088 0.32163
0.370977 0.565438 0.316915
0.387243 0.567926 0.311925
0.405692 0.570626 0.3066
0.425116 0.573404 0.300633
0.446952 0.576059 0.294469
0.470756 0.578302 0.288502
0.496895 0.579934 0.282475
0.524468 0.581079 0.277455
0.552026 0.581918 0.274311
0.57821 0.582849 0.273976
0.603479 0.583886 0.275944
0.627527 0.585138 0.280629
0.656962 0.586175 0.260761
0.684581 0.586831 0.247944
0.712627 0.587076 0.234745
0.740963 0.586816 0.221927
0.769482 0.586114 0.210834
0.798169 0.585 0.201968
0.826795 0.583627 0.194324
0.855146 0.58233 0.190112
0.882856 0.580652 0.187488
0.909331 0.578225 0.186877
0.122057 0.566659 0.40972
0.14583 0.568978 0.40264
0.169268 0.571099 0.395987
0.19292 0.573175 0.38999
0.216632 0.575219 0.384466
0.239261 0.577142 0.379019
0.263783 0.579263 0.373175
0.290669 0.581827 0.3664
0.319982 0.584726 0.358923
0.347036 0.587701 0.351766
0.367681 0.590173 0.346105
0.38468 0.592508 0.341283
0.400061 0.594858 0.336858
0.416922 0.597498 0.332021
0.434897 0.600183 0.326696
0.454261 0.602899 0.320974
0.475731 0.605402 0.31487
0.499535 0.607523 0.308797
0.525444 0.609125 0.303227
0.552636 0.610224 0.298634
0.57995 0.611048 0.295537
0.605875 0.611826 0.295064
0.630976 0.612726 0.296254
0.654963 0.613916 0.300572
0.684321 0.615015 0.282017
0.712001 0.615686 0.269551
0.740368 0.615946 0.256489
0.768917 0.615549 0.244312
0.797818 0.614572 0.233661
0.826566 0.613062 0.224948
0.855268 0.611353 0.217823
0.883192 0.609384 0.212879
0.910063 0.607248 0.209125
0.146822 0.59527 0.433722
0.169696 0.59733 0.426871
0.192187 0.599359 0.420432
0.214176 0.601175 0.414252
0.236591 0.603098 0.409003
0.258579 0.604959 0.403876
0.281193 0.606897 0.398398
0.306996 0.609216 0.392004
0.333669 0.611948 0.384604
0.361624 0.614908 0.376715
0.383047 0.617319 0.370626
0.399405 0.619577 0.365469
0.413947 0.621698 0.361089
0.428977 0.62414 0.35668
0.445701 0.62681 0.351995
0.463401 0.629526 0.346624
0.482719 0.632181 0.341039
0.504219 0.634668 0.33521
0.52784 0.636606 0.329213
0.553613 0.638102 0.32369
0.580484 0.639139 0.31931
0.607462 0.639872 0.316228
0.63331 0.640696 0.315358
0.658274 0.641749 0.316472
0.682383 0.64271 0.320027
0.711757 0.643793 0.30193
0.739773 0.644419 0.28957
0.768292 0.644694 0.276646
0.797131 0.644083 0.265126
0.826337 0.642893 0.254566
0.855177 0.640925 0.245274
0.883604 0.638773 0.237751
0.910719 0.636286 0.232242
0.171145 0.623682 0.457664
0.192752 0.625589 0.451133
0.214069 0.62739 0.4448
0.235126 0.629145 0.438605
0.256519 0.630976 0.433204
0.277485 0.63267 0.428092
0.29868 0.63444 0.422843
0.323217 0.636561 0.416693
0.34873 0.639124 0.409689
0.374746 0.641962 0.402075
0.397955 0.644617 0.395178
0.414679 0.646738 0.3897
0.42829 0.648707 0.385
0.441825 0.650874 0.380758
0.457084 0.653361 0.376272
0.473457 0.65597 0.371481
0.49131 0.658701 0.366201
0.510582 0.66125 0.360693
0.532036 0.66363 0.355108
0.555795 0.665507 0.349233
0.58143 0.666926 0.343816
0.608148 0.667872 0.33933
0.634882 0.668589 0.336034
0.660716 0.669398 0.334874
0.68571 0.670329 0.335515
0.709987 0.671336 0.338476
0.739391 0.672435 0.320821
0.767773 0.673136 0.309163
0.796536 0.673274 0.296544
0.825666 0.672541 0.284733
0.8551 0.671 0.273869
0.884077 0.668818 0.26389
0.911589 0.665812 0.255421
0.194018 0.651774 0.481071
0.215167 0.653544 0.474754
0.235767 0.655299 0.468544
0.255924 0.656947 0.462577
0.27602 0.658595 0.457298
0.295811 0.660258 0.452491
0.316045 0.661967 0.447456
0.338613 0.663905 0.441489
0.362951 0.666194 0.434684
0.38851 0.668925 0.427039
0.412146 0.671656 0.419333
0.429999 0.673838 0.41355
0.444038 0.675822 0.408621
0.456291 0.677714 0.40444
0.469429 0.679988 0.400473
0.484779 0.682521 0.396139
0.50106 0.685176 0.391287
0.518807 0.687785 0.386175
0.538293 0.690394 0.380713
0.559564 0.692576 0.375113
0.583291 0.694362 0.36936
0.608927 0.69572 0.363973
0.635569 0.696605 0.359075
0.662165 0.697414 0.355703
0.688121 0.698238 0.353979
0.713222 0.699229 0.354101
0.737819 0.700175 0.356374
0.767163 0.701183 0.339605
0.796139 0.701885 0.326802
0.825177 0.701976 0.314199
0.854749 0.701106 0.302312
0.883955 0.699077 0.291035
0.912367 0.696361 0.280613
0.215732 0.679545 0.50425
0.236088 0.681239 0.498161
0.256153 0.682841 0.492241
0.275761 0.684398 0.486412
0.294972 0.685954 0.480781
0.314031 0.687617 0.476143
0.333059 0.689281 0.471443
0.353933 0.691188 0.465904
0.377554 0.693416 0.459617
0.400504 0.695888 0.45211
0.424857 0.698589 0.4439
0.444404 0.700862 0.437385
