src/luts/blur/6.cube
TITLE "Generated by Resolve"
LUT_3D_SIZE 9
0.025391 0.025391 0.025391
0.103777 0.0426337 0.0334478
0.217365 0.056733 0.0354772
0.327291 0.0502174 0.0355993
0.426886 0.0426795 0.0518502
0.536339 0.0493172 0.0915389
0.66128 0.0720989 0.145922
0.810056 0.157168 0.233738
0.83415 0.223514 0.285451
0.000274662 0.0788128 0.0621958
0.0940108 0.08365 0.0436713
0.206271 0.0941482 0.0247349
0.333364 0.106294 0.00169375
0.447745 0.113695 0.000137331
0.551614 0.10573 0.015259
0.668559 0.0861219 0.0608072
0.804761 0.137606 0.144732
0.829068 0.210132 0.216434
1.5259e-05 0.164752 0.110338
0.0662242 0.179583 0.0806287
0.20943 0.184939 0.0451362
0.323262 0.194293 0.0059968
0.437446 0.211017 0.000137331
0.554421 0.217807 0.00273136
0.668376 0.206455 0.0215305
0.788815 0.191897 0.0741131
0.831968 0.222614 0.13196
3.0518e-05 0.275608 0.180331
0.0519875 0.292851 0.150408
0.209323 0.305882 0.11458
0.340719 0.312795 0.0919356
0.454734 0.318822 0.010956
0.562325 0.330465 0.00157168
0.6757 0.332799 0.013138
0.79382 0.32192 0.0537575
0.865385 0.314778 0.0939956
0.0111238 0.392309 0.265568
0.10042 0.406134 0.235309
0.237858 0.420722 0.210117
0.345129 0.431159 0.179782
0.46247 0.436759 0.170657
0.572808 0.438544 0.103975
0.682078 0.441962 0.0644083
0.796246 0.444114 0.0754253
0.908019 0.429572 0.106691
0.0750134 0.508919 0.361349
0.175448 0.519265 0.334401
0.294408 0.53051 0.307958
0.375021 0.540978 0.28658
0.467781 0.550591 0.261357
0.575799 0.554879 0.255268
0.685039 0.55787 0.211551
0.797971 0.555718 0.171908
0.908873 0.549111 0.166918
0.171145 0.623682 0.457664
0.256519 0.630976 0.433204
0.34873 0.639124 0.409689
0.42829 0.648707 0.385
0.49131 0.658701 0.366201
0.58143 0.666926 0.343816
0.68571 0.670329 0.335515
0.796536 0.673274 0.296544
0.911589 0.665812 0.255421
0.254963 0.733623 0.550011
0.326223 0.739513 0.527199
0.40238 0.746441 0.507118
0.486839 0.755978 0.478645
0.533547 0.763195 0.461524
0.596963 0.773327 0.443244
0.688991 0.781857 0.421897
0.797299 0.786511 0.404578
0.913207 0.787961 0.353902
0.305638 0.821744 0.66067
0.360906 0.825803 0.637995
0.421485 0.83151 0.618677
0.508064 0.842039 0.594125
0.562921 0.849393 0.574517
0.611048 0.858045 0.564187
0.677989 0.868345 0.543557
0.778119 0.879088 0.502892
0.902876 0.889967 0.463859
0.00639353 0.0368811 0.0735485
0.0948806 0.0471351 0.0728618
0.212528 0.0609751 0.078294
0.327123 0.0625162 0.0922255
0.432593 0.0790875 0.124941
0.542596 0.107378 0.169879
0.660548 0.138613 0.221118
0.789105 0.173892 0.284901
0.846571 0.261051 0.347417
0.00196841 0.0958267 0.117571
0.084535 0.10631 0.109148
0.221881 0.112184 0.0941634
0.338582 0.120058 0.0994888
0.443397 0.133806 0.121431
0.549722 0.150256 0.153216
0.663279 0.165393 0.191959
0.789761 0.179889 0.247013
0.845151 0.257374 0.30782
0.00047303 0.190463 0.190356
0.0282139 0.200137 0.167056
0.20145 0.209094 0.141192
0.337072 0.209354 0.100038
0.450507 0.213107 0.0928359
0.558679 0.213123 0.0953384
0.669734 0.206958 0.11429
0.787869 0.192355 0.153933
0.840055 0.24358 0.21442
0.0106966 0.3066 0.286702
0.0229496 0.308339 0.238743
0.187976 0.320592 0.205066
0.332418 0.328405 0.179019
0.455802 0.329259 0.132692
0.566293 0.330724 0.111833
0.675578 0.332525 0.116915
0.793286 0.320912 0.138643
0.865293 0.314656 0.165942
0.024979 0.415579 0.36437
0.0636301 0.418677 0.320653
0.215061 0.429816 0.28278
0.334737 0.441093 0.257374
0.455817 0.446784 0.235966
0.570291 0.448875 0.191119
0.682185 0.448569 0.164492
0.795926 0.449058 0.166278
0.906706 0.429923 0.18143
0.0697642 0.523339 0.442237
0.138125 0.528527 0.406485
0.2645 0.537438 0.37145
0.367758 0.546395 0.344839
0.459663 0.557305 0.319951
0.570581 0.561593 0.304616
0.681788 0.56437 0.261921
0.797192 0.562097 0.232898
0.908644 0.553933 0.226429
0.138567 0.632349 0.521569
0.22237 0.638544 0.493263
0.318425 0.645197 0.463249
0.419303 0.653376 0.430976
0.488426 0.662974 0.413138
0.575219 0.672267 0.388708
0.681788 0.675685 0.374975
0.794217 0.677852 0.329809
0.910979 0.670283 0.294163
0.219028 0.7411 0.60592
0.291752 0.745907 0.579095
0.370001 0.751324 0.551705
0.474968 0.76054 0.517128
0.530129 0.767193 0.49749
0.595193 0.777813 0.480568
0.684199 0.786892 0.457191
0.794461 0.791318 0.436515
0.911696 0.791928 0.38117
0.280446 0.828351 0.713695
0.332021 0.830915 0.68603
0.38938 0.834653 0.659541
0.486198 0.844419 0.628077
0.554177 0.852552 0.603082
0.606134 0.861097 0.590661
0.674006 0.872099 0.572259
0.772396 0.883207 0.533883
0.899886 0.894041 0.490517
0.00141909 0.0443885 0.153079
0.100343 0.0552834 0.144533
0.20061 0.0743267 0.153017
0.317494 0.0857252 0.166018
0.429816 0.101762 0.190372
0.542092 0.126375 0.226337
0.65948 0.156756 0.269886
0.78555 0.188266 0.324529
0.850492 0.272633 0.384634
4.57771e-05 0.118822 0.204822
0.0505837 0.12636 0.202792
0.204517 0.139986 0.189349
0.322072 0.162356 0.204471
0.437247 0.180514 0.22681
0.54641 0.201221 0.256977
0.657099 0.223392 0.29308
0.775097 0.242084 0.335897
0.859174 0.299382 0.390784
0.000137331 0.212741 0.269947
0.0242161 0.223774 0.259937
0.191043 0.23505 0.242054
0.337575 0.238514 0.21799
0.456474 0.239734 0.216632
0.562753 0.247425 0.233249
0.671321 0.256413 0.258473
0.787442 0.259861 0.2925
0.859922 0.301564 0.3402
0.0117647 0.324025 0.347829
0.0801556 0.332158 0.336538
0.167865 0.340017 0.304463
0.318273 0.351324 0.28806
0.452628 0.349248 0.235904
0.568536 0.350057 0.222202
0.67982 0.34876 0.223651
0.796735 0.333623 0.234485
0.868345 0.323461 0.253941
0.0825208 0.436286 0.43534
0.140581 0.440772 0.416587
0.184894 0.445228 0.375891
0.326482 0.45417 0.345586
0.444755 0.462409 0.328649
0.565408 0.462425 0.2757
0.680934 0.461295 0.250889
0.796628 0.459495 0.245609
0.905104 0.431754 0.250965
0.161196 0.544533 0.517021
0.184176 0.546365 0.492409
0.21529 0.549111 0.455619
0.350744 0.556069 0.415335
0.453788 0.566857 0.39968
0.561852 0.572229 0.379995
0.676524 0.573602 0.329
0.794858 0.570382 0.295338
0.908141 0.560601 0.282963
0.211002 0.651514 0.594827
0.229603 0.65272 0.570748
0.268986 0.654887 0.53753
0.399863 0.661936 0.491188
0.483177 0.669688 0.472358
0.568902 0.680354 0.455116
0.675074 0.683879 0.435431
0.790051 0.685237 0.383429
0.909255 0.676265 0.339574
0.244495 0.756588 0.676692
0.261784 0.757061 0.65185
0.319295 0.759609 0.62031
0.444633 0.766888 0.571176
0.520821 0.773342 0.54519
0.592538 0.78407 0.531655
0.678004 0.794324 0.510414
0.789151 0.798657 0.486397
0.908537 0.798367 0.425162
0.258549 0.840146 0.781949
0.282307 0.839353 0.757488
0.348318 0.841459 0.725414
0.441093 0.846662 0.677516
0.536812 0.856397 0.642741
0.598184 0.865446 0.627848
0.668574 0.87744 0.613367
0.763012 0.889052 0.579904
0.893889 0.899947 0.532311
0 0.0667124 0.247852
0.0937667 0.060441 0.22858
0.217548 0.0957656 0.246586
0.318608 0.114778 0.253697
0.424582 0.13547 0.269825
0.536614 0.157717 0.296971
0.653452 0.182559 0.330495
0.776776 0.207797 0.372946
0.854398 0.283772 0.429129
0.000381476 0.147936 0.299138
0.0278325 0.150774 0.292485
0.20676 0.160418 0.291768
0.322789 0.180209 0.284153
0.430335 0.206409 0.300374
0.543221 0.226612 0.325139
0.655634 0.244511 0.353155
0.771984 0.258503 0.386831
0.862867 0.310033 0.435325
0.000808728 0.240375 0.365164
0.0184024 0.250034 0.358068
0.159945 0.259068 0.351553
0.317678 0.272709 0.329168
0.422812 0.298589 0.347173
0.538354 0.32015 0.371283
0.65124 0.335561 0.395377
0.76611 0.343557 0.420706
0.878874 0.365301 0.458045
0.00833143 0.345861 0.427802
0.0495613 0.35346 0.415732
0.159915 0.361318 0.400916
0.319493 0.373419 0.38265
0.448615 0.379019 0.360678
0.570748 0.379721 0.353597
0.685206 0.37702 0.358038
0.798108 0.370321 0.371176
0.883391 0.368795 0.39205
0.0720226 0.453147 0.496025
0.143694 0.457725 0.482902
0.23772 0.461601 0.47071
0.324376 0.471443 0.439124
0.434882 0.482643 0.429694
0.558236 0.482765 0.38587
0.679805 0.481773 0.363928
0.799695 0.474876 0.354498
0.904952 0.441703 0.347494
0.178485 0.559518 0.573861
0.24387 0.561807 0.560327
0.291234 0.564004 0.540169
0.33724 0.570581 0.502861
0.445914 0.579889 0.478386
0.549218 0.587488 0.472572
0.668849 0.587716 0.42211
0.792172 0.584604 0.386007
0.907958 0.571084 0.364492
0.282994 0.665873 0.657053
0.310369 0.667292 0.638041
0.336248 0.669459 0.613397
0.375967 0.674159 0.571862
0.466499 0.68043 0.539071
0.564263 0.690517 0.530587
0.664942 0.695827 0.514885
0.783673 0.696483 0.46067
0.906767 0.687251 0.411856
0.308263 0.771572 0.738888
0.327672 0.772457 0.71928
0.353246 0.773861 0.69575
0.397711 0.777295 0.65272
0.496254 0.782238 0.604013
0.585809 0.79237 0.590127
0.67219 0.804028 0.578317
0.780636 0.809354 0.554635
0.90367 0.808301 0.489921
0.305959 0.854734 0.840177
0.328908 0.854704 0.821256
0.351614 0.854551 0.79884
0.383932 0.853895 0.759716
0.499352 0.860105 0.695201
0.579675 0.870314 0.675608
0.659693 0.883925 0.664698
0.751186 0.897322 0.642008
0.88397 0.908705 0.593301
0 0.106447 0.345998
0.0504158 0.0749065 0.314427
0.229694 0.125292 0.34107
0.337881 0.144381 0.34818
0.431937 0.170504 0.356008
0.534157 0.196796 0.373434
0.646021 0.220188 0.398733
0.765988 0.235752 0.428183
0.858976 0.296605 0.480156
0.00120546 0.187396 0.393271
0.0222171 0.184558 0.381979
0.196414 0.180453 0.380026
0.335607 0.207706 0.382193
0.434516 0.229694 0.380453
0.536309 0.257359 0.396643
0.647562 0.27599 0.419715
0.764233 0.283879 0.444068
0.867231 0.322606 0.487098
0.002533 0.275944 0.451072
0.0273289 0.280003 0.443992
0.144793 0.283574 0.435706
0.320043 0.288029 0.434592
0.436652 0.308003 0.415656
0.534768 0.338186 0.43238
0.646143 0.356786 0.455268
0.762402 0.362768 0.476417
0.873198 0.376013 0.509621
0.00282292 0.372274 0.523369
0.0314794 0.378729 0.511604
0.12723 0.385489 0.494255
0.295552 0.3953 0.489128
0.423285 0.407401 0.468101
0.518257 0.431861 0.480247
0.628611 0.454368 0.503868
0.752117 0.460487 0.519524
0.867872 0.446235 0.531228
0.0550393 0.473823 0.576577
0.107317 0.478264 0.563867
0.192279 0.482841 0.545556
0.313787 0.490242 0.534569
0.436591 0.501411 0.512154
0.551247 0.507652 0.492103
0.677058 0.5084 0.481575
0.802487 0.496513 0.472923
0.908537 0.472007 0.473945
0.15819 0.576699 0.641627
0.213733 0.578897 0.62678
0.283696 0.580499 0.607874
0.37644 0.584527 0.59971
0.447974 0.595605 0.564279
0.543038 0.605875 0.555291
0.659663 0.606332 0.519768
0.789425 0.603754 0.490455
0.909133 0.582345 0.464805
0.254078 0.680797 0.71722
0.304448 0.681407 0.70074
0.358511 0.681315 0.682948
0.411643 0.685008 0.66128
0.461891 0.693889 0.624094
0.552422 0.70428 0.600259
0.653971 0.711849 0.60116
0.776104 0.711101 0.549294
0.90454 0.702022 0.500267
0.322133 0.784146 0.798993
0.37023 0.783948 0.780789
0.404685 0.784665 0.759854
0.435401 0.787457 0.728954
0.477317 0.793912 0.687327
0.562112 0.803464 0.65388
0.665156 0.815579 0.64802
0.768673 0.823575 0.635019
0.897902 0.821576 0.568444
0.338659 0.866148 0.888914
0.358907 0.866667 0.872389
0.386542 0.867216 0.853178
0.427955 0.86807 0.817823
0.465339 0.868528 0.771557
0.537743 0.873976 0.732265
0.641672 0.890623 0.721523
0.738216 0.906783 0.710369
0.868711 0.920729 0.675914
0 0.16141 0.449439
0.016968 0.138949 0.419104
0.229374 0.156802 0.429526
0.356008 0.186282 0.443076
0.451972 0.204913 0.450111
0.543969 0.234913 0.457511
0.644907 0.260716 0.473503
0.758068 0.27422 0.493767
0.864286 0.312108 0.534203
0.00215152 0.233814 0.48957
0.0276341 0.225971 0.473396
0.159136 0.204471 0.462318
0.34342 0.237598 0.475074
0.449943 0.260533 0.475151
0.542931 0.284657 0.47567
0.642084 0.309819 0.489738
0.754742 0.31989 0.509117
0.868299 0.342748 0.544091
0.00611887 0.314885 0.542443
0.0358129 0.314992 0.533196
0.131655 0.312062 0.519738
0.311101 0.306935 0.524666
0.441245 0.331563 0.511299
0.543572 0.348608 0.502846
0.640192 0.378241 0.517327
0.752575 0.389487 0.537255
0.860136 0.380102 0.555749
0.0128023 0.405234 0.60734
0.0496223 0.408316 0.597116
0.130007 0.410819 0.582315
0.288792 0.415564 0.573632
0.425727 0.417365 0.574762
0.540505 0.439078 0.540825
0.633143 0.464424 0.556359
0.743954 0.480491 0.578515
0.86009 0.472084 0.595331
0.0270542 0.499687 0.682643
0.0745708 0.502754 0.667308
0.152377 0.506203 0.646006
0.277714 0.511162 0.619196
0.416831 0.521599 0.616464
0.533394 0.530465 0.592432
0.625879 0.550256 0.596506
0.738933 0.566369 0.615152
0.866484 0.556161 0.623148
0.122866 0.597345 0.732921
0.171191 0.599161 0.717586
0.234531 0.601419 0.697612
0.328725 0.604379 0.671489
0.435416 0.612818 0.668376
0.543969 0.623621 0.636973
0.651545 0.629252 0.615213
0.786526 0.627771 0.598566
0.911299 0.598627 0.575662
0.218708 0.697978 0.798169
0.263401 0.698833 0.780789
0.319982 0.699443 0.758877
0.396338 0.700694 0.735225
0.484581 0.70721 0.724498
0.557671 0.71928 0.687602
0.645731 0.730266 0.675975
0.766873 0.729885 0.641245
0.902678 0.719875 0.598169
0.272297 0.798764 0.873091
0.315145 0.799161 0.8542
0.367346 0.799268 0.830961
0.43534 0.799527 0.811307
0.501564 0.805982 0.785412
0.557595 0.816587 0.745296
0.643366 0.829557 0.716457
0.756146 0.840558 0.720363
0.891478 0.838285 0.655955
0.29781 0.872847 0.942428
0.350134 0.87538 0.9281
0.384344 0.87657 0.909499
0.419333 0.878126 0.890349
0.474891 0.881712 0.859449
0.523201 0.885206 0.815885
0.591455 0.893202 0.778393
0.716533 0.915068 0.775677
0.846235 0.933654 0.76321
9.15541e-05 0.221347 0.564004
0.0231785 0.199863 0.525887
0.209766 0.193118 0.520455
0.365194 0.228031 0.542458
0.47274 0.250355 0.547906
0.562814 0.271305 0.556466
0.654826 0.297475 0.559197
0.757687 0.315709 0.571206
0.865797 0.337118 0.593347
0.00706493 0.284184 0.593576
0.0372473 0.273945 0.57377
0.124865 0.252872 0.553384
0.342504 0.269551 0.569314
0.46334 0.293767 0.571893
0.557778 0.316823 0.573419
0.649851 0.339086 0.572351
0.750805 0.356085 0.582849
0.854185 0.351598 0.59498
0.017319 0.3561 0.643565
0.0493019 0.353735 0.631571
0.127626 0.346151 0.612314
0.290227 0.332753 0.613611
0.444831 0.354269 0.606638
0.548424 0.376837 0.598047
0.646754 0.392157 0.592279
0.746242 0.41442 0.604517
0.85333 0.408103 0.618021
0.0267796 0.438483 0.70338
0.0647593 0.439231 0.692729
0.133883 0.438743 0.676295
0.28014 0.437659 0.659678
0.415213 0.43064 0.673198
0.538659 0.455253 0.642664
0.647334 0.470039 0.624842
0.742702 0.493309 0.638224
0.853986 0.493095 0.65568
0.0424506 0.526818 0.77879
0.0799268 0.528481 0.764736
0.145724 0.530083 0.745357
0.26006 0.531395 0.715816
0.407858 0.537957 0.71165
0.524651 0.538842 0.72076
0.639735 0.561318 0.666362
0.732952 0.581201 0.680766
0.843198 0.592615 0.702388
0.0814374 0.618738 0.850431
0.117174 0.621256 0.834745
0.173159 0.623682 0.81265
0.276112 0.62594 0.775036
0.402182 0.632624 0.748959
0.52694 0.642161 0.747662
0.642435 0.649607 0.716976
0.737652 0.665812 0.712993
0.859022 0.671168 0.726894
0.169604 0.714382 0.895552
0.208133 0.716701 0.881117
0.254536 0.718547 0.86157
0.338399 0.720348 0.8271
0.437507 0.725429 0.805493
0.540078 0.735302 0.802533
0.646738 0.747662 0.765194
0.755886 0.753384 0.740505
0.902617 0.740719 0.707103
0.187686 0.81503 0.941375
0.251759 0.815229 0.934417
0.302358 0.814282 0.917784
0.376074 0.815503 0.885527
0.469337 0.819928 0.870024
0.563073 0.829923 0.853834
0.643961 0.843793 0.814389
0.7355 0.859129 0.79678
0.881407 0.859693 0.757168
0.0953231 0.871366 0.955596
0.137301 0.874067 0.956466
0.239216 0.878569 0.95819
0.386465 0.884779 0.947768
0.453239 0.891722 0.938079
0.52726 0.900801 0.915999
0.590524 0.908019 0.875563
0.668116 0.918196 0.835187
0.818387 0.94551 0.84564
0 0.280446 0.689967
0.0308995 0.261082 0.642145
0.130358 0.23032 0.620951
0.365591 0.269245 0.647562
0.484138 0.29456 0.656962
0.582483 0.310796 0.659068
0.671534 0.333471 0.666453
0.767849 0.350195 0.663935
0.865934 0.36437 0.669566
0.0146181 0.334691 0.707454
0.0450141 0.323354 0.684627
0.113878 0.303166 0.657694
0.331273 0.301839 0.668727
0.467842 0.329625 0.677928
0.572534 0.347784 0.675776
0.662135 0.370733 0.677638
0.759594 0.385687 0.672953
0.855589 0.388006 0.675029
0.0266575 0.397818 0.754726
0.0611276 0.394003 0.740124
0.127092 0.384787 0.716045
0.272755 0.370626 0.700648
0.440391 0.38088 0.708705
0.556481 0.400229 0.699184
0.650599 0.42182 0.693049
0.752544 0.431647 0.687922
0.85185 0.438193 0.69424
0.0367895 0.469734 0.808469
0.073167 0.468757 0.796704
0.136217 0.465934 0.778332
0.263645 0.4607 0.751797
0.403342 0.451637 0.758831
0.538033 0.466758 0.744244
0.641764 0.491768 0.72697
0.753689 0.497688 0.71693
0.852155 0.511116 0.725536
0.0122225 0.569635 0.877089
0.050248 0.559564 0.86186
0.137804 0.550713 0.842084
0.241337 0.550057 0.813077
0.3953 0.553323 0.801602
0.514611 0.549111 0.813977
0.631128 0.571847 0.780545
0.750164 0.586313 0.75169
0.849699 0.59826 0.765316
0.0268711 0.653483 0.901549
0.0418708 0.652811 0.900923
0.0847181 0.651759 0.900343
0.227512 0.641276 0.880537
0.372686 0.646006 0.850553
0.504921 0.654398 0.850874
0.621607 0.658625 0.854932
0.737636 0.680995 0.80087
0.84033 0.691951 0.813596
0.046952 0.748608 0.925216
0.0611124 0.747463 0.924468
0.106401 0.746212 0.924117
0.214618 0.744442 0.92488
0.362875 0.741192 0.896819
0.500053 0.752667 0.882033
0.627085 0.762478 0.880293
0.750332 0.772793 0.846311
0.85597 0.7832 0.836591
0.186633 0.833188 0.94548
0.226917 0.833341 0.945693
0.274861 0.833448 0.946044
0.346502 0.834043 0.947234
0.416571 0.836042 0.943664
0.504677 0.842756 0.934936
0.618402 0.856489 0.928435
0.731579 0.874159 0.899626
0.863508 0.88455 0.88011
0.12105 0.87303 0.95613
0.155779 0.875257 0.956863
0.198825 0.877913 0.957778
0.283696 0.88278 0.959731
0.37818 0.889723 0.962448
0.490608 0.90457 0.96791
0.571084 0.918547 0.966873
0.674311 0.935683 0.942489
0.783612 0.952956 0.924193
0.00135805 0.379004 0.811856
0.0424353 0.322454 0.761135
0.114366 0.297459 0.7355
0.351492 0.311437 0.752102
0.483146 0.336889 0.767849
0.589166 0.351751 0.771908
0.687694 0.363378 0.775326
0.785641 0.382025 0.778439
0.881254 0.404318 0.777111
0.0011902 0.418296 0.826947
0.0278477 0.393957 0.805203
0.115724 0.352926 0.766323
0.291066 0.337652 0.767163
0.460502 0.36376 0.783047
0.574334 0.381338 0.786389
0.675334 0.394415 0.785702
0.771969 0.415259 0.78587
0.867979 0.419959 0.777661
0.00579843 0.468864 0.844633
0.0104982 0.463951 0.841932
0.0646677 0.447776 0.827375
0.24535 0.40766 0.79089
0.421469 0.405173 0.806912
0.552316 0.425742 0.806912
0.658473 0.44155 0.799939
0.75436 0.461799 0.795972
0.859937 0.459586 0.78909
0.0163729 0.529 0.86392
0.0317845 0.525414 0.862211
0.0761578 0.518898 0.859754
0.207645 0.502419 0.847807
0.377005 0.481575 0.839124
0.520684 0.479927 0.840467
0.641154 0.499702 0.830152
0.742977 0.525246 0.821714
0.859937 0.519677 0.813809
0.0228122 0.602289 0.885954
0.0379034 0.600031 0.884901
0.0755322 0.596368 0.883391
0.176593 0.588525 0.882719
0.358846 0.587335 0.888228
0.482719 0.586465 0.896864
0.621256 0.5738 0.881086
0.731289 0.602838 0.861677
0.861723 0.601144 0.846418
0.0755474 0.684169 0.90927
0.102708 0.681956 0.908598
0.151537 0.679011 0.908049
0.238834 0.674052 0.907851
0.358083 0.669612 0.91075
0.487236 0.675135 0.919249
0.604562 0.680217 0.928771
0.717815 0.688121 0.918227
0.85481 0.698955 0.882933
0.0680858 0.779629 0.932479
0.0983597 0.777386 0.931914
0.142245 0.774639 0.931365
0.247761 0.769787 0.931594
0.378164 0.762905 0.932952
0.491798 0.7673 0.938949
0.604456 0.776761 0.94696
0.718746 0.784161 0.955657
0.832853 0.799832 0.939086
0.137667 0.85359 0.950545
0.179629 0.853941 0.950408
0.228931 0.854124 0.950393
0.3019 0.854704 0.950957
0.391394 0.854963 0.952636
0.486931 0.859312 0.956527
0.596139 0.872663 0.96347
0.716945 0.886793 0.971557
0.854261 0.899901 0.973434
0.161089 0.875608 0.95697
0.189349 0.877379 0.957565
0.227054 0.87953 0.958434
0.295705 0.883467 0.960006
0.3785 0.889754 0.962448
0.451316 0.899229 0.966049
0.540856 0.915053 0.971939
0.647517 0.936126 0.979614
0.789258 0.963058 0.988846
