src/luts/blur/7.cube
TITLE "Generated by Resolve"
LUT_3D_SIZE 33
0.0260319 0.0281376 0.0240482
0.0382696 0.0320897 0.0275273
0.0533455 0.0359197 0.0297093
0.0690623 0.0408789 0.0315251
0.08925 0.0462196 0.0335241
0.109651 0.0513313 0.0353399
0.133898 0.0563821 0.0363317
0.163226 0.0603189 0.036759
0.196414 0.0630045 0.035996
0.230243 0.0639811 0.0333104
0.263661 0.0636301 0.0310826
0.295613 0.060502 0.032639
0.325628 0.0558022 0.0351568
0.355123 0.0519722 0.0366064
0.384894 0.0511025 0.0382086
0.414786 0.051667 0.0417334
0.44622 0.0549172 0.0494698
0.47866 0.0558175 0.0570993
0.512581 0.0544289 0.0659342
0.54728 0.0572213 0.0772259
0.582727 0.0621958 0.0893568
0.61825 0.0681163 0.10309
0.65388 0.0752117 0.118486
0.68983 0.083772 0.135195
0.726284 0.0944839 0.155215
0.76228 0.106828 0.177539
0.799435 0.127504 0.205035
0.837415 0.177554 0.236698
0.844846 0.196658 0.252094
0.852338 0.216342 0.267216
0.859434 0.23508 0.281956
0.865965 0.252461 0.295689
0.87248 0.26949 0.308736
0.0226749 0.0378729 0.030457
0.0375219 0.0386358 0.0290532
0.0536202 0.0403754 0.0289616
0.0709697 0.0436103 0.0299229
0.0928054 0.0482185 0.0306554
0.114275 0.0528878 0.0305943
0.13991 0.057145 0.0299687
0.170153 0.0603647 0.0285039
0.202731 0.0627146 0.0258946
0.235813 0.0636759 0.0209049
0.268666 0.0634318 0.0169375
0.300404 0.0618753 0.0177768
0.331228 0.0604868 0.0206149
0.36054 0.0581064 0.0214542
0.389914 0.0570535 0.0228885
0.419593 0.0566415 0.0262455
0.450523 0.0584268 0.0323796
0.482521 0.0594644 0.0400397
0.516243 0.058732 0.0491188
0.550378 0.0607156 0.0599985
0.585199 0.065095 0.0724193
0.620188 0.0698405 0.0847639
0.655283 0.0751354 0.100069
0.69073 0.0828107 0.116777
0.726757 0.0930343 0.135668
0.762432 0.105379 0.158907
0.799542 0.126802 0.188113
0.836179 0.174701 0.220279
0.843671 0.194217 0.237278
0.851255 0.213855 0.253513
0.858412 0.232807 0.269017
0.864988 0.250126 0.283848
0.871534 0.267216 0.297826
0.0132296 0.0485847 0.0374304
0.0277867 0.0493019 0.0344701
0.0522927 0.0504768 0.0332494
0.0666514 0.0514992 0.0313878
0.0888685 0.0546273 0.0312505
0.110307 0.0590066 0.0309911
0.135927 0.0628367 0.0294347
0.168139 0.0656443 0.0252995
0.203326 0.067689 0.0208591
0.238575 0.0691844 0.0145571
0.27274 0.0705119 0.00933852
0.305989 0.0715801 0.00767529
0.337606 0.0725872 0.00817884
0.367803 0.0734264 0.0103304
0.397589 0.072694 0.013611
0.426947 0.07187 0.0167391
0.456672 0.0694591 0.0205234
0.488106 0.0676585 0.0248722
0.52079 0.0639811 0.0305028
0.554345 0.0658579 0.0417639
0.588449 0.0682231 0.0529641
0.622431 0.0707103 0.0652018
0.656718 0.0742199 0.0793927
0.691539 0.0803082 0.0951247
0.726864 0.0896773 0.113664
0.762127 0.101762 0.136461
0.798962 0.123934 0.166613
0.833844 0.169314 0.199405
0.841474 0.18912 0.218418
0.849287 0.209186 0.236545
0.856748 0.228519 0.25362
0.863432 0.24622 0.269612
0.870253 0.263905 0.285237
0.00831617 0.0597391 0.045594
0.0200656 0.0607614 0.0408179
0.0445106 0.0613413 0.0379492
0.0663767 0.0622568 0.0368811
0.0841688 0.0627909 0.0341497
0.105165 0.0663005 0.0328679
0.128038 0.0712596 0.0316167
0.159655 0.0756085 0.0280003
0.19736 0.0791485 0.0220035
0.234867 0.0820478 0.0170138
0.270756 0.0847944 0.01178
0.305379 0.0870527 0.00917067
0.338994 0.0885481 0.00894179
0.371527 0.0901198 0.00947585
0.402701 0.0908827 0.0101015
0.432883 0.0911574 0.0132906
0.463081 0.0900587 0.0166171
0.493797 0.0884718 0.0202029
0.525811 0.0841993 0.0249332
0.558694 0.0820325 0.0310674
0.591669 0.0807202 0.0405432
0.62475 0.0793164 0.0505379
0.658228 0.0769207 0.0606088
0.69247 0.0786908 0.0740978
0.727031 0.0866712 0.0914778
0.761639 0.0972915 0.113405
0.798108 0.120699 0.142733
0.830671 0.161471 0.175051
0.838575 0.182452 0.195972
0.846586 0.202548 0.216556
0.854261 0.222187 0.23537
0.861295 0.240543 0.252781
0.868086 0.258366 0.269459
0.00466926 0.0733501 0.0553597
0.014435 0.0740978 0.0488899
0.0385901 0.0757916 0.0449073
0.0629129 0.0757153 0.0421302
0.0832074 0.0768902 0.0407721
0.103395 0.0777905 0.037232
0.12224 0.0811017 0.0347753
0.149035 0.0854505 0.0321508
0.186831 0.0890059 0.0259403
0.225711 0.0929885 0.0186923
0.263096 0.0967269 0.0139162
0.299687 0.0992294 0.0108797
0.335012 0.101976 0.00952163
0.369665 0.104723 0.0101472
0.403037 0.107195 0.0107271
0.435462 0.108827 0.0113527
0.466102 0.108812 0.014847
0.496757 0.10869 0.0184482
0.528756 0.106889 0.0217441
0.561318 0.105119 0.0252842
0.593637 0.102495 0.0311589
0.626215 0.102159 0.0403601
0.659419 0.0962844 0.0530709
0.692561 0.0939345 0.063859
0.726253 0.094789 0.0767681
0.760204 0.0986343 0.0941634
0.796323 0.11725 0.118883
0.82707 0.153048 0.147234
0.835355 0.174899 0.169772
0.84358 0.195163 0.192554
0.85156 0.215351 0.214145
0.858778 0.23415 0.233722
0.865721 0.252354 0.251545
0.004654 0.08925 0.0653086
0.0108339 0.0899519 0.0577554
0.0301518 0.0919356 0.0535897
0.0552834 0.0929274 0.0488289
0.0802014 0.0935378 0.0456397
0.103075 0.0952468 0.0442664
0.12137 0.0972 0.0395361
0.144366 0.100816 0.0361334
0.178515 0.104616 0.0308995
0.21677 0.109071 0.0225681
0.255009 0.113359 0.0157778
0.292195 0.117464 0.0123293
0.32842 0.120638 0.0106661
0.364828 0.122805 0.0109255
0.400061 0.124895 0.0115206
0.434485 0.126711 0.0121004
0.467384 0.12842 0.0131228
0.499138 0.128054 0.0169223
0.531106 0.126696 0.0203403
0.563333 0.125612 0.0229191
0.595621 0.124865 0.0266728
0.627588 0.123583 0.0342107
0.65948 0.121386 0.0434424
0.691554 0.117815 0.0536049
0.724407 0.115984 0.0649729
0.758694 0.115999 0.0836652
0.792721 0.124483 0.104799
0.828626 0.158434 0.130892
0.835477 0.176028 0.150072
0.842252 0.192782 0.169512
0.849058 0.209735 0.188983
0.855558 0.226413 0.208164
0.862928 0.24535 0.228977
0.00550851 0.107713 0.0755169
0.00860609 0.109239 0.0675364
0.0211337 0.111009 0.0631418
0.045716 0.112902 0.0580606
0.0753185 0.113451 0.0520638
0.102022 0.113756 0.0491035
0.123262 0.11574 0.0468147
0.144991 0.117601 0.0415503
0.175402 0.120775 0.0356451
0.212329 0.125124 0.0268711
0.249805 0.129839 0.0182345
0.286259 0.135302 0.0141146
0.322957 0.139528 0.0124666
0.359533 0.143252 0.0118257
0.396216 0.146685 0.0124971
0.431983 0.148714 0.0130922
0.467079 0.150713 0.0136873
0.500511 0.151095 0.0159304
0.533028 0.150011 0.0190585
0.565621 0.149004 0.0218967
0.597879 0.147982 0.0246128
0.629526 0.146395 0.0289464
0.661219 0.14583 0.0384375
0.692805 0.143694 0.0480354
0.72459 0.139116 0.0572213
0.756466 0.137926 0.0712444
0.78883 0.14052 0.0883955
0.82504 0.164706 0.110842
0.836133 0.178882 0.124712
0.843976 0.197711 0.154086
0.850584 0.214374 0.173342
0.856886 0.230426 0.19263
0.863005 0.246128 0.211368
0.00653086 0.128252 0.0852369
0.00662242 0.130983 0.0788281
0.014023 0.133669 0.0740368
0.0358129 0.135805 0.0687724
0.0673075 0.137392 0.0611887
0.0985122 0.137072 0.0545205
0.124102 0.13817 0.0514534
0.149569 0.140932 0.0476692
0.176471 0.142168 0.0407111
0.2121 0.144808 0.0315862
0.248585 0.148836 0.0221103
0.284199 0.15375 0.0164034
0.319677 0.159335 0.0142824
0.355428 0.164126 0.0133822
0.392706 0.16878 0.013489
0.42948 0.172107 0.0141756
0.466468 0.175219 0.0148318
0.501747 0.177401 0.0156558
0.535622 0.17731 0.018555
0.568689 0.175738 0.0209964
0.600992 0.174456 0.0234836
0.632731 0.173419 0.0273594
0.664164 0.172351 0.0344091
0.695659 0.171832 0.0436713
0.727108 0.169848 0.0538186
0.758175 0.167391 0.065568
0.789059 0.166781 0.0808728
0.822126 0.176913 0.0995193
0.84033 0.190539 0.114321
0.84625 0.205035 0.132326
0.852384 0.219883 0.151186
0.858335 0.23505 0.169986
0.86508 0.252079 0.196063
0.00770581 0.151568 0.0981613
0.00784314 0.155108 0.0913405
0.0108492 0.15787 0.0852216
0.029984 0.161013 0.0800336
0.0577401 0.163638 0.073167
0.0922255 0.164523 0.0645304
0.123735 0.164965 0.0565652
0.152728 0.167315 0.0521706
0.183368 0.169879 0.0464485
0.21471 0.170764 0.0356298
0.250721 0.1738 0.0264591
0.286458 0.177966 0.0192416
0.32105 0.183078 0.0162814
0.355932 0.188006 0.0150912
0.392081 0.192981 0.0146334
0.428656 0.197513 0.0153506
0.465827 0.201526 0.0160678
0.502556 0.204913 0.0167391
0.537774 0.206287 0.0184176
0.571725 0.205493 0.0209049
0.604593 0.203952 0.0229038
0.636683 0.202792 0.024445
0.668238 0.20206 0.0314031
0.699443 0.200763 0.0404059
0.730877 0.199573 0.0503548
0.7617 0.197818 0.0614176
0.791836 0.197604 0.0757
0.821271 0.197955 0.0914015
0.847776 0.211032 0.104997
0.852766 0.222721 0.121859
0.857649 0.234714 0.139437
0.862699 0.247272 0.156832
0.867842 0.259876 0.174395
0.00898756 0.176806 0.113573
0.00917067 0.180911 0.106371
0.0112154 0.184451 0.0996872
0.0202029 0.188083 0.0934157
0.046479 0.191318 0.0868086
0.0875257 0.194018 0.0786145
0.119615 0.194858 0.0682231
0.153643 0.195926 0.0585336
0.186816 0.198917 0.0545357
0.222171 0.202213 0.0454719
0.25687 0.204669 0.0303197
0.291737 0.20766 0.0229801
0.325872 0.211643 0.0189822
0.360189 0.216312 0.0172427
0.394842 0.220829 0.0162966
0.430457 0.225727 0.0167086
0.466972 0.229801 0.0174258
0.504372 0.234058 0.018143
0.540475 0.236912 0.0190738
0.575296 0.237125 0.0209659
0.608454 0.23563 0.0231174
0.641123 0.234745 0.0241855
0.672755 0.233463 0.0290532
0.704051 0.23209 0.0372778
0.735348 0.230991 0.047303
0.766247 0.229694 0.0585641
0.795651 0.228031 0.071519
0.824399 0.22887 0.0870069
0.85565 0.239094 0.100404
0.861021 0.244648 0.113451
0.865141 0.254902 0.131075
0.869612 0.265431 0.148699
0.87393 0.275792 0.165728
0.0103609 0.203891 0.130663
0.0105745 0.208698 0.122881
0.0115053 0.21294 0.115312
0.0178836 0.216861 0.10898
0.040528 0.22063 0.102495
0.0770123 0.224384 0.093843
0.114199 0.226551 0.0837415
0.150011 0.227604 0.0726482
0.188846 0.229648 0.0627298
0.225284 0.233371 0.0612955
0.262913 0.236316 0.0537881
0.299779 0.239261 0.0330053
0.334874 0.242679 0.0226902
0.368612 0.246601 0.0196231
0.402014 0.250919 0.0183108
0.436881 0.255512 0.0182193
0.471992 0.260212 0.0189364
0.508019 0.264637 0.0196384
0.544045 0.267964 0.0204166
0.578744 0.26862 0.0217288
0.612726 0.268391 0.0231174
0.645304 0.267262 0.0243992
0.677668 0.266545 0.0266117
0.709361 0.265782 0.0350958
0.740169 0.264317 0.0448615
0.770764 0.262394 0.0560922
0.800275 0.260578 0.0687419
0.828412 0.259724 0.0833906
0.858366 0.267216 0.0969711
0.871046 0.270146 0.106416
0.874235 0.277729 0.123659
0.877882 0.286107 0.141711
0.881544 0.29482 0.158495
0.0117952 0.231998 0.149813
0.0120851 0.237491 0.141192
0.0127565 0.242298 0.133364
0.0202029 0.246403 0.126146
0.0360876 0.250294 0.119005
0.0733959 0.254887 0.110994
0.111345 0.258457 0.102129
0.145998 0.2607 0.0909133
0.1879 0.262821 0.0788434
0.22858 0.265324 0.0714733
0.266529 0.26891 0.0729534
0.304616 0.271305 0.0631571
0.341802 0.273365 0.0417792
0.377768 0.277104 0.0285649
0.412329 0.281697 0.0222171
0.445792 0.285771 0.0204318
0.48011 0.290379 0.0206607
0.514427 0.294377 0.0212711
0.548867 0.297475 0.0220951
0.583047 0.299275 0.0229496
0.61709 0.299916 0.0239414
0.649897 0.299992 0.0240177
0.682445 0.299947 0.0252689
0.714122 0.299397 0.0345464
0.745357 0.29836 0.0437629
0.775647 0.296376 0.0531624
0.805127 0.294163 0.0664378
0.833249 0.292332 0.0801404
0.860304 0.292042 0.0937362
0.882368 0.297597 0.0996567
0.884947 0.303578 0.117006
0.887724 0.309682 0.135592
0.890715 0.316732 0.152773
0.0132601 0.260761 0.17055
0.013489 0.266163 0.160571
0.0155947 0.271305 0.15256
0.0224002 0.275608 0.145159
0.0355993 0.279606 0.138003
0.0720989 0.284688 0.130083
0.109895 0.289067 0.121111
0.145495 0.292531 0.110185
0.186297 0.295537 0.0990463
0.229129 0.297978 0.0868696
0.269978 0.300374 0.0809644
0.307698 0.304082 0.0858625
0.345922 0.305974 0.0728771
0.383368 0.307485 0.0477455
0.419043 0.310613 0.0341039
0.453529 0.314595 0.0272679
0.487511 0.318471 0.0249332
0.521187 0.322545 0.024155
0.555459 0.326085 0.0240024
0.58883 0.328527 0.0241703
0.622065 0.330419 0.0246891
0.655009 0.331746 0.0255589
0.687114 0.332403 0.0281682
0.718868 0.33286 0.0362402
0.749722 0.331899 0.0440223
0.780026 0.330312 0.0519417
0.81001 0.328374 0.0637522
0.837919 0.325505 0.0783398
0.864561 0.323369 0.092134
0.893446 0.329656 0.0965438
0.896529 0.330404 0.108309
0.898558 0.335149 0.128771
0.900908 0.34052 0.148974
0.0147402 0.289662 0.192569
0.0150454 0.295445 0.182345
0.0179446 0.300252 0.173342
0.0238041 0.304509 0.165591
0.0423285 0.308812 0.158206
0.0737621 0.313664 0.150195
0.111986 0.31931 0.141848
0.147906 0.323613 0.132876
0.186511 0.327138 0.122042
0.228122 0.330159 0.108995
0.270985 0.332631 0.0968338
0.311482 0.335515 0.0948959
0.348775 0.338811 0.102174
0.386862 0.340337 0.090959
0.424155 0.34139 0.0587472
0.459846 0.343877 0.0403754
0.494331 0.347143 0.0297551
0.52874 0.350744 0.0271458
0.562112 0.354025 0.0260319
0.595392 0.357229 0.0256504
0.628244 0.35993 0.0258335
0.660349 0.361883 0.0272984
0.691966 0.363546 0.0327001
0.723278 0.364538 0.0390631
0.753826 0.364309 0.0453651
0.784115 0.36321 0.0526436
0.813977 0.361852 0.0633249
0.842542 0.359167 0.0766003
0.869123 0.355764 0.0917983
0.897536 0.35938 0.104005
0.908095 0.356649 0.105089
0.909728 0.360494 0.125322
0.911452 0.364477 0.145892
0.0162661 0.319387 0.21529
0.0170291 0.324697 0.205432
0.019089 0.329061 0.195956
0.0303197 0.333608 0.187945
0.0484321 0.337636 0.180438
0.0754864 0.342702 0.172854
0.117113 0.348592 0.164218
0.153826 0.353689 0.155901
0.190005 0.357443 0.14612
0.229831 0.36112 0.13608
0.270985 0.364202 0.125307
0.313298 0.367071 0.118303
0.352865 0.369589 0.116762
0.389166 0.372457 0.123064
0.426581 0.373785 0.111666
0.463539 0.374517 0.078584
0.49926 0.376532 0.0565652
0.534081 0.379263 0.0424048
0.568582 0.382452 0.0359503
0.601587 0.385336 0.0342412
0.6336 0.388235 0.0347448
0.665431 0.390646 0.0364691
0.696391 0.392477 0.0393683
0.727001 0.393835 0.0442817
0.757137 0.394278 0.0478676
0.787472 0.394507 0.0550546
0.817472 0.393713 0.0654307
0.846296 0.391577 0.0770581
0.873564 0.388113 0.091722
0.898939 0.384878 0.106767
0.92047 0.383856 0.104906
0.921538 0.38674 0.123903
0.922774 0.389731 0.143435
0.0178073 0.349187 0.238819
0.0180209 0.353948 0.228748
0.0227207 0.358495 0.219348
0.0361181 0.362585 0.211337
0.0553902 0.366781 0.204135
0.0841535 0.371695 0.196521
0.122515 0.377661 0.188724
0.16286 0.383398 0.180743
0.198672 0.387533 0.172457
0.235004 0.391211 0.162768
0.27422 0.394751 0.152102
0.314427 0.397803 0.142016
0.355398 0.400427 0.135683
0.393561 0.40267 0.135836
0.42858 0.405386 0.143481
0.465232 0.406485 0.131762
0.501961 0.406821 0.10074
0.537331 0.408194 0.0781262
0.572015 0.410407 0.0627756
0.605798 0.413153 0.0536202
0.638025 0.415686 0.0503548
0.669047 0.417823 0.0489204
0.699977 0.419821 0.0486152
0.730098 0.42153 0.05066
0.760266 0.423041 0.0555886
0.790402 0.423758 0.0614023
0.820249 0.423819 0.0701915
0.849485 0.422431 0.0809644
0.877134 0.419471 0.0927749
0.902922 0.416129 0.108782
0.930755 0.416938 0.117571
0.93286 0.413108 0.125444
0.933455 0.41503 0.144549
0.0193332 0.378943 0.261921
0.0212711 0.383734 0.252476
0.028687 0.387778 0.243214
0.0426795 0.39205 0.235431
0.0656443 0.396262 0.228077
0.0931258 0.400931 0.220874
0.12929 0.406363 0.213519
0.173053 0.412345 0.205829
0.211612 0.41738 0.199023
0.245121 0.42092 0.191058
0.280644 0.42475 0.18233
0.317693 0.428199 0.172625
0.356451 0.430976 0.163531
0.396307 0.433295 0.158145
0.433021 0.435355 0.159716
0.467033 0.437827 0.167849
0.503365 0.438941 0.156039
0.540093 0.439323 0.123766
0.574884 0.44033 0.10248
0.608209 0.441459 0.0848859
0.640696 0.442969 0.071931
0.672206 0.445075 0.0658274
0.702983 0.447288 0.0639048
0.73312 0.449027 0.0632029
0.762936 0.450706 0.0661326
0.792844 0.451881 0.0721294
0.8224 0.45243 0.0792248
0.851743 0.451972 0.0872969
0.880201 0.450355 0.0989853
0.906554 0.446799 0.112306
0.933776 0.447898 0.12813
0.944244 0.440452 0.128573
0.944488 0.441855 0.145937
0.0217441 0.409079 0.286137
0.0259709 0.413474 0.276616
0.0353704 0.417441 0.267124
0.0535286 0.421866 0.259358
0.077409 0.425956 0.252461
0.105425 0.430152 0.246082
0.138293 0.435386 0.238651
0.183413 0.44155 0.230884
0.226871 0.446723 0.224735
0.259266 0.450874 0.218906
0.289998 0.45417 0.211994
0.324132 0.457954 0.203372
0.359609 0.461402 0.194476
0.397665 0.463691 0.186908
0.435843 0.465721 0.182696
0.471489 0.467597 0.185214
0.504814 0.469932 0.193027
0.540902 0.471107 0.181552
0.57734 0.471443 0.14995
0.610864 0.472236 0.129839
0.643641 0.473106 0.111864
0.675471 0.474418 0.098436
0.706157 0.475593 0.0904707
0.736492 0.47718 0.0872511
0.765988 0.478569 0.0862287
0.795193 0.479728 0.0879988
0.824338 0.480674 0.0933089
0.853681 0.480827 0.100038
0.882658 0.479927 0.108553
0.90956 0.477073 0.119234
0.934737 0.47425 0.133867
0.955383 0.468757 0.133532
0.955535 0.469673 0.148959
0.0242618 0.439353 0.310307
0.0296483 0.443442 0.300984
0.0442969 0.447852 0.29221
0.0652781 0.451652 0.28397
0.0909133 0.455817 0.277699
0.1178 0.459663 0.271122
0.149355 0.464683 0.264118
0.192782 0.470207 0.256687
0.240208 0.47599 0.25005
0.274723 0.480217 0.244724
0.303395 0.483848 0.239322
0.333242 0.487144 0.232837
0.365454 0.490776 0.225147
0.400351 0.494041 0.217639
0.437171 0.496117 0.211368
0.474281 0.497688 0.208331
0.509194 0.499443 0.210819
0.541695 0.501808 0.219196
0.577325 0.502922 0.207538
0.613108 0.503258 0.178042
0.64593 0.50396 0.158312
0.677516 0.504524 0.140948
0.708507 0.505119 0.126452
0.738735 0.506157 0.117845
0.768688 0.507301 0.112734
0.797757 0.508217 0.111009
0.826886 0.509133 0.112947
0.855634 0.509407 0.11725
0.884611 0.509071 0.122545
0.912093 0.507103 0.131182
0.93756 0.503685 0.142123
0.964431 0.503777 0.145617
0.966506 0.498314 0.154757
0.026688 0.469764 0.333944
0.0354162 0.474083 0.325475
0.0547799 0.478019 0.316945
0.0790875 0.481895 0.309346
0.105303 0.485664 0.303136
0.130159 0.48957 0.297139
0.161395 0.493935 0.290105
0.202884 0.499413 0.282856
0.252323 0.504967 0.275639
0.291615 0.509682 0.269963
0.319509 0.513161 0.265278
0.34583 0.516701 0.26006
0.374701 0.519921 0.254047
0.405936 0.523583 0.247684
0.439704 0.526345 0.240848
0.475715 0.528283 0.235492
0.512291 0.529686 0.233265
0.546105 0.531151 0.23653
0.57763 0.533333 0.243946
0.612497 0.534447 0.233371
0.647578 0.534874 0.206119
0.679484 0.535531 0.188235
0.710491 0.535805 0.17055
0.741054 0.536141 0.155993
0.770581 0.536416 0.146532
0.8 0.536904 0.140734
0.828962 0.537377 0.137865
0.857786 0.537667 0.139101
0.886244 0.537346 0.141436
0.914061 0.536095 0.146914
0.940169 0.533898 0.155291
0.96733 0.536187 0.168841
0.977554 0.527932 0.162875
0.032105 0.500557 0.357488
0.0479591 0.504799 0.349401
0.0699779 0.508507 0.341894
0.0955825 0.512505 0.334768
0.119509 0.515801 0.32845
0.144152 0.51931 0.323064
0.175784 0.523491 0.316396
0.215412 0.528328 0.309514
0.263676 0.533761 0.302068
0.306538 0.538537 0.295613
0.336828 0.542489 0.29073
0.362219 0.545495 0.285863
0.386557 0.548913 0.281041
0.414099 0.552132 0.275563
0.445075 0.555489 0.269535
0.477821 0.5579 0.263874
0.513741 0.559777 0.259525
0.549233 0.561227 0.258335
0.582025 0.562814 0.261143
0.612406 0.564309 0.267231
0.64625 0.565408 0.257984
0.680552 0.565957 0.233783
0.711894 0.566537 0.217533
0.742519 0.566705 0.201175
0.772717 0.56672 0.186862
0.801755 0.566583 0.176883
0.830839 0.566461 0.170779
0.859571 0.566339 0.166522
0.887953 0.566049 0.166659
0.91603 0.565179 0.167788
0.942412 0.563088 0.172915
0.967575 0.560708 0.180575
0.988693 0.558816 0.177539
0.0464942 0.531548 0.380423
0.0655222 0.5355 0.37319
0.0889143 0.53933 0.366018
0.112001 0.542535 0.35938
0.134173 0.545953 0.35317
0.158831 0.548882 0.347814
0.190936 0.552773 0.342245
0.230442 0.557366 0.335531
0.275395 0.562142 0.328389
0.320058 0.567178 0.32108
0.352865 0.570886 0.315877
0.377234 0.574228 0.311543
0.401297 0.577081 0.306874
0.425086 0.580407 0.302037
0.452186 0.583856 0.296956
0.482628 0.586618 0.291463
0.515343 0.588815 0.286336
0.550622 0.59057 0.28275
0.585077 0.591867 0.281727
0.616541 0.593408 0.284382
0.645838 0.595087 0.290318
0.67892 0.596201 0.280476
0.712612 0.596872 0.25832
0.743465 0.597391 0.244526
0.773724 0.59736 0.230106
0.803388 0.597192 0.217105
0.83238 0.596414 0.206989
0.861311 0.59556 0.199405
0.889937 0.594522 0.194644
0.917754 0.593668 0.194263
0.94461 0.592233 0.195895
0.969802 0.589731 0.199145
0.997803 0.593317 0.201968
0.063386 0.562387 0.403616
0.0834669 0.56582 0.396368
0.107149 0.56936 0.389593
0.128389 0.572519 0.383215
0.150896 0.575204 0.377035
0.175601 0.578378 0.372061
0.207752 0.581643 0.366506
0.247425 0.585611 0.360586
0.288396 0.590311 0.35378
0.332982 0.595132 0.346685
0.367132 0.599313 0.340673
0.393378 0.602335 0.336309
0.414694 0.605158 0.331914
0.43798 0.608362 0.327382
0.462287 0.611231 0.322683
0.489158 0.614466 0.317922
0.519432 0.617456 0.313008
0.55259 0.619287 0.308492
0.586496 0.620829 0.30544
0.619516 0.62211 0.30454
0.649989 0.623606 0.307073
0.678508 0.625147 0.313191
0.710887 0.626139 0.302342
0.743938 0.626947 0.281209
0.774197 0.627375 0.268513
0.804059 0.627298 0.255879
0.833631 0.626627 0.243763
0.862699 0.625437 0.234241
0.8916 0.624018 0.226596
0.919951 0.623102 0.222568
0.946853 0.621698 0.221286
0.97232 0.619516 0.221225
1 0.624201 0.224277
0.0799115 0.592538 0.426047
0.102281 0.595987 0.419242
0.12372 0.59884 0.412833
0.146044 0.601892 0.406577
0.168429 0.604776 0.4009
0.193515 0.607095 0.395727
0.225086 0.610452 0.390723
0.26305 0.614176 0.384863
0.30338 0.618173 0.378439
0.34522 0.622904 0.371267
0.385199 0.627283 0.364538
0.410971 0.630579 0.359762
0.431037 0.633371 0.355627
0.451881 0.63592 0.352056
0.474067 0.639155 0.347692
0.498894 0.642374 0.343236
0.526055 0.645167 0.338994
0.555688 0.647868 0.334401
0.588281 0.649958 0.330266
0.620981 0.651438 0.327535
0.652827 0.652461 0.326757
0.682445 0.653635 0.329213
0.709941 0.65539 0.33463
0.742 0.656199 0.323369
0.774517 0.656931 0.302861
0.804395 0.657328 0.29041
0.834287 0.657115 0.278874
0.863783 0.656077 0.26804
0.893065 0.654887 0.259251
0.921889 0.652781 0.251423
0.949126 0.650767 0.247028
0.974746 0.648936 0.243809
1 0.648798 0.242832
0.0987869 0.62208 0.44802
0.121538 0.625391 0.441703
0.142214 0.628305 0.435248
0.163592 0.630732 0.429404
0.187655 0.633387 0.423804
0.211749 0.635859 0.418616
0.24239 0.638941 0.413764
0.278584 0.642222 0.408255
0.317998 0.646265 0.40238
0.35903 0.650477 0.395636
0.399908 0.655131 0.388006
0.428733 0.658595 0.382467
0.448936 0.661128 0.378088
0.467124 0.663783 0.374655
0.487572 0.66685 0.371115
0.509468 0.669657 0.367193
0.534386 0.673014 0.363119
0.561318 0.675837 0.358801
0.591226 0.678126 0.354955
0.622507 0.680323 0.3514
0.654246 0.681666 0.348928
0.685298 0.682826 0.348241
0.713985 0.684123 0.350072
0.74078 0.685863 0.355077
0.772595 0.686671 0.343694
0.804807 0.687343 0.32372
0.834485 0.687678 0.312078
0.864302 0.687373 0.300511
0.893828 0.686 0.290425
0.923171 0.683818 0.280842
0.95111 0.681483 0.272999
0.977386 0.678782 0.26688
1 0.675349 0.260517
0.119158 0.651713 0.469734
0.140032 0.654597 0.463294
0.160464 0.656992 0.457359
0.182208 0.659541 0.451682
0.206195 0.662181 0.446403
0.230579 0.66421 0.441169
0.259174 0.66688 0.436057
0.294728 0.670558 0.431281
0.332662 0.673961 0.425559
0.371389 0.678233 0.418906
0.410895 0.682597 0.411795
0.443854 0.68658 0.405097
0.466148 0.689494 0.400519
0.484184 0.691875 0.396918
0.502632 0.694423 0.393576
0.522545 0.697551 0.390112
0.544778 0.700557 0.386481
0.569314 0.703609 0.382345
0.596201 0.706615 0.378454
0.62533 0.709163 0.374777
0.655848 0.710918 0.371328
0.686793 0.712367 0.368902
0.716686 0.713497 0.368444
0.744717 0.714748 0.369787
0.771084 0.716579 0.374502
0.802716 0.717342 0.362158
0.834882 0.718273 0.342626
0.864713 0.718532 0.332006
0.894713 0.717876 0.320546
0.924651 0.71606 0.308949
0.953338 0.713726 0.299611
0.979965 0.710262 0.291691
1 0.706722 0.284291
0.137942 0.680888 0.490944
0.157809 0.683604 0.484962
0.178698 0.686107 0.479026
0.200916 0.688334 0.473762
0.224918 0.6907 0.468437
0.24921 0.692943 0.463157
0.275776 0.69543 0.458137
0.309895 0.698619 0.453346
0.345861 0.702159 0.448127
0.383902 0.706081 0.442008
0.421469 0.710201 0.434836
0.458274 0.714687 0.427665
0.482658 0.717647 0.422263
0.501595 0.72018 0.418479
0.51809 0.722637 0.41529
0.536568 0.725292 0.412009
0.557076 0.728466 0.408698
