src/luts/blur/7.cube
TITLE "Generated by Resolve"
LUT_3D_SIZE 9
0.0260319 0.0281376 0.0240482
0.08925 0.0462196 0.0335241
0.196414 0.0630045 0.035996
0.325628 0.0558022 0.0351568
0.44622 0.0549172 0.0494698
0.582727 0.0621958 0.0893568
0.726284 0.0944839 0.155215
0.844846 0.196658 0.252094
0.87248 0.26949 0.308736
0.00466926 0.0733501 0.0553597
0.0832074 0.0768902 0.0407721
0.186831 0.0890059 0.0259403
0.335012 0.101976 0.00952163
0.466102 0.108812 0.014847
0.593637 0.102495 0.0311589
0.726253 0.094789 0.0767681
0.835355 0.174899 0.169772
0.865721 0.252354 0.251545
0.00770581 0.151568 0.0981613
0.0577401 0.163638 0.073167
0.183368 0.169879 0.0464485
0.32105 0.183078 0.0162814
0.465827 0.201526 0.0160678
0.604593 0.203952 0.0229038
0.730877 0.199573 0.0503548
0.847776 0.211032 0.104997
0.867842 0.259876 0.174395
0.0132601 0.260761 0.17055
0.0355993 0.279606 0.138003
0.186297 0.295537 0.0990463
0.345922 0.305974 0.0728771
0.487511 0.318471 0.0249332
0.622065 0.330419 0.0246891
0.749722 0.331899 0.0440223
0.864561 0.323369 0.092134
0.900908 0.34052 0.148974
0.0193332 0.378943 0.261921
0.0656443 0.396262 0.228077
0.211612 0.41738 0.199023
0.356451 0.430976 0.163531
0.503365 0.438941 0.156039
0.640696 0.442969 0.071931
0.762936 0.450706 0.0661326
0.880201 0.450355 0.0989853
0.944488 0.441855 0.145937
0.032105 0.500557 0.357488
0.119509 0.515801 0.32845
0.263676 0.533761 0.302068
0.386557 0.548913 0.281041
0.513741 0.559777 0.259525
0.64625 0.565408 0.257984
0.772717 0.56672 0.186862
0.887953 0.566049 0.166659
0.988693 0.558816 0.177539
0.0987869 0.62208 0.44802
0.187655 0.633387 0.423804
0.317998 0.646265 0.40238
0.448936 0.661128 0.378088
0.534386 0.673014 0.363119
0.654246 0.681666 0.348928
0.772595 0.686671 0.343694
0.893828 0.686 0.290425
1 0.675349 0.260517
0.173129 0.738781 0.533852
0.257908 0.74728 0.511528
0.367453 0.757733 0.491218
0.513588 0.774563 0.465492
0.58265 0.784344 0.450126
0.666423 0.796948 0.437156
0.778119 0.806729 0.424826
0.892851 0.812207 0.410574
1 0.807446 0.34902
0.227481 0.833158 0.638804
0.305272 0.837598 0.613886
0.386496 0.84387 0.590982
0.523766 0.858595 0.566384
0.621759 0.870497 0.54345
0.68159 0.87953 0.532021
0.764874 0.890822 0.511421
0.88043 0.904997 0.490837
1 0.91397 0.455833
0.0130312 0.0393835 0.0572213
0.085359 0.0494698 0.0576638
0.196368 0.0660563 0.0628519
0.326986 0.0677653 0.0777752
0.453147 0.0868544 0.11458
0.59086 0.117983 0.170443
0.726864 0.153796 0.235523
0.862577 0.242451 0.319707
0.884718 0.301854 0.36054
0.00807202 0.0869154 0.0947127
0.0751507 0.0954147 0.0885634
0.195727 0.104677 0.0743267
0.336797 0.112047 0.0763867
0.462943 0.125124 0.0992599
0.594705 0.143725 0.13904
0.726604 0.160678 0.193729
0.859358 0.235004 0.277607
0.881941 0.294667 0.327016
0.00921645 0.174609 0.173846
0.0160372 0.180758 0.138354
0.180438 0.191852 0.117952
0.33727 0.195987 0.0817426
0.474327 0.202533 0.0751965
0.607248 0.205814 0.0863355
0.732433 0.204608 0.117235
0.857252 0.231708 0.184848
0.877256 0.282383 0.252445
0.0158389 0.294331 0.278294
0.0195926 0.293873 0.221012
0.160296 0.31075 0.183459
0.339651 0.321874 0.159442
0.491844 0.32401 0.106615
0.625254 0.329824 0.0961776
0.749508 0.334325 0.117815
0.863035 0.324331 0.156603
0.9028 0.344366 0.205447
0.023209 0.407813 0.358389
0.0347753 0.408484 0.309346
0.179965 0.426627 0.266651
0.341009 0.442527 0.241962
0.497597 0.450034 0.227573
0.639918 0.451789 0.165011
0.762829 0.455329 0.152987
0.879255 0.454765 0.175326
0.945144 0.444129 0.207065
0.0425879 0.521935 0.433295
0.0831159 0.52549 0.394949
0.22089 0.540673 0.359167
0.375555 0.555108 0.333349
0.502098 0.568124 0.312154
0.641398 0.573495 0.304616
0.771084 0.574975 0.250278
0.888273 0.572595 0.234394
0.988434 0.560143 0.23827
0.0911421 0.635554 0.507301
0.149416 0.640757 0.476799
0.272663 0.652064 0.446677
0.43711 0.666453 0.415854
0.529686 0.678172 0.401328
0.647334 0.688426 0.384833
0.769268 0.693233 0.377417
0.892882 0.69247 0.324865
1 0.68101 0.298817
0.14815 0.746853 0.582788
0.215167 0.754147 0.557656
0.321843 0.763058 0.530251
0.492805 0.779614 0.497353
0.578454 0.789654 0.478386
0.663523 0.802258 0.465873
0.773495 0.812879 0.452049
0.890929 0.818082 0.435645
1 0.812528 0.371466
0.1458 0.839139 0.686442
0.26891 0.843488 0.659434
0.349096 0.847852 0.629602
0.491753 0.860487 0.595071
0.612085 0.873686 0.566766
0.677073 0.882948 0.553933
0.76025 0.895125 0.535515
0.875547 0.908766 0.510643
1 0.918181 0.476814
0.00309758 0.0486458 0.12163
0.0873884 0.0570687 0.111315
0.180743 0.0745861 0.118593
0.320867 0.081529 0.134752
0.454948 0.100328 0.170275
0.59469 0.131502 0.219638
0.729427 0.167544 0.273365
0.86714 0.253803 0.34934
0.890593 0.316777 0.390646
0.00581369 0.104082 0.17258
0.0442969 0.112001 0.170306
0.17377 0.13167 0.157473
0.322728 0.153826 0.18027
0.460899 0.176776 0.212268
0.596704 0.205203 0.252262
0.726314 0.236942 0.297505
0.849714 0.263386 0.342733
0.896529 0.332479 0.386923
0.0105287 0.195331 0.244251
0.0252079 0.204852 0.236423
0.163119 0.218555 0.216129
0.337041 0.222416 0.179904
0.480201 0.229892 0.184619
0.615045 0.238529 0.207218
0.740932 0.243412 0.235248
0.862455 0.274617 0.293126
0.895323 0.328801 0.340978
0.0170748 0.313329 0.333303
0.0489662 0.321843 0.323964
0.114702 0.329793 0.269398
0.32369 0.344945 0.263996
0.490471 0.343648 0.20441
0.628016 0.349081 0.200305
0.753033 0.352438 0.21355
0.86566 0.337881 0.239292
0.906844 0.354086 0.272786
0.0423285 0.43331 0.421729
0.0729381 0.435691 0.39678
0.124773 0.440391 0.347234
0.328389 0.456641 0.322408
0.486519 0.466423 0.310414
0.636851 0.465904 0.249042
0.76286 0.467948 0.237034
0.88014 0.466682 0.24831
0.945525 0.446296 0.263066
0.0982528 0.548043 0.494728
0.116655 0.54815 0.468803
0.157351 0.550576 0.427359
0.355993 0.564355 0.389334
0.491051 0.578332 0.377539
0.633188 0.584558 0.367086
0.76759 0.584909 0.307179
0.887602 0.581491 0.28896
0.988479 0.562707 0.283085
0.145098 0.659419 0.567575
0.161151 0.658534 0.542519
0.211688 0.660334 0.506325
0.412879 0.674418 0.461524
0.523903 0.685344 0.446723
0.638498 0.69781 0.433967
0.76379 0.702098 0.423316
0.890547 0.700496 0.363394
1 0.687358 0.335454
0.190738 0.771038 0.645975
0.204929 0.768917 0.619196
0.257084 0.770748 0.586053
0.445045 0.784955 0.539757
0.568902 0.79617 0.513283
0.66038 0.809445 0.50312
0.766598 0.82092 0.489601
0.887266 0.825956 0.471565
1 0.819608 0.402518
0.162921 0.85481 0.748302
0.186297 0.852399 0.720546
0.287236 0.854429 0.687419
0.434379 0.862257 0.636606
0.594827 0.877913 0.598291
0.668849 0.887388 0.582681
0.754025 0.900328 0.567651
0.867765 0.914061 0.540444
1 0.924331 0.507149
0.00376898 0.0573129 0.211322
0.0823682 0.0608988 0.193179
0.188296 0.0884871 0.207614
0.315633 0.106813 0.216861
0.451316 0.124987 0.24155
0.594903 0.153979 0.277073
0.729732 0.187045 0.319661
0.864408 0.261509 0.381094
0.894255 0.32607 0.420035
0.00730907 0.125994 0.259098
0.0157168 0.130907 0.25417
0.18056 0.147829 0.249714
0.318044 0.173739 0.250172
0.461234 0.198138 0.275608
0.600992 0.223575 0.306264
0.729671 0.251942 0.341573
0.849012 0.283619 0.383291
0.904707 0.353368 0.428
0.0120851 0.219745 0.331029
0.0153964 0.229541 0.324559
0.110018 0.244602 0.318486
0.301366 0.269062 0.30222
0.448371 0.302678 0.329229
0.599832 0.324056 0.350607
0.732036 0.338872 0.371893
0.851118 0.344915 0.395193
0.916457 0.383032 0.427054
0.0178225 0.33402 0.391684
0.0361639 0.341894 0.3823
0.132204 0.352712 0.371832
0.313359 0.371191 0.352895
0.484657 0.376013 0.319768
0.631891 0.381689 0.318944
0.75845 0.382788 0.326635
0.871015 0.370199 0.339498
0.918563 0.385595 0.367788
0.0402686 0.449195 0.463996
0.100175 0.455375 0.454536
0.177157 0.46186 0.432105
0.288533 0.473899 0.392676
0.466865 0.488548 0.40145
0.629969 0.487678 0.345388
0.762524 0.490013 0.334554
0.882124 0.484642 0.335668
0.946624 0.45182 0.334829
0.127123 0.566201 0.54374
0.175677 0.56907 0.530861
0.222522 0.571801 0.500923
0.307332 0.578393 0.452293
0.481361 0.591546 0.443091
0.619898 0.599756 0.441123
0.761349 0.599512 0.38085
0.885801 0.596338 0.361318
0.989212 0.574716 0.347662
0.202823 0.679469 0.62324
0.227283 0.67921 0.60209
0.26215 0.680125 0.574884
0.343313 0.685222 0.525505
0.50869 0.69514 0.496269
0.630106 0.709346 0.493095
0.754757 0.714412 0.483177
0.886091 0.712963 0.41883
0.999252 0.698512 0.386313
0.23856 0.792172 0.704372
0.257298 0.79086 0.681895
0.283421 0.790219 0.653925
0.357305 0.792889 0.604623
0.544762 0.804623 0.555871
0.654261 0.818112 0.547539
0.758221 0.831449 0.539498
0.88069 0.836423 0.521218
1 0.829862 0.446677
0.218067 0.870771 0.806912
0.252537 0.869734 0.7841
0.289082 0.868589 0.75639
0.365957 0.868513 0.706737
0.552056 0.880522 0.638621
0.652918 0.892348 0.619837
0.745708 0.907195 0.609201
0.855436 0.921599 0.586496
0.996414 0.932555 0.550256
0.00534066 0.0821851 0.293797
0.0522164 0.0598764 0.264942
0.205478 0.108949 0.290501
0.327581 0.131563 0.298528
0.452018 0.157305 0.311162
0.591302 0.186191 0.337224
0.727092 0.217166 0.368185
0.851926 0.257267 0.410895
0.89868 0.336599 0.454749
0.00914015 0.156924 0.33724
0.0156863 0.157244 0.329641
0.179538 0.163272 0.329625
0.326482 0.19791 0.327764
0.457832 0.224781 0.337652
0.59826 0.252399 0.362264
0.729137 0.275273 0.3888
0.847059 0.298253 0.421027
0.908705 0.363348 0.463172
0.014023 0.25333 0.395636
0.0192111 0.257679 0.390097
0.10367 0.267994 0.384695
0.314046 0.287846 0.373297
0.455253 0.317143 0.376486
0.597223 0.348699 0.402152
0.729274 0.36939 0.425727
0.847959 0.379538 0.449119
0.926925 0.41059 0.481621
0.0193027 0.357458 0.465248
0.0224613 0.364065 0.455406
0.082414 0.376852 0.441566
0.282017 0.395254 0.429541
0.451438 0.413703 0.415183
0.601038 0.43534 0.431373
0.737392 0.447349 0.444129
0.85977 0.446372 0.456641
0.941054 0.447303 0.473304
0.0406806 0.468193 0.51931
0.0805524 0.473838 0.509056
0.159258 0.481331 0.494606
0.314656 0.49337 0.474861
0.461067 0.509239 0.465873
0.619532 0.51426 0.434974
0.759808 0.517479 0.428367
0.883864 0.506752 0.424979
0.952407 0.472496 0.416403
0.117266 0.581796 0.590158
0.1635 0.584527 0.578607
0.249027 0.588144 0.563561
0.342809 0.594339 0.530999
0.45095 0.608164 0.499336
0.602823 0.619684 0.514366
0.752468 0.618418 0.459251
0.883741 0.615732 0.439612
0.98912 0.594934 0.419669
0.19884 0.694408 0.672419
0.253254 0.695232 0.659037
0.313863 0.696437 0.636042
0.385412 0.700359 0.594079
0.464378 0.7093 0.551049
0.620722 0.722408 0.548348
0.741299 0.731014 0.55082
0.879744 0.729305 0.484855
0.997482 0.714473 0.45069
0.266484 0.808118 0.766705
0.297276 0.807691 0.743511
0.330114 0.80763 0.716106
0.394903 0.809857 0.671916
0.494408 0.815656 0.611688
0.635599 0.827909 0.593576
0.74963 0.843305 0.593973
0.870344 0.85005 0.581872
1 0.843763 0.502708
0.244434 0.882841 0.853758
0.284581 0.883314 0.837797
0.323049 0.883391 0.81619
0.3841 0.883482 0.77377
0.462654 0.883055 0.706874
0.618204 0.896376 0.662791
0.731411 0.914046 0.655024
0.840726 0.931029 0.643275
0.986419 0.942946 0.604639
0.00781262 0.126146 0.372686
0.0100862 0.0954757 0.345541
0.21091 0.133196 0.361944
0.350774 0.160052 0.371496
0.466514 0.190356 0.379553
0.593576 0.224445 0.396582
0.723537 0.254765 0.420859
0.843778 0.27657 0.449149
0.90396 0.349966 0.494408
0.0115358 0.198978 0.412024
0.0183261 0.195438 0.400839
0.153063 0.180179 0.392386
0.345205 0.219959 0.401999
0.470253 0.247044 0.400977
0.595834 0.283803 0.416938
0.724285 0.308064 0.439216
0.843 0.320104 0.462608
0.913405 0.375494 0.503044
0.0161135 0.290074 0.464118
0.0241245 0.291798 0.457618
0.0946822 0.295201 0.448341
0.317296 0.299962 0.450492
0.468925 0.334447 0.433158
0.596155 0.367163 0.44828
0.72517 0.391943 0.471061
0.846128 0.398535 0.491066
0.930556 0.421149 0.521141
0.0211337 0.388373 0.531273
0.0253605 0.393698 0.52285
0.0840009 0.401175 0.510719
0.247486 0.415122 0.504082
0.456809 0.431052 0.479957
0.582528 0.460243 0.487221
0.708629 0.490791 0.511788
0.837949 0.502907 0.532036
0.945022 0.500648 0.552224
0.0276341 0.491737 0.594842
0.0484474 0.495491 0.583551
0.107271 0.50277 0.569345
0.233616 0.51342 0.547768
0.4439 0.53048 0.532982
0.595972 0.544701 0.514855
0.737224 0.557671 0.522393
0.868467 0.55494 0.525872
0.968307 0.534859 0.529442
0.101656 0.600153 0.653162
0.140139 0.602518 0.639872
0.204761 0.606012 0.622782
0.325841 0.610864 0.602014
0.468315 0.62417 0.574777
0.598199 0.638025 0.570504
0.741375 0.641337 0.535164
0.879896 0.639872 0.520989
0.988464 0.616663 0.502205
0.18172 0.710369 0.73164
0.221241 0.710918 0.716396
0.287282 0.712306 0.697002
0.393576 0.714275 0.669505
0.489845 0.724666 0.628855
0.590158 0.740581 0.600549
0.727306 0.751659 0.619196
0.871626 0.748775 0.555627
0.995422 0.73344 0.522301
0.234272 0.820081 0.820859
0.27129 0.820386 0.804501
0.332433 0.820859 0.78352
0.420356 0.823224 0.738216
0.498695 0.828122 0.690654
0.588647 0.839261 0.646082
0.735958 0.855512 0.646052
0.853895 0.867155 0.651484
0.998337 0.860059 0.566049
0.110735 0.883436 0.882704
0.242466 0.888487 0.880278
0.336385 0.893309 0.865507
0.405188 0.895964 0.832303
0.490379 0.897688 0.7729
0.54406 0.896513 0.711498
0.698909 0.918807 0.701946
0.82327 0.940124 0.702358
0.968277 0.956527 0.677836
0.0109255 0.182971 0.457313
0.0141299 0.158419 0.430091
0.199771 0.159976 0.427955
0.369528 0.197436 0.444968
0.49073 0.227985 0.454246
0.606744 0.262928 0.461189
0.724926 0.294575 0.47808
0.840772 0.309911 0.496712
0.910109 0.365515 0.53518
0.014313 0.249409 0.491722
0.0228122 0.241459 0.476783
0.105318 0.215274 0.456718
0.351934 0.248875 0.473854
0.487175 0.282918 0.476036
0.605219 0.311635 0.477028
0.722164 0.342275 0.493065
0.839063 0.352743 0.510781
0.918914 0.389563 0.543969
0.0186923 0.330709 0.537835
0.0303502 0.329976 0.529213
0.0896925 0.328176 0.516564
0.298238 0.318624 0.519295
0.474693 0.354925 0.509422
0.607172 0.378302 0.502159
0.721035 0.413489 0.518196
0.840848 0.424857 0.537118
0.935195 0.433463 0.562295
0.0253452 0.422812 0.598795
0.0377508 0.424567 0.589548
0.0960098 0.428962 0.57789
0.242191 0.436561 0.566217
0.447562 0.441123 0.568627
0.601755 0.471778 0.535424
0.713573 0.501732 0.552132
0.83537 0.519249 0.573983
0.942901 0.51194 0.591348
0.0293584 0.51902 0.683696
0.0402533 0.522499 0.670344
0.0937362 0.527504 0.651621
0.205325 0.53463 0.62565
0.396155 0.549142 0.62063
0.583032 0.563272 0.594003
0.696391 0.58941 0.593179
0.808301 0.619104 0.617411
0.935592 0.618753 0.634501
0.0778668 0.621561 0.74078
0.10724 0.623362 0.727001
0.148272 0.626535 0.707927
0.250782 0.632532 0.680613
0.404501 0.642267 0.660685
0.581659 0.6589 0.63888
0.728206 0.66775 0.610498
0.869749 0.670527 0.607645
0.983688 0.646586 0.597864
0.155077 0.727275 0.8047
0.188571 0.72842 0.790188
0.238758 0.730175 0.770443
0.341863 0.732982 0.738018
0.471916 0.740001 0.717968
0.60473 0.756634 0.677745
0.72134 0.771374 0.676783
0.860685 0.772259 0.628855
0.993194 0.755596 0.599374
0.136294 0.833387 0.868666
0.212024 0.833432 0.861738
0.285069 0.83357 0.846296
0.37319 0.835966 0.814023
0.490913 0.841184 0.776135
0.600275 0.853574 0.732494
0.697551 0.869703 0.701198
0.836835 0.884749 0.724697
0.99176 0.878645 0.635294
0.120409 0.884474 0.883131
0.14342 0.887404 0.884077
0.190646 0.891478 0.886168
0.383246 0.901045 0.884855
0.475273 0.908095 0.847028
0.556283 0.912642 0.799847
0.63537 0.917815 0.748852
0.790372 0.946242 0.754498
0.939223 0.969924 0.761105
0.0143893 0.246021 0.550927
0.017319 0.220066 0.517754
0.147387 0.189914 0.494713
0.3785 0.2383 0.523262
0.515816 0.266835 0.529564
0.625467 0.306584 0.5393
0.734264 0.332265 0.542565
0.843244 0.35053 0.554665
0.917632 0.384878 0.578927
0.0182803 0.303761 0.578683
0.0279698 0.293873 0.560021
0.0860609 0.269062 0.533913
0.346517 0.280003 0.547417
0.504311 0.313497 0.551736
0.61767 0.352728 0.554665
0.728328 0.37229 0.553658
0.838224 0.388632 0.56643
0.9252 0.405936 0.586725
0.0246128 0.373587 0.621103
0.0391089 0.371023 0.609567
0.0952773 0.366369 0.592798
0.272633 0.351644 0.584894
0.479255 0.375616 0.583276
0.607233 0.411826 0.577279
0.726528 0.430045 0.573648
0.836881 0.450858 0.588205
0.93843 0.450278 0.605432
0.0280461 0.456886 0.678691
0.0419623 0.45713 0.668452
0.103075 0.458 0.653651
0.229511 0.459541 0.633646
0.432776 0.452232 0.644862
0.592676 0.490303 0.617227
0.727977 0.506294 0.603357
0.834043 0.534234 0.619593
0.938964 0.526574 0.634577
0.0440528 0.546593 0.754635
0.0621958 0.548424 0.742763
0.102937 0.551324 0.725536
0.198901 0.555535 0.700481
0.387884 0.565148 0.687541
0.572351 0.574975 0.684733
0.71751 0.600092 0.639231
0.821973 0.624765 0.657694
0.936355 0.631998 0.679164
0.0386206 0.654688 0.821271
0.0431067 0.654261 0.820661
0.0862135 0.650355 0.80824
0.19292 0.651347 0.776379
0.349523 0.659281 0.737545
0.533837 0.675807 0.736538
0.711284 0.690059 0.694713
0.816373 0.711955 0.695705
0.935225 0.725765 0.714534
0.0678264 0.756039 0.848371
0.076463 0.754345 0.847715
0.0976425 0.753323 0.847044
0.254566 0.750744 0.828962
0.381491 0.758114 0.792157
0.545785 0.77409 0.778881
0.700221 0.793637 0.756405
0.846555 0.800595 0.712093
0.990219 0.782147 0.688624
0.142687 0.847547 0.872847
0.17409 0.847517 0.873137
0.226444 0.848203 0.874022
0.330098 0.850828 0.876631
0.424949 0.852918 0.850004
0.572931 0.86595 0.82707
0.702449 0.883528 0.789731
0.822019 0.900755 0.792096
0.982483 0.901061 0.716716
0.13637 0.886442 0.883772
0.159564 0.888945 0.884779
0.201053 0.892226 0.88661
0.296239 0.89926 0.890379
0.422309 0.909483 0.895918
0.537514 0.923018 0.879835
0.643336 0.934401 0.843336
0.741085 0.94699 0.809033
0.905165 0.980529 0.838666
0.0178378 0.307317 0.65211
0.0239109 0.28455 0.612406
0.0879072 0.240787 0.577508
0.374411 0.278691 0.604257
0.529915 0.310552 0.614389
0.648493 0.336263 0.617807
0.7514 0.365972 0.619562
0.851118 0.388205 0.622583
0.927184 0.409598 0.634058
0.0222629 0.355871 0.67248
0.0327459 0.345983 0.650126
0.0870069 0.329122 0.622324
0.324056 0.310826 0.623072
0.509316 0.347707 0.63444
0.637903 0.374182 0.63238
0.740902 0.406607 0.62884
0.843534 0.420356 0.631373
0.933379 0.42739 0.639719
0.0281834 0.415732 0.71104
0.0442512 0.41178 0.697139
0.0986648 0.405722 0.676783
0.238483 0.390463 0.653895
0.472267 0.401175 0.664012
0.619532 0.427497 0.654322
0.730739 0.459907 0.645991
0.840284 0.471824 0.649058
0.938003 0.475944 0.659937
0.0282597 0.511772 0.772091
0.0476081 0.497093 0.754788
0.107317 0.485847 0.734661
0.20499 0.482582 0.709407
0.416526 0.474235 0.71017
0.596597 0.496559 0.697993
0.722026 0.533822 0.677577
0.840696 0.543435 0.677211
0.939223 0.548211 0.688457
0.0388495 0.595331 0.801251
0.0421149 0.5935 0.800122
0.0543221 0.59176 0.79855
0.185382 0.574273 0.776287
0.372305 0.579461 0.757107
0.561959 0.579171 0.764691
0.71043 0.614115 0.724834
0.83946 0.627787 0.712459
0.939803 0.64213 0.728954
0.0493477 0.686046 0.829816
0.0608835 0.683894 0.828992
0.0791791 0.681987 0.827863
0.145693 0.680537 0.827863
0.301671 0.674235 0.817334
0.505791 0.684977 0.811841
0.701427 0.700236 0.793774
0.822431 0.728359 0.755245
0.928374 0.744244 0.774853
0.0663767 0.790219 0.85742
0.0712139 0.787717 0.856504
0.081651 0.785397 0.85536
0.139315 0.784207 0.855299
0.295384 0.784085 0.859205
0.47245 0.787503 0.849256
0.670085 0.808499 0.840604
0.833509 0.823133 0.801663
0.940719 0.838773 0.803723
0.126986 0.863218 0.877287
0.154818 0.863188 0.877317
0.200717 0.863828 0.877882
0.290715 0.865705 0.879515
0.402304 0.869551 0.883299
0.516213 0.87718 0.889479
0.657801 0.893874 0.880827
0.796643 0.914595 0.873503
0.962829 0.927047 0.824201
0.164675 0.889403 0.885008
0.189242 0.891386 0.886107
0.226062 0.894087 0.887572
0.305272 0.899977 0.890761
0.408469 0.908812 0.895491
0.496254 0.920562 0.901106
0.607797 0.938338 0.909621
0.746548 0.961303 0.897917
0.887129 0.987762 0.907134
