src/luts/blur/7.cube
TITLE "Generated by Resolve"
LUT_3D_SIZE 5
0.0260319 0.0281376 0.0240482
0.196414 0.0630045 0.035996
0.44622 0.0549172 0.0494698
0.726284 0.0944839 0.155215
0.87248 0.26949 0.308736
0.00770581 0.151568 0.0981613
0.183368 0.169879 0.0464485
0.465827 0.201526 0.0160678
0.730877 0.199573 0.0503548
0.867842 0.259876 0.174395
0.0193332 0.378943 0.261921
0.211612 0.41738 0.199023
0.503365 0.438941 0.156039
0.762936 0.450706 0.0661326
0.944488 0.441855 0.145937
0.0987869 0.62208 0.44802
0.317998 0.646265 0.40238
0.534386 0.673014 0.363119
0.772595 0.686671 0.343694
1 0.675349 0.260517
0.227481 0.833158 0.638804
0.386496 0.84387 0.590982
0.621759 0.870497 0.54345
0.764874 0.890822 0.511421
1 0.91397 0.455833
0.00309758 0.0486458 0.12163
0.180743 0.0745861 0.118593
0.454948 0.100328 0.170275
0.729427 0.167544 0.273365
0.890593 0.316777 0.390646
0.0105287 0.195331 0.244251
0.163119 0.218555 0.216129
0.480201 0.229892 0.184619
0.740932 0.243412 0.235248
0.895323 0.328801 0.340978
0.0423285 0.43331 0.421729
0.124773 0.440391 0.347234
0.486519 0.466423 0.310414
0.76286 0.467948 0.237034
0.945525 0.446296 0.263066
0.145098 0.659419 0.567575
0.211688 0.660334 0.506325
0.523903 0.685344 0.446723
0.76379 0.702098 0.423316
1 0.687358 0.335454
0.162921 0.85481 0.748302
0.287236 0.854429 0.687419
0.594827 0.877913 0.598291
0.754025 0.900328 0.567651
1 0.924331 0.507149
0.00534066 0.0821851 0.293797
0.205478 0.108949 0.290501
0.452018 0.157305 0.311162
0.727092 0.217166 0.368185
0.89868 0.336599 0.454749
0.014023 0.25333 0.395636
0.10367 0.267994 0.384695
0.455253 0.317143 0.376486
0.729274 0.36939 0.425727
0.926925 0.41059 0.481621
0.0406806 0.468193 0.51931
0.159258 0.481331 0.494606
0.461067 0.509239 0.465873
0.759808 0.517479 0.428367
0.952407 0.472496 0.416403
0.19884 0.694408 0.672419
0.313863 0.696437 0.636042
0.464378 0.7093 0.551049
0.741299 0.731014 0.55082
0.997482 0.714473 0.45069
0.244434 0.882841 0.853758
0.323049 0.883391 0.81619
0.462654 0.883055 0.706874
0.731411 0.914046 0.655024
0.986419 0.942946 0.604639
0.0109255 0.182971 0.457313
0.199771 0.159976 0.427955
0.49073 0.227985 0.454246
0.724926 0.294575 0.47808
0.910109 0.365515 0.53518
0.0186923 0.330709 0.537835
0.0896925 0.328176 0.516564
0.474693 0.354925 0.509422
0.721035 0.413489 0.518196
0.935195 0.433463 0.562295
0.0293584 0.51902 0.683696
0.0937362 0.527504 0.651621
0.396155 0.549142 0.62063
0.696391 0.58941 0.593179
0.935592 0.618753 0.634501
0.155077 0.727275 0.8047
0.238758 0.730175 0.770443
0.471916 0.740001 0.717968
0.72134 0.771374 0.676783
0.993194 0.755596 0.599374
0.120409 0.884474 0.883131
0.190646 0.891478 0.886168
0.475273 0.908095 0.847028
0.63537 0.917815 0.748852
0.939223 0.969924 0.761105
0.0178378 0.307317 0.65211
0.0879072 0.240787 0.577508
0.529915 0.310552 0.614389
0.7514 0.365972 0.619562
0.927184 0.409598 0.634058
0.0281834 0.415732 0.71104
0.0986648 0.405722 0.676783
0.472267 0.401175 0.664012
0.730739 0.459907 0.645991
0.938003 0.475944 0.659937
0.0388495 0.595331 0.801251
0.0543221 0.59176 0.79855
0.372305 0.579461 0.757107
0.71043 0.614115 0.724834
0.939803 0.64213 0.728954
0.0663767 0.790219 0.85742
0.081651 0.785397 0.85536
0.295384 0.784085 0.859205
0.670085 0.808499 0.840604
0.940719 0.838773 0.803723
0.164675 0.889403 0.885008
0.226062 0.894087 0.887572
0.408469 0.908812 0.895491
0.607797 0.938338 0.909621
0.887129 0.987762 0.907134
