src/luts/blur/8.cube
LUT_3D_SIZE 6
0.014637 0.014637 0.014637
0.113187 0.113187 0.113187
0.210701 0.210701 0.210701
0.307751 0.307751 0.307751
0.404462 0.404462 0.404462
0.501008 0.501008 0.501008
0.177395 0.177395 0.177395
0.195888 0.195888 0.195888
0.255021 0.255021 0.255021
0.335094 0.335094 0.335094
0.423250 0.423250 0.423250
0.514899 0.514898 0.514898
0.338287 0.338287 0.338287
0.345709 0.345709 0.345709
0.375046 0.375046 0.375046
0.425981 0.425981 0.425981
0.492515 0.492515 0.492515
0.569024 0.569024 0.569024
0.498432 0.498432 0.498432
0.502661 0.502661 0.502661
0.520178 0.520178 0.520178
0.553317 0.553317 0.553317
0.600982 0.600982 0.600982
0.660454 0.660454 0.660454
0.657984 0.657984 0.657984
0.660786 0.660786 0.660786
0.672659 0.672659 0.672659
0.695986 0.695986 0.695986
0.731075 0.731075 0.731075
0.776826 0.776826 0.776826
0.817207 0.817207 0.817207
0.819296 0.819296 0.819296
0.828033 0.828033 0.828033
0.845391 0.845391 0.845391
0.872163 0.872163 0.872163
0.908201 0.908201 0.908201
0.077662 0.077662 0.077662
0.125852 0.125852 0.125852
0.215814 0.215814 0.215814
0.310703 0.310703 0.310703
0.406433 0.406433 0.406433
0.502376 0.502376 0.502376
0.183977 0.183977 0.183977
0.201588 0.201588 0.201588
0.258878 0.258878 0.258878
0.337683 0.337683 0.337683
0.425097 0.425097 0.425097
0.516270 0.516270 0.516270
0.340860 0.340860 0.340860
0.348194 0.348194 0.348194
0.377196 0.377196 0.377196
0.427788 0.427788 0.427788
0.493988 0.493988 0.493988
0.570242 0.570242 0.570242
0.499895 0.499895 0.499895
0.504094 0.504094 0.504094
0.521483 0.521483 0.521483
0.554545 0.554545 0.554545
0.602065 0.602065 0.602065
0.661489 0.661489 0.661489
0.658924 0.658924 0.658924
0.661773 0.661773 0.661773
0.673572 0.673572 0.673572
0.696797 0.696797 0.696797
0.731699 0.731699 0.731699
0.777622 0.777622 0.777622
0.817929 0.817929 0.817929
0.819997 0.819997 0.819997
0.828692 0.828692 0.828692
0.846067 0.846067 0.846067
0.872843 0.872843 0.872843
0.908757 0.908757 0.908757
0.140093 0.140093 0.140093
0.165325 0.165325 0.165325
0.235879 0.235879 0.235879
0.322754 0.322754 0.322754
0.414661 0.414661 0.414661
0.508482 0.508482 0.508482
0.208809 0.208809 0.208810
0.223579 0.223579 0.223579
0.274477 0.274477 0.274477
0.348391 0.348391 0.348391
0.432773 0.432773 0.432773
0.522130 0.522130 0.522130
0.351407 0.351407 0.351407
0.358415 0.358415 0.358415
0.386390 0.386390 0.386390
0.435415 0.435415 0.435415
0.500187 0.500187 0.500187
0.575260 0.575260 0.575260
0.505968 0.505968 0.505968
0.510109 0.510109 0.510109
0.527278 0.527278 0.527278
0.559826 0.559826 0.559826
0.606703 0.606703 0.606703
0.665539 0.665539 0.665539
0.663004 0.663004 0.663004
0.665810 0.665810 0.665810
0.677672 0.677672 0.677672
0.700577 0.700577 0.700577
0.735204 0.735204 0.735204
0.780808 0.780808 0.780808
0.820914 0.820914 0.820914
0.822938 0.822938 0.822938
0.831621 0.831621 0.831621
0.848948 0.848948 0.848948
0.875535 0.875535 0.875535
0.911411 0.911411 0.911411
0.202219 0.202219 0.202219
0.217669 0.217669 0.217669
0.270194 0.270194 0.270194
0.345350 0.345350 0.345350
0.430619 0.430619 0.430619
0.520467 0.520467 0.520467
0.248760 0.248760 0.248761
0.260288 0.260288 0.260288
0.302636 0.302636 0.302636
0.368743 0.368743 0.368743
0.447843 0.447843 0.447843
0.533600 0.533600 0.533600
0.371576 0.371576 0.371576
0.378044 0.378044 0.378044
0.404039 0.404039 0.404039
0.450351 0.450351 0.450351
0.512449 0.512449 0.512449
0.585276 0.585276 0.585276
0.518040 0.518040 0.518040
0.522009 0.522009 0.522009
0.538616 0.538616 0.538616
0.570267 0.570267 0.570267
0.616003 0.616003 0.616003
0.673583 0.673583 0.673583
0.671230 0.671230 0.671230
0.674013 0.674013 0.674013
0.685598 0.685598 0.685598
0.708248 0.708248 0.708248
0.742355 0.742355 0.742355
0.787313 0.787313 0.787313
0.826942 0.826942 0.826942
0.828921 0.828921 0.828921
0.837583 0.837583 0.837583
0.854701 0.854701 0.854701
0.881051 0.881051 0.881051
0.916635 0.916635 0.916635
0.264178 0.264178 0.264178
0.274724 0.274724 0.274724
0.314348 0.314348 0.314348
0.377548 0.377548 0.377548
0.454504 0.454504 0.454504
0.538792 0.538792 0.538792
0.297586 0.297586 0.297586
0.306509 0.306509 0.306509
0.340896 0.340896 0.340896
0.398263 0.398263 0.398263
0.470450 0.470450 0.470450
0.551366 0.551366 0.551366
0.400737 0.400737 0.400737
0.406497 0.406497 0.406497
0.430063 0.430063 0.430063
0.472777 0.472777 0.472777
0.531203 0.531203 0.531203
0.600860 0.600860 0.600860
0.536475 0.536475 0.536475
0.540310 0.540310 0.540310
0.556126 0.556126 0.556126
0.586388 0.586388 0.586388
0.630545 0.630545 0.630545
0.686422 0.686422 0.686422
0.683998 0.683998 0.683998
0.686696 0.686696 0.686696
0.697951 0.697951 0.697951
0.720025 0.720025 0.720025
0.753499 0.753499 0.753499
0.797527 0.797527 0.797527
0.836473 0.836473 0.836473
0.838476 0.838476 0.838476
0.846932 0.846932 0.846932
0.863763 0.863763 0.863763
0.889717 0.889717 0.889717
0.924833 0.924833 0.924833
0.325986 0.325986 0.325986
0.333813 0.333813 0.333813
0.364517 0.364517 0.364517
0.417326 0.417326 0.417326
0.485576 0.485576 0.485576
0.563396 0.563396 0.563396
0.351260 0.351260 0.351260
0.358300 0.358300 0.358300
0.386235 0.386235 0.386235
0.435320 0.435320 0.435320
0.500131 0.500131 0.500131
0.575193 0.575193 0.575193
0.437496 0.437496 0.437496
0.442609 0.442609 0.442609
0.463516 0.463516 0.463516
0.502229 0.502229 0.502229
0.556312 0.556312 0.556312
0.621999 0.621999 0.621999
0.561228 0.561228 0.561228
0.564828 0.564828 0.564828
0.579680 0.579680 0.579680
0.608231 0.608231 0.608231
0.650245 0.650245 0.650245
0.704009 0.704009 0.704009
0.701665 0.701665 0.701665
0.704252 0.704252 0.704252
0.714991 0.714991 0.714991
0.736407 0.736407 0.736407
0.768847 0.768847 0.768847
0.811677 0.811677 0.811677
0.849709 0.849709 0.849709
0.851653 0.851653 0.851653
0.859988 0.859988 0.859988
0.876401 0.876401 0.876401
0.901790 0.901790 0.901790
0.935641 0.935641 0.935641
