src/luts/blur/8.cube
LUT_3D_SIZE 16
0.014637 0.014637 0.014637
0.047701 0.047701 0.047701
0.080513 0.080513 0.080513
0.113187 0.113187 0.113187
0.145761 0.145761 0.145761
0.178252 0.178252 0.178252
0.210701 0.210701 0.210701
0.243089 0.243089 0.243089
0.275436 0.275436 0.275436
0.307751 0.307751 0.307751
0.340025 0.340025 0.340025
0.372330 0.372330 0.372330
0.404462 0.404462 0.404462
0.436732 0.436732 0.436732
0.468844 0.468844 0.468844
0.501008 0.501008 0.501008
0.069307 0.069307 0.069307
0.075527 0.075527 0.075527
0.095433 0.095433 0.095433
0.122391 0.122391 0.122391
0.152101 0.152101 0.152101
0.182927 0.182927 0.182927
0.214348 0.214348 0.214348
0.246036 0.246036 0.246036
0.277887 0.277887 0.277887
0.309829 0.309829 0.309829
0.341816 0.341816 0.341816
0.373858 0.373858 0.373858
0.405826 0.405826 0.405826
0.437956 0.437956 0.437956
0.469936 0.469936 0.469936
0.502003 0.502003 0.502003
0.123473 0.123473 0.123473
0.125963 0.125963 0.125963
0.135846 0.135846 0.135846
0.152999 0.152999 0.152999
0.175409 0.175409 0.175409
0.201175 0.201175 0.201175
0.228986 0.228986 0.228986
0.258092 0.258092 0.258092
0.288016 0.288016 0.288016
0.318512 0.318512 0.318512
0.349310 0.349310 0.349310
0.380480 0.380480 0.380480
0.411738 0.411738 0.411738
0.443197 0.443197 0.443197
0.474662 0.474662 0.474662
0.506300 0.506300 0.506300
0.177395 0.177395 0.177395
0.178804 0.178804 0.178804
0.184710 0.184710 0.184710
0.195888 0.195888 0.195888
0.211935 0.211935 0.211935
0.231965 0.231965 0.231965
0.255021 0.255021 0.255021
0.280259 0.280259 0.280259
0.307082 0.307082 0.307082
0.335094 0.335094 0.335094
0.363914 0.363914 0.363914
0.393363 0.393363 0.393363
0.423250 0.423250 0.423250
0.453603 0.453603 0.453603
0.484105 0.484105 0.484105
0.514899 0.514898 0.514898
0.231143 0.231143 0.231143
0.232100 0.232100 0.232100
0.236112 0.236112 0.236112
0.243949 0.243949 0.243949
0.255729 0.255729 0.255729
0.271200 0.271200 0.271200
0.289819 0.289819 0.289819
0.311038 0.311038 0.311038
0.334380 0.334380 0.334380
0.359331 0.359331 0.359331
0.385502 0.385502 0.385502
0.412813 0.412813 0.412813
0.440814 0.440814 0.440814
0.469512 0.469512 0.469512
0.498641 0.498641 0.498641
0.528205 0.528205 0.528205
0.284780 0.284780 0.284780
0.285468 0.285468 0.285468
0.288436 0.288436 0.288436
0.294290 0.294290 0.294290
0.303307 0.303307 0.303307
0.315450 0.315450 0.315450
0.330545 0.330545 0.330545
0.348209 0.348209 0.348209
0.368182 0.368182 0.368182
0.390086 0.390086 0.390086
0.413525 0.413525 0.413525
0.438311 0.438311 0.438311
0.464101 0.464101 0.464101
0.490847 0.490847 0.490847
0.518253 0.518253 0.518253
0.546341 0.546341 0.546341
0.338287 0.338287 0.338287
0.338832 0.338832 0.338832
0.341109 0.341109 0.341109
0.345709 0.345709 0.345709
0.352866 0.352866 0.352866
0.362625 0.362625 0.362625
0.375046 0.375046 0.375046
0.389865 0.389865 0.389865
0.406935 0.406935 0.406935
0.425981 0.425981 0.425981
0.446760 0.446760 0.446760
0.469009 0.469009 0.469009
0.492515 0.492515 0.492515
0.517147 0.517147 0.517147
0.542653 0.542653 0.542653
0.569024 0.569024 0.569024
0.391692 0.391692 0.391692
0.392171 0.392171 0.392171
0.394027 0.394027 0.394027
0.397719 0.397719 0.397719
0.403520 0.403520 0.403520
0.411618 0.411618 0.411618
0.421977 0.421977 0.421977
0.434535 0.434535 0.434535
0.449169 0.449169 0.449169
0.465760 0.465760 0.465760
0.484093 0.484093 0.484093
0.504038 0.504038 0.504038
0.525282 0.525282 0.525282
0.547862 0.547862 0.547862
0.571394 0.571394 0.571394
0.595932 0.595932 0.595932
0.445106 0.445106 0.445106
0.445483 0.445483 0.445483
0.447022 0.447022 0.447022
0.450106 0.450106 0.450106
0.454954 0.454954 0.454954
0.461763 0.461763 0.461763
0.470528 0.470528 0.470528
0.481284 0.481284 0.481284
0.493942 0.493942 0.493942
0.508471 0.508471 0.508471
0.524638 0.524638 0.524638
0.542479 0.542479 0.542479
0.561671 0.561671 0.561671
0.582224 0.582224 0.582224
0.603888 0.603888 0.603888
0.626587 0.626587 0.626587
0.498432 0.498432 0.498432
0.498736 0.498736 0.498736
0.500025 0.500025 0.500025
0.502661 0.502661 0.502661
0.506809 0.506809 0.506809
0.512628 0.512628 0.512628
0.520178 0.520178 0.520178
0.529475 0.529475 0.529475
0.540545 0.540545 0.540545
0.553317 0.553317 0.553317
0.567694 0.567694 0.567694
0.583647 0.583647 0.583647
0.600982 0.600982 0.600982
0.619667 0.619667 0.619667
0.639494 0.639494 0.639494
0.660454 0.660454 0.660454
0.551634 0.551634 0.551634
0.551906 0.551906 0.551906
0.553048 0.553048 0.553048
0.555272 0.555272 0.555272
0.558924 0.558924 0.558924
0.563935 0.563935 0.563935
0.570545 0.570545 0.570545
0.578666 0.578666 0.578666
0.588431 0.588431 0.588431
0.599772 0.599772 0.599772
0.612544 0.612544 0.612544
0.626926 0.626926 0.626926
0.642587 0.642587 0.642587
0.659624 0.659624 0.659624
0.677657 0.677657 0.677657
0.697123 0.697123 0.697123
0.604909 0.604909 0.604909
0.605129 0.605129 0.605129
0.606120 0.606120 0.606120
0.608092 0.608092 0.608092
0.611236 0.611236 0.611236
0.615664 0.615664 0.615664
0.621466 0.621466 0.621466
0.628688 0.628688 0.628688
0.637309 0.637309 0.637309
0.647430 0.647430 0.647430
0.658974 0.658974 0.658974
0.671862 0.671862 0.671862
0.686097 0.686097 0.686097
0.701607 0.701607 0.701607
0.718277 0.718277 0.718277
0.736045 0.736045 0.736045
0.657984 0.657984 0.657984
0.658207 0.658207 0.658207
0.659051 0.659051 0.659051
0.660786 0.660786 0.660786
0.663583 0.663583 0.663583
0.667623 0.667623 0.667623
0.672659 0.672659 0.672659
0.679104 0.679104 0.679104
0.686872 0.686872 0.686872
0.695986 0.695986 0.695986
0.706275 0.706275 0.706275
0.717995 0.717995 0.717995
0.731075 0.731075 0.731075
0.745229 0.745229 0.745229
0.760436 0.760436 0.760436
0.776826 0.776826 0.776826
0.711094 0.711094 0.711094
0.711373 0.711373 0.711373
0.712113 0.712113 0.712113
0.713700 0.713700 0.713700
0.716099 0.716099 0.716099
0.719672 0.719672 0.719672
0.724367 0.724367 0.724367
0.730114 0.730114 0.730114
0.737163 0.737163 0.737163
0.745325 0.745325 0.745325
0.754800 0.754800 0.754800
0.765361 0.765361 0.765361
0.777247 0.777247 0.777247
0.790135 0.790135 0.790135
0.804180 0.804180 0.804180
0.819469 0.819469 0.819469
0.764134 0.764134 0.764134
0.764258 0.764258 0.764258
0.764986 0.764986 0.764986
0.766436 0.766436 0.766436
0.768600 0.768600 0.768600
0.771831 0.771831 0.771831
0.776034 0.776034 0.776034
0.781232 0.781232 0.781232
0.787631 0.787631 0.787631
0.795055 0.795055 0.795055
0.803667 0.803667 0.803667
0.813450 0.813450 0.813450
0.824253 0.824253 0.824253
0.836180 0.836180 0.836180
0.849211 0.849211 0.849211
0.863218 0.863218 0.863218
0.817207 0.817207 0.817207
0.817342 0.817342 0.817342
0.817985 0.817985 0.817985
0.819296 0.819296 0.819296
0.821326 0.821326 0.821326
0.824266 0.824266 0.824266
0.828033 0.828033 0.828033
0.832785 0.832785 0.832785
0.838549 0.838549 0.838549
0.845391 0.845391 0.845391
0.853246 0.853246 0.853246
0.862201 0.862201 0.862201
0.872163 0.872163 0.872163
0.883188 0.883188 0.883188
0.895145 0.895145 0.895145
0.908201 0.908201 0.908201
0.035763 0.035763 0.035763
0.051962 0.051962 0.051962
0.082234 0.082234 0.082234
0.114167 0.114167 0.114167
0.146416 0.146416 0.146416
0.178730 0.178730 0.178730
0.211064 0.211064 0.211064
0.243389 0.243389 0.243389
0.275694 0.275694 0.275694
0.307972 0.307972 0.307972
0.340198 0.340198 0.340198
0.372453 0.372453 0.372453
0.404620 0.404620 0.404620
0.436851 0.436851 0.436851
0.468956 0.468956 0.468956
0.501068 0.501068 0.501068
0.071527 0.071527 0.071527
0.077446 0.077446 0.077446
0.096723 0.096723 0.096723
0.123255 0.123255 0.123255
0.152711 0.152711 0.152711
0.183425 0.183425 0.183425
0.214706 0.214706 0.214706
0.246331 0.246331 0.246331
0.278144 0.278144 0.278144
0.310067 0.310067 0.310067
0.341997 0.341997 0.341997
0.374013 0.374013 0.374013
0.405983 0.405983 0.405983
0.438061 0.438061 0.438061
0.470040 0.470040 0.470040
0.502128 0.502128 0.502128
0.124332 0.124332 0.124332
0.126802 0.126802 0.126802
0.136580 0.136580 0.136580
0.153603 0.153603 0.153603
0.175903 0.175903 0.175903
0.201581 0.201581 0.201581
0.229309 0.229309 0.229309
0.258364 0.258364 0.258364
0.288268 0.288268 0.288268
0.318712 0.318712 0.318712
0.349531 0.349531 0.349531
0.380615 0.380615 0.380615
0.411838 0.411838 0.411838
0.443337 0.443337 0.443337
0.474799 0.474799 0.474799
0.506391 0.506391 0.506391
0.177898 0.177898 0.177898
0.179289 0.179289 0.179289
0.185174 0.185174 0.185174
0.196301 0.196301 0.196301
0.212310 0.212310 0.212310
0.232272 0.232272 0.232272
0.255296 0.255296 0.255296
0.280508 0.280508 0.280508
0.307331 0.307331 0.307331
0.335264 0.335264 0.335264
0.364077 0.364077 0.364077
0.393540 0.393540 0.393540
0.423401 0.423401 0.423401
0.453727 0.453727 0.453727
0.484208 0.484208 0.484208
0.515000 0.515000 0.515000
0.231482 0.231482 0.231482
0.232431 0.232431 0.232431
0.236427 0.236427 0.236427
0.244244 0.244244 0.244244
0.256018 0.256018 0.256018
0.271450 0.271450 0.271450
0.290045 0.290045 0.290045
0.311261 0.311261 0.311261
0.334565 0.334565 0.334565
0.359442 0.359442 0.359442
0.385705 0.385705 0.385705
0.412980 0.412980 0.412980
0.440960 0.440960 0.440960
0.469609 0.469609 0.469609
0.498728 0.498728 0.498728
0.528272 0.528272 0.528272
0.285010 0.285010 0.285010
0.285716 0.285716 0.285716
0.288651 0.288651 0.288651
0.294496 0.294496 0.294496
0.303487 0.303487 0.303487
0.315652 0.315652 0.315652
0.330746 0.330746 0.330746
0.348424 0.348424 0.348424
0.368386 0.368386 0.368386
0.390259 0.390259 0.390259
0.413691 0.413691 0.413691
0.438425 0.438425 0.438425
0.464233 0.464233 0.464233
0.490988 0.490988 0.490988
0.518398 0.518398 0.518398
0.546454 0.546454 0.546454
0.338488 0.338488 0.338488
0.339006 0.339006 0.339006
0.341346 0.341346 0.341346
0.345860 0.345860 0.345860
0.352976 0.352976 0.352976
0.362815 0.362815 0.362815
0.375162 0.375162 0.375162
0.389976 0.389976 0.389976
0.407090 0.407090 0.407090
0.426132 0.426132 0.426132
0.446850 0.446850 0.446850
0.469121 0.469121 0.469121
0.492668 0.492668 0.492668
0.517261 0.517261 0.517261
0.542740 0.542740 0.542740
0.569113 0.569113 0.569113
0.391874 0.391874 0.391874
0.392310 0.392310 0.392310
0.394173 0.394173 0.394173
0.397863 0.397863 0.397863
0.403725 0.403725 0.403725
0.411764 0.411764 0.411764
0.422106 0.422106 0.422106
0.434631 0.434631 0.434631
0.449310 0.449310 0.449310
0.465901 0.465901 0.465901
0.484196 0.484196 0.484196
0.504117 0.504117 0.504117
0.525391 0.525391 0.525391
0.547954 0.547954 0.547954
0.571492 0.571492 0.571492
0.596014 0.596014 0.596014
0.445259 0.445259 0.445259
0.445615 0.445615 0.445615
0.447149 0.447149 0.447149
0.450233 0.450233 0.450233
0.455098 0.455098 0.455098
0.461877 0.461877 0.461877
0.470628 0.470628 0.470628
0.481390 0.481390 0.481390
0.494054 0.494054 0.494054
0.508561 0.508561 0.508561
0.524762 0.524762 0.524762
0.542566 0.542566 0.542566
0.561738 0.561738 0.561738
0.582287 0.582287 0.582287
0.603919 0.603919 0.603919
0.626628 0.626628 0.626628
0.498533 0.498533 0.498533
0.498800 0.498800 0.498800
0.500110 0.500110 0.500110
0.502789 0.502789 0.502789
0.506900 0.506900 0.506900
0.512719 0.512719 0.512719
0.520253 0.520253 0.520253
0.529611 0.529611 0.529611
0.540616 0.540616 0.540616
0.553405 0.553405 0.553405
0.567779 0.567779 0.567779
0.583718 0.583718 0.583718
0.601044 0.601044 0.601044
0.619726 0.619726 0.619726
0.639527 0.639527 0.639527
0.660496 0.660496 0.660496
0.551769 0.551769 0.551769
0.551971 0.551971 0.551971
0.553154 0.553154 0.553154
0.555362 0.555362 0.555362
0.558986 0.558986 0.558986
0.564046 0.564046 0.564046
0.570643 0.570643 0.570643
0.578796 0.578796 0.578796
0.588513 0.588513 0.588513
0.599839 0.599839 0.599839
0.612683 0.612683 0.612683
0.626967 0.626967 0.626967
0.642618 0.642618 0.642618
0.659621 0.659621 0.659621
0.677702 0.677702 0.677702
0.697085 0.697085 0.697085
0.604962 0.604962 0.604962
0.605194 0.605194 0.605194
0.606173 0.606173 0.606173
0.608174 0.608174 0.608174
0.611299 0.611299 0.611299
0.615745 0.615745 0.615745
0.621558 0.621558 0.621558
0.628779 0.628779 0.628779
0.637447 0.637447 0.637447
0.647551 0.647551 0.647551
0.659015 0.659015 0.659015
0.671986 0.671986 0.671986
0.686135 0.686135 0.686135
0.701689 0.701689 0.701689
0.718308 0.718308 0.718309
0.736075 0.736075 0.736075
0.658041 0.658041 0.658041
0.658249 0.658249 0.658249
0.659094 0.659094 0.659094
0.660827 0.660827 0.660827
0.663667 0.663667 0.663667
0.667612 0.667612 0.667612
0.672746 0.672746 0.672746
0.679269 0.679269 0.679269
0.686958 0.686958 0.686958
0.696069 0.696069 0.696069
0.706398 0.706398 0.706398
0.718117 0.718117 0.718117
0.730986 0.730986 0.730986
0.745253 0.745253 0.745253
0.760409 0.760409 0.760409
0.776907 0.776907 0.776907
0.711213 0.711213 0.711213
0.711417 0.711417 0.711417
0.712160 0.712160 0.712160
0.713819 0.713819 0.713819
0.716143 0.716143 0.716143
0.719714 0.719714 0.719714
0.724406 0.724406 0.724406
0.730236 0.730236 0.730236
0.737193 0.737193 0.737193
0.745318 0.745318 0.745318
0.754881 0.754881 0.754881
0.765434 0.765434 0.765434
0.777287 0.777287 0.777287
0.790216 0.790216 0.790216
0.804261 0.804261 0.804261
0.819517 0.819517 0.819517
0.764110 0.764110 0.764110
0.764339 0.764339 0.764339
0.765057 0.765057 0.765057
0.766516 0.766516 0.766516
0.768681 0.768681 0.768681
0.771912 0.771912 0.771912
0.776115 0.776115 0.776115
0.781269 0.781269 0.781269
0.787712 0.787712 0.787712
0.795082 0.795082 0.795083
0.803748 0.803748 0.803748
0.813421 0.813421 0.813421
0.824256 0.824256 0.824256
0.836203 0.836203 0.836203
0.849191 0.849191 0.849191
0.863243 0.863243 0.863243
0.817288 0.817288 0.817288
0.817424 0.817424 0.817424
0.818066 0.818066 0.818066
0.819303 0.819303 0.819303
0.821322 0.821322 0.821322
0.824270 0.824270 0.824270
0.828076 0.828076 0.828076
0.832867 0.832867 0.832867
0.838631 0.838631 0.838631
0.845474 0.845474 0.845474
0.853329 0.853329 0.853329
0.862227 0.862227 0.862227
0.872246 0.872246 0.872246
0.883225 0.883225 0.883225
0.895229 0.895229 0.895229
0.908285 0.908285 0.908286
0.056753 0.056753 0.056753
0.065243 0.065243 0.065243
0.088992 0.088992 0.088992
0.118232 0.118232 0.118232
0.149189 0.149189 0.149189
0.180783 0.180783 0.180783
0.212674 0.212674 0.212674
0.244667 0.244667 0.244667
0.276765 0.276765 0.276765
0.308894 0.308894 0.308894
0.340984 0.340984 0.340984
0.373123 0.373123 0.373123
0.405181 0.405181 0.405181
0.437374 0.437374 0.437374
0.469425 0.469425 0.469425
0.501534 0.501534 0.501534
0.079881 0.079881 0.079881
0.084844 0.084844 0.084844
0.101991 0.101991 0.101991
0.126860 0.126860 0.126860
0.155308 0.155308 0.155308
0.185371 0.185371 0.185371
0.216246 0.216246 0.216246
0.247585 0.247585 0.247585
0.279174 0.279174 0.279174
0.310950 0.310950 0.310950
0.342764 0.342764 0.342764
0.374695 0.374695 0.374695
0.406596 0.406596 0.406596
0.438598 0.438598 0.438598
0.470529 0.470529 0.470529
0.502523 0.502523 0.502523
0.127884 0.127884 0.127884
0.130253 0.130253 0.130253
0.139665 0.139665 0.139665
0.156174 0.156174 0.156174
0.178009 0.178009 0.178009
0.203278 0.203278 0.203278
0.230726 0.230726 0.230726
0.259531 0.259531 0.259531
0.289267 0.289267 0.289267
0.319567 0.319567 0.319567
0.350269 0.350269 0.350269
0.381304 0.381304 0.381304
0.412490 0.412490 0.412490
0.443849 0.443849 0.443849
0.475281 0.475281 0.475281
0.506876 0.506876 0.506876
0.179927 0.179927 0.179927
0.181328 0.181328 0.181328
0.187081 0.187081 0.187081
0.198046 0.198046 0.198046
0.213882 0.213882 0.213882
0.233661 0.233661 0.233661
0.256490 0.256490 0.256490
0.281539 0.281539 0.281539
0.308230 0.308230 0.308230
0.336100 0.336100 0.336100
0.364755 0.364755 0.364755
0.394142 0.394142 0.394142
0.423970 0.423970 0.423970
0.454228 0.454228 0.454228
0.484668 0.484668 0.484668
0.515425 0.515425 0.515425
0.232864 0.232864 0.232864
0.233805 0.233805 0.233805
0.237760 0.237760 0.237760
0.245515 0.245515 0.245515
0.257201 0.257201 0.257201
0.272545 0.272545 0.272545
0.291040 0.291040 0.291040
0.312151 0.312151 0.312151
0.335382 0.335382 0.335382
0.360235 0.360235 0.360235
0.386393 0.386393 0.386393
0.413499 0.413499 0.413499
0.441459 0.441459 0.441459
0.470131 0.470131 0.470131
0.499179 0.499179 0.499179
0.528756 0.528756 0.528756
0.286051 0.286051 0.286051
0.286711 0.286711 0.286711
0.289674 0.289674 0.289674
0.295448 0.295448 0.295448
0.304411 0.304411 0.304411
0.316514 0.316514 0.316514
0.331541 0.331541 0.331541
0.349167 0.349167 0.349167
0.369044 0.369044 0.369044
0.390874 0.390874 0.390874
0.414205 0.414205 0.414205
0.438960 0.438960 0.438960
0.464699 0.464699 0.464699
0.491423 0.491423 0.491423
0.518807 0.518806 0.518806
0.546818 0.546818 0.546818
0.339288 0.339288 0.339288
0.339820 0.339820 0.339820
0.342093 0.342093 0.342093
0.346695 0.346695 0.346695
0.353802 0.353802 0.353802
0.363483 0.363483 0.363483
0.375873 0.375873 0.375873
0.390668 0.390668 0.390668
0.407685 0.407685 0.407685
0.426664 0.426664 0.426664
0.447368 0.447368 0.447368
0.469613 0.469613 0.469613
0.493083 0.493083 0.493083
0.517679 0.517679 0.517679
0.543159 0.543159 0.543159
0.569461 0.569461 0.569461
0.392538 0.392538 0.392538
0.392921 0.392921 0.392921
0.394818 0.394818 0.394818
0.398501 0.398501 0.398501
0.404296 0.404296 0.404296
0.412379 0.412379 0.412379
0.422668 0.422668 0.422668
0.435210 0.435210 0.435210
0.449816 0.449816 0.449816
0.466364 0.466364 0.466364
0.484656 0.484656 0.484656
0.504550 0.504550 0.504550
0.525796 0.525796 0.525796
0.548338 0.548338 0.548338
0.571856 0.571856 0.571856
0.596333 0.596333 0.596333
0.445755 0.445755 0.445755
0.446103 0.446103 0.446103
0.447630 0.447630 0.447630
0.450739 0.450739 0.450739
0.455607 0.455607 0.455607
0.462377 0.462377 0.462377
0.471135 0.471135 0.471135
0.481851 0.481851 0.481851
0.494545 0.494545 0.494545
0.509004 0.509004 0.509004
0.525189 0.525189 0.525189
0.542960 0.542960 0.542960
0.562129 0.562129 0.562129
0.582638 0.582638 0.582638
0.604249 0.604249 0.604249
0.626971 0.626971 0.626971
0.498969 0.498969 0.498969
0.499314 0.499314 0.499314
0.500555 0.500555 0.500555
0.503197 0.503197 0.503197
0.507320 0.507320 0.507320
0.513156 0.513156 0.513156
0.520694 0.520694 0.520694
0.530005 0.530005 0.530005
0.541035 0.541035 0.541035
0.553752 0.553752 0.553752
0.568148 0.568148 0.568148
0.584064 0.584064 0.584064
0.601385 0.601385 0.601385
0.620083 0.620083 0.620083
0.639857 0.639857 0.639857
0.660801 0.660801 0.660801
0.552119 0.552119 0.552119
0.552402 0.552402 0.552402
0.553524 0.553524 0.553524
0.555760 0.555760 0.555760
0.559381 0.559381 0.559381
0.564385 0.564385 0.564385
0.570989 0.570989 0.570989
0.579129 0.579129 0.579129
0.588856 0.588856 0.588856
0.600168 0.600168 0.600168
0.612986 0.612986 0.612986
0.627263 0.627263 0.627263
0.642946 0.642946 0.642946
0.659927 0.659927 0.659927
0.678025 0.678025 0.678025
0.697258 0.697258 0.697258
0.605274 0.605274 0.605274
0.605547 0.605547 0.605547
0.606484 0.606484 0.606484
0.608487 0.608487 0.608487
0.611616 0.611616 0.611616
0.616076 0.616076 0.616076
0.621885 0.621885 0.621885
0.629110 0.629110 0.629110
0.637761 0.637761 0.637761
0.647797 0.647797 0.647797
0.659228 0.659228 0.659228
0.672234 0.672234 0.672234
0.686455 0.686455 0.686455
0.701900 0.701900 0.701900
0.718504 0.718504 0.718504
0.736327 0.736327 0.736327
0.658357 0.658357 0.658357
0.658498 0.658498 0.658498
0.659422 0.659422 0.659422
0.661138 0.661138 0.661138
0.663924 0.663924 0.663924
0.667872 0.667872 0.667872
0.672978 0.672978 0.672978
0.679458 0.679458 0.679458
0.687168 0.687168 0.687168
0.696244 0.696244 0.696244
0.706628 0.706628 0.706628
0.718334 0.718334 0.718334
0.731235 0.731235 0.731235
0.745419 0.745419 0.745419
0.760718 0.760718 0.760718
0.777199 0.777199 0.777199
0.711575 0.711575 0.711575
0.711600 0.711600 0.711600
0.712425 0.712425 0.712425
0.713951 0.713951 0.713951
0.716494 0.716494 0.716494
0.720058 0.720058 0.720058
0.724613 0.724613 0.724613
0.730472 0.730472 0.730472
0.737495 0.737495 0.737495
0.745648 0.745648 0.745648
0.754986 0.754986 0.754986
0.765667 0.765667 0.765667
0.777395 0.777395 0.777395
0.790426 0.790426 0.790426
0.804521 0.804521 0.804521
0.819730 0.819730 0.819730
0.764404 0.764404 0.764404
0.764632 0.764632 0.764632
0.765359 0.765359 0.765359
0.766627 0.766627 0.766627
0.768979 0.768979 0.768979
0.772194 0.772194 0.772194
0.776309 0.776309 0.776309
0.781537 0.781537 0.781537
0.787899 0.787899 0.787899
0.795335 0.795335 0.795335
0.804000 0.804000 0.804000
0.813589 0.813589 0.813589
0.824459 0.824459 0.824459
0.836412 0.836412 0.836412
0.849379 0.849379 0.849379
0.863421 0.863421 0.863421
0.817532 0.817532 0.817532
0.817594 0.817594 0.817594
0.818248 0.818248 0.818248
0.819544 0.819544 0.819544
0.821595 0.821595 0.821595
0.824473 0.824473 0.824473
0.828232 0.828232 0.828232
0.833048 0.833048 0.833048
0.838777 0.838777 0.838777
0.845664 0.845664 0.845664
0.853522 0.853522 0.853522
0.862451 0.862451 0.862451
0.872399 0.872399 0.872399
0.883416 0.883416 0.883416
0.895389 0.895389 0.895389
0.908471 0.908471 0.908471
0.077662 0.077662 0.077662
0.082858 0.082858 0.082858
0.100537 0.100537 0.100537
0.125852 0.125852 0.125852
0.154576 0.154576 0.154576
0.184812 0.184812 0.184812
0.215814 0.215814 0.215814
0.247227 0.247227 0.247227
0.278892 0.278892 0.278892
0.310703 0.310703 0.310703
0.342546 0.342546 0.342546
0.374491 0.374491 0.374491
0.406433 0.406433 0.406433
0.438450 0.438450 0.438450
0.470376 0.470376 0.470376
0.502376 0.502376 0.502376
0.093313 0.093313 0.093313
0.097205 0.097205 0.097205
0.111462 0.111462 0.111462
0.133730 0.133730 0.133730
0.160367 0.160367 0.160367
0.189252 0.189252 0.189252
0.219354 0.219354 0.219354
0.250107 0.250107 0.250107
0.281300 0.281300 0.281300
0.312727 0.312727 0.312727
0.344356 0.344356 0.344356
0.376045 0.376045 0.376045
0.407795 0.407795 0.407795
0.439713 0.439713 0.439713
0.471513 0.471513 0.471513
0.503476 0.503476 0.503476
0.134667 0.134667 0.134667
0.136848 0.136848 0.136848
0.145601 0.145601 0.145601
0.161195 0.161195 0.161195
0.182116 0.182116 0.182116
0.206651 0.206651 0.206651
0.233528 0.233529 0.233529
0.261889 0.261889 0.261889
0.291254 0.291254 0.291254
0.321281 0.321281 0.321281
0.351744 0.351744 0.351744
0.382594 0.382594 0.382594
0.413634 0.413634 0.413634
0.444916 0.444916 0.444916
0.476232 0.476232 0.476232
0.507721 0.507721 0.507721
0.183977 0.183977 0.183977
0.185330 0.185330 0.185330
0.190938 0.190938 0.190938
0.201588 0.201588 0.201588
0.217003 0.217003 0.217003
0.236409 0.236409 0.236409
0.258878 0.258878 0.258878
0.283607 0.283607 0.283607
0.310049 0.310049 0.310049
0.337683 0.337683 0.337683
0.366155 0.366155 0.366155
0.395481 0.395481 0.395481
0.425097 0.425097 0.425097
0.455243 0.455243 0.455243
0.485612 0.485612 0.485612
0.516270 0.516270 0.516270
0.235627 0.235627 0.235627
0.236543 0.236543 0.236543
0.240439 0.240439 0.240439
0.248066 0.248066 0.248066
0.259587 0.259587 0.259587
0.274709 0.274709 0.274709
0.293018 0.293018 0.293018
0.313940 0.313940 0.313940
0.336971 0.336971 0.336971
0.361686 0.361686 0.361686
0.387658 0.387658 0.387658
0.414736 0.414736 0.414736
0.442559 0.442559 0.442559
0.471093 0.471093 0.471093
0.500079 0.500079 0.500079
0.529537 0.529537 0.529537
0.288063 0.288063 0.288063
0.288726 0.288726 0.288726
0.291664 0.291664 0.291664
0.297407 0.297407 0.297407
0.306255 0.306255 0.306255
0.318262 0.318262 0.318262
0.333160 0.333160 0.333160
0.350674 0.350674 0.350674
0.370433 0.370433 0.370433
0.392118 0.392118 0.392118
0.415435 0.415435 0.415435
0.440044 0.440044 0.440044
0.465694 0.465694 0.465694
0.492337 0.492337 0.492337
0.519592 0.519592 0.519592
0.547607 0.547607 0.547607
0.340860 0.340860 0.340860
0.341383 0.341383 0.341383
0.343640 0.343640 0.343640
0.348194 0.348194 0.348194
0.355223 0.355223 0.355223
0.364909 0.364909 0.364909
0.377196 0.377196 0.377196
0.391897 0.391897 0.391897
0.408861 0.408861 0.408861
0.427788 0.427788 0.427788
0.448409 0.448409 0.448409
0.470603 0.470603 0.470603
0.493988 0.493988 0.493988
0.518582 0.518582 0.518582
0.543991 0.543991 0.543991
0.570242 0.570242 0.570242
0.393823 0.393823 0.393823
0.394196 0.394196 0.394196
0.396080 0.396080 0.396080
0.399746 0.399746 0.399746
0.405494 0.405494 0.405494
0.413498 0.413498 0.413498
0.423824 0.423824 0.423824
0.436296 0.436296 0.436296
