src/luts/blur/9.cube
LUT_3D_SIZE 6
0.000000 0.000000 0.000000
0.050619 0.050619 0.050619
0.148938 0.148938 0.148938
0.266790 0.266790 0.266790
0.398390 0.398390 0.398390
0.541017 0.541017 0.541017
0.112594 0.112594 0.112594
0.132483 0.132483 0.132483
0.200726 0.200726 0.200726
0.302682 0.302682 0.302682
0.425322 0.425322 0.425322
0.562407 0.562407 0.562407
0.306958 0.306958 0.306958
0.316925 0.316925 0.316925
0.357018 0.357018 0.357018
0.429216 0.429216 0.429216
0.528055 0.528055 0.528055
0.647391 0.647391 0.647391
0.537118 0.537118 0.537118
0.543548 0.543548 0.543548
0.570558 0.570558 0.570558
0.622445 0.622445 0.622445
0.698959 0.698959 0.698959
0.797221 0.797221 0.797221
0.793026 0.793026 0.793026
0.797774 0.797774 0.797774
0.817761 0.817761 0.817761
0.857247 0.857247 0.857247
0.912223 0.912223 0.912223
0.960214 0.960214 0.960214
0.984142 0.984142 0.984142
0.984987 0.984987 0.984987
0.988327 0.988327 0.988327
0.993237 0.993237 0.993237
0.997720 0.997720 0.997720
0.999800 0.999800 0.999800
0.024365 0.024365 0.024365
0.061696 0.061696 0.061696
0.154731 0.154731 0.154731
0.270582 0.270582 0.270582
0.401158 0.401158 0.401158
0.543156 0.543156 0.543156
0.119596 0.119596 0.119596
0.138769 0.138769 0.138769
0.205409 0.205409 0.205409
0.306122 0.306122 0.306122
0.427952 0.427952 0.427952
0.564465 0.564465 0.564465
0.310386 0.310386 0.310386
0.320244 0.320244 0.320244
0.360036 0.360036 0.360036
0.431846 0.431846 0.431846
0.530311 0.530311 0.530311
0.649340 0.649340 0.649340
0.539337 0.539337 0.539337
0.545747 0.545747 0.545747
0.572610 0.572610 0.572610
0.624419 0.624419 0.624419
0.700605 0.700605 0.700605
0.798828 0.798828 0.798828
0.794733 0.794733 0.794733
0.799388 0.799388 0.799388
0.819217 0.819217 0.819217
0.858723 0.858723 0.858723
0.913198 0.913198 0.913198
0.960905 0.960905 0.960905
0.984477 0.984477 0.984477
0.985303 0.985303 0.985303
0.988563 0.988563 0.988563
0.993475 0.993475 0.993475
0.997832 0.997832 0.997832
0.999816 0.999816 0.999816
0.075015 0.075015 0.075015
0.100065 0.100065 0.100065
0.177927 0.177927 0.177927
0.286346 0.286346 0.286346
0.412895 0.412895 0.412895
0.552460 0.552460 0.552460
0.146826 0.146826 0.146826
0.163609 0.163609 0.163609
0.224589 0.224589 0.224589
0.320541 0.320541 0.320541
0.439125 0.439125 0.439125
0.573557 0.573557 0.573557
0.324615 0.324615 0.324615
0.334165 0.334165 0.334165
0.372841 0.372841 0.372841
0.442967 0.442967 0.442967
0.539757 0.539757 0.539757
0.657411 0.657411 0.657411
0.548614 0.548614 0.548614
0.555028 0.555028 0.555028
0.581530 0.581530 0.581530
0.632713 0.632713 0.632713
0.708238 0.708238 0.708238
0.805670 0.805670 0.805670
0.801491 0.801491 0.801491
0.806210 0.806210 0.806210
0.826178 0.826178 0.826178
0.865271 0.865271 0.865271
0.917772 0.917772 0.917772
0.963258 0.963258 0.963258
0.985658 0.985658 0.985658
0.986401 0.986401 0.986401
0.989463 0.989463 0.989463
0.994092 0.994092 0.994092
0.998139 0.998139 0.998139
0.999876 0.999876 0.999876
0.139473 0.139473 0.139473
0.156846 0.156846 0.156846
0.219283 0.219283 0.219283
0.316462 0.316462 0.316462
0.435981 0.435981 0.435981
0.570985 0.570985 0.570985
0.193216 0.193216 0.193216
0.207140 0.207140 0.207140
0.260180 0.260180 0.260180
0.348346 0.348346 0.348346
0.461161 0.461161 0.461161
0.591455 0.591455 0.591455
0.352221 0.352221 0.352221
0.361168 0.361168 0.361168
0.397744 0.397744 0.397744
0.464853 0.464853 0.464853
0.558628 0.558628 0.558628
0.673517 0.673517 0.673517
0.567205 0.567205 0.567205
0.573420 0.573420 0.573420
0.599300 0.599300 0.599300
0.649384 0.649384 0.649384
0.723548 0.723548 0.723548
0.819237 0.819237 0.819237
0.815314 0.815314 0.815314
0.819996 0.819996 0.819996
0.839736 0.839736 0.839736
0.878178 0.878178 0.878178
0.926510 0.926510 0.926510
0.967942 0.967942 0.967942
0.987842 0.987842 0.987842
0.988591 0.988591 0.988591
0.991238 0.991238 0.991238
0.995195 0.995195 0.995195
0.998591 0.998591 0.998591
0.999961 0.999961 0.999961
0.211879 0.211879 0.211879
0.224899 0.224899 0.224899
0.275330 0.275330 0.275331
0.360540 0.360540 0.360540
0.471023 0.471023 0.471023
0.599578 0.599578 0.599578
0.253699 0.253699 0.253699
0.265182 0.265182 0.265182
0.310447 0.310447 0.310447
0.389547 0.389547 0.389547
0.494782 0.494782 0.494782
0.619327 0.619327 0.619327
0.393077 0.393077 0.393077
0.401266 0.401266 0.401266
0.435152 0.435152 0.435152
0.498250 0.498250 0.498250
0.587681 0.587681 0.587681
0.698687 0.698687 0.698687
0.595985 0.595985 0.595985
0.601947 0.601947 0.601947
0.626883 0.626883 0.626883
0.675342 0.675342 0.675342
0.747316 0.747316 0.747316
0.841044 0.841044 0.841044
0.836965 0.836965 0.836965
0.841522 0.841522 0.841522
0.860694 0.860694 0.860694
0.896802 0.896802 0.896802
0.938958 0.938958 0.938958
0.974264 0.974264 0.974264
0.990965 0.990965 0.990965
0.991484 0.991484 0.991484
0.993650 0.993650 0.993650
0.996746 0.996746 0.996746
0.999173 0.999173 0.999173
1.000022 1.000022 1.000022
0.290599 0.290599 0.290599
0.300951 0.300951 0.300951
0.342499 0.342499 0.342499
0.416768 0.416768 0.416768
0.517545 0.517545 0.517545
0.638470 0.638470 0.638470
0.324426 0.324426 0.324426
0.333955 0.333955 0.333955
0.372618 0.372618 0.372618
0.442801 0.442801 0.442801
0.539630 0.539631 0.539630
0.657290 0.657290 0.657290
0.445994 0.445994 0.445994
0.453508 0.453508 0.453508
0.484401 0.484401 0.484401
0.542869 0.542869 0.542869
0.627168 0.627168 0.627168
0.733307 0.733307 0.733307
0.634989 0.634989 0.634989
0.640735 0.640735 0.640735
0.664503 0.664503 0.664503
0.710762 0.710762 0.710762
0.780084 0.780084 0.780084
0.871007 0.871007 0.871007
0.867080 0.867080 0.867080
0.871488 0.871488 0.871488
0.889162 0.889162 0.889162
0.919290 0.919290 0.919290
0.953671 0.953671 0.953671
0.981718 0.981718 0.981718
0.994223 0.994223 0.994223
0.994659 0.994659 0.994659
0.996062 0.996062 0.996062
0.998151 0.998151 0.998151
0.999690 0.999690 0.999690
1.000000 1.000000 1.000000
