src/luts/blur/9.cube
LUT_3D_SIZE 16
0.000000 0.000000 0.000000
0.008494 0.008494 0.008494
0.026192 0.026192 0.026192
0.050619 0.050619 0.050619
0.080494 0.080494 0.080494
0.113507 0.113507 0.113507
0.148938 0.148938 0.148938
0.186456 0.186456 0.186456
0.225774 0.225774 0.225774
0.266790 0.266790 0.266790
0.309270 0.309270 0.309270
0.353223 0.353223 0.353223
0.398390 0.398390 0.398390
0.444862 0.444862 0.444862
0.492334 0.492334 0.492334
0.541017 0.541017 0.541017
0.019311 0.019311 0.019311
0.023029 0.023029 0.023029
0.036571 0.036571 0.036571
0.058582 0.058582 0.058582
0.086716 0.086716 0.086716
0.118482 0.118482 0.118482
0.153072 0.153072 0.153072
0.189960 0.189960 0.189960
0.228842 0.228842 0.228842
0.269476 0.269476 0.269476
0.311673 0.311673 0.311673
0.355421 0.355421 0.355421
0.400327 0.400327 0.400327
0.446658 0.446658 0.446658
0.494000 0.494000 0.494000
0.542551 0.542551 0.542551
0.059550 0.059550 0.059550
0.061798 0.061798 0.061798
0.070972 0.070972 0.070972
0.087612 0.087612 0.087612
0.110515 0.110515 0.110515
0.138296 0.138296 0.138296
0.169861 0.169861 0.169861
0.204462 0.204462 0.204462
0.241548 0.241548 0.241548
0.280771 0.280771 0.280771
0.321792 0.321792 0.321792
0.364558 0.364558 0.364558
0.408725 0.408725 0.408725
0.454328 0.454328 0.454328
0.501075 0.501075 0.501075
0.549170 0.549170 0.549170
0.112594 0.112594 0.112594
0.114089 0.114089 0.114089
0.120381 0.120381 0.120381
0.132483 0.132483 0.132483
0.150325 0.150325 0.150325
0.173344 0.173344 0.173344
0.200726 0.200726 0.200726
0.231798 0.231798 0.231798
0.265929 0.265929 0.265929
0.302682 0.302682 0.302682
0.341683 0.341683 0.341683
0.382622 0.382622 0.382622
0.425322 0.425322 0.425322
0.469682 0.469682 0.469682
0.515320 0.515320 0.515320
0.562407 0.562407 0.562407
0.172383 0.172383 0.172383
0.173488 0.173488 0.173488
0.178178 0.178178 0.178178
0.187467 0.187467 0.187467
0.201601 0.201601 0.201601
0.220519 0.220519 0.220519
0.243833 0.243833 0.243833
0.271042 0.271042 0.271042
0.301727 0.301727 0.301727
0.335399 0.335399 0.335399
0.371642 0.371642 0.371642
0.410262 0.410262 0.410262
0.450845 0.450845 0.450845
0.493336 0.493336 0.493336
0.537382 0.537382 0.537382
0.583019 0.583019 0.583019
0.237467 0.237467 0.237467
0.238328 0.238328 0.238328
0.242058 0.242058 0.242058
0.249488 0.249488 0.249488
0.261042 0.261042 0.261042
0.276765 0.276765 0.276765
0.296632 0.296632 0.296632
0.320263 0.320263 0.320263
0.347551 0.347551 0.347551
0.378037 0.378037 0.378037
0.411250 0.411250 0.411250
0.447178 0.447178 0.447178
0.485295 0.485295 0.485295
0.525504 0.525504 0.525504
0.567576 0.567576 0.567576
0.611428 0.611428 0.611428
0.306958 0.306958 0.306958
0.307669 0.307669 0.307669
0.310731 0.310731 0.310731
0.316925 0.316925 0.316925
0.326575 0.326575 0.326575
0.339923 0.339923 0.339923
0.357018 0.357018 0.357018
0.377686 0.377686 0.377686
0.401843 0.401843 0.401843
0.429216 0.429216 0.429216
0.459549 0.459549 0.459549
0.492600 0.492600 0.492600
0.528055 0.528055 0.528055
0.565882 0.565882 0.565882
0.605696 0.605696 0.605696
0.647391 0.647391 0.647391
0.380260 0.380260 0.380260
0.380913 0.380913 0.380913
0.383560 0.383560 0.383560
0.388772 0.388772 0.388772
0.397040 0.397040 0.397040
0.408580 0.408580 0.408580
0.423447 0.423447 0.423447
0.441652 0.441652 0.441652
0.463157 0.463157 0.463157
0.487750 0.487750 0.487750
0.515301 0.515301 0.515301
0.545654 0.545654 0.545654
0.578507 0.578507 0.578507
0.613811 0.613811 0.613811
0.651216 0.651216 0.651216
0.690675 0.690675 0.690675
0.457148 0.457148 0.457148
0.457697 0.457697 0.457697
0.459948 0.459948 0.459948
0.464502 0.464502 0.464502
0.471669 0.471669 0.471669
0.481797 0.481797 0.481797
0.494868 0.494868 0.494868
0.511061 0.511061 0.511061
0.530235 0.530235 0.530235
0.552441 0.552441 0.552441
0.577519 0.577519 0.577519
0.605374 0.605374 0.605374
0.635748 0.635748 0.635748
0.668570 0.668570 0.668570
0.703598 0.703598 0.703598
0.740899 0.740899 0.740899
0.537118 0.537118 0.537118
0.537559 0.537559 0.537559
0.539501 0.539501 0.539501
0.543548 0.543548 0.543548
0.549924 0.549924 0.549924
0.558868 0.558868 0.558868
0.570558 0.570558 0.570558
0.584977 0.584977 0.584977
0.602340 0.602340 0.602340
0.622445 0.622445 0.622445
0.645306 0.645306 0.645306
0.670853 0.670853 0.670853
0.698959 0.698959 0.698959
0.729460 0.729460 0.729460
0.762263 0.762263 0.762263
0.797221 0.797221 0.797221
0.619839 0.619839 0.619839
0.620225 0.620225 0.620225
0.622022 0.622022 0.622022
0.625594 0.625594 0.625594
0.631309 0.631309 0.631309
0.639348 0.639348 0.639348
0.649858 0.649858 0.649858
0.662876 0.662876 0.662876
0.678575 0.678575 0.678575
0.696937 0.696937 0.696937
0.717797 0.717797 0.717797
0.741459 0.741459 0.741459
0.767360 0.767360 0.767360
0.795782 0.795782 0.795782
0.826252 0.826252 0.826252
0.859225 0.859224 0.859224
0.705378 0.705378 0.705378
0.705656 0.705656 0.705656
0.707264 0.707264 0.707264
0.710503 0.710503 0.710503
0.715634 0.715634 0.715634
0.722888 0.722888 0.722888
0.732409 0.732409 0.732409
0.744338 0.744338 0.744338
0.758545 0.758545 0.758545
0.775479 0.775479 0.775479
0.794759 0.794759 0.794759
0.816384 0.816384 0.816384
0.840510 0.840510 0.840510
0.866996 0.866996 0.866996
0.894026 0.894026 0.894026
0.918745 0.918745 0.918745
0.793026 0.793026 0.793026
0.793531 0.793531 0.793531
0.794875 0.794875 0.794875
0.797774 0.797774 0.797774
0.802403 0.802403 0.802403
0.809152 0.809152 0.809152
0.817761 0.817761 0.817761
0.828699 0.828699 0.828699
0.841808 0.841808 0.841808
0.857247 0.857247 0.857247
0.875006 0.875006 0.875006
0.893726 0.893726 0.893726
0.912223 0.912223 0.912223
0.929812 0.929812 0.929812
0.945874 0.945874 0.945874
0.960214 0.960214 0.960214
0.882946 0.882946 0.882946
0.883352 0.883352 0.883352
0.884637 0.884637 0.884637
0.887048 0.887048 0.887048
0.890884 0.890884 0.890884
0.896262 0.896262 0.896262
0.903065 0.903065 0.903065
0.911109 0.911109 0.911109
0.920127 0.920127 0.920127
0.929991 0.929991 0.929991
0.940302 0.940302 0.940302
0.950527 0.950527 0.950527
0.960534 0.960534 0.960534
0.969786 0.969786 0.969786
0.978046 0.978046 0.978046
0.985069 0.985069 0.985069
0.949420 0.949420 0.949420
0.949603 0.949603 0.949603
0.950273 0.950273 0.950273
0.951502 0.951502 0.951502
0.953497 0.953497 0.953497
0.956193 0.956193 0.956193
0.959547 0.959547 0.959547
0.963647 0.963647 0.963647
0.968124 0.968124 0.968124
0.972891 0.972891 0.972891
0.977730 0.977730 0.977730
0.982497 0.982497 0.982497
0.986945 0.986945 0.986945
0.990862 0.990862 0.990862
0.994056 0.994056 0.994056
0.996630 0.996630 0.996630
0.984142 0.984142 0.984142
0.984225 0.984225 0.984225
0.984504 0.984504 0.984504
0.984987 0.984987 0.984987
0.985796 0.985796 0.985796
0.986951 0.986951 0.986951
0.988327 0.988327 0.988327
0.989835 0.989835 0.989835
0.991521 0.991521 0.991521
0.993237 0.993237 0.993237
0.994901 0.994901 0.994901
0.996519 0.996519 0.996519
0.997720 0.997720 0.997720
0.998718 0.998718 0.998718
0.999458 0.999458 0.999458
0.999800 0.999800 0.999800
0.004090 0.004090 0.004090
0.010353 0.010353 0.010353
0.027322 0.027322 0.027322
0.051449 0.051449 0.051449
0.081127 0.081127 0.081127
0.114024 0.114024 0.114024
0.149352 0.149352 0.149352
0.186797 0.186797 0.186797
0.226097 0.226097 0.226097
0.267071 0.267071 0.267071
0.309518 0.309518 0.309518
0.353443 0.353443 0.353443
0.398551 0.398551 0.398551
0.445019 0.445019 0.445019
0.492506 0.492506 0.492506
0.541139 0.541139 0.541139
0.020608 0.020608 0.020608
0.024229 0.024229 0.024229
0.037540 0.037540 0.037540
0.059354 0.059354 0.059354
0.087320 0.087320 0.087320
0.118991 0.118991 0.118991
0.153488 0.153488 0.153488
0.190289 0.190289 0.190289
0.229163 0.229163 0.229163
0.269763 0.269763 0.269763
0.311879 0.311879 0.311879
0.355568 0.355568 0.355568
0.400547 0.400547 0.400547
0.446841 0.446841 0.446841
0.494172 0.494172 0.494172
0.542710 0.542710 0.542710
0.060318 0.060318 0.060318
0.062554 0.062554 0.062554
0.071674 0.071674 0.071674
0.088212 0.088212 0.088212
0.111042 0.111042 0.111042
0.138762 0.138762 0.138762
0.170256 0.170256 0.170256
0.204801 0.204801 0.204801
0.241856 0.241856 0.241856
0.281051 0.281051 0.281051
0.322056 0.322056 0.322056
0.364813 0.364813 0.364813
0.408906 0.408906 0.408906
0.454553 0.454553 0.454553
0.501262 0.501262 0.501262
0.549321 0.549321 0.549321
0.113120 0.113120 0.113120
0.114621 0.114621 0.114621
0.120879 0.120879 0.120879
0.132939 0.132939 0.132939
0.150754 0.150754 0.150754
0.173721 0.173721 0.173721
0.201069 0.201069 0.201069
0.232088 0.232088 0.232088
0.266223 0.266223 0.266223
0.302923 0.302923 0.302923
0.341856 0.341856 0.341856
0.382893 0.382893 0.382893
0.425508 0.425508 0.425508
0.469857 0.469857 0.469857
0.515509 0.515509 0.515509
0.562559 0.562559 0.562559
0.172764 0.172764 0.172764
0.173862 0.173862 0.173862
0.178569 0.178569 0.178569
0.187827 0.187827 0.187827
0.201952 0.201952 0.201952
0.220845 0.220845 0.220845
0.244126 0.244126 0.244126
0.271326 0.271326 0.271326
0.301984 0.301984 0.301984
0.335598 0.335598 0.335598
0.371840 0.371840 0.371840
0.410465 0.410465 0.410465
0.451048 0.451048 0.451048
0.493499 0.493499 0.493499
0.537544 0.537544 0.537544
0.583130 0.583130 0.583130
0.237759 0.237759 0.237759
0.238640 0.238640 0.238640
0.242367 0.242367 0.242367
0.249786 0.249786 0.249786
0.261286 0.261286 0.261286
0.277034 0.277034 0.277034
0.296884 0.296884 0.296884
0.320581 0.320581 0.320581
0.347795 0.347795 0.347795
0.378243 0.378243 0.378243
0.411497 0.411497 0.411497
0.447355 0.447355 0.447355
0.485467 0.485467 0.485467
0.525761 0.525761 0.525761
0.567773 0.567773 0.567773
0.611567 0.611567 0.611567
0.307223 0.307223 0.307223
0.307917 0.307917 0.307917
0.311026 0.311026 0.311026
0.317116 0.317116 0.317116
0.326754 0.326754 0.326754
0.340141 0.340141 0.340141
0.357186 0.357186 0.357186
0.377913 0.377913 0.377913
0.402060 0.402060 0.402060
0.429434 0.429434 0.429434
0.459723 0.459723 0.459723
0.492764 0.492764 0.492764
0.528276 0.528276 0.528276
0.566010 0.566010 0.566010
0.605836 0.605836 0.605836
0.647546 0.647546 0.647546
0.380503 0.380503 0.380503
0.381170 0.381170 0.381170
0.383773 0.383773 0.383773
0.388974 0.388974 0.388974
0.397266 0.397266 0.397266
0.408783 0.408783 0.408783
0.423601 0.423601 0.423601
0.441802 0.441802 0.441802
0.463324 0.463324 0.463324
0.487941 0.487941 0.487941
0.515482 0.515482 0.515482
0.545833 0.545833 0.545833
0.578631 0.578631 0.578631
0.613983 0.613983 0.613983
0.651361 0.651361 0.651361
0.690871 0.690871 0.690871
0.457360 0.457360 0.457360
0.457895 0.457895 0.457895
0.460143 0.460143 0.460143
0.464687 0.464687 0.464687
0.471895 0.471895 0.471895
0.481943 0.481943 0.481943
0.495036 0.495036 0.495036
0.511212 0.511212 0.511212
0.530416 0.530416 0.530416
0.552590 0.552590 0.552590
0.577657 0.577657 0.577657
0.605530 0.605530 0.605530
0.635847 0.635847 0.635847
0.668674 0.668674 0.668674
0.703787 0.703787 0.703787
0.741013 0.741013 0.741013
0.537249 0.537249 0.537249
0.537683 0.537683 0.537683
0.539662 0.539662 0.539662
0.543732 0.543732 0.543732
0.550072 0.550072 0.550072
0.559007 0.559007 0.559007
0.570703 0.570703 0.570703
0.585191 0.585191 0.585191
0.602477 0.602477 0.602477
0.622619 0.622619 0.622619
0.645421 0.645421 0.645421
0.670951 0.670951 0.670951
0.699068 0.699068 0.699068
0.729602 0.729602 0.729602
0.762325 0.762325 0.762325
0.797299 0.797299 0.797299
0.619942 0.619942 0.619942
0.620341 0.620341 0.620341
0.622153 0.622153 0.622153
0.625708 0.625708 0.625708
0.631450 0.631450 0.631450
0.639458 0.639458 0.639458
0.649977 0.649977 0.649977
0.663030 0.663030 0.663030
0.678685 0.678685 0.678685
0.697089 0.697089 0.697089
0.718026 0.718026 0.718026
0.741478 0.741478 0.741478
0.767418 0.767418 0.767418
0.795860 0.795860 0.795860
0.826338 0.826338 0.826338
0.859280 0.859280 0.859280
0.705406 0.705406 0.705406
0.705810 0.705810 0.705810
0.707404 0.707404 0.707404
0.710617 0.710617 0.710617
0.715781 0.715781 0.715781
0.723028 0.723028 0.723028
0.732552 0.732552 0.732552
0.744569 0.744569 0.744569
0.758834 0.758834 0.758834
0.775596 0.775596 0.775596
0.794809 0.794809 0.794809
0.816587 0.816587 0.816587
0.840584 0.840584 0.840584
0.867126 0.867126 0.867126
0.894157 0.894157 0.894157
0.918867 0.918867 0.918867
0.793159 0.793159 0.793159
0.793519 0.793519 0.793519
0.794948 0.794948 0.794948
0.797828 0.797828 0.797828
0.802623 0.802623 0.802623
0.809222 0.809222 0.809222
0.817959 0.817959 0.817959
0.828825 0.828825 0.828825
0.842003 0.842003 0.842003
0.857432 0.857432 0.857432
0.875152 0.875152 0.875152
0.893791 0.893791 0.893791
0.912259 0.912259 0.912259
0.929853 0.929853 0.929853
0.945969 0.945969 0.945969
0.960290 0.960290 0.960290
0.883100 0.883100 0.883100
0.883429 0.883429 0.883429
0.884717 0.884717 0.884717
0.887198 0.887198 0.887198
0.890979 0.890979 0.890979
0.896323 0.896323 0.896323
0.903161 0.903161 0.903161
0.911146 0.911146 0.911146
0.920247 0.920247 0.920247
0.930074 0.930074 0.930074
0.940401 0.940401 0.940401
0.950616 0.950616 0.950616
0.960571 0.960571 0.960571
0.969848 0.969848 0.969848
0.978096 0.978096 0.978096
0.985108 0.985108 0.985108
0.949428 0.949428 0.949428
0.949609 0.949609 0.949609
0.950279 0.950279 0.950279
0.951591 0.951591 0.951591
0.953583 0.953583 0.953583
0.956273 0.956273 0.956273
0.959623 0.959623 0.959623
0.963680 0.963680 0.963680
0.968189 0.968189 0.968189
0.972911 0.972911 0.972911
0.977781 0.977781 0.977781
0.982482 0.982482 0.982482
0.986947 0.986947 0.986947
0.990869 0.990869 0.990869
0.994051 0.994051 0.994051
0.996644 0.996644 0.996644
0.984182 0.984182 0.984182
0.984265 0.984265 0.984265
0.984543 0.984543 0.984543
0.984990 0.984990 0.984990
0.985810 0.985810 0.985810
0.986952 0.986952 0.986952
0.988360 0.988360 0.988360
0.989864 0.989864 0.989864
0.991551 0.991551 0.991551
0.993259 0.993259 0.993259
0.994919 0.994919 0.994919
0.996534 0.996534 0.996534
0.997731 0.997731 0.997731
0.998725 0.998725 0.998725
0.999462 0.999462 0.999462
0.999802 0.999802 0.999802
0.012608 0.012608 0.012608
0.017018 0.017018 0.017018
0.031924 0.031924 0.031924
0.054926 0.054926 0.054926
0.083846 0.083846 0.083846
0.116192 0.116192 0.116192
0.151151 0.151151 0.151151
0.188311 0.188311 0.188311
0.227433 0.227433 0.227433
0.268232 0.268232 0.268232
0.310594 0.310594 0.310594
0.354364 0.354364 0.354364
0.399414 0.399414 0.399414
0.445814 0.445814 0.445814
0.493191 0.493191 0.493191
0.541821 0.541821 0.541821
0.025782 0.025782 0.025782
0.029071 0.029071 0.029071
0.041553 0.041553 0.041553
0.062612 0.062612 0.062612
0.089910 0.089910 0.089910
0.121076 0.121076 0.121076
0.155227 0.155227 0.155227
0.191808 0.191808 0.191808
0.230451 0.230451 0.230451
0.270919 0.270919 0.270919
0.312971 0.312971 0.312971
0.356561 0.356561 0.356561
0.401366 0.401366 0.401366
0.447612 0.447612 0.447612
0.494869 0.494869 0.494869
0.543370 0.543370 0.543370
0.063554 0.063554 0.063554
0.065744 0.065744 0.065744
0.074604 0.074604 0.074604
0.090785 0.090785 0.090785
0.113237 0.113237 0.113237
0.140635 0.140635 0.140635
0.171902 0.171902 0.171902
0.206215 0.206215 0.206215
0.243119 0.243119 0.243119
0.282162 0.282162 0.282162
0.323102 0.323102 0.323102
0.365708 0.365708 0.365708
0.409764 0.409764 0.409764
0.455306 0.455306 0.455306
0.501994 0.501994 0.501994
0.549982 0.549982 0.549982
0.115281 0.115281 0.115281
0.116766 0.116766 0.116766
0.122934 0.122934 0.122934
0.134871 0.134871 0.134871
0.152532 0.152532 0.152532
0.175327 0.175327 0.175327
0.202517 0.202517 0.202517
0.233404 0.233404 0.233404
0.267374 0.267374 0.267374
0.303996 0.303996 0.303996
0.342855 0.342855 0.342855
0.383746 0.383746 0.383746
0.426312 0.426312 0.426312
0.470592 0.470592 0.470592
0.516155 0.516155 0.516155
0.563196 0.563196 0.563196
0.174385 0.174385 0.174385
0.175484 0.175484 0.175484
0.180148 0.180148 0.180148
0.189335 0.189335 0.189335
0.203397 0.203397 0.203397
0.222174 0.222174 0.222174
0.245359 0.245359 0.245359
0.272485 0.272485 0.272485
0.303054 0.303054 0.303054
0.336630 0.336630 0.336630
0.372804 0.372804 0.372804
0.411280 0.411280 0.411280
0.451822 0.451822 0.451822
0.494276 0.494276 0.494276
0.538270 0.538270 0.538270
0.583842 0.583842 0.583842
0.239039 0.239039 0.239039
0.239891 0.239891 0.239891
0.243624 0.243624 0.243624
0.250976 0.250976 0.250976
0.262486 0.262486 0.262486
0.278167 0.278167 0.278167
0.297967 0.297967 0.297967
0.321570 0.321570 0.321570
0.348755 0.348755 0.348755
0.379096 0.379096 0.379096
0.412272 0.412272 0.412272
0.448119 0.448119 0.448119
0.486160 0.486160 0.486160
0.526421 0.526421 0.526421
0.568435 0.568435 0.568435
0.612161 0.612161 0.612161
0.308270 0.308270 0.308270
0.309010 0.309010 0.309010
0.312044 0.312044 0.312044
0.318227 0.318227 0.318227
0.327837 0.327837 0.327837
0.341107 0.341107 0.341107
0.358133 0.358133 0.358133
0.378848 0.378848 0.378848
0.402931 0.402931 0.402931
0.430200 0.430200 0.430200
0.460478 0.460478 0.460478
0.493504 0.493504 0.493504
0.528964 0.528964 0.528964
0.566699 0.566699 0.566699
0.606429 0.606429 0.606429
0.648082 0.648082 0.648082
0.381428 0.381428 0.381428
0.382042 0.382042 0.382042
0.384613 0.384613 0.384613
0.389896 0.389896 0.389896
0.398094 0.398094 0.398094
0.409627 0.409627 0.409627
0.424453 0.424453 0.424453
0.442635 0.442635 0.442635
0.464092 0.464092 0.464092
0.488670 0.488670 0.488670
0.516136 0.516136 0.516136
0.546459 0.546459 0.546459
0.579275 0.579275 0.579275
0.614567 0.614567 0.614567
0.651924 0.651924 0.651924
0.691377 0.691377 0.691377
0.458099 0.458099 0.458099
0.458625 0.458625 0.458625
0.460875 0.460875 0.460875
0.465420 0.465420 0.465420
0.472631 0.472631 0.472631
0.482679 0.482679 0.482679
0.495808 0.495808 0.495808
0.511919 0.511919 0.511919
0.531158 0.531158 0.531158
0.553331 0.553331 0.553331
0.578337 0.578337 0.578337
0.606125 0.606125 0.606125
0.636452 0.636452 0.636452
0.669223 0.669223 0.669223
0.704274 0.704274 0.704274
0.741490 0.741490 0.741490
0.537934 0.537934 0.537934
0.538423 0.538423 0.538423
0.540353 0.540353 0.540353
0.544417 0.544417 0.544417
0.550701 0.550701 0.550701
0.559742 0.559742 0.559742
0.571360 0.571360 0.571360
0.585824 0.585824 0.585824
0.603100 0.603100 0.603100
0.623172 0.623172 0.623172
0.646022 0.646022 0.646022
0.671559 0.671559 0.671559
0.699579 0.699579 0.699579
0.730107 0.730107 0.730107
0.762877 0.762877 0.762877
0.797802 0.797802 0.797802
0.620579 0.620579 0.620579
0.620987 0.620987 0.620987
0.622731 0.622731 0.622731
0.626321 0.626321 0.626321
0.632027 0.632027 0.632027
0.640026 0.640026 0.640026
0.650566 0.650566 0.650566
0.663634 0.663634 0.663634
0.679275 0.679275 0.679275
0.697629 0.697629 0.697629
0.718523 0.718523 0.718523
0.741962 0.741962 0.741962
0.767970 0.767970 0.767970
0.796311 0.796311 0.796311
0.826896 0.826896 0.826896
0.859582 0.859582 0.859582
0.705914 0.705914 0.705914
0.706326 0.706326 0.706326
0.707884 0.707884 0.707884
0.711153 0.711153 0.711153
0.716281 0.716281 0.716281
0.723465 0.723465 0.723465
0.733098 0.733098 0.733098
0.744999 0.744999 0.744999
0.759304 0.759304 0.759304
0.776054 0.776054 0.776054
0.795260 0.795260 0.795260
0.817013 0.817013 0.817013
0.841109 0.841109 0.841109
0.867474 0.867474 0.867474
0.894453 0.894453 0.894453
0.919103 0.919103 0.919103
0.793707 0.793707 0.793707
0.793953 0.793953 0.793953
0.795467 0.795467 0.795467
0.798370 0.798370 0.798370
0.802984 0.802984 0.802984
0.809662 0.809662 0.809662
0.818386 0.818386 0.818386
0.829318 0.829318 0.829318
0.842325 0.842325 0.842325
0.857758 0.857758 0.857758
0.875633 0.875633 0.875633
0.894263 0.894263 0.894263
0.912553 0.912553 0.912553
0.930094 0.930094 0.930094
0.946255 0.946255 0.946255
0.960489 0.960489 0.960489
0.883633 0.883633 0.883633
0.883748 0.883748 0.883748
0.885076 0.885076 0.885076
0.887527 0.887527 0.887527
0.891423 0.891423 0.891423
0.896821 0.896821 0.896821
0.903583 0.903583 0.903583
0.911611 0.911611 0.911611
0.920600 0.920600 0.920600
0.930368 0.930368 0.930368
0.940563 0.940563 0.940563
0.950846 0.950846 0.950846
0.960691 0.960691 0.960691
0.969985 0.969985 0.969985
0.978227 0.978227 0.978227
0.985209 0.985209 0.985209
0.949680 0.949680 0.949680
0.949839 0.949839 0.949839
0.950524 0.950524 0.950524
0.951749 0.951749 0.951749
0.953736 0.953736 0.953736
0.956483 0.956483 0.956483
0.959825 0.959825 0.959825
0.963844 0.963844 0.963844
0.968338 0.968338 0.968338
0.973110 0.973110 0.973110
0.977861 0.977861 0.977861
0.982629 0.982629 0.982629
0.987049 0.987049 0.987049
0.990945 0.990945 0.990945
0.994114 0.994114 0.994114
0.996684 0.996684 0.996684
0.984322 0.984322 0.984322
0.984374 0.984374 0.984374
0.984544 0.984544 0.984544
0.985121 0.985121 0.985121
0.985937 0.985937 0.985937
0.987055 0.987055 0.987055
0.988362 0.988362 0.988362
0.989975 0.989975 0.989975
0.991634 0.991634 0.991634
0.993323 0.993323 0.993323
0.994974 0.994974 0.994974
0.996572 0.996572 0.996572
0.997764 0.997764 0.997764
0.998747 0.998747 0.998747
0.999474 0.999474 0.999474
0.999807 0.999807 0.999807
0.024365 0.024365 0.024365
0.027735 0.027735 0.027735
0.040430 0.040430 0.040430
0.061696 0.061696 0.061696
0.089165 0.089165 0.089165
0.120479 0.120479 0.120479
0.154731 0.154731 0.154731
0.191369 0.191369 0.191369
0.230086 0.230086 0.230086
0.270582 0.270582 0.270582
0.312670 0.312670 0.312670
0.356270 0.356270 0.356270
0.401158 0.401158 0.401158
0.447392 0.447392 0.447392
0.494656 0.494655 0.494655
0.543156 0.543156 0.543156
0.035023 0.035023 0.035023
0.037894 0.037894 0.037894
0.049179 0.049179 0.049179
0.068982 0.068982 0.068982
0.095004 0.095004 0.095004
0.125271 0.125271 0.125271
0.158758 0.158758 0.158758
0.194823 0.194823 0.194823
0.233100 0.233100 0.233100
0.273243 0.273243 0.273243
0.315096 0.315096 0.315096
0.358402 0.358402 0.358402
0.403086 0.403086 0.403086
0.449224 0.449224 0.449224
0.496358 0.496358 0.496358
0.544799 0.544799 0.544799
0.069863 0.069863 0.069863
0.071932 0.071932 0.071932
0.080334 0.080334 0.080334
0.095835 0.095835 0.095835
0.117603 0.117603 0.117603
0.144385 0.144385 0.144385
0.175154 0.175154 0.175154
0.209087 0.209087 0.209087
0.245648 0.245648 0.245648
0.284420 0.284420 0.284420
0.325055 0.325055 0.325055
0.367554 0.367554 0.367554
0.411415 0.411414 0.411414
0.456876 0.456876 0.456876
0.503444 0.503444 0.503444
0.551355 0.551355 0.551355
0.119596 0.119596 0.119596
0.121031 0.121031 0.121031
0.127085 0.127085 0.127085
0.138769 0.138769 0.138769
0.156083 0.156083 0.156083
0.178544 0.178544 0.178544
0.205409 0.205409 0.205409
0.236001 0.236001 0.236001
0.269742 0.269742 0.269742
0.306122 0.306122 0.306122
0.344769 0.344769 0.344769
0.385550 0.385550 0.385550
0.427952 0.427952 0.427952
0.472109 0.472109 0.472109
0.517567 0.517567 0.517567
0.564465 0.564465 0.564465
0.177606 0.177606 0.177606
0.178706 0.178706 0.178706
0.183298 0.183298 0.183298
0.192371 0.192371 0.192371
0.206286 0.206286 0.206286
0.224897 0.224897 0.224897
0.247877 0.247877 0.247877
0.274811 0.274811 0.274811
0.305193 0.305193 0.305193
0.338597 0.338597 0.338597
0.374603 0.374603 0.374603
0.413012 0.413012 0.413012
0.453378 0.453378 0.453378
0.495725 0.495725 0.495725
0.539591 0.539591 0.539591
0.585115 0.585115 0.585115
0.241600 0.241600 0.241600
0.242450 0.242450 0.242450
0.246157 0.246157 0.246157
0.253477 0.253477 0.253477
0.264853 0.264853 0.264853
0.280460 0.280460 0.280460
0.300108 0.300108 0.300108
0.323617 0.323617 0.323617
0.350652 0.350652 0.350652
0.380867 0.380867 0.380867
0.414019 0.414019 0.414019
0.449713 0.449713 0.449713
0.487648 0.487648 0.487648
0.527784 0.527784 0.527784
0.569680 0.569680 0.569680
0.613407 0.613407 0.613407
0.310386 0.310386 0.310386
0.311090 0.311090 0.311090
0.314156 0.314156 0.314156
0.320244 0.320244 0.320244
0.329814 0.329814 0.329814
0.343096 0.343096 0.343096
0.360036 0.360036 0.360036
0.380580 0.380580 0.380580
0.404639 0.404639 0.404639
0.431846 0.431846 0.431846
0.462011 0.462011 0.462011
0.494984 0.494984 0.494984
0.530311 0.530311 0.530311
0.568049 0.568049 0.568049
0.607667 0.607667 0.607667
0.649340 0.649340 0.649340
0.383273 0.383273 0.383273
0.383841 0.383841 0.383841
0.386474 0.386474 0.386474
0.391588 0.391588 0.391588
0.399823 0.399823 0.399823
0.411279 0.411279 0.411279
0.426131 0.426131 0.426131
0.444234 0.444234 0.444234
