src/luts/test/1.cube
TITLE "Video1_WarmGolden"
LUT_3D_SIZE 8
0.182527 0.017527 0.000000
0.344050 0.012479 0.000000
0.505574 0.007431 0.000000
0.667098 0.002384 0.000000
0.828622 0.000000 0.000000
0.990146 0.000000 0.000000
1.000000 0.000000 0.000000
1.000000 0.000000 0.000000
0.177479 0.179050 0.000000
0.339003 0.174003 0.000000
0.500527 0.168955 0.000000
0.662050 0.163908 0.000000
0.823574 0.158860 0.000000
0.985098 0.153812 0.000000
1.000000 0.151444 0.000000
1.000000 0.151444 0.000000
0.172431 0.340574 0.000000
0.333955 0.335527 0.000000
0.495479 0.330479 0.000000
0.657003 0.325431 0.000000
0.818527 0.320384 0.000000
0.980050 0.315336 0.000000
1.000000 0.312968 0.000000
1.000000 0.312968 0.000000
0.167384 0.502098 0.000000
0.328908 0.497050 0.000000
0.490431 0.492003 0.000000
0.651955 0.486955 0.000000
0.813479 0.481908 0.000000
0.975003 0.476860 0.000000
1.000000 0.474491 0.000000
1.000000 0.474491 0.000000
0.162336 0.663622 0.000000
0.323860 0.658574 0.000000
0.485384 0.653527 0.000000
0.646908 0.648479 0.000000
0.808431 0.643431 0.000000
0.969955 0.638384 0.000000
1.000000 0.636015 0.000000
1.000000 0.636015 0.000000
0.157289 0.825146 0.000000
0.318812 0.820098 0.000000
0.480336 0.815050 0.000000
0.641860 0.810003 0.000000
0.803384 0.804955 0.000000
0.964908 0.799908 0.000000
1.000000 0.797539 0.000000
1.000000 0.797539 0.000000
0.152241 0.986670 0.000000
0.313765 0.981622 0.000000
0.475289 0.976574 0.000000
0.636812 0.971527 0.000000
0.798336 0.966479 0.000000
0.959860 0.961431 0.000000
1.000000 0.959063 0.000000
1.000000 0.959063 0.000000
0.149920 1.000000 0.000000
0.311444 1.000000 0.000000
0.472968 1.000000 0.000000
0.634491 1.000000 0.000000
0.796015 1.000000 0.000000
0.957539 1.000000 0.000000
1.000000 1.000000 0.000000
1.000000 1.000000 0.000000
0.182527 0.017527 0.000000
0.344050 0.012479 0.000000
0.505574 0.007431 0.000000
0.667098 0.002384 0.000000
0.828622 0.000000 0.000000
0.990146 0.000000 0.000000
1.000000 0.000000 0.000000
1.000000 0.000000 0.000000
0.177479 0.179050 0.000000
0.339003 0.174003 0.000000
0.500527 0.168955 0.000000
0.662050 0.163908 0.000000
0.823574 0.158860 0.000000
0.985098 0.153812 0.000000
1.000000 0.151444 0.000000
1.000000 0.151444 0.000000
0.172431 0.340574 0.000000
0.333955 0.335527 0.000000
0.495479 0.330479 0.000000
0.657003 0.325431 0.000000
0.818527 0.320384 0.000000
0.980050 0.315336 0.000000
1.000000 0.312968 0.000000
1.000000 0.312968 0.000000
0.167384 0.502098 0.000000
0.328908 0.497050 0.000000
0.490431 0.492003 0.000000
0.651955 0.486955 0.000000
0.813479 0.481908 0.000000
0.975003 0.476860 0.000000
1.000000 0.474491 0.000000
1.000000 0.474491 0.000000
0.162336 0.663622 0.000000
0.323860 0.658574 0.000000
0.485384 0.653527 0.000000
0.646908 0.648479 0.000000
0.808431 0.643431 0.000000
0.969955 0.638384 0.000000
1.000000 0.636015 0.000000
1.000000 0.636015 0.000000
0.157289 0.825146 0.000000
0.318812 0.820098 0.000000
0.480336 0.815050 0.000000
0.641860 0.810003 0.000000
0.803384 0.804955 0.000000
0.964908 0.799908 0.000000
1.000000 0.797539 0.000000
1.000000 0.797539 0.000000
0.152241 0.986670 0.000000
0.313765 0.981622 0.000000
0.475289 0.976574 0.000000
0.636812 0.971527 0.000000
0.798336 0.966479 0.000000
0.959860 0.961431 0.000000
1.000000 0.959063 0.000000
1.000000 0.959063 0.000000
0.149920 1.000000 0.000000
0.311444 1.000000 0.000000
0.472968 1.000000 0.000000
0.634491 1.000000 0.000000
0.796015 1.000000 0.000000
0.957539 1.000000 0.000000
1.000000 1.000000 0.000000
1.000000 1.000000 0.000000
0.178038 0.013038 0.137181
0.339562 0.007990 0.132133
0.501086 0.002943 0.127086
0.662610 0.000000 0.122038
0.824133 0.000000 0.116990
0.985657 0.000000 0.111943
1.000000 0.000000 0.109574
1.000000 0.000000 0.109574
0.172990 0.174562 0.132133
0.334514 0.169514 0.127086
0.496038 0.164467 0.122038
0.657562 0.159419 0.116990
0.819086 0.154371 0.111943
0.980610 0.149324 0.106895
1.000000 0.146955 0.104527
1.000000 0.146955 0.104527
0.167943 0.336086 0.127086
0.329467 0.331038 0.122038
0.490990 0.325990 0.116990
0.652514 0.320943 0.111943
0.814038 0.315895 0.106895
0.975562 0.310848 0.101848
1.000000 0.308479 0.099479
1.000000 0.308479 0.099479
0.162895 0.497610 0.122038
0.324419 0.492562 0.116990
0.485943 0.487514 0.111943
0.647467 0.482467 0.106895
0.808990 0.477419 0.101848
0.970514 0.472371 0.096800
1.000000 0.470003 0.094431
1.000000 0.470003 0.094431
0.157848 0.659133 0.116990
0.319371 0.654086 0.111943
0.480895 0.649038 0.106895
0.642419 0.643990 0.101848
0.803943 0.638943 0.096800
0.965467 0.633895 0.091752
1.000000 0.631527 0.089384
1.000000 0.631527 0.089384
0.152800 0.820657 0.111943
0.314324 0.815610 0.106895
0.475848 0.810562 0.101848
0.637371 0.805514 0.096800
0.798895 0.800467 0.091752
0.960419 0.795419 0.086705
1.000000 0.793050 0.084336
1.000000 0.793050 0.084336
0.147752 0.982181 0.106895
0.309276 0.977133 0.101848
0.470800 0.972086 0.096800
0.632324 0.967038 0.091752
0.793848 0.961990 0.086705
0.955371 0.956943 0.081657
1.000000 0.954574 0.079289
1.000000 0.954574 0.079289
0.145431 1.000000 0.104574
0.306955 1.000000 0.099527
0.468479 1.000000 0.094479
0.630003 1.000000 0.089431
0.791527 1.000000 0.084384
0.953050 1.000000 0.079336
1.000000 1.000000 0.076968
1.000000 1.000000 0.076968
0.172990 0.007990 0.298705
0.334514 0.002943 0.293657
0.496038 0.000000 0.288610
0.657562 0.000000 0.283562
0.819086 0.000000 0.278514
0.980610 0.000000 0.273467
1.000000 0.000000 0.271098
1.000000 0.000000 0.271098
0.167943 0.169514 0.293657
0.329467 0.164467 0.288610
0.490990 0.159419 0.283562
0.652514 0.154371 0.278514
0.814038 0.149324 0.273467
0.975562 0.144276 0.268419
1.000000 0.141908 0.266050
1.000000 0.141908 0.266050
0.162895 0.331038 0.288610
0.324419 0.325990 0.283562
0.485943 0.320943 0.278514
0.647467 0.315895 0.273467
0.808990 0.310848 0.268419
0.970514 0.305800 0.263371
1.000000 0.303431 0.261003
1.000000 0.303431 0.261003
0.157848 0.492562 0.283562
0.319371 0.487514 0.278514
0.480895 0.482467 0.273467
0.642419 0.477419 0.268419
0.803943 0.472371 0.263371
0.965467 0.467324 0.258324
1.000000 0.464955 0.255955
1.000000 0.464955 0.255955
0.152800 0.654086 0.278514
0.314324 0.649038 0.273467
0.475848 0.643990 0.268419
0.637371 0.638943 0.263371
0.798895 0.633895 0.258324
0.960419 0.628848 0.253276
1.000000 0.626479 0.250908
1.000000 0.626479 0.250908
0.147752 0.815610 0.273467
0.309276 0.810562 0.268419
0.470800 0.805514 0.263371
0.632324 0.800467 0.258324
0.793848 0.795419 0.253276
0.955371 0.790371 0.248229
1.000000 0.788003 0.245860
1.000000 0.788003 0.245860
0.142705 0.977133 0.268419
0.304229 0.972086 0.263371
0.465752 0.967038 0.258324
0.627276 0.961990 0.253276
0.788800 0.956943 0.248229
0.950324 0.951895 0.243181
1.000000 0.949527 0.240812
1.000000 0.949527 0.240812
0.140384 1.000000 0.266098
0.301908 1.000000 0.261050
0.463431 1.000000 0.256003
0.624955 1.000000 0.250955
0.786479 1.000000 0.245908
0.948003 1.000000 0.240860
1.000000 1.000000 0.238491
1.000000 1.000000 0.238491
0.167943 0.002943 0.460229
0.329467 0.000000 0.455181
0.490990 0.000000 0.450133
0.652514 0.000000 0.445086
0.814038 0.000000 0.440038
0.975562 0.000000 0.434990
1.000000 0.000000 0.432622
1.000000 0.000000 0.432622
0.162895 0.164467 0.455181
0.324419 0.159419 0.450133
0.485943 0.154371 0.445086
0.647467 0.149324 0.440038
0.808990 0.144276 0.434990
0.970514 0.139229 0.429943
1.000000 0.136860 0.427574
1.000000 0.136860 0.427574
0.157848 0.325990 0.450133
0.319371 0.320943 0.445086
0.480895 0.315895 0.440038
0.642419 0.310848 0.434990
0.803943 0.305800 0.429943
0.965467 0.300752 0.424895
1.000000 0.298384 0.422527
1.000000 0.298384 0.422527
0.152800 0.487514 0.445086
0.314324 0.482467 0.440038
0.475848 0.477419 0.434990
0.637371 0.472371 0.429943
0.798895 0.467324 0.424895
0.960419 0.462276 0.419848
1.000000 0.459908 0.417479
1.000000 0.459908 0.417479
0.147752 0.649038 0.440038
0.309276 0.643990 0.434990
0.470800 0.638943 0.429943
0.632324 0.633895 0.424895
0.793848 0.628848 0.419848
0.955371 0.623800 0.414800
1.000000 0.621431 0.412431
1.000000 0.621431 0.412431
0.142705 0.810562 0.434990
0.304229 0.805514 0.429943
0.465752 0.800467 0.424895
0.627276 0.795419 0.419848
0.788800 0.790371 0.414800
0.950324 0.785324 0.409752
1.000000 0.782955 0.407384
1.000000 0.782955 0.407384
0.137657 0.972086 0.429943
0.299181 0.967038 0.424895
0.460705 0.961990 0.419848
0.622229 0.956943 0.414800
0.783752 0.951895 0.409752
0.945276 0.946848 0.404705
1.000000 0.944479 0.402336
1.000000 0.944479 0.402336
0.135336 1.000000 0.427622
0.296860 1.000000 0.422574
0.458384 1.000000 0.417527
0.619908 1.000000 0.412479
0.781431 1.000000 0.407431
0.942955 1.000000 0.402384
1.000000 1.000000 0.400015
1.000000 1.000000 0.400015
0.162895 0.000000 0.621752
0.324419 0.000000 0.616705
0.485943 0.000000 0.611657
0.647467 0.000000 0.606610
0.808990 0.000000 0.601562
0.970514 0.000000 0.596514
1.000000 0.000000 0.594146
1.000000 0.000000 0.594146
0.157848 0.159419 0.616705
0.319371 0.154371 0.611657
0.480895 0.149324 0.606610
0.642419 0.144276 0.601562
0.803943 0.139229 0.596514
0.965467 0.134181 0.591467
1.000000 0.131812 0.589098
1.000000 0.131812 0.589098
0.152800 0.320943 0.611657
0.314324 0.315895 0.606610
0.475848 0.310848 0.601562
0.637371 0.305800 0.596514
0.798895 0.300752 0.591467
0.960419 0.295705 0.586419
1.000000 0.293336 0.584050
1.000000 0.293336 0.584050
0.147752 0.482467 0.606610
0.309276 0.477419 0.601562
0.470800 0.472371 0.596514
0.632324 0.467324 0.591467
0.793848 0.462276 0.586419
0.955371 0.457229 0.581371
1.000000 0.454860 0.579003
1.000000 0.454860 0.579003
0.142705 0.643990 0.601562
0.304229 0.638943 0.596514
0.465752 0.633895 0.591467
0.627276 0.628848 0.586419
0.788800 0.623800 0.581371
0.950324 0.618752 0.576324
1.000000 0.616384 0.573955
1.000000 0.616384 0.573955
0.137657 0.805514 0.596514
0.299181 0.800467 0.591467
0.460705 0.795419 0.586419
0.622229 0.790371 0.581371
0.783752 0.785324 0.576324
0.945276 0.780276 0.571276
1.000000 0.777908 0.568908
1.000000 0.777908 0.568908
0.132610 0.967038 0.591467
0.294133 0.961990 0.586419
0.455657 0.956943 0.581371
0.617181 0.951895 0.576324
0.778705 0.946848 0.571276
0.940229 0.941800 0.566229
1.000000 0.939431 0.563860
1.000000 0.939431 0.563860
0.130289 1.000000 0.589146
0.291812 1.000000 0.584098
0.453336 1.000000 0.579050
0.614860 1.000000 0.574003
0.776384 1.000000 0.568955
0.937908 1.000000 0.563908
1.000000 1.000000 0.561539
1.000000 1.000000 0.561539
0.157848 0.000000 0.783276
0.319371 0.000000 0.778229
0.480895 0.000000 0.773181
0.642419 0.000000 0.768133
0.803943 0.000000 0.763086
0.965467 0.000000 0.758038
1.000000 0.000000 0.755670
1.000000 0.000000 0.755670
0.152800 0.154371 0.778229
0.314324 0.149324 0.773181
0.475848 0.144276 0.768133
0.637371 0.139229 0.763086
0.798895 0.134181 0.758038
0.960419 0.129133 0.752990
1.000000 0.126765 0.750622
1.000000 0.126765 0.750622
0.147752 0.315895 0.773181
0.309276 0.310848 0.768133
0.470800 0.305800 0.763086
0.632324 0.300752 0.758038
0.793848 0.295705 0.752990
0.955371 0.290657 0.747943
1.000000 0.288289 0.745574
1.000000 0.288289 0.745574
0.142705 0.477419 0.768133
0.304229 0.472371 0.763086
0.465752 0.467324 0.758038
0.627276 0.462276 0.752990
0.788800 0.457229 0.747943
0.950324 0.452181 0.742895
1.000000 0.449812 0.740527
1.000000 0.449812 0.740527
0.137657 0.638943 0.763086
0.299181 0.633895 0.758038
0.460705 0.628848 0.752990
0.622229 0.623800 0.747943
0.783752 0.618752 0.742895
0.945276 0.613705 0.737848
1.000000 0.611336 0.735479
1.000000 0.611336 0.735479
0.132610 0.800467 0.758038
0.294133 0.795419 0.752990
0.455657 0.790371 0.747943
0.617181 0.785324 0.742895
0.778705 0.780276 0.737848
0.940229 0.775229 0.732800
1.000000 0.772860 0.730431
1.000000 0.772860 0.730431
0.127562 0.961990 0.752990
0.289086 0.956943 0.747943
0.450610 0.951895 0.742895
0.612133 0.946848 0.737848
0.773657 0.941800 0.732800
0.935181 0.936752 0.727752
1.000000 0.934384 0.725384
1.000000 0.934384 0.725384
0.125241 1.000000 0.750670
0.286765 1.000000 0.745622
0.448289 1.000000 0.740574
0.609812 1.000000 0.735527
0.771336 1.000000 0.730479
0.932860 1.000000 0.725431
1.000000 1.000000 0.723063
1.000000 1.000000 0.723063
0.154860 0.000000 0.878880
0.316384 0.000000 0.873832
0.477908 0.000000 0.868785
0.639431 0.000000 0.863737
0.800955 0.000000 0.858690
0.962479 0.000000 0.853642
1.000000 0.000000 0.851273
1.000000 0.000000 0.851273
0.149812 0.151384 0.873832
0.311336 0.146336 0.868785
0.472860 0.141289 0.863737
0.634384 0.136241 0.858690
0.795908 0.131193 0.853642
0.957431 0.126146 0.848594
1.000000 0.123777 0.846226
1.000000 0.123777 0.846226
0.144765 0.312908 0.868785
0.306289 0.307860 0.863737
0.467812 0.302812 0.858690
0.629336 0.297765 0.853642
0.790860 0.292717 0.848594
0.952384 0.287670 0.843547
1.000000 0.285301 0.841178
1.000000 0.285301 0.841178
0.139717 0.474431 0.863737
0.301241 0.469384 0.858690
0.462765 0.464336 0.853642
0.624289 0.459289 0.848594
0.785812 0.454241 0.843547
0.947336 0.449193 0.838499
1.000000 0.446825 0.836130
1.000000 0.446825 0.836130
0.134670 0.635955 0.858690
0.296193 0.630908 0.853642
0.457717 0.625860 0.848594
0.619241 0.620812 0.843547
0.780765 0.615765 0.838499
0.942289 0.610717 0.833451
1.000000 0.608349 0.831083
1.000000 0.608349 0.831083
0.129622 0.797479 0.853642
0.291146 0.792431 0.848594
0.452670 0.787384 0.843547
0.614193 0.782336 0.838499
0.775717 0.777289 0.833451
0.937241 0.772241 0.828404
1.000000 0.769872 0.826035
1.000000 0.769872 0.826035
0.124574 0.959003 0.848594
0.286098 0.953955 0.843547
0.447622 0.948908 0.838499
0.609146 0.943860 0.833451
0.770670 0.938812 0.828404
0.932193 0.933765 0.823356
1.000000 0.931396 0.820988
1.000000 0.931396 0.820988
0.122253 1.000000 0.846273
0.283777 1.000000 0.841226
0.445301 1.000000 0.836178
0.606825 1.000000 0.831130
0.768349 1.000000 0.826083
0.929872 1.000000 0.821035
1.000000 1.000000 0.818667
1.000000 1.000000 0.818667