src/luts/test/2.cube
TITLE "Video11_VibrantPop"
LUT_3D_SIZE 8
0.092800 0.000000 0.000000
0.271805 0.000000 0.000000
0.452433 0.000000 0.000000
0.633062 0.000000 0.000000
0.813690 0.000000 0.000000
0.994319 0.000000 0.000000
1.000000 0.000000 0.000000
1.000000 0.000000 0.000000
0.080455 0.172605 0.000000
0.259459 0.160259 0.000000
0.440088 0.147802 0.000000
0.620717 0.135345 0.000000
0.801345 0.122888 0.000000
0.981974 0.110431 0.000000
1.000000 0.099005 0.000000
1.000000 0.099005 0.000000
0.067998 0.353233 0.000000
0.247002 0.340888 0.000000
0.427631 0.328431 0.000000
0.608259 0.315974 0.000000
0.788888 0.303517 0.000000
0.969517 0.291059 0.000000
1.000000 0.279633 0.000000
1.000000 0.279633 0.000000
0.055541 0.533862 0.000000
0.234545 0.521517 0.000000
0.415174 0.509059 0.000000
0.595802 0.496602 0.000000
0.776431 0.484145 0.000000
0.957059 0.471688 0.000000
1.000000 0.460262 0.000000
1.000000 0.460262 0.000000
0.043083 0.714490 0.000000
0.222088 0.702145 0.000000
0.402717 0.689688 0.000000
0.583345 0.677231 0.000000
0.763974 0.664774 0.000000
0.944602 0.652317 0.000000
1.000000 0.640890 0.000000
1.000000 0.640890 0.000000
0.030626 0.895119 0.000000
0.209631 0.882774 0.000000
0.390259 0.870317 0.000000
0.570888 0.857859 0.000000
0.751517 0.845402 0.000000
0.932145 0.832945 0.000000
1.000000 0.821519 0.000000
1.000000 0.821519 0.000000
0.018169 1.000000 0.000000
0.197174 1.000000 0.000000
0.377802 1.000000 0.000000
0.558431 1.000000 0.000000
0.739059 1.000000 0.000000
0.919688 1.000000 0.000000
1.000000 1.000000 0.000000
1.000000 1.000000 0.000000
0.012800 1.000000 0.000000
0.191805 1.000000 0.000000
0.372433 1.000000 0.000000
0.553062 1.000000 0.000000
0.733690 1.000000 0.000000
0.914319 1.000000 0.000000
1.000000 1.000000 0.000000
1.000000 1.000000 0.000000
0.086855 0.000000 0.079805
0.265859 0.000000 0.067459
0.446488 0.000000 0.055002
0.627117 0.000000 0.042545
0.807745 0.000000 0.030088
0.988374 0.000000 0.017631
1.000000 0.000000 0.006205
1.000000 0.000000 0.006205
0.074510 0.166659 0.067459
0.253514 0.154314 0.055114
0.434143 0.141857 0.042657
0.614771 0.129400 0.030200
0.795400 0.116943 0.017743
0.976029 0.104486 0.005286
1.000000 0.093059 0.000000
1.000000 0.093059 0.000000
0.062053 0.347288 0.055002
0.241057 0.334943 0.042657
0.421686 0.322486 0.030200
0.602314 0.310029 0.017743
0.782943 0.297571 0.005286
0.963571 0.285114 0.000000
1.000000 0.273688 0.000000
1.000000 0.273688 0.000000
0.049595 0.527917 0.042545
0.228600 0.515571 0.030200
0.409229 0.503114 0.017743
0.589857 0.490657 0.005286
0.770486 0.478200 0.000000
0.951114 0.465743 0.000000
1.000000 0.454317 0.000000
1.000000 0.454317 0.000000
0.037138 0.708545 0.030088
0.216143 0.696200 0.017743
0.396771 0.683743 0.005286
0.577400 0.671286 0.000000
0.758029 0.658829 0.000000
0.938657 0.646371 0.000000
1.000000 0.634945 0.000000
1.000000 0.634945 0.000000
0.024681 0.889174 0.017631
0.203686 0.876829 0.005286
0.384314 0.864371 0.000000
0.564943 0.851914 0.000000
0.745571 0.839457 0.000000
0.926200 0.827000 0.000000
1.000000 0.815574 0.000000
1.000000 0.815574 0.000000
0.012224 1.000000 0.005174
0.191229 1.000000 0.000000
0.371857 1.000000 0.000000
0.552486 1.000000 0.000000
0.733114 1.000000 0.000000
0.913743 1.000000 0.000000
1.000000 0.996202 0.000000
1.000000 0.996202 0.000000
0.006855 1.000000 0.000000
0.185859 1.000000 0.000000
0.366488 1.000000 0.000000
0.547117 1.000000 0.000000
0.727745 1.000000 0.000000
0.908374 1.000000 0.000000
1.000000 1.000000 0.000000
1.000000 1.000000 0.000000
0.074398 0.000000 0.260433
0.253402 0.000000 0.248088
0.434031 0.000000 0.235631
0.614659 0.000000 0.223174
0.795288 0.000000 0.210717
0.975917 0.000000 0.198259
1.000000 0.000000 0.186833
1.000000 0.000000 0.186833
0.062053 0.154202 0.248088
0.241057 0.141857 0.235743
0.421686 0.129400 0.223286
0.602314 0.116943 0.210829
0.782943 0.104486 0.198371
0.963571 0.092029 0.185914
1.000000 0.080602 0.174488
1.000000 0.080602 0.174488
0.049595 0.334831 0.235631
0.228600 0.322486 0.223286
0.409229 0.310029 0.210829
0.589857 0.297571 0.198371
0.770486 0.285114 0.185914
0.951114 0.272657 0.173457
1.000000 0.261231 0.162031
1.000000 0.261231 0.162031
0.037138 0.515459 0.223174
0.216143 0.503114 0.210829
0.396771 0.490657 0.198371
0.577400 0.478200 0.185914
0.758029 0.465743 0.173457
0.938657 0.453286 0.161000
1.000000 0.441859 0.149574
1.000000 0.441859 0.149574
0.024681 0.696088 0.210717
0.203686 0.683743 0.198371
0.384314 0.671286 0.185914
0.564943 0.658829 0.173457
0.745571 0.646371 0.161000
0.926200 0.633914 0.148543
1.000000 0.622488 0.137117
1.000000 0.622488 0.137117
0.012224 0.876717 0.198259
0.191229 0.864371 0.185914
0.371857 0.851914 0.173457
0.552486 0.839457 0.161000
0.733114 0.827000 0.148543
0.913743 0.814543 0.136086
1.000000 0.803117 0.124659
1.000000 0.803117 0.124659
0.000000 1.000000 0.185802
0.178771 1.000000 0.173457
0.359400 1.000000 0.161000
0.540029 1.000000 0.148543
0.720657 1.000000 0.136086
0.901286 0.995171 0.123629
1.000000 0.983745 0.112202
1.000000 0.983745 0.112202
0.000000 1.000000 0.180433
0.173402 1.000000 0.168088
0.354031 1.000000 0.155631
0.534659 1.000000 0.143174
0.715288 1.000000 0.130717
0.895917 1.000000 0.118259
1.000000 1.000000 0.106833
1.000000 1.000000 0.106833
0.061941 0.000000 0.441062
0.240945 0.000000 0.428717
0.421574 0.000000 0.416259
0.602202 0.000000 0.403802
0.782831 0.000000 0.391345
0.963459 0.000000 0.378888
1.000000 0.000000 0.367462
1.000000 0.000000 0.367462
0.049595 0.141745 0.428717
0.228600 0.129400 0.416371
0.409229 0.116943 0.403914
0.589857 0.104486 0.391457
0.770486 0.092029 0.379000
0.951114 0.079571 0.366543
1.000000 0.068145 0.355117
1.000000 0.068145 0.355117
0.037138 0.322374 0.416259
0.216143 0.310029 0.403914
0.396771 0.297571 0.391457
0.577400 0.285114 0.379000
0.758029 0.272657 0.366543
0.938657 0.260200 0.354086
1.000000 0.248774 0.342659
1.000000 0.248774 0.342659
0.024681 0.503002 0.403802
0.203686 0.490657 0.391457
0.384314 0.478200 0.379000
0.564943 0.465743 0.366543
0.745571 0.453286 0.354086
0.926200 0.440829 0.341629
1.000000 0.429402 0.330202
1.000000 0.429402 0.330202
0.012224 0.683631 0.391345
0.191229 0.671286 0.379000
0.371857 0.658829 0.366543
0.552486 0.646371 0.354086
0.733114 0.633914 0.341629
0.913743 0.621457 0.329171
1.000000 0.610031 0.317745
1.000000 0.610031 0.317745
0.000000 0.864259 0.378888
0.178771 0.851914 0.366543
0.359400 0.839457 0.354086
0.540029 0.827000 0.341629
0.720657 0.814543 0.329171
0.901286 0.802086 0.316714
1.000000 0.790659 0.305288
1.000000 0.790659 0.305288
0.000000 1.000000 0.366431
0.166314 1.000000 0.354086
0.346943 1.000000 0.341629
0.527571 1.000000 0.329171
0.708200 0.995171 0.316714
0.888829 0.982714 0.304257
1.000000 0.971288 0.292831
1.000000 0.971288 0.292831
0.000000 1.000000 0.361062
0.160945 1.000000 0.348717
0.341574 1.000000 0.336259
0.522202 1.000000 0.323802
0.702831 1.000000 0.311345
0.883459 1.000000 0.298888
1.000000 1.000000 0.287462
1.000000 1.000000 0.287462
0.049483 0.000000 0.621690
0.228488 0.000000 0.609345
0.409117 0.000000 0.596888
0.589745 0.000000 0.584431
0.770374 0.000000 0.571974
0.951002 0.000000 0.559517
1.000000 0.000000 0.548090
1.000000 0.000000 0.548090
0.037138 0.129288 0.609345
0.216143 0.116943 0.597000
0.396771 0.104486 0.584543
0.577400 0.092029 0.572086
0.758029 0.079571 0.559629
0.938657 0.067114 0.547171
1.000000 0.055688 0.535745
1.000000 0.055688 0.535745
0.024681 0.309917 0.596888
0.203686 0.297571 0.584543
0.384314 0.285114 0.572086
0.564943 0.272657 0.559629
0.745571 0.260200 0.547171
0.926200 0.247743 0.534714
1.000000 0.236317 0.523288
1.000000 0.236317 0.523288
0.012224 0.490545 0.584431
0.191229 0.478200 0.572086
0.371857 0.465743 0.559629
0.552486 0.453286 0.547171
0.733114 0.440829 0.534714
0.913743 0.428371 0.522257
1.000000 0.416945 0.510831
1.000000 0.416945 0.510831
0.000000 0.671174 0.571974
0.178771 0.658829 0.559629
0.359400 0.646371 0.547171
0.540029 0.633914 0.534714
0.720657 0.621457 0.522257
0.901286 0.609000 0.509800
1.000000 0.597574 0.498374
1.000000 0.597574 0.498374
0.000000 0.851802 0.559517
0.166314 0.839457 0.547171
0.346943 0.827000 0.534714
0.527571 0.814543 0.522257
0.708200 0.802086 0.509800
0.888829 0.789629 0.497343
1.000000 0.778202 0.485917
1.000000 0.778202 0.485917
0.000000 1.000000 0.547059
0.153857 1.000000 0.534714
0.334486 1.000000 0.522257
0.515114 0.995171 0.509800
0.695743 0.982714 0.497343
0.876371 0.970257 0.484886
1.000000 0.958831 0.473459
1.000000 0.958831 0.473459
0.000000 1.000000 0.541690
0.148488 1.000000 0.529345
0.329117 1.000000 0.516888
0.509745 1.000000 0.504431
0.690374 1.000000 0.491974
0.871002 1.000000 0.479517
1.000000 1.000000 0.468090
1.000000 1.000000 0.468090
0.037026 0.000000 0.802319
0.216031 0.000000 0.789974
0.396659 0.000000 0.777517
0.577288 0.000000 0.765059
0.757917 0.000000 0.752602
0.938545 0.000000 0.740145
1.000000 0.000000 0.728719
1.000000 0.000000 0.728719
0.024681 0.116831 0.789974
0.203686 0.104486 0.777629
0.384314 0.092029 0.765171
0.564943 0.079571 0.752714
0.745571 0.067114 0.740257
0.926200 0.054657 0.727800
1.000000 0.043231 0.716374
1.000000 0.043231 0.716374
0.012224 0.297459 0.777517
0.191229 0.285114 0.765171
0.371857 0.272657 0.752714
0.552486 0.260200 0.740257
0.733114 0.247743 0.727800
0.913743 0.235286 0.715343
1.000000 0.223859 0.703917
1.000000 0.223859 0.703917
0.000000 0.478088 0.765059
0.178771 0.465743 0.752714
0.359400 0.453286 0.740257
0.540029 0.440829 0.727800
0.720657 0.428371 0.715343
0.901286 0.415914 0.702886
1.000000 0.404488 0.691459
1.000000 0.404488 0.691459
0.000000 0.658717 0.752602
0.166314 0.646371 0.740257
0.346943 0.633914 0.727800
0.527571 0.621457 0.715343
0.708200 0.609000 0.702886
0.888829 0.596543 0.690429
1.000000 0.585117 0.679002
1.000000 0.585117 0.679002
0.000000 0.839345 0.740145
0.153857 0.827000 0.727800
0.334486 0.814543 0.715343
0.515114 0.802086 0.702886
0.695743 0.789629 0.690429
0.876371 0.777171 0.677971
1.000000 0.765745 0.666545
1.000000 0.765745 0.666545
0.000000 1.000000 0.727688
0.141400 1.000000 0.715343
0.322029 0.995171 0.702886
0.502657 0.982714 0.690429
0.683286 0.970257 0.677971
0.863914 0.957800 0.665514
1.000000 0.946374 0.654088
1.000000 0.946374 0.654088
0.000000 1.000000 0.722319
0.136031 1.000000 0.709974
0.316659 1.000000 0.697517
0.497288 1.000000 0.685059
0.677917 1.000000 0.672602
0.858545 1.000000 0.660145
1.000000 1.000000 0.648719
1.000000 1.000000 0.648719
0.024569 0.000000 0.982947
0.203574 0.000000 0.970602
0.384202 0.000000 0.958145
0.564831 0.000000 0.945688
0.745459 0.000000 0.933231
0.926088 0.000000 0.920774
1.000000 0.000000 0.909347
1.000000 0.000000 0.909347
0.012224 0.104374 0.970602
0.191229 0.092029 0.958257
0.371857 0.079571 0.945800
0.552486 0.067114 0.933343
0.733114 0.054657 0.920886
0.913743 0.042200 0.908429
1.000000 0.030774 0.897002
1.000000 0.030774 0.897002
0.000000 0.285002 0.958145
0.178771 0.272657 0.945800
0.359400 0.260200 0.933343
0.540029 0.247743 0.920886
0.720657 0.235286 0.908429
0.901286 0.222829 0.895971
1.000000 0.211402 0.884545
1.000000 0.211402 0.884545
0.000000 0.465631 0.945688
0.166314 0.453286 0.933343
0.346943 0.440829 0.920886
0.527571 0.428371 0.908429
0.708200 0.415914 0.895971
0.888829 0.403457 0.883514
1.000000 0.392031 0.872088
1.000000 0.392031 0.872088
0.000000 0.646259 0.933231
0.153857 0.633914 0.920886
0.334486 0.621457 0.908429
0.515114 0.609000 0.895971
0.695743 0.596543 0.883514
0.876371 0.584086 0.871057
1.000000 0.572659 0.859631
1.000000 0.572659 0.859631
0.000000 0.826888 0.920774
0.141400 0.814543 0.908429
0.322029 0.802086 0.895971
0.502657 0.789629 0.883514
0.683286 0.777171 0.871057
0.863914 0.764714 0.858600
1.000000 0.753288 0.847174
1.000000 0.753288 0.847174
0.000000 1.000000 0.908317
0.128943 0.995171 0.895971
0.309571 0.982714 0.883514
0.490200 0.970257 0.871057
0.670829 0.957800 0.858600
0.851457 0.945343 0.846143
1.000000 0.933917 0.834717
1.000000 0.933917 0.834717
0.000000 1.000000 0.902947
0.123574 1.000000 0.890602
0.304202 1.000000 0.878145
0.484831 1.000000 0.865688
0.665459 1.000000 0.853231
0.846088 1.000000 0.840774
1.000000 1.000000 0.829347
1.000000 1.000000 0.829347
0.019200 0.000000 1.000000
0.198205 0.000000 1.000000
0.378833 0.000000 1.000000
0.559462 0.000000 1.000000
0.740090 0.000000 1.000000
0.920719 0.000000 0.998626
1.000000 0.000000 0.987200
1.000000 0.000000 0.987200
0.006855 0.099005 1.000000
0.185859 0.086659 1.000000
0.366488 0.074202 1.000000
0.547117 0.061745 1.000000
0.727745 0.049288 0.998738
0.908374 0.036831 0.986281
1.000000 0.025405 0.974855
1.000000 0.025405 0.974855
0.000000 0.279633 1.000000
0.173402 0.267288 1.000000
0.354031 0.254831 1.000000
0.534659 0.242374 0.998738
0.715288 0.229917 0.986281
0.895917 0.217459 0.973824
1.000000 0.206033 0.962398
1.000000 0.206033 0.962398
0.000000 0.460262 1.000000
0.160945 0.447917 1.000000
0.341574 0.435459 0.998738
0.522202 0.423002 0.986281
0.702831 0.410545 0.973824
0.883459 0.398088 0.961367
1.000000 0.386662 0.949941
1.000000 0.386662 0.949941
0.000000 0.640890 1.000000
0.148488 0.628545 0.998738
0.329117 0.616088 0.986281
0.509745 0.603631 0.973824
0.690374 0.591174 0.961367
0.871002 0.578717 0.948910
1.000000 0.567290 0.937483
1.000000 0.567290 0.937483
0.000000 0.821519 0.998626
0.136031 0.809174 0.986281
0.316659 0.796717 0.973824
0.497288 0.784259 0.961367
0.677917 0.771802 0.948910
0.858545 0.759345 0.936453
1.000000 0.747919 0.925026
1.000000 0.747919 0.925026
0.000000 1.000000 0.986169
0.123574 0.989802 0.973824
0.304202 0.977345 0.961367
0.484831 0.964888 0.948910
0.665459 0.952431 0.936453
0.846088 0.939974 0.923995
1.000000 0.928547 0.912569
1.000000 0.928547 0.912569
0.000000 1.000000 0.980800
0.118205 1.000000 0.968455
0.298833 1.000000 0.955998
0.479462 1.000000 0.943541
0.660090 1.000000 0.931083
0.840719 1.000000 0.918626
1.000000 1.000000 0.907200
1.000000 1.000000 0.907200