src/luts/test/3.cube
TITLE "Video6_CoolTeal"
LUT_3D_SIZE 8
0.000000 0.080267 0.155867
0.000000 0.080267 0.155867
0.132290 0.076762 0.152362
0.293299 0.072686 0.148286
0.454309 0.068610 0.144210
0.615318 0.064534 0.140134
0.776328 0.060458 0.136058
0.889200 0.057600 0.133200
0.000000 0.215680 0.152438
0.000000 0.215680 0.152438
0.128862 0.212176 0.148934
0.289871 0.208100 0.144858
0.450881 0.204023 0.140782
0.611890 0.199947 0.136706
0.772900 0.195871 0.132629
0.885772 0.193014 0.129772
0.000000 0.376690 0.148362
0.000000 0.376690 0.148362
0.124785 0.373185 0.144858
0.285795 0.369109 0.140782
0.446804 0.365033 0.136706
0.607814 0.360957 0.132629
0.768823 0.356881 0.128553
0.881696 0.354023 0.125696
0.000000 0.537699 0.144286
0.000000 0.537699 0.144286
0.120709 0.534195 0.140782
0.281719 0.530119 0.136706
0.442728 0.526042 0.132629
0.603738 0.521966 0.128553
0.764747 0.517890 0.124477
0.877619 0.515033 0.121619
0.000000 0.698709 0.140210
0.000000 0.698709 0.140210
0.116633 0.695204 0.136706
0.277642 0.691128 0.132629
0.438652 0.687052 0.128553
0.599662 0.682976 0.124477
0.760671 0.678900 0.120401
0.873543 0.676042 0.117543
0.000000 0.859718 0.136134
0.000000 0.859718 0.136134
0.112557 0.856214 0.132629
0.273566 0.852138 0.128553
0.434576 0.848062 0.124477
0.595585 0.843985 0.120401
0.756595 0.839909 0.116325
0.869467 0.837052 0.113467
0.000000 1.000000 0.132058
0.000000 1.000000 0.132058
0.108481 1.000000 0.128553
0.269490 1.000000 0.124477
0.430500 1.000000 0.120401
0.591509 1.000000 0.116325
0.752519 1.000000 0.112248
0.865391 0.998061 0.109391
0.000000 1.000000 0.131333
0.000000 1.000000 0.131333
0.107756 1.000000 0.127829
0.268766 1.000000 0.123753
0.429775 1.000000 0.119677
0.590785 1.000000 0.115600
0.751794 1.000000 0.111524
0.864667 1.000000 0.108667
0.000000 0.076838 0.291280
0.000000 0.076838 0.291280
0.128862 0.073334 0.287776
0.289871 0.069258 0.283700
0.450881 0.065182 0.279623
0.611890 0.061106 0.275547
0.772900 0.057029 0.271471
0.885772 0.054172 0.268614
0.000000 0.212252 0.287852
0.000000 0.212252 0.287852
0.125433 0.208748 0.284348
0.286443 0.204671 0.280271
0.447452 0.200595 0.276195
0.608462 0.196519 0.272119
0.769471 0.192443 0.268043
0.882344 0.189585 0.265185
0.000000 0.373262 0.283776
0.000000 0.373262 0.283776
0.121357 0.369757 0.280271
0.282367 0.365681 0.276195
0.443376 0.361605 0.272119
0.604386 0.357529 0.268043
0.765395 0.353452 0.263967
0.878267 0.350595 0.261109
0.000000 0.534271 0.279700
0.000000 0.534271 0.279700
0.117281 0.530767 0.276195
0.278290 0.526690 0.272119
0.439300 0.522614 0.268043
0.600310 0.518538 0.263967
0.761319 0.514462 0.259890
0.874191 0.511604 0.257033
0.000000 0.695281 0.275623
0.000000 0.695281 0.275623
0.113205 0.691776 0.272119
0.274214 0.687700 0.268043
0.435224 0.683624 0.263967
0.596233 0.679548 0.259890
0.757243 0.675471 0.255814
0.870115 0.672614 0.252957
0.000000 0.856290 0.271547
0.000000 0.856290 0.271547
0.109129 0.852786 0.268043
0.270138 0.848710 0.263967
0.431148 0.844633 0.259890
0.592157 0.840557 0.255814
0.753167 0.836481 0.251738
0.866039 0.833623 0.248881
0.000000 1.000000 0.267471
0.000000 1.000000 0.267471
0.105052 1.000000 0.263967
0.266062 1.000000 0.259890
0.427071 1.000000 0.255814
0.588081 1.000000 0.251738
0.749090 0.997490 0.247662
0.861963 0.994633 0.244804
0.000000 1.000000 0.266747
0.000000 1.000000 0.266747
0.104328 1.000000 0.263242
0.265338 1.000000 0.259166
0.426347 1.000000 0.255090
0.587357 1.000000 0.251014
0.748366 1.000000 0.246938
0.861238 1.000000 0.244080
0.000000 0.072762 0.452290
0.000000 0.072762 0.452290
0.124785 0.069258 0.448785
0.285795 0.065182 0.444709
0.446804 0.061106 0.440633
0.607814 0.057029 0.436557
0.768823 0.052953 0.432481
0.881696 0.050096 0.429623
0.000000 0.208176 0.448862
0.000000 0.208176 0.448862
0.121357 0.204671 0.445357
0.282367 0.200595 0.441281
0.443376 0.196519 0.437205
0.604386 0.192443 0.433129
0.765395 0.188367 0.429052
0.878267 0.185509 0.426195
0.000000 0.369185 0.444785
0.000000 0.369185 0.444785
0.117281 0.365681 0.441281
0.278290 0.361605 0.437205
0.439300 0.357529 0.433129
0.600310 0.353452 0.429052
0.761319 0.349376 0.424976
0.874191 0.346519 0.422119
0.000000 0.530195 0.440709
0.000000 0.530195 0.440709
0.113205 0.526690 0.437205
0.274214 0.522614 0.433129
0.435224 0.518538 0.429052
0.596233 0.514462 0.424976
0.757243 0.510386 0.420900
0.870115 0.507528 0.418042
0.000000 0.691204 0.436633
0.000000 0.691204 0.436633
0.109129 0.687700 0.433129
0.270138 0.683624 0.429052
0.431148 0.679548 0.424976
0.592157 0.675471 0.420900
0.753167 0.671395 0.416824
0.866039 0.668538 0.413966
0.000000 0.852214 0.432557
0.000000 0.852214 0.432557
0.105052 0.848710 0.429052
0.266062 0.844633 0.424976
0.427071 0.840557 0.420900
0.588081 0.836481 0.416824
0.749090 0.832405 0.412748
0.861963 0.829547 0.409890
0.000000 1.000000 0.428481
0.000000 1.000000 0.428481
0.100976 1.000000 0.424976
0.261986 1.000000 0.420900
0.422995 1.000000 0.416824
0.584005 0.997490 0.412748
0.745014 0.993414 0.408671
0.857886 0.990557 0.405814
0.000000 1.000000 0.427756
0.000000 1.000000 0.427756
0.100252 1.000000 0.424252
0.261262 1.000000 0.420176
0.422271 1.000000 0.416100
0.583281 1.000000 0.412023
0.744290 1.000000 0.407947
0.857162 1.000000 0.405090
0.000000 0.068686 0.613299
0.000000 0.068686 0.613299
0.120709 0.065182 0.609795
0.281719 0.061106 0.605719
0.442728 0.057029 0.601642
0.603738 0.052953 0.597566
0.764747 0.048877 0.593490
0.877619 0.046019 0.590633
0.000000 0.204100 0.609871
0.000000 0.204100 0.609871
0.117281 0.200595 0.606367
0.278290 0.196519 0.602290
0.439300 0.192443 0.598214
0.600310 0.188367 0.594138
0.761319 0.184290 0.590062
0.874191 0.181433 0.587204
0.000000 0.365109 0.605795
0.000000 0.365109 0.605795
0.113205 0.361605 0.602290
0.274214 0.357529 0.598214
0.435224 0.353452 0.594138
0.596233 0.349376 0.590062
0.757243 0.345300 0.585986
0.870115 0.342442 0.583128
0.000000 0.526119 0.601719
0.000000 0.526119 0.601719
0.109129 0.522614 0.598214
0.270138 0.518538 0.594138
0.431148 0.514462 0.590062
0.592157 0.510386 0.585986
0.753167 0.506310 0.581910
0.866039 0.503452 0.579052
0.000000 0.687128 0.597642
0.000000 0.687128 0.597642
0.105052 0.683624 0.594138
0.266062 0.679548 0.590062
0.427071 0.675471 0.585986
0.588081 0.671395 0.581910
0.749090 0.667319 0.577833
0.861963 0.664462 0.574976
0.000000 0.848138 0.593566
0.000000 0.848138 0.593566
0.100976 0.844633 0.590062
0.261986 0.840557 0.585986
0.422995 0.836481 0.581910
0.584005 0.832405 0.577833
0.745014 0.828329 0.573757
0.857886 0.825471 0.570900
0.000000 1.000000 0.589490
0.000000 1.000000 0.589490
0.096900 1.000000 0.585986
0.257910 1.000000 0.581910
0.418919 0.997490 0.577833
0.579929 0.993414 0.573757
0.740938 0.989338 0.569681
0.853810 0.986481 0.566823
0.000000 1.000000 0.588766
0.000000 1.000000 0.588766
0.096176 1.000000 0.585262
0.257185 1.000000 0.581185
0.418195 1.000000 0.577109
0.579204 1.000000 0.573033
0.740214 1.000000 0.568957
0.853086 1.000000 0.566099
0.000000 0.064610 0.774309
0.000000 0.064610 0.774309
0.116633 0.061106 0.770804
0.277642 0.057029 0.766728
0.438652 0.052953 0.762652
0.599662 0.048877 0.758576
0.760671 0.044801 0.754500
0.873543 0.041943 0.751642
0.000000 0.200023 0.770881
0.000000 0.200023 0.770881
0.113205 0.196519 0.767376
0.274214 0.192443 0.763300
0.435224 0.188367 0.759224
0.596233 0.184290 0.755148
0.757243 0.180214 0.751071
0.870115 0.177357 0.748214
0.000000 0.361033 0.766804
0.000000 0.361033 0.766804
0.109129 0.357529 0.763300
0.270138 0.353452 0.759224
0.431148 0.349376 0.755148
0.592157 0.345300 0.751071
0.753167 0.341224 0.746995
0.866039 0.338366 0.744138
0.000000 0.522042 0.762728
0.000000 0.522042 0.762728
0.105052 0.518538 0.759224
0.266062 0.514462 0.755148
0.427071 0.510386 0.751071
0.588081 0.506310 0.746995
0.749090 0.502233 0.742919
0.861963 0.499376 0.740062
0.000000 0.683052 0.758652
0.000000 0.683052 0.758652
0.100976 0.679548 0.755148
0.261986 0.675471 0.751071
0.422995 0.671395 0.746995
0.584005 0.667319 0.742919
0.745014 0.663243 0.738843
0.857886 0.660385 0.735985
0.000000 0.844062 0.754576
0.000000 0.844062 0.754576
0.096900 0.840557 0.751071
0.257910 0.836481 0.746995
0.418919 0.832405 0.742919
0.579929 0.828329 0.738843
0.740938 0.824252 0.734767
0.853810 0.821395 0.731909
0.000000 1.000000 0.750500
0.000000 1.000000 0.750500
0.092824 1.000000 0.746995
0.253833 0.997490 0.742919
0.414843 0.993414 0.738843
0.575852 0.989338 0.734767
0.736862 0.985262 0.730690
0.849734 0.982404 0.727833
0.000000 1.000000 0.749775
0.000000 1.000000 0.749775
0.092100 1.000000 0.746271
0.253109 1.000000 0.742195
0.414119 1.000000 0.738119
0.575128 1.000000 0.734042
0.736138 1.000000 0.729966
0.849010 1.000000 0.727109
0.000000 0.060534 0.935318
0.000000 0.060534 0.935318
0.112557 0.057029 0.931814
0.273566 0.052953 0.927738
0.434576 0.048877 0.923662
0.595585 0.044801 0.919585
0.756595 0.040725 0.915509
0.869467 0.037867 0.912652
0.000000 0.195947 0.931890
0.000000 0.195947 0.931890
0.109129 0.192443 0.928386
0.270138 0.188367 0.924310
0.431148 0.184290 0.920233
0.592157 0.180214 0.916157
0.753167 0.176138 0.912081
0.866039 0.173281 0.909223
0.000000 0.356957 0.927814
0.000000 0.356957 0.927814
0.105052 0.353452 0.924310
0.266062 0.349376 0.920233
0.427071 0.345300 0.916157
0.588081 0.341224 0.912081
0.749090 0.337148 0.908005
0.861963 0.334290 0.905147
0.000000 0.517966 0.923738
0.000000 0.517966 0.923738
0.100976 0.514462 0.920233
0.261986 0.510386 0.916157
0.422995 0.506310 0.912081
0.584005 0.502233 0.908005
0.745014 0.498157 0.903929
0.857886 0.495300 0.901071
0.000000 0.678976 0.919662
0.000000 0.678976 0.919662
0.096900 0.675471 0.916157
0.257910 0.671395 0.912081
0.418919 0.667319 0.908005
0.579929 0.663243 0.903929
0.740938 0.659167 0.899852
0.853810 0.656309 0.896995
0.000000 0.839985 0.915585
0.000000 0.839985 0.915585
0.092824 0.836481 0.912081
0.253833 0.832405 0.908005
0.414843 0.828329 0.903929
0.575852 0.824252 0.899852
0.736862 0.820176 0.895776
0.849734 0.817319 0.892919
0.000000 1.000000 0.911509
0.000000 1.000000 0.911509
0.088748 0.997490 0.908005
0.249757 0.993414 0.903929
0.410767 0.989338 0.899852
0.571776 0.985262 0.895776
0.732786 0.981186 0.891700
0.845658 0.978328 0.888842
0.000000 1.000000 0.910785
0.000000 1.000000 0.910785
0.088023 1.000000 0.907281
0.249033 1.000000 0.903204
0.410042 1.000000 0.899128
0.571052 1.000000 0.895052
0.732062 1.000000 0.890976
0.844934 1.000000 0.888118
0.000000 0.057600 1.000000
0.000000 0.057600 1.000000
0.109623 0.054096 1.000000
0.270633 0.050019 1.000000
0.431642 0.045943 1.000000
0.592652 0.041867 1.000000
0.753661 0.037791 1.000000
0.866533 0.034933 1.000000
0.000000 0.193014 1.000000
0.000000 0.193014 1.000000
0.106195 0.189509 1.000000
0.267204 0.185433 1.000000
0.428214 0.181357 1.000000
0.589223 0.177281 1.000000
0.750233 0.173204 1.000000
0.863105 0.170347 1.000000
0.000000 0.354023 1.000000
0.000000 0.354023 1.000000
0.102119 0.350519 1.000000
0.263128 0.346442 1.000000
0.424138 0.342366 1.000000
0.585147 0.338290 1.000000
0.746157 0.334214 1.000000
0.859029 0.331356 1.000000
0.000000 0.515033 1.000000
0.000000 0.515033 1.000000
0.098042 0.511528 1.000000
0.259052 0.507452 1.000000
0.420062 0.503376 1.000000
0.581071 0.499300 1.000000
0.742081 0.495223 1.000000
0.854953 0.492366 1.000000
0.000000 0.676042 1.000000
0.000000 0.676042 1.000000
0.093966 0.672538 1.000000
0.254976 0.668462 1.000000
0.415985 0.664385 1.000000
0.576995 0.660309 1.000000
0.738004 0.656233 1.000000
0.850877 0.653375 1.000000
0.000000 0.837052 1.000000
0.000000 0.837052 1.000000
0.089890 0.833547 1.000000
0.250900 0.829471 1.000000
0.411909 0.825395 1.000000
0.572919 0.821319 1.000000
0.733928 0.817242 1.000000
0.846800 0.814385 1.000000
0.000000 0.998061 1.000000
0.000000 0.998061 1.000000
0.085814 0.994557 1.000000
0.246823 0.990481 1.000000
0.407833 0.986404 1.000000
0.568842 0.982328 1.000000
0.729852 0.978252 1.000000
0.842724 0.975394 1.000000
0.000000 1.000000 1.000000
0.000000 1.000000 1.000000
0.085090 1.000000 1.000000
0.246099 1.000000 1.000000
0.407109 1.000000 1.000000
0.568118 1.000000 1.000000
0.729128 1.000000 1.000000
0.842000 1.000000 1.000000
0.000000 0.057600 1.000000
0.000000 0.057600 1.000000
0.109623 0.054096 1.000000
0.270633 0.050019 1.000000
0.431642 0.045943 1.000000
0.592652 0.041867 1.000000
0.753661 0.037791 1.000000
0.866533 0.034933 1.000000
0.000000 0.193014 1.000000
0.000000 0.193014 1.000000
0.106195 0.189509 1.000000
0.267204 0.185433 1.000000
0.428214 0.181357 1.000000
0.589223 0.177281 1.000000
0.750233 0.173204 1.000000
0.863105 0.170347 1.000000
0.000000 0.354023 1.000000
0.000000 0.354023 1.000000
0.102119 0.350519 1.000000
0.263128 0.346442 1.000000
0.424138 0.342366 1.000000
0.585147 0.338290 1.000000
0.746157 0.334214 1.000000
0.859029 0.331356 1.000000
0.000000 0.515033 1.000000
0.000000 0.515033 1.000000
0.098042 0.511528 1.000000
0.259052 0.507452 1.000000
0.420062 0.503376 1.000000
0.581071 0.499300 1.000000
0.742081 0.495223 1.000000
0.854953 0.492366 1.000000
0.000000 0.676042 1.000000
0.000000 0.676042 1.000000
0.093966 0.672538 1.000000
0.254976 0.668462 1.000000
0.415985 0.664385 1.000000
0.576995 0.660309 1.000000
0.738004 0.656233 1.000000
0.850877 0.653375 1.000000
0.000000 0.837052 1.000000
0.000000 0.837052 1.000000
0.089890 0.833547 1.000000
0.250900 0.829471 1.000000
0.411909 0.825395 1.000000
0.572919 0.821319 1.000000
0.733928 0.817242 1.000000
0.846800 0.814385 1.000000
0.000000 0.998061 1.000000
0.000000 0.998061 1.000000
0.085814 0.994557 1.000000
0.246823 0.990481 1.000000
0.407833 0.986404 1.000000
0.568842 0.982328 1.000000
0.729852 0.978252 1.000000
0.842724 0.975394 1.000000
0.000000 1.000000 1.000000
0.000000 1.000000 1.000000
0.085090 1.000000 1.000000
0.246099 1.000000 1.000000
0.407109 1.000000 1.000000
0.568118 1.000000 1.000000
0.729128 1.000000 1.000000
0.842000 1.000000 1.000000