src/luts/test/4.cube
LUT_3D_SIZE 6
0.070220 0.049696 0.045491
0.242312 0.033464 0.034029
0.439538 0.025942 0.029267
0.599229 0.026602 0.029549
0.715272 0.029729 0.031326
1.183293 0.050047 0.045387
0.054927 0.181997 0.027772
0.238609 0.180502 0.025539
0.439212 0.180232 0.023035
0.599272 0.180781 0.023521
0.715330 0.181930 0.025797
1.183293 0.186571 0.045382
0.051111 0.362634 0.022921
0.237863 0.362418 0.022956
0.437899 0.361979 0.023362
0.598837 0.363938 0.024702
0.715187 0.366229 0.027066
1.183293 0.370632 0.045376
0.052288 0.549620 0.024982
0.238781 0.549567 0.025145
0.439696 0.549400 0.025850
0.598516 0.549221 0.027253
0.715084 0.552805 0.029510
1.183293 0.558634 0.045362
0.055125 0.742397 0.029090
0.240314 0.742361 0.029240
0.441916 0.742344 0.029879
0.601050 0.742208 0.031131
0.714973 0.742164 0.033015
1.183292 0.749799 0.045329
0.059188 0.875998 0.034265
0.242839 0.875996 0.034394
0.445528 0.875987 0.034937
0.605008 0.875997 0.036006
0.718680 0.875982 0.037635
1.183291 0.875978 0.045282
0.067012 0.044466 0.186294
0.241382 0.032064 0.180620
0.439443 0.025890 0.178231
0.599158 0.026646 0.178703
0.715273 0.029780 0.179917
1.183293 0.050046 0.183761
0.046340 0.181865 0.179568
0.240380 0.179313 0.177764
0.450045 0.162230 0.163693
0.610430 0.133118 0.140256
0.722338 0.113612 0.125489
1.183293 0.180832 0.177551
0.036203 0.362880 0.176147
0.222112 0.365699 0.150953
0.444070 0.359834 0.137792
0.607486 0.353216 0.120803
0.721686 0.348089 0.106755
1.183293 0.368604 0.177548
0.036954 0.549768 0.176610
0.198270 0.553966 0.117304
0.436516 0.551483 0.112727
0.602257 0.547711 0.105939
0.719117 0.547165 0.098809
1.183293 0.557738 0.177551
0.041102 0.742444 0.177995
0.186184 0.746015 0.099505
0.432649 0.745026 0.097922
0.600794 0.743147 0.095314
0.716927 0.741022 0.092340
1.183292 0.749449 0.177542
0.046900 0.875997 0.180448
0.180495 0.876772 0.090723
0.432618 0.876623 0.090178
0.602213 0.876385 0.089244
0.718977 0.876081 0.088134
1.183291 0.875978 0.177540
0.059075 0.032148 0.398743
0.241042 0.028635 0.394026
0.439062 0.025752 0.389205
0.599123 0.026842 0.390598
0.715231 0.029988 0.393131
1.183293 0.050043 0.398091
0.042455 0.181710 0.395676
0.238576 0.176432 0.401562
0.449524 0.157818 0.398917
0.609802 0.131104 0.389010
0.722065 0.112803 0.381704
1.183293 0.180832 0.395609
0.036041 0.362590 0.388634
0.220733 0.364198 0.393721
0.442746 0.358960 0.387976
0.608663 0.348476 0.377686
0.727869 0.327953 0.358243
1.183293 0.362097 0.387514
0.037091 0.549717 0.389776
0.181882 0.554623 0.376289
0.432977 0.551765 0.368922
0.605814 0.545341 0.353256
0.726070 0.536443 0.332037
1.183293 0.554769 0.387526
0.041258 0.742435 0.392307
0.155173 0.747313 0.363851
0.410763 0.749816 0.323201
0.599796 0.744913 0.310225
0.721791 0.737567 0.293011
1.183292 0.748166 0.387520
0.047042 0.875994 0.396874
0.139467 0.877110 0.359696
0.386961 0.878423 0.278353
0.592946 0.877594 0.270949
0.719725 0.876392 0.260787
1.183291 0.875978 0.387511
0.056153 0.027120 0.641516
0.240767 0.026350 0.639429
0.440919 0.025759 0.635800
0.599017 0.027248 0.633958
0.715179 0.030414 0.638342
1.183293 0.050041 0.645789
0.038769 0.181161 0.642667
0.234446 0.168737 0.663750
0.449528 0.149586 0.661902
0.608618 0.127474 0.648674
0.721609 0.111280 0.641943
1.183293 0.180831 0.644572
0.035860 0.364636 0.636096
0.214028 0.363291 0.659512
0.441561 0.356660 0.651680
0.608462 0.345560 0.645710
0.727693 0.324729 0.638031
1.183293 0.362096 0.640470
0.037381 0.549605 0.633611
0.178798 0.553143 0.643123
0.431827 0.550416 0.640182
0.604251 0.544590 0.633690
0.725846 0.532581 0.621498
1.183293 0.549284 0.632946
0.041574 0.742402 0.637859
0.153936 0.746634 0.632288
0.411083 0.748222 0.622299
0.597697 0.743670 0.614352
0.722324 0.735997 0.596039
1.183292 0.746022 0.632944
0.047327 0.876004 0.645327
0.138955 0.877015 0.630404
0.373788 0.878687 0.591716
0.585717 0.877768 0.576564
0.718854 0.876385 0.559025
1.183291 0.875978 0.632941
0.055344 0.025754 0.915242
0.241314 0.025716 0.914417
0.442874 0.026180 0.912352
0.601495 0.028004 0.910817
0.715225 0.031084 0.909961
1.183293 0.050033 0.919291
0.036592 0.181246 0.917580
0.226142 0.153780 0.945564
0.448382 0.139221 0.940790
0.609270 0.122238 0.931220
0.720953 0.109139 0.921904
1.183293 0.180830 0.918866
0.035915 0.366691 0.913282
0.204160 0.360656 0.942909
0.439691 0.352574 0.937351
0.609861 0.339618 0.935875
0.727302 0.319423 0.930155
1.183293 0.362096 0.917416
0.037949 0.553186 0.910869
0.173817 0.554308 0.931096
0.429621 0.550354 0.931183
0.603465 0.542450 0.928072
0.725448 0.529784 0.924231
1.183293 0.549283 0.914663
0.042083 0.742400 0.909743
0.152084 0.745608 0.917711
0.407687 0.746731 0.923031
0.596854 0.742176 0.917236
0.721831 0.734278 0.910707
1.183292 0.742186 0.909345
0.047779 0.875994 0.919296
0.138179 0.876855 0.917655
0.371111 0.878345 0.910911
0.586572 0.877213 0.904125
0.716091 0.876038 0.889981
1.183291 0.875978 0.909342
0.058520 0.032991 0.999980
0.243157 0.030432 0.999980
0.446109 0.027140 0.999967
0.605405 0.029132 0.999942
0.718932 0.032208 0.999915
1.183293 0.050028 0.999882
0.056177 0.184526 0.999980
0.235897 0.178487 0.999980
0.444152 0.177413 0.999980
0.605213 0.175035 0.999980
0.719534 0.170188 0.999980
1.183293 0.180828 0.999882
0.042850 0.370088 0.999980
0.234676 0.367950 0.999980
0.437367 0.360967 0.999980
0.602961 0.359982 0.999980
0.718897 0.358112 0.999980
1.183293 0.362095 0.999882
0.038815 0.558638 0.999951
0.231542 0.557679 0.999980
0.436482 0.554454 0.999980
0.598727 0.548350 0.999980
0.717776 0.547129 0.999980
1.183293 0.549283 0.999882
0.043023 0.749897 0.999915
0.223816 0.749857 0.999980
0.434287 0.748458 0.999980
0.597970 0.745830 0.999980
0.715744 0.740832 0.999980
1.183292 0.742186 0.999882
0.048406 0.876003 0.999894
0.196694 0.876359 0.999980
0.427070 0.876296 0.999980
0.595258 0.876169 0.999980
0.715146 0.875835 0.999978
1.183291 0.875978 0.999882
