src/luts/test/4.cube
LUT_3D_SIZE 16
0.070220 0.049696 0.045491
0.102291 0.048453 0.044559
0.171695 0.040945 0.039219
0.242312 0.033464 0.034029
0.311004 0.029140 0.031227
0.377155 0.026922 0.029866
0.439538 0.025942 0.029267
0.497633 0.025717 0.029111
0.550937 0.025989 0.029235
0.599229 0.026602 0.029549
0.642443 0.027463 0.030024
0.680880 0.028517 0.030621
0.715272 0.029729 0.031326
1.018856 0.050069 0.045405
1.101378 0.050056 0.045399
1.183293 0.050047 0.045387
0.068650 0.073202 0.043799
0.101574 0.072427 0.042497
0.171206 0.068631 0.036783
0.242524 0.064497 0.030776
0.311454 0.062047 0.026831
0.377644 0.060821 0.024575
0.439936 0.060264 0.023423
0.497943 0.060088 0.022964
0.551194 0.060136 0.022970
0.599436 0.060328 0.023303
0.642629 0.060650 0.023866
0.680986 0.061069 0.024615
0.715394 0.061613 0.025516
1.018856 0.074172 0.045404
1.101378 0.074333 0.045399
1.183293 0.074458 0.045386
0.060677 0.125002 0.034545
0.097409 0.124603 0.033788
0.168279 0.123216 0.031264
0.240613 0.121790 0.028183
0.310450 0.120798 0.025712
0.377093 0.120276 0.024116
0.439666 0.120063 0.023253
0.497788 0.120048 0.022933
0.551086 0.120142 0.023007
0.599374 0.120305 0.023372
0.642611 0.120556 0.023950
0.680966 0.120866 0.024707
0.715363 0.121299 0.025608
1.018856 0.126895 0.045403
1.101378 0.127327 0.045397
1.183293 0.127650 0.045385
0.054927 0.181997 0.027772
0.093909 0.181871 0.027551
0.165891 0.181308 0.026732
0.238609 0.180502 0.025539
0.309156 0.180271 0.024367
0.376319 0.180196 0.023510
0.439212 0.180232 0.023035
0.497521 0.180350 0.022921
0.550949 0.180547 0.023100
0.599272 0.180781 0.023521
0.642545 0.181080 0.024128
0.680911 0.181450 0.024895
0.715330 0.181930 0.025797
1.018856 0.185391 0.045404
1.101378 0.186057 0.045395
1.183293 0.186571 0.045382
0.052409 0.241052 0.024546
0.092404 0.240990 0.024482
0.164816 0.240758 0.024224
0.237893 0.240373 0.023812
0.308076 0.239922 0.023386
0.375572 0.240255 0.023053
0.438712 0.240566 0.022919
0.497218 0.240890 0.023005
0.550727 0.241225 0.023298
0.599126 0.241548 0.023772
0.642458 0.241938 0.024413
0.680899 0.242386 0.025192
0.715282 0.243016 0.026093
1.018856 0.245569 0.045400
1.101378 0.246485 0.045391
1.183293 0.247183 0.045383
0.051394 0.301408 0.023216
0.091860 0.301391 0.023201
0.164464 0.301266 0.023134
0.237756 0.301083 0.023033
0.308190 0.300820 0.022945
0.374934 0.300547 0.022920
0.438248 0.301134 0.023010
0.496897 0.301704 0.023247
0.550538 0.302187 0.023635
0.599008 0.302618 0.024164
0.642367 0.303133 0.024829
0.680843 0.303685 0.025615
0.715240 0.304450 0.026519
1.018856 0.306590 0.045398
1.101378 0.307747 0.045387
1.183293 0.308650 0.045381
0.051111 0.362634 0.022921
0.091747 0.362606 0.022924
0.164462 0.362566 0.022932
0.237863 0.362418 0.022956
0.308454 0.362261 0.023019
0.375405 0.362148 0.023144
0.437899 0.361979 0.023362
0.496616 0.362729 0.023689
0.550294 0.363365 0.024138
0.598837 0.363938 0.024702
0.642282 0.364594 0.025384
0.680720 0.365313 0.026171
0.715187 0.366229 0.027066
1.018856 0.368172 0.045393
1.101378 0.369579 0.045382
1.183293 0.370632 0.045376
0.051252 0.424484 0.023247
0.091873 0.424469 0.023252
0.164638 0.424452 0.023292
0.238120 0.424342 0.023370
0.308827 0.424252 0.023499
0.375924 0.424171 0.023693
0.438532 0.424053 0.023968
0.496404 0.423914 0.024339
0.550130 0.424813 0.024821
0.598733 0.425499 0.025402
0.642144 0.426287 0.026086
0.680678 0.427093 0.026872
0.715208 0.428176 0.027753
1.018855 0.430108 0.045385
1.101378 0.431746 0.045381
1.183293 0.432992 0.045372
0.051665 0.486802 0.023970
0.092128 0.486798 0.023984
0.164896 0.486791 0.024031
0.238447 0.486746 0.024128
0.309239 0.486697 0.024285
0.376428 0.486615 0.024509
0.439134 0.486549 0.024814
0.497100 0.486448 0.025199
0.550000 0.486379 0.025671
0.598610 0.487233 0.026254
0.642071 0.488140 0.026935
0.680622 0.489102 0.027705
0.715157 0.490360 0.028573
1.018855 0.492318 0.045379
1.101378 0.494210 0.045372
1.183293 0.495630 0.045364
0.052288 0.549620 0.024982
0.092484 0.549614 0.024994
0.165194 0.549598 0.025044
0.238781 0.549567 0.025145
0.309662 0.549532 0.025308
0.376921 0.549470 0.025541
0.439696 0.549400 0.025850
0.497706 0.549361 0.026234
0.550656 0.549296 0.026707
0.598516 0.549221 0.027253
0.642006 0.550280 0.027918
0.680569 0.551392 0.028671
0.715084 0.552805 0.029510
1.018855 0.554845 0.045374
1.101378 0.557047 0.045366
1.183293 0.558634 0.045362
0.053082 0.613019 0.026195
0.092927 0.613017 0.026207
0.165565 0.613008 0.026256
0.239198 0.613003 0.026359
0.310160 0.612991 0.026525
0.377454 0.612958 0.026755
0.440296 0.612920 0.027052
0.498362 0.612901 0.027432
0.551335 0.612830 0.027885
0.599238 0.612771 0.028424
0.641964 0.612729 0.029035
0.680545 0.614006 0.029757
0.715027 0.615632 0.030577
1.018855 0.617776 0.045366
1.101378 0.620199 0.045362
1.183293 0.622016 0.045351
0.054031 0.677156 0.027575
0.093466 0.677154 0.027585
0.165995 0.677147 0.027635
0.239673 0.677134 0.027732
0.310717 0.677113 0.027889
0.378069 0.677104 0.028111
0.440986 0.677049 0.028403
0.499111 0.677011 0.028763
0.552107 0.676989 0.029203
0.599994 0.676966 0.029712
0.642703 0.676902 0.030298
0.680504 0.676865 0.030960
0.714975 0.678683 0.031749
1.018855 0.681007 0.045360
1.101378 0.683725 0.045350
1.183292 0.685774 0.045341
0.055125 0.742397 0.029090
0.094117 0.742394 0.029102
0.166558 0.742383 0.029147
0.240314 0.742361 0.029240
0.311433 0.742399 0.029386
0.378932 0.742354 0.029597
0.441916 0.742344 0.029879
0.500071 0.742277 0.030226
0.553152 0.742280 0.030646
0.601050 0.742208 0.031131
0.643763 0.742175 0.031695
0.681465 0.742153 0.032321
0.714973 0.742164 0.033015
1.018855 0.744711 0.045347
1.101377 0.747520 0.045337
1.183292 0.749799 0.045329
0.056361 0.808803 0.030728
0.094903 0.808802 0.030737
0.167255 0.808798 0.030781
0.241119 0.808790 0.030874
0.312371 0.808778 0.031011
0.379992 0.808761 0.031210
0.443078 0.808740 0.031477
0.501327 0.808725 0.031805
0.554442 0.808698 0.032202
0.602340 0.808671 0.032665
0.645027 0.808683 0.033196
0.682720 0.808656 0.033790
0.716216 0.808639 0.034459
1.018854 0.808648 0.045334
1.101377 0.811736 0.045328
1.183292 0.814006 0.045314
0.057729 0.853641 0.032472
0.095786 0.853641 0.032481
0.168090 0.853639 0.032522
0.242066 0.853637 0.032606
0.313479 0.853632 0.032740
0.381252 0.853639 0.032927
0.444455 0.853632 0.033178
0.502793 0.853623 0.033486
0.555959 0.853614 0.033861
0.603830 0.853604 0.034304
0.646558 0.853614 0.034814
0.684158 0.853604 0.035380
0.717657 0.853595 0.036019
1.022696 0.853593 0.045319
1.101377 0.853593 0.045308
1.183292 0.854698 0.045296
0.059188 0.875998 0.034265
0.096676 0.875998 0.034275
0.168791 0.875997 0.034312
0.242839 0.875996 0.034394
0.314366 0.875994 0.034520
0.382230 0.875991 0.034699
0.445528 0.875987 0.034937
0.503894 0.875983 0.035229
0.557106 0.876002 0.035585
0.605008 0.875997 0.036006
0.647638 0.875992 0.036483
0.685259 0.875987 0.037026
0.718680 0.875982 0.037635
1.025625 0.875978 0.045298
1.104548 0.875978 0.045292
1.183291 0.875978 0.045282
0.070027 0.049423 0.068773
0.102191 0.048153 0.068235
0.171589 0.040633 0.065599
0.242237 0.033350 0.062459
0.310964 0.029101 0.060819
0.377138 0.026909 0.060087
0.439528 0.025937 0.059797
0.497625 0.025718 0.059748
0.550934 0.025992 0.059836
0.599227 0.026603 0.060011
0.642442 0.027467 0.060265
0.680879 0.028521 0.060588
0.715271 0.029733 0.061006
1.018856 0.050069 0.068345
1.101378 0.050056 0.068508
1.183293 0.050047 0.068632
0.068449 0.073043 0.067784
0.101279 0.072318 0.067224
0.170777 0.068751 0.064541
0.244940 0.059490 0.057778
0.314541 0.051206 0.051845
0.380387 0.045508 0.047962
0.442217 0.041838 0.045580
0.499794 0.039567 0.044155
0.552646 0.038242 0.043338
0.600521 0.037583 0.042921
0.643509 0.037402 0.042784
0.681661 0.037577 0.042858
0.715972 0.038030 0.043086
1.018856 0.072910 0.067127
1.101378 0.072903 0.067122
1.183293 0.072891 0.067116
0.058884 0.125102 0.062418
0.096896 0.124633 0.061965
0.169246 0.122870 0.058145
0.243409 0.119749 0.052171
0.313951 0.116592 0.046361
0.380491 0.114246 0.041796
0.442575 0.112705 0.038544
0.500197 0.111766 0.036346
0.553047 0.111221 0.034933
0.600853 0.110936 0.034098
0.643814 0.110856 0.033694
0.681971 0.110930 0.033622
0.716150 0.111178 0.033810
1.018856 0.126306 0.067127
1.101378 0.126658 0.067123
1.183293 0.126911 0.067116
0.047487 0.182392 0.056158
0.087543 0.182697 0.050786
0.165270 0.181712 0.048889
0.240175 0.180076 0.045908
0.311589 0.178796 0.042587
0.378914 0.177740 0.039650
0.441603 0.176980 0.037351
0.499629 0.176488 0.035694
0.552678 0.176231 0.034592
0.600640 0.176109 0.033944
0.643661 0.176134 0.033648
0.681845 0.176287 0.033642
0.716071 0.176637 0.033872
1.018856 0.185044 0.067126
1.101378 0.185673 0.067122
1.183293 0.186156 0.067115
0.041043 0.241435 0.053053
0.081057 0.241944 0.042937
0.162079 0.241450 0.042142
0.237943 0.240611 0.040787
0.309338 0.239586 0.039144
0.377303 0.239300 0.037462
0.440486 0.239050 0.036035
0.498879 0.238901 0.034943
0.552165 0.238853 0.034198
0.600338 0.238876 0.033767
0.643472 0.239025 0.033614
0.681733 0.239288 0.033696
0.716023 0.239766 0.033982
1.018856 0.245341 0.067124
1.101378 0.246226 0.067121
1.183293 0.246897 0.067113
0.037741 0.301762 0.051681
0.077439 0.302255 0.038287
0.160243 0.301974 0.037941
0.236617 0.301555 0.037338
0.308459 0.300946 0.036539
0.375915 0.300271 0.035700
0.439474 0.300471 0.034903
0.498124 0.300661 0.034273
0.551666 0.300840 0.033851
0.599999 0.301030 0.033642
0.643230 0.301320 0.033632
0.681559 0.301728 0.033813
0.715892 0.302335 0.034162
1.018856 0.306444 0.067123
1.101378 0.307594 0.067119
1.183293 0.308451 0.067112
0.036247 0.362927 0.051146
0.075476 0.363337 0.035653
0.159310 0.363190 0.035502
0.235929 0.362960 0.035231
0.308012 0.362604 0.034874
0.375737 0.362189 0.034474
0.438607 0.361748 0.034111
0.497494 0.362214 0.033816
0.551195 0.362642 0.033645
0.599693 0.363038 0.033621
0.642964 0.363472 0.033743
0.681406 0.363965 0.034014
0.715786 0.364749 0.034421
1.018856 0.368030 0.067122
1.101378 0.369437 0.067115
1.183293 0.370507 0.067111
0.035847 0.424726 0.051063
0.074451 0.425082 0.034262
0.158882 0.425020 0.034205
0.235642 0.424859 0.034099
0.307862 0.424642 0.033962
0.375776 0.424333 0.033815
0.438840 0.424078 0.033688
0.496954 0.423760 0.033621
0.550774 0.424423 0.033632
0.599359 0.424979 0.033748
0.642747 0.425547 0.033980
0.681221 0.426253 0.034323
0.715610 0.427210 0.034788
1.018855 0.430004 0.067118
1.101378 0.431638 0.067112
1.183293 0.432884 0.067103
0.036143 0.486989 0.051244
0.073988 0.487323 0.033681
0.158725 0.487274 0.033669
0.235612 0.487183 0.033648
0.307916 0.487049 0.033624
0.375926 0.486864 0.033612
0.439118 0.486662 0.033630
0.497367 0.486449 0.033696
0.550398 0.486226 0.033829
0.599069 0.486938 0.034049
0.642503 0.487709 0.034354
0.681013 0.488540 0.034759
0.715501 0.489702 0.035265
1.018855 0.492246 0.067112
1.101378 0.494117 0.067105
1.183293 0.495547 0.067103
0.036923 0.549766 0.051599
0.073898 0.550065 0.033657
0.158743 0.550040 0.033667
0.235678 0.549982 0.033683
0.308064 0.549879 0.033725
0.376171 0.549758 0.033788
0.439432 0.549601 0.033889
0.497729 0.549448 0.034038
0.550885 0.549261 0.034247
0.598838 0.549125 0.034518
0.642349 0.550053 0.034882
0.680915 0.551055 0.035325
0.715387 0.552413 0.035868
1.018855 0.554821 0.067110
1.101378 0.556963 0.067104
1.183293 0.558552 0.067098
0.038055 0.613200 0.052103
0.074056 0.613438 0.034029
0.158919 0.613389 0.034052
0.235906 0.613353 0.034090
0.308350 0.613299 0.034164
0.376528 0.613231 0.034270
0.439877 0.613115 0.034412
0.498231 0.613000 0.034611
0.551434 0.612913 0.034864
0.599436 0.612746 0.035176
0.642172 0.612612 0.035559
0.680736 0.613799 0.036032
0.715285 0.615350 0.036589
1.018855 0.617716 0.067104
1.101378 0.620154 0.067099
1.183293 0.621978 0.067094
0.039450 0.677241 0.052738
0.074410 0.677521 0.034693
0.159199 0.677460 0.034721
0.236246 0.677459 0.034775
0.308738 0.677382 0.034867
0.376969 0.677343 0.034994
0.440397 0.677245 0.035163
0.498838 0.677176 0.035384
0.552048 0.677116 0.035665
0.600090 0.676994 0.036000
0.642876 0.676867 0.036399
0.680643 0.676805 0.036854
0.715173 0.678588 0.037434
1.018855 0.680982 0.067098
1.101378 0.683726 0.067094
1.183293 0.685745 0.067088
0.041066 0.742456 0.053515
0.074937 0.742654 0.035600
0.159627 0.742670 0.035631
0.236753 0.742635 0.035691
0.309358 0.742587 0.035791
0.377727 0.742579 0.035926
0.441204 0.742503 0.036108
0.499728 0.742435 0.036346
0.552984 0.742349 0.036637
0.601017 0.742357 0.036978
0.643809 0.742204 0.037392
0.681583 0.742140 0.037853
0.715166 0.742042 0.038382
1.018855 0.744682 0.067092
1.101377 0.747540 0.067088
1.183292 0.749745 0.067080
0.042863 0.808894 0.054431
0.075601 0.809093 0.036700
0.160205 0.809081 0.036729
0.237457 0.809059 0.036793
0.310225 0.809063 0.036891
0.378696 0.809015 0.037038
0.442284 0.808973 0.037233
0.500875 0.808916 0.037474
0.554189 0.808854 0.037763
0.602258 0.808810 0.038110
0.645010 0.808728 0.038520
0.682756 0.808677 0.038990
0.716361 0.808594 0.039505
1.018854 0.808648 0.067084
1.101377 0.811723 0.067078
1.183292 0.813982 0.067070
0.044819 0.853697 0.055472
0.076404 0.853739 0.037973
0.160926 0.853735 0.038004
0.238323 0.853727 0.038069
0.311235 0.853714 0.038168
0.379851 0.853717 0.038314
0.443577 0.853715 0.038505
0.502263 0.853689 0.038748
0.555610 0.853695 0.039042
0.603709 0.853672 0.039386
0.646465 0.853638 0.039788
0.684180 0.853615 0.040241
0.717716 0.853600 0.040764
1.022685 0.853593 0.067077
1.101377 0.853593 0.067069
1.183292 0.854710 0.067063
0.046868 0.875998 0.056540
0.077313 0.876039 0.039365
0.161554 0.876037 0.039392
0.239023 0.876033 0.039453
0.312056 0.876035 0.039556
0.380783 0.876037 0.039700
0.444586 0.876026 0.039888
0.503285 0.876012 0.040120
0.556719 0.875997 0.040410
0.604812 0.875992 0.040746
0.647551 0.875996 0.041145
0.685250 0.875994 0.041597
0.718717 0.875998 0.042097
1.025603 0.875978 0.067062
1.104537 0.875978 0.067062
1.183291 0.875978 0.067055
0.069198 0.048212 0.121901
0.102005 0.046374 0.122239
0.171082 0.039403 0.120742
0.241933 0.032888 0.118155
0.310846 0.028935 0.116697
0.377074 0.026850 0.116079
0.439518 0.025920 0.115872
0.497617 0.025721 0.115879
0.550920 0.026002 0.115998
0.599220 0.026618 0.116172
0.642438 0.027481 0.116413
0.680876 0.028538 0.116711
0.715268 0.029748 0.117122
1.018856 0.050069 0.120832
1.101378 0.050056 0.121276
1.183293 0.050046 0.121607
0.067584 0.072359 0.121392
0.100807 0.071626 0.121107
0.170801 0.067622 0.120277
0.244659 0.058708 0.117681
0.314327 0.050821 0.114572
0.380279 0.045325 0.112485
0.442142 0.041748 0.111253
0.499750 0.039520 0.110576
0.552588 0.038222 0.110223
0.600506 0.037578 0.110068
0.643499 0.037402 0.110075
0.681654 0.037583 0.110198
0.715964 0.038037 0.110458
1.018856 0.072910 0.120226
1.101378 0.072903 0.120584
1.183293 0.072891 0.120854
0.057773 0.124684 0.119578
0.096790 0.124184 0.118960
0.168396 0.122710 0.117743
0.242675 0.119587 0.115208
0.316587 0.112181 0.109506
0.385823 0.102057 0.101694
0.448683 0.092787 0.094636
0.505951 0.085203 0.089028
0.558043 0.079264 0.084783
0.605089 0.074688 0.081621
0.647229 0.071203 0.079276
0.684690 0.068582 0.077554
0.718382 0.066633 0.076284
1.018856 0.123744 0.117601
1.101378 0.123743 0.117601
1.183293 0.123736 0.117598
0.047086 0.182195 0.115662
0.084632 0.182738 0.113936
0.164690 0.181517 0.113127
0.241058 0.179586 0.109550
0.315220 0.176136 0.102964
0.384727 0.171483 0.095096
0.448258 0.166788 0.087503
0.506145 0.162747 0.080877
0.558536 0.159495 0.075400
0.605682 0.156990 0.070980
0.647875 0.155125 0.067469
0.685275 0.153790 0.064723
0.718941 0.152919 0.062583
1.018856 0.183552 0.117600
1.101378 0.184006 0.117602
1.183293 0.184297 0.117598
0.040902 0.241354 0.113535
0.072305 0.242411 0.108131
0.156486 0.242468 0.101882
0.237761 0.240954 0.098342
0.312310 0.238630 0.093505
0.382039 0.236372 0.087885
0.446012 0.233973 0.082343
0.504391 0.231748 0.077281
0.557301 0.229883 0.072925
0.604864 0.228360 0.069277
0.647272 0.227251 0.066301
0.684916 0.226461 0.063917
0.718654 0.226075 0.062039
1.018856 0.244372 0.117600
1.101378 0.245117 0.117601
1.183293 0.245683 0.117597
0.037687 0.301723 0.112643
0.063920 0.302794 0.104466
0.146942 0.303835 0.089592
0.233021 0.302756 0.087422
0.309167 0.301234 0.084404
0.378923 0.299386 0.080863
0.443510 0.298115 0.077060
0.502469 0.296867 0.073434
0.555880 0.295743 0.070151
0.603826 0.294769 0.067310
0.646611 0.294082 0.064913
0.684410 0.293611 0.062947
0.718366 0.293510 0.061365
1.018856 0.305769 0.117602
1.101378 0.306781 0.117599
1.183293 0.307595 0.117596
0.036231 0.362911 0.112332
0.058555 0.363886 0.102379
0.139507 0.365302 0.079999
0.229000 0.364578 0.078739
0.306307 0.363546 0.076917
0.376818 0.362288 0.074700
0.441168 0.360945 0.072292
0.500621 0.360371 0.069774
0.554492 0.359793 0.067411
0.602784 0.359232 0.065294
0.645781 0.358861 0.063452
0.683869 0.358640 0.061901
0.717926 0.358831 0.060631
1.018856 0.367554 0.117601
1.101378 0.368825 0.117598
1.183293 0.369833 0.117594
0.035845 0.424705 0.112314
0.055224 0.425553 0.101232
0.134227 0.427030 0.072964
0.226068 0.426566 0.072217
0.304148 0.425907 0.071123
0.375125 0.425048 0.069747
0.439930 0.424082 0.068197
0.498975 0.423077 0.066575
0.553166 0.422948 0.064926
0.601753 0.422746 0.063405
0.645057 0.422698 0.062046
0.683311 0.422742 0.060877
0.717479 0.423183 0.059909
1.018856 0.429621 0.117599
1.101378 0.431195 0.117596
1.183293 0.432379 0.117592
0.036151 0.486979 0.112450
0.053266 0.487755 0.100645
0.130544 0.489162 0.067902
0.224047 0.488846 0.067457
0.302612 0.488387 0.066792
0.373907 0.487808 0.065940
0.439033 0.487121 0.064951
0.498378 0.486384 0.063888
0.552029 0.485665 0.062822
0.600837 0.485763 0.061758
0.644367 0.485959 0.060795
0.682733 0.486307 0.059956
0.717138 0.486984 0.059255
1.018855 0.491979 0.117597
1.101378 0.493799 0.117593
1.183293 0.495182 0.117590
0.036934 0.549784 0.112683
0.052245 0.550425 0.100385
0.128005 0.551746 0.064299
0.222658 0.551555 0.064029
0.301570 0.551202 0.063622
0.373059 0.550819 0.063093
0.438382 0.550312 0.062475
0.497891 0.549778 0.061794
0.551766 0.549199 0.061094
0.600100 0.548624 0.060414
0.643753 0.549088 0.059755
0.682293 0.549669 0.059183
0.716709 0.550602 0.058704
1.018855 0.554612 0.117594
1.101378 0.556710 0.117590
1.183293 0.558264 0.117587
0.038066 0.613198 0.113002
0.051904 0.613759 0.100374
0.126251 0.614976 0.061758
0.221754 0.614834 0.061596
0.300904 0.614625 0.061353
0.372586 0.614326 0.061034
0.438029 0.613983 0.060645
0.497702 0.613546 0.060225
0.551723 0.613116 0.059784
0.600144 0.612655 0.059355
0.643151 0.612199 0.058954
0.681827 0.612983 0.058598
0.716368 0.614151 0.058308
1.018855 0.617607 0.117590
1.101378 0.619944 0.117587
1.183293 0.621731 0.117584
0.039460 0.677239 0.113402
0.052064 0.677803 0.100543
0.125057 0.678869 0.060026
0.221232 0.678779 0.059928
0.300568 0.678649 0.059786
0.372405 0.678436 0.059598
0.437952 0.678148 0.059368
0.497760 0.677859 0.059124
0.551835 0.677525 0.058863
0.600360 0.677160 0.058618
0.643489 0.676791 0.058391
0.681443 0.676446 0.058208
0.716063 0.677858 0.058060
1.018855 0.680914 0.117586
1.101378 0.683537 0.117583
1.183292 0.685482 0.117583
0.041082 0.742452 0.113938
0.052623 0.742933 0.100905
0.124264 0.743932 0.058894
0.221043 0.743830 0.058840
0.300614 0.743785 0.058766
0.372560 0.743685 0.058665
0.438249 0.743382 0.058547
0.498148 0.743135 0.058417
0.552334 0.742848 0.058287
0.600944 0.742589 0.058167
0.644103 0.742358 0.058073
0.682092 0.742012 0.058004
0.715769 0.741690 0.057987
1.018855 0.744609 0.117582
1.101377 0.747427 0.117582
1.183292 0.749687 0.117578
0.042873 0.808893 0.114606
0.053495 0.809356 0.101458
0.123788 0.810230 0.058250
0.221159 0.810167 0.058231
0.300966 0.810118 0.058195
0.373078 0.809989 0.058153
0.438918 0.809846 0.058106
0.498911 0.809646 0.058055
0.553188 0.809418 0.058012
0.601836 0.809210 0.057990
0.645028 0.808994 0.057990
0.683034 0.808718 0.058016
0.716726 0.808491 0.058085
1.018854 0.808648 0.117581
1.101377 0.811745 0.117577
1.183292 0.813879 0.117574
0.044830 0.853696 0.115390
0.054632 0.853824 0.102160
0.123540 0.854185 0.057998
0.221485 0.854172 0.057993
0.301592 0.854145 0.057988
0.373882 0.854114 0.057986
0.439882 0.854083 0.057988
0.499978 0.854039 0.057998
0.554344 0.853947 0.058019
0.603001 0.853848 0.058062
0.646226 0.853776 0.058131
0.684277 0.853685 0.058231
0.717910 0.853599 0.058364
1.022637 0.853593 0.117575
1.101377 0.853593 0.117572
1.183292 0.854686 0.117568
0.046876 0.875998 0.116101
0.055968 0.876123 0.102817
0.123501 0.876302 0.058064
0.221772 0.876298 0.058077
0.302051 0.876273 0.058093
0.374509 0.876262 0.058117
0.440581 0.876249 0.058150
0.500808 0.876208 0.058202
0.555180 0.876159 0.058269
0.603916 0.876119 0.058356
0.647114 0.876114 0.058469
0.685101 0.876049 0.058620
0.718813 0.876006 0.058795
1.025517 0.875978 0.117569
1.104491 0.875978 0.117566
1.183291 0.875978 0.117565
0.067012 0.044466 0.186294
0.101089 0.042677 0.186055
0.170494 0.037301 0.183755
0.241382 0.032064 0.180620
0.310570 0.028627 0.179086
0.376964 0.026735 0.178426
0.439443 0.025890 0.178231
0.497557 0.025726 0.178290
0.550886 0.026022 0.178483
0.599158 0.026646 0.178703
0.642464 0.027512 0.179010
0.680890 0.028569 0.179387
0.715273 0.029780 0.179917
1.018856 0.050069 0.182454
1.101378 0.050055 0.183200
1.183293 0.050046 0.183761
0.065450 0.070859 0.184920
0.099800 0.070141 0.184225
0.170865 0.065266 0.184747
0.244087 0.057241 0.182389
0.313902 0.050088 0.179667
0.380029 0.044961 0.177743
0.442007 0.041571 0.176568
0.499654 0.039435 0.175942
0.552559 0.038182 0.175660
0.600459 0.037562 0.175549
0.643481 0.037401 0.175593
0.681649 0.037589 0.175798
0.715948 0.038054 0.176172
1.018856 0.072910 0.182093
1.101378 0.072902 0.182767
1.183293 0.072891 0.183299
0.055682 0.124155 0.183830
0.095595 0.123750 0.182987
0.167957 0.122013 0.182122
0.242468 0.118831 0.180600
0.316506 0.111064 0.178563
0.385634 0.101228 0.174599
0.448459 0.092243 0.170468
0.505798 0.084855 0.167091
0.557959 0.079031 0.164557
0.605004 0.074544 0.162686
0.647200 0.071111 0.161356
0.684665 0.068524 0.160487
0.718399 0.066592 0.159984
1.018856 0.123743 0.180497
1.101378 0.123743 0.180954
1.183293 0.123736 0.181310
0.046340 0.181865 0.179568
0.083325 0.182214 0.180599
0.164232 0.181137 0.179329
0.240380 0.179313 0.177764
0.313541 0.176364 0.175229
0.383597 0.171355 0.171039
0.450045 0.162230 0.163693
0.509954 0.151872 0.155252
0.563219 0.141946 0.147241
0.610430 0.133118 0.140256
0.652217 0.125504 0.134363
0.689139 0.119048 0.129492
0.722338 0.113612 0.125489
1.018856 0.180838 0.177556
1.101378 0.180835 0.177554
1.183293 0.180832 0.177551
0.040624 0.241197 0.177368
0.071669 0.242119 0.176342
0.157148 0.241893 0.174899
0.237028 0.240547 0.173143
0.311430 0.238572 0.170506
0.382385 0.235491 0.165248
0.448815 0.230480 0.157290
0.509129 0.224420 0.148255
0.562997 0.218226 0.139264
0.610713 0.212477 0.130940
0.652774 0.207434 0.123510
0.689806 0.203169 0.117022
0.723252 0.199720 0.111412
1.018856 0.242600 0.177556
1.101378 0.243064 0.177553
1.183293 0.243406 0.177551
0.037587 0.301642 0.176440
0.063613 0.302645 0.173403
0.143304 0.304010 0.166388
0.231374 0.302723 0.164662
0.309010 0.301107 0.160462
0.380722 0.298556 0.154736
0.447010 0.295644 0.147765
0.507204 0.292177 0.140337
0.561200 0.288562 0.132992
0.609211 0.285111 0.126083
0.651578 0.282001 0.119788
0.688957 0.279370 0.114188
0.722477 0.277339 0.109244
1.018856 0.304532 0.177555
1.101378 0.305330 0.177552
1.183293 0.305958 0.177550
0.036203 0.362880 0.176147
0.058408 0.363769 0.171680
0.129806 0.365979 0.157819
0.222112 0.365699 0.150953
0.304237 0.364278 0.147466
0.377696 0.362255 0.142987
0.444070 0.359834 0.137792
0.504648 0.357686 0.132065
0.559061 0.355414 0.126320
0.607486 0.353216 0.120803
0.650242 0.351128 0.115652
0.687921 0.349371 0.110968
0.721686 0.348089 0.106755
1.018856 0.366681 0.177554
1.101378 0.367730 0.177551
1.183293 0.368604 0.177548
0.035847 0.424686 0.176150
0.055150 0.425513 0.170744
0.118765 0.427958 0.151126
0.212710 0.428499 0.137678
0.298910 0.427364 0.135209
0.374080 0.425848 0.132016
0.441363 0.424024 0.128261
0.501935 0.421991 0.124151
