src/luts/sample/4-sample.cube
TITLE "Generated by Resolve"
LUT_3D_SIZE 33
0 0 0
0.0200046 0.00177005 0.0155337
0.0320592 0.00479133 0.0420844
0.0482185 0.00721752 0.0633097
0.0673381 0.0100862 0.0884108
0.0899214 0.013489 0.117556
0.11284 0.0175021 0.146777
0.13576 0.0221256 0.176104
0.158968 0.0273747 0.204776
0.183917 0.0330663 0.229313
0.210773 0.0390631 0.249317
0.239399 0.045243 0.264912
0.269764 0.0513466 0.276188
0.301701 0.0571908 0.28336
0.334325 0.0627909 0.288624
0.366995 0.0683146 0.293431
0.398993 0.074052 0.299779
0.430274 0.0804456 0.307485
0.460838 0.0869764 0.31635
0.490745 0.0938582 0.326406
0.519951 0.101198 0.337667
0.548516 0.10901 0.350179
0.576425 0.117296 0.363973
0.603647 0.126116 0.379034
0.630488 0.135271 0.394644
0.657359 0.144488 0.409705
0.684215 0.153826 0.424186
0.711101 0.16321 0.438117
0.738018 0.172671 0.451453
0.764981 0.182132 0.464393
0.791928 0.191623 0.47715
0.818891 0.201114 0.489708
0.845853 0.210636 0.502052
0 0.0336156 0.0683909
0 0.0361028 0.0894636
0.000396735 0.038529 0.110658
0.0164797 0.041001 0.130022
0.035584 0.043946 0.15082
0.0583047 0.0474556 0.173205
0.0849317 0.051545 0.196704
0.112856 0.0561685 0.218769
0.141451 0.061265 0.23827
0.170993 0.0667277 0.254841
0.201526 0.0724346 0.268223
0.233249 0.0784161 0.278325
0.266102 0.0838636 0.285054
0.299306 0.0890059 0.290181
0.332494 0.0938888 0.294743
0.364996 0.0987869 0.300572
0.396735 0.103868 0.307668
0.427787 0.109209 0.315831
0.458137 0.114916 0.325109
0.487785 0.12105 0.335515
0.516808 0.127565 0.347143
0.545159 0.134569 0.359945
0.572869 0.142061 0.373968
0.6 0.150027 0.38909
0.627054 0.158145 0.403983
0.654032 0.166506 0.418418
0.681025 0.17499 0.432303
0.70808 0.183536 0.44567
0.735164 0.192187 0.458488
0.762203 0.200946 0.471122
0.789273 0.209751 0.483543
0.816327 0.218616 0.495811
0.843366 0.227543 0.507912
0 0.067277 0.13489
0 0.06981 0.152377
0 0.072343 0.168582
0 0.0748913 0.183886
0.00448615 0.0781415 0.200488
0.028336 0.0816358 0.217227
0.0574502 0.0855421 0.233341
0.0921187 0.0897841 0.248219
0.126528 0.0942397 0.261341
0.160464 0.0988174 0.272312
0.194491 0.10338 0.280797
0.228885 0.10779 0.286732
0.263127 0.112062 0.291569
0.297108 0.116182 0.295888
0.330282 0.120333 0.301289
0.36257 0.124651 0.307881
0.394125 0.129213 0.31545
0.424994 0.134035 0.324056
0.455177 0.139193 0.33373
0.484642 0.144778 0.344533
0.513466 0.150774 0.356435
0.541695 0.157198 0.369543
0.569207 0.164126 0.383841
0.596384 0.171435 0.39855
0.62356 0.178882 0.412833
0.650767 0.186481 0.426642
0.677913 0.194278 0.439948
0.705119 0.202197 0.452781
0.732296 0.210254 0.465232
0.759426 0.218463 0.477546
0.786648 0.226642 0.489693
0.813779 0.235004 0.501671
0.840955 0.243381 0.513603
0 0.100023 0.188708
0 0.102235 0.202319
0 0.104417 0.214343
0 0.106554 0.225055
0 0.109041 0.236149
0.00334173 0.111894 0.247379
0.0351263 0.115053 0.258183
0.0733043 0.118441 0.268086
0.114061 0.122026 0.276631
0.15227 0.125673 0.283436
0.189303 0.12929 0.288533
0.225223 0.132891 0.292958
0.260426 0.136431 0.297032
0.29453 0.140002 0.302113
0.327535 0.143755 0.308293
0.359762 0.147662 0.315358
0.39118 0.151843 0.323384
0.421836 0.156344 0.332403
0.451881 0.16112 0.342443
0.481224 0.166308 0.353536
0.50988 0.171923 0.365774
0.537896 0.177966 0.379156
0.565362 0.184436 0.393469
0.592782 0.191089 0.407553
0.620127 0.198001 0.421241
0.647456 0.205081 0.434485
0.674769 0.212329 0.447318
0.702098 0.219745 0.459648
0.729397 0.227298 0.471794
0.756634 0.235004 0.483803
0.783871 0.242802 0.495689
0.811215 0.250614 0.507393
0.838514 0.258503 0.519234
0 0.132006 0.233738
0 0.133867 0.242237
0 0.135683 0.249775
0 0.137469 0.256474
0 0.139513 0.263401
0 0.141817 0.270344
0.0145724 0.144381 0.276905
0.0559701 0.147112 0.282689
0.102647 0.14995 0.287373
0.144854 0.152865 0.291539
0.184085 0.155795 0.295369
0.221241 0.158785 0.299321
0.256672 0.161852 0.304295
0.290761 0.165072 0.31017
0.323827 0.168444 0.316854
0.355932 0.172076 0.324407
0.387243 0.175937 0.332891
0.417777 0.180133 0.342321
0.447669 0.184604 0.352743
0.476829 0.189471 0.364233
0.505348 0.19472 0.376806
0.533257 0.200366 0.390463
0.560906 0.206332 0.404196
0.58851 0.212482 0.417594
0.616053 0.21886 0.430625
0.643549 0.225437 0.443275
0.671031 0.232212 0.455528
0.698528 0.239094 0.46743
0.725948 0.246174 0.47924
0.753384 0.253346 0.490929
0.780758 0.260655 0.502525
0.808225 0.267994 0.514015
0.835554 0.275502 0.525734
0 0.164157 0.265721
0 0.165698 0.270558
0 0.167178 0.274784
0 0.168627 0.278492
0 0.170275 0.2822
0 0.172122 0.285771
0 0.174151 0.289113
0.0411536 0.176318 0.29247
0.0914168 0.178592 0.29572
0.137072 0.180957 0.299062
0.177768 0.183429 0.303197
0.215518 0.186007 0.308141
0.251286 0.188754 0.313817
0.285542 0.191684 0.320211
0.318639 0.194797 0.327428
0.350759 0.198138 0.33547
0.381964 0.20177 0.344396
0.412467 0.205646 0.354284
0.442161 0.209903 0.365118
0.471214 0.21445 0.377005
0.49958 0.219409 0.389944
0.527657 0.224628 0.403159
0.55552 0.230137 0.416129
0.583413 0.235782 0.428794
0.611215 0.241657 0.441123
0.638911 0.247776 0.453117
0.666682 0.254002 0.464744
0.69427 0.260471 0.476265
0.721935 0.267002 0.487739
0.749523 0.273701 0.499092
0.777096 0.280522 0.510307
0.804562 0.287495 0.521706
0.832074 0.294499 0.533272
0 0.196231 0.285267
0 0.197452 0.28751
0 0.198627 0.289586
0 0.199771 0.291508
0 0.201068 0.293614
0 0.202533 0.295872
0 0.204135 0.298314
0.0264897 0.20589 0.301274
0.0781109 0.207767 0.30486
0.12665 0.209796 0.309117
0.168887 0.211978 0.313954
0.207538 0.214298 0.319417
0.243809 0.216815 0.325612
0.27837 0.219516 0.332509
0.31165 0.222416 0.3402
0.343816 0.225559 0.348714
0.375082 0.228946 0.358129
0.405509 0.232624 0.368429
0.435157 0.236606 0.379736
0.464103 0.240925 0.391989
0.492683 0.245518 0.404532
0.521035 0.250355 0.416892
0.549325 0.255375 0.429023
0.577508 0.260609 0.440909
0.60557 0.266056 0.452506
0.633616 0.271672 0.463798
0.66157 0.27747 0.474968
0.689403 0.283452 0.486091
0.71725 0.28954 0.497154
0.745022 0.295796 0.508125
0.772763 0.302159 0.519158
0.800473 0.308614 0.530358
0.828107 0.315175 0.541787
0 0.228016 0.29691
0 0.228962 0.298497
0 0.229892 0.300145
0 0.230793 0.301854
0 0.23183 0.303944
0 0.233036 0.306554
0 0.234394 0.309636
0.0081178 0.235889 0.313207
0.0592203 0.237552 0.317296
0.11191 0.239353 0.321981
0.156558 0.241321 0.32726
0.196582 0.243458 0.333211
0.233692 0.245792 0.339849
0.268864 0.248295 0.347204
0.302464 0.251041 0.355367
0.334905 0.253986 0.36437
0.366201 0.257221 0.374212
0.396689 0.2607 0.384955
0.426337 0.2645 0.396597
0.455665 0.268498 0.408331
0.484672 0.272755 0.419944
0.513573 0.277165 0.431418
0.542275 0.281788 0.44271
0.570764 0.286656 0.453803
0.599176 0.291707 0.464622
0.627497 0.29691 0.475364
0.655695 0.302296 0.486091
0.683803 0.307836 0.496818
0.71191 0.313497 0.507424
0.739895 0.31931 0.51809
0.767819 0.325261 0.528954
0.795727 0.331258 0.540017
0.823514 0.337423 0.551278
0 0.259541 0.309621
0 0.260334 0.311574
0 0.261112 0.313573
0 0.261875 0.315587
0 0.26276 0.317968
0 0.263813 0.320851
0 0.265019 0.324208
0 0.266361 0.328115
0.0352026 0.267857 0.33257
0.0909438 0.26952 0.337636
0.139528 0.271336 0.343328
0.181765 0.27332 0.349676
0.220279 0.275502 0.356741
0.256291 0.277897 0.364569
0.290532 0.280476 0.373175
0.323278 0.283314 0.382589
0.354925 0.286381 0.392859
0.385748 0.289677 0.403647
0.416083 0.293187 0.414435
0.445991 0.29691 0.425223
0.4757 0.300801 0.43592
0.505013 0.304921 0.44651
0.534127 0.309239 0.456977
0.563119 0.313726 0.467231
0.591943 0.318379 0.47747
0.620569 0.323232 0.487739
0.649149 0.328176 0.498039
0.67747 0.333379 0.508278
0.705867 0.338628 0.518547
0.734127 0.34403 0.529015
0.762325 0.349523 0.539696
0.790341 0.3552 0.550622
0.818311 0.360967 0.561715
0 0.291112 0.32607
0 0.291798 0.328206
0 0.292485 0.330343
0 0.293156 0.33254
0 0.293965 0.335134
0 0.294911 0.338216
0 0.29601 0.341848
0 0.29723 0.346044
0.00480659 0.298634 0.35082
0.0603189 0.300175 0.356237
0.115663 0.301915 0.362295
0.161685 0.303792 0.369024
0.202457 0.305852 0.376486
0.239841 0.308156 0.38471
0.275135 0.310613 0.393713
0.308705 0.313329 0.403265
0.341344 0.316197 0.41297
0.37319 0.319265 0.422766
0.404379 0.32253 0.432593
0.435126 0.325978 0.442435
0.465446 0.329595 0.452247
0.49543 0.33341 0.461952
0.525109 0.337423 0.471611
0.55462 0.341558 0.4813
0.583795 0.345907 0.491051
0.612833 0.350408 0.500847
0.641749 0.355032 0.510613
0.670451 0.359838 0.520485
0.699107 0.364736 0.530571
0.727672 0.369741 0.540887
0.755993 0.374929 0.551385
0.78436 0.380163 0.562142
0.812467 0.385611 0.573098
0 0.32282 0.34583
0 0.323445 0.348119
0 0.324071 0.350423
0 0.324697 0.352758
0 0.32546 0.355505
0 0.326345 0.358801
0 0.327352 0.362676
0 0.328511 0.367132
0 0.329824 0.372198
0.0213474 0.331304 0.37792
0.081178 0.332952 0.384314
0.134066 0.334752 0.391394
0.178607 0.336751 0.399161
0.218753 0.338918 0.407294
0.256168 0.341253 0.415702
0.291722 0.343771 0.424277
0.325872 0.346456 0.433021
0.358984 0.34931 0.441901
0.391287 0.352346 0.450813
0.422934 0.355566 0.459754
0.454063 0.358938 0.468666
0.484764 0.362478 0.477668
0.514992 0.366232 0.486778
0.544991 0.370092 0.495964
0.574685 0.374136 0.505241
0.604212 0.378317 0.514519
0.633494 0.382635 0.523964
0.662593 0.387091 0.533623
0.691615 0.391623 0.543526
0.720409 0.396338 0.553628
0.74905 0.401175 0.563989
0.777661 0.406073 0.574563
0.806104 0.411124 0.585351
0 0.354757 0.368994
0 0.355337 0.37142
0 0.355932 0.373846
0 0.356527 0.376318
0 0.357229 0.379232
0 0.358053 0.382727
0 0.359045 0.386786
0 0.360143 0.391485
0 0.361425 0.396811
0 0.362829 0.40267
0.0324712 0.364401 0.408942
0.0957351 0.36611 0.415579
0.148333 0.367987 0.422553
0.193378 0.370016 0.429801
0.23415 0.372198 0.437293
0.272068 0.374578 0.444984
0.308232 0.377066 0.452857
0.342901 0.379751 0.460838
0.376486 0.382605 0.468864
0.409171 0.385626 0.477058
0.441291 0.388754 0.485374
0.47277 0.392065 0.493858
0.503777 0.395529 0.502449
0.534432 0.39913 0.511147
0.564721 0.402884 0.51989
0.594736 0.406775 0.528908
0.624491 0.410788 0.53814
0.654032 0.414923 0.547616
0.683314 0.419211 0.557321
0.712474 0.423606 0.567254
0.741482 0.428092 0.577447
0.770367 0.4327 0.587839
0.798978 0.437491 0.598505
0 0.386923 0.395621
0 0.387488 0.398184
0 0.388052 0.400687
0 0.388632 0.403189
0 0.389303 0.406088
0 0.390097 0.409506
0 0.391028 0.413382
0 0.392081 0.417716
0 0.393271 0.422461
0 0.394598 0.427634
0 0.396063 0.433173
0.0437629 0.397681 0.439033
0.109804 0.399451 0.445212
0.162615 0.401373 0.451682
0.208209 0.403418 0.458381
0.249577 0.405631 0.465248
0.288075 0.408011 0.472251
0.324758 0.410513 0.479515
0.359899 0.413169 0.486961
0.393896 0.415991 0.494606
0.42707 0.418921 0.502449
0.45948 0.422019 0.51043
0.491417 0.425238 0.518471
0.522728 0.428611 0.526772
0.553658 0.43212 0.535317
0.584253 0.435737 0.544106
0.614496 0.43949 0.55317
0.64445 0.443366 0.562432
0.674205 0.447364 0.571969
0.703761 0.451453 0.581735
0.733043 0.455711 0.591775
0.762188 0.46006 0.602014
0.791272 0.464469 0.612497
0 0.419287 0.423499
0 0.419821 0.425696
0 0.420356 0.427909
0 0.420874 0.430091
0 0.421515 0.432624
0 0.422278 0.435599
0 0.423148 0.439002
0 0.424155 0.442786
0 0.425284 0.446983
0 0.426535 0.451514
0 0.427924 0.456397
0 0.42945 0.461585
0.0564584 0.431128 0.467048
0.124025 0.432929 0.472755
0.177157 0.434867 0.478752
0.223133 0.436942 0.485008
0.265049 0.439155 0.491554
0.304112 0.441505 0.498299
0.341207 0.443992 0.505287
0.376822 0.446616 0.512428
0.411322 0.449378 0.519707
0.444846 0.452277 0.527276
0.477623 0.455299 0.535073
0.509865 0.458427 0.543191
0.541558 0.461677 0.551522
0.572702 0.465095 0.560128
0.603525 0.468605 0.568994
0.633982 0.472251 0.578103
0.664317 0.475944 0.587442
0.694148 0.47985 0.59707
0.723842 0.483833 0.606912
0.75346 0.487861 0.616999
0.782788 0.492058 0.627344
0 0.451743 0.449729
0 0.452247 0.451652
0 0.45275 0.453559
0 0.453254 0.455482
0 0.453864 0.45771
0 0.454582 0.460304
0 0.455406 0.463264
0 0.456367 0.46659
0 0.457435 0.470222
0 0.458625 0.47422
0 0.459922 0.478553
0 0.461357 0.483223
0 0.462943 0.488182
0.0716716 0.464637 0.493462
0.138537 0.466468 0.499016
0.191714 0.468421 0.504829
0.238315 0.470466 0.510887
0.280507 0.472709 0.517159
0.320134 0.475029 0.523674
0.357733 0.47747 0.530434
0.393729 0.480064 0.537499
0.428595 0.482765 0.544854
0.462516 0.485588 0.552468
0.495583 0.488548 0.560357
0.52813 0.491585 0.568505
0.560067 0.494759 0.576944
0.59147 0.498085 0.585611
0.622599 0.501472 0.594568
0.653391 0.504967 0.603754
0.683757 0.508629 0.613199
0.71397 0.512337 0.622904
0.743862 0.516197 0.632822
0.773541 0.52015 0.643015
0 0.484291 0.474311
0 0.484779 0.476005
0 0.485252 0.477668
0 0.48574 0.479362
0 0.486305 0.481315
0 0.486992 0.483635
0 0.487755 0.486275
0 0.488655 0.489296
0 0.489677 0.492638
0 0.490791 0.4963
0 0.492027 0.500282
0 0.4934 0.50457
0 0.494865 0.509148
0.00500496 0.496468 0.514046
0.0871138 0.498192 0.519142
0.153277 0.500008 0.524544
0.206683 0.501945 0.530236
0.253346 0.504036 0.536248
0.296101 0.506218 0.54255
0.336141 0.508507 0.549126
0.374075 0.510933 0.555978
0.410498 0.513466 0.563165
0.44564 0.516136 0.570596
0.479927 0.518883 0.578286
0.513329 0.521767 0.586267
0.546181 0.524742 0.594522
0.578363 0.52784 0.603021
0.610208 0.531014 0.611811
0.641443 0.534356 0.620844
0.672465 0.537758 0.630106
0.703059 0.541299 0.639673
0.733486 0.5449 0.64947
0.763638 0.548608 0.659495
0 0.516899 0.497887
0 0.517342 0.499428
0 0.5178 0.500969
0 0.518257 0.502495
0 0.518791 0.504311
0 0.519432 0.506416
0 0.52018 0.508827
0 0.521004 0.511604
0 0.521981 0.514672
0 0.523033 0.518029
0 0.524208 0.521675
0 0.525475 0.525643
0 0.526848 0.529931
0 0.528374 0.534539
0.0175479 0.529961 0.539437
0.103044 0.531685 0.54464
0.168124 0.533516 0.550179
0.221393 0.53547 0.555993
0.26862 0.537499 0.562112
0.311681 0.539666 0.568505
0.351919 0.54197 0.575204
0.390341 0.54432 0.582193
0.4271 0.546822 0.589441
0.462669 0.549416 0.596979
0.497215 0.552132 0.604776
0.530968 0.55494 0.612863
0.563989 0.557885 0.621195
0.596613 0.560861 0.629831
0.62855 0.564004 0.638697
0.660121 0.567239 0.647822
0.691417 0.57052 0.657206
0.72221 0.573968 0.66688
0.752758 0.577508 0.676783
0 0.549508 0.520897
0 0.54995 0.522316
0 0.550362 0.523705
0 0.550805 0.525124
0 0.551308 0.526787
0 0.551888 0.528756
0 0.552621 0.530999
0 0.553399 0.533578
0 0.554299 0.536461
0 0.555276 0.539666
0 0.55639 0.543145
0 0.55758 0.546975
0 0.558892 0.551125
0 0.560296 0.555581
0 0.561807 0.560327
0.0315251 0.563424 0.565377
0.1187 0.565148 0.570718
0.18294 0.566979 0.576379
0.236316 0.568917 0.582315
0.28365 0.570947 0.588556
0.327062 0.573083 0.595102
0.367788 0.575326 0.601907
0.406531 0.577661 0.608988
0.44358 0.580133 0.616388
0.479438 0.582696 0.624033
0.514336 0.585351 0.631968
0.548424 0.588098 0.640146
0.581765 0.590951 0.6486
0.614557 0.593896 0.657343
0.646708 0.596979 0.666316
0.678599 0.600092 0.675563
0.710063 0.603326 0.6851
0.741176 0.606653 0.69485
0 0.582116 0.54374
0 0.582513 0.545113
0 0.582925 0.546441
0 0.583322 0.547768
0 0.583795 0.549371
0 0.58436 0.551278
0 0.585016 0.553445
0 0.585779 0.555932
0 0.586603 0.558709
0 0.587549 0.561807
0 0.588586 0.565194
0 0.589715 0.568872
0 0.590936 0.572885
0 0.592279 0.577188
0 0.593683 0.581811
0 0.595209 0.586709
0.0472114 0.596841 0.591897
0.134173 0.59855 0.597421
0.197696 0.600397 0.60322
0.251225 0.602304 0.609293
0.298741 0.604318 0.615686
0.342382 0.606455 0.622339
0.383383 0.608682 0.629267
0.422415 0.611002 0.6365
0.459922 0.613397 0.643992
0.496223 0.615885 0.651789
0.531411 0.618494 0.659815
0.565682 0.62121 0.668147
0.599374 0.624002 0.676707
0.632334 0.626902 0.685573
0.664912 0.629862 0.694697
0.696956 0.632944 0.704051
0.728603 0.636103 0.713695
0 0.614679 0.567025
0 0.615045 0.568338
0 0.615442 0.569635
0 0.615808 0.570932
0 0.616281 0.572473
0 0.616785 0.574289
0 0.617426 0.576379
0 0.618128 0.57879
0 0.618921 0.581476
0 0.619806 0.584482
0 0.620783 0.587762
0 0.621851 0.591333
0 0.623011 0.595239
0 0.624247 0.59942
0 0.625605 0.603891
0 0.627039 0.608667
0 0.62858 0.613733
0.0647288 0.630182 0.619104
0.14934 0.631922 0.624765
0.212528 0.633738 0.630701
0.265782 0.635676 0.636927
0.313634 0.637659 0.643458
0.357733 0.63975 0.650263
0.398947 0.641978 0.657343
0.438468 0.644221 0.664714
0.476249 0.646601 0.672343
0.512779 0.649073 0.680232
0.548333 0.651621 0.688396
0.58294 0.654276 0.696849
0.616815 0.657008 0.705577
0.65005 0.659861 0.714549
0.682841 0.66276 0.723812
0.714992 0.665797 0.733318
0 0.647196 0.590799
0 0.647562 0.592065
0 0.647929 0.593332
0 0.64828 0.594598
0 0.648707 0.596063
0 0.64921 0.597818
0 0.64979 0.599878
0 0.650477 0.602197
0 0.651209 0.604807
0 0.652049 0.607691
0 0.652964 0.610895
0 0.653986 0.614374
0 0.65507 0.618158
0 0.65626 0.622232
0 0.657542 0.626596
0 0.6589 0.631235
0 0.66038 0.636179
0 0.661891 0.641443
0.0827955 0.663508 0.646937
0.164523 0.665248 0.65275
0.226978 0.667063 0.658885
0.280598 0.668956 0.665248
0.328588 0.670939 0.671916
0.372869 0.67303 0.678874
0.414603 0.675181 0.686107
0.454292 0.67744 0.693584
0.492454 0.679759 0.701381
0.529076 0.682246 0.709392
0.56495 0.684733 0.717739
0.599756 0.687358 0.726345
0.634043 0.690013 0.73518
0.667552 0.69279 0.744305
0.700572 0.695644 0.753674
0 0.679698 0.615076
0 0.680034 0.616297
0 0.680369 0.617517
0 0.680705 0.618738
0 0.681117 0.620172
0 0.68159 0.621912
0 0.682155 0.62388
0 0.682765 0.626139
0 0.683482 0.628672
0 0.684276 0.631479
0 0.685161 0.634577
0 0.686107 0.63798
0 0.687144 0.641657
0 0.688273 0.645655
0 0.689479 0.649866
0 0.690791 0.654444
0 0.692149 0.659266
0 0.693629 0.664408
0 0.695171 0.669795
0.0999161 0.696788 0.675502
0.179751 0.698497 0.681468
0.24181 0.700313 0.687739
0.295094 0.70222 0.69427
0.343511 0.704173 0.701091
0.388083 0.706233 0.708202
0.43003 0.708385 0.715557
0.469963 0.710613 0.723232
0.508431 0.712901 0.731151
0.545403 0.715328 0.73933
0.581552 0.717784 0.747768
0.616754 0.720333 0.756558
0.651164 0.722988 0.765515
0.685008 0.725689 0.774746
0 0.712154 0.639872
0 0.712474 0.641062
0 0.712795 0.642237
0 0.713115 0.643427
0 0.713497 0.644846
0 0.713954 0.646494
0 0.714473 0.648417
0 0.715084 0.65066
0 0.71574 0.653101
0 0.716503 0.655833
0 0.717327 0.658869
0 0.718227 0.662196
0 0.719234 0.665751
0 0.720287 0.669657
0 0.721416 0.673793
0 0.722667 0.678248
0 0.72398 0.682979
0 0.725353 0.688014
0 0.726833 0.693278
0.00448615 0.728389 0.698863
0.116747 0.730022 0.704738
0.194461 0.731731 0.710872
0.25626 0.733532 0.717311
0.309773 0.735409 0.723995
0.358221 0.737362 0.730999
0.403021 0.739422 0.738216
0.445319 0.741527 0.745769
0.485664 0.743725 0.753597
0.524361 0.745998 0.761654
0.561685 0.748363 0.770001
0.597971 0.75082 0.778607
0.633402 0.753338 0.787488
0.668162 0.755901 0.796613
0 0.744579 0.665202
0 0.744869 0.666362
0 0.745174 0.667506
0 0.745495 0.66865
0 0.745846 0.670024
0 0.746288 0.671672
0 0.746777 0.673533
0 0.747356 0.675685
0 0.747997 0.678111
0 0.748699 0.680797
0 0.749477 0.683726
0 0.750362 0.686976
0 0.751293 0.690471
0 0.7523 0.69427
0 0.753399 0.69836
0 0.754559 0.702693
0 0.755795 0.707332
0 0.757122 0.71223
0 0.758541 0.717449
0 0.759991 0.722927
0.0215457 0.761563 0.728695
0.133455 0.76318 0.734722
0.209491 0.764889 0.741009
0.270893 0.76669 0.747616
0.324315 0.768566 0.754482
0.372946 0.770504 0.761608
0.418051 0.772534 0.769009
0.460533 0.774639 0.77673
0.501274 0.776776 0.78468
0.540047 0.779065 0.79292
0.577859 0.781353 0.801419
0.614328 0.78378 0.810178
0.65008 0.786252 0.819196
0 0.776959 0.691081
0 0.777249 0.692195
0 0.777539 0.693309
0 0.777829 0.694438
0 0.778164 0.695811
0 0.778592 0.697383
0 0.779065 0.699214
0 0.779599 0.70132
0 0.780224 0.703685
0 0.78088 0.706294
0 0.781643 0.709194
0 0.782467 0.712367
0 0.783352 0.715785
0 0.784314 0.719524
0 0.785367 0.723491
0 0.786465 0.727779
0 0.78764 0.732311
0 0.788907 0.737133
0 0.790249 0.742229
0 0.791669 0.747616
0 0.793133 0.753292
0.0407874 0.794675 0.759213
0.149248 0.796338 0.765438
0.224247 0.798016 0.771893
0.285252 0.799817 0.778668
0.338918 0.801663 0.785672
0.387671 0.803601 0.792981
0.433005 0.8056 0.80058
0.475944 0.807645 0.808438
0.516579 0.809827 0.816541
0.555901 0.812039 0.824887
0.593774 0.814343 0.83357
0.630716 0.816693 0.842466
0 0.809308 0.71751
0 0.809567 0.718639
0 0.809857 0.719707
0 0.810132 0.720836
0 0.810452 0.722118
0 0.810864 0.72369
0 0.811307 0.72549
0 0.811826 0.727535
0 0.81239 0.729839
0 0.813077 0.732418
0 0.813779 0.735225
0 0.814557 0.738338
0 0.815396 0.741695
0 0.816312 0.745342
0 0.817319 0.749264
0 0.818372 0.75346
0 0.819486 0.7579
0 0.820706 0.762646
0 0.821973 0.767681
0 0.823346 0.772946
0 0.82475 0.778531
0 0.826215 0.78436
0.0606088 0.827771 0.790448
0.165286 0.829419 0.796841
0.238834 0.831113 0.803494
0.299596 0.832898 0.810437
0.353353 0.83473 0.817639
0.402472 0.836622 0.825101
0.447929 0.838621 0.832853
0.490913 0.840681 0.840864
0.532082 0.842786 0.849134
0.571511 0.844984 0.857755
0.609598 0.847272 0.866529
0 0.841627 0.744503
0 0.841886 0.745602
0 0.842145 0.7467
0 0.842405 0.747753
0 0.842741 0.749004
0 0.843107 0.750561
0 0.843534 0.752316
0 0.844007 0.754314
0 0.844587 0.756588
0 0.845197 0.759091
0 0.845884 0.761883
0 0.846632 0.764935
0 0.84744 0.768231
0 0.848325 0.771801
0 0.849271 0.775647
0 0.850278 0.779751
0 0.851362 0.784176
0 0.852522 0.788815
0 0.853712 0.793713
0 0.854994 0.798917
0 0.856367 0.804395
0 0.857771 0.810147
0 0.859281 0.816175
0.0815137 0.860822 0.822461
0.180941 0.862455 0.829007
0.253254 0.864164 0.835859
0.314 0.865919 0.842969
0.367864 0.867735 0.850309
0.416754 0.869657 0.858015
0.462623 0.871611 0.86595
0.50576 0.873671 0.874098
0.547204 0.875761 0.882414
0.586892 0.877958 0.89099
0 0.873899 0.772076
0 0.874174 0.773129
0 0.874434 0.774197
0 0.874647 0.77528
0 0.874968 0.776532
0 0.875319 0.778027
0 0.875746 0.779751
0 0.876188 0.781704
0 0.876738 0.783917
