src/luts/sample/4-sample.cube
TITLE "Generated by Resolve"
LUT_3D_SIZE 9
0 0 0
0.0673381 0.0100862 0.0884108
0.158968 0.0273747 0.204776
0.269764 0.0513466 0.276188
0.398993 0.074052 0.299779
0.519951 0.101198 0.337667
0.630488 0.135271 0.394644
0.738018 0.172671 0.451453
0.845853 0.210636 0.502052
0 0.132006 0.233738
0 0.139513 0.263401
0.102647 0.14995 0.287373
0.256672 0.161852 0.304295
0.387243 0.175937 0.332891
0.505348 0.19472 0.376806
0.616053 0.21886 0.430625
0.725948 0.246174 0.47924
0.835554 0.275502 0.525734
0 0.259541 0.309621
0 0.26276 0.317968
0.0352026 0.267857 0.33257
0.220279 0.275502 0.356741
0.354925 0.286381 0.392859
0.4757 0.300801 0.43592
0.591943 0.318379 0.47747
0.705867 0.338628 0.518547
0.818311 0.360967 0.561715
0 0.386923 0.395621
0 0.389303 0.406088
0 0.393271 0.422461
0.109804 0.399451 0.445212
0.288075 0.408011 0.472251
0.42707 0.418921 0.502449
0.553658 0.43212 0.535317
0.674205 0.447364 0.571969
0.791272 0.464469 0.612497
0 0.516899 0.497887
0 0.518791 0.504311
0 0.521981 0.514672
0 0.526848 0.529931
0.168124 0.533516 0.550179
0.351919 0.54197 0.575204
0.497215 0.552132 0.604776
0.62855 0.564004 0.638697
0.752758 0.577508 0.676783
0 0.647196 0.590799
0 0.648707 0.596063
0 0.651209 0.604807
0 0.65507 0.618158
0 0.66038 0.636179
0.226978 0.667063 0.658885
0.414603 0.675181 0.686107
0.56495 0.684733 0.717739
0.700572 0.695644 0.753674
0 0.776959 0.691081
0 0.778164 0.695811
0 0.780224 0.703685
0 0.783352 0.715785
0 0.78764 0.732311
0 0.793133 0.753292
0.285252 0.799817 0.778668
0.475944 0.807645 0.808438
0.630716 0.816693 0.842466
0 0.906157 0.800244
0 0.907164 0.804608
0 0.908858 0.811887
0 0.911467 0.823117
0 0.915068 0.838499
0 0.919646 0.858183
0 0.925261 0.882063
0.342214 0.931899 0.909697
0.535515 0.939605 0.940826
0 1 0.918029
0 1 0.921996
0 1 0.928573
0 1 0.938689
0 1 0.952483
0 1 0.969955
0 1 0.991012
0.0621653 1 1
0.398505 1 1
0 0 0.327138
0.0372625 0 0.379507
0.139696 0 0.436576
0.261418 0.0271153 0.452308
0.394049 0.0564126 0.442679
0.515663 0.0887465 0.460212
0.626505 0.126253 0.501579
0.73463 0.165743 0.545052
0.842954 0.205173 0.585336
0 0.109621 0.456123
0 0.119707 0.462425
0.0873426 0.134081 0.458579
0.2495 0.149798 0.452201
0.381918 0.166567 0.462348
0.500633 0.187198 0.491218
0.612039 0.212573 0.531411
0.722576 0.240925 0.568765
0.832624 0.271107 0.60618
0 0.251072 0.460334
0 0.254826 0.462257
0.0199588 0.260624 0.46804
0.211948 0.269047 0.481636
0.348745 0.280613 0.506813
0.470817 0.295674 0.538476
0.587961 0.313878 0.569894
0.702495 0.334707 0.602228
0.815427 0.357473 0.637949
0 0.382147 0.513176
0 0.384619 0.520653
0 0.388769 0.532418
0.0961471 0.395193 0.54905
0.281147 0.404059 0.569085
0.422065 0.41529 0.592187
0.549706 0.428794 0.61825
0.670802 0.444358 0.6486
0.788266 0.461753 0.683253
0 0.513634 0.591943
0 0.515572 0.596841
0 0.518853 0.604822
0 0.523873 0.616754
0.158328 0.530663 0.632975
0.346303 0.539254 0.653605
0.492988 0.549584 0.678569
0.625132 0.561608 0.707866
0.749798 0.575265 0.741512
0 0.644816 0.669108
0 0.646326 0.673487
0 0.64889 0.680858
0 0.652796 0.69218
0 0.658152 0.707713
0.219394 0.664927 0.727443
0.409873 0.673136 0.751492
0.561288 0.682765 0.779812
0.69752 0.693767 0.812406
0 0.775036 0.757717
0 0.776287 0.761898
0 0.778332 0.768887
0 0.781521 0.779721
0 0.78584 0.794537
0 0.791348 0.813489
0.279179 0.798077 0.836637
0.471809 0.805982 0.863981
0.627436 0.815076 0.895537
0 0.904555 0.857816
0 0.905592 0.86183
0 0.907286 0.868513
0 0.909911 0.878859
0 0.913497 0.89308
0 0.918105 0.91136
0 0.923751 0.933623
0.337057 0.930419 0.959442
0.53196 0.938155 0.988678
0 1 0.968383
0 1 0.972061
0 1 0.978241
0 1 0.987747
0 1 1
0 1 1
0 1 1
0.047425 1 1
0.394064 1 1
0 0 0.572488
0 0 0.608423
0.109056 0 0.640421
0.249821 0 0.623697
0.386709 0.032578 0.598535
0.509102 0.0693523 0.604974
0.620462 0.112215 0.636103
0.729366 0.155077 0.668437
0.838407 0.196689 0.699138
0 0.078294 0.652537
0 0.0928359 0.646265
0.0626993 0.112673 0.627802
0.23859 0.132982 0.611154
0.373663 0.153124 0.61178
0.49337 0.175998 0.631647
0.60592 0.203037 0.661128
0.717342 0.232929 0.688563
0.828046 0.264332 0.717357
0 0.239841 0.621164
0 0.244129 0.619959
0 0.250645 0.621164
0.198322 0.259922 0.628824
0.338872 0.272297 0.647013
0.463157 0.288121 0.669734
0.581704 0.307149 0.692363
0.697185 0.32874 0.716579
0.810788 0.352148 0.744915
0 0.375387 0.656031
0 0.377966 0.661311
0 0.3823 0.669612
0.0715801 0.389044 0.681315
0.269856 0.39826 0.695476
0.413962 0.409918 0.712276
0.543206 0.42385 0.731914
0.66537 0.439796 0.755932
0.783688 0.45745 0.784482
0 0.508873 0.715908
0 0.510903 0.719432
0 0.514275 0.725216
0 0.519432 0.734127
0.141146 0.526436 0.746532
0.336934 0.535225 0.762753
0.486091 0.545724 0.783017
0.619516 0.557931 0.807401
0.745037 0.571756 0.836118
0 0.64123 0.778149
0 0.642786 0.78172
0 0.64538 0.78764
0 0.649378 0.796918
0 0.65478 0.809735
0.206271 0.661677 0.826276
0.401877 0.669993 0.846784
0.55523 0.679713 0.871305
0.692607 0.690776 0.899977
0 0.772137 0.854459
0 0.773388 0.85803
0 0.775464 0.864012
0 0.778668 0.873335
0 0.783047 0.886229
0 0.788617 0.902831
0.268315 0.795407 0.923308
0.465034 0.803326 0.947707
0.62211 0.812482 0.976181
0 0.902083 0.944045
0 0.903105 0.947601
0 0.904814 0.953536
0 0.907469 0.962814
0 0.911086 0.975601
0 0.915724 0.992111
0 0.92137 1
0.328084 0.9281 1
0.52575 0.935897 1
0 1 1
0 1 1
0 1 1
0 1 1
0 1 1
0 1 1
0 1 1
0.0216526 1 1
0.386145 1 1
0 0 0.815167
0 0 0.839353
0.0601358 0 0.837079
0.234394 0 0.796002
0.37615 0.0021973 0.766476
0.499489 0.0428321 0.768292
0.611582 0.0916457 0.793103
0.721752 0.139712 0.816907
0.831693 0.18468 0.839948
0 0.0367895 0.841337
0 0.0568093 0.824659
0.0284886 0.0842451 0.79971
0.222187 0.110048 0.781201
0.36144 0.134401 0.778149
0.482536 0.160281 0.793591
0.596902 0.189746 0.814771
0.70959 0.22182 0.834394
0.821347 0.25478 0.856016
0 0.225422 0.793194
0 0.230228 0.790799
0 0.237491 0.790036
0.176532 0.247654 0.794965
0.32398 0.260914 0.808881
0.451835 0.277745 0.82475
0.572488 0.297871 0.840436
0.689326 0.320485 0.85803
0.803967 0.344671 0.880049
0 0.366415 0.819791
0 0.369131 0.823468
0 0.373678 0.829206
0.0308232 0.380758 0.837156
0.252186 0.390448 0.846738
0.401648 0.402625 0.858442
0.533532 0.417044 0.872892
0.657343 0.433402 0.891508
0.776715 0.451499 0.91458
0 0.502525 0.865202
0 0.504631 0.867643
0 0.50811 0.871672
0 0.513436 0.878126
0.11284 0.520623 0.887419
0.322652 0.529625 0.899947
0.475639 0.540383 0.91603
0.610971 0.552834 0.935988
0.73785 0.566842 0.960021
0 0.636332 0.915297
0 0.637934 0.91809
0 0.640558 0.922805
0 0.644617 0.930251
0 0.650156 0.940642
0.185153 0.65713 0.954269
0.389838 0.665537 0.97145
0.546136 0.67538 0.992325
0.685054 0.686564 1
0 0.768093 0.980453
0 0.769345 0.983474
0 0.77145 0.98854
0 0.774685 0.99646
0 0.77911 1
0 0.784756 1
0.251591 0.791562 1
0.454307 0.799588 1
0.613947 0.808774 1
0 0.898543 1
0 0.899565 1
0 0.901289 1
0 0.90396 1
0 0.907637 1
0 0.912291 1
0 0.917998 1
0.314 0.924727 1
0.516503 0.93257 1
0 1 1
0 1 1
0 1 1
0 1 1
0 1 1
0 1 1
0 1 1
0 1 1
0.374212 1 1
0 0 1
0 0 1
0.00369268 0 1
0.214847 0 0.962127
0.3617 0 0.937041
0.486305 0.0108034 0.939193
0.599924 0.0628977 0.959442
0.711742 0.119631 0.977432
0.822919 0.169268 0.995026
0 0 1
0 0.0199283 0.990982
0 0.0484321 0.968536
0.199023 0.0803845 0.952865
0.344442 0.110079 0.950668
0.467979 0.139879 0.964324
0.58497 0.172854 0.979324
0.699458 0.207721 0.993271
0.81239 0.242847 1
0 0.208225 0.967453
0 0.213519 0.965148
0 0.221439 0.964446
0.14342 0.232441 0.969055
0.30338 0.246784 0.979828
0.436515 0.264973 0.990539
0.560174 0.286427 1
0.679011 0.31017 1
0.794965 0.335302 1
0 0.355505 0.992233
0 0.358389 0.99472
0 0.363241 0.998489
0 0.370748 1
0.227054 0.380972 1
0.384939 0.393729 1
0.520531 0.408698 1
0.646632 0.425513 1
0.767422 0.444068 1
0 0.494911 1
0 0.497093 1
0 0.50071 1
0 0.506188 1
0.0658579 0.513588 1
0.302586 0.522805 1
0.461265 0.533806 1
0.599664 0.546426 1
0.728298 0.560647 1
0 0.630411 1
0 0.632013 1
0 0.634714 1
0 0.638819 1
0 0.64445 1
0.15375 0.651514 1
0.372839 0.660044 1
0.533654 0.669963 1
0.67483 0.68127 1
0 0.763104 1
0 0.764355 1
0 0.766491 1
0 0.769741 1
0 0.774197 1
0 0.779873 1
0.227497 0.78674 1
0.43975 0.794812 1
0.602808 0.804059 1
0 0.894133 1
0 0.895171 1
0 0.89688 1
0 0.899565 1
0 0.903243 1
0 0.907942 1
0 0.913664 1
0.293965 0.920455 1
0.503441 0.928344 1
0 1 1
0 1 1
0 1 1
0 1 1
0 1 1
0 1 1
0 1 1
0 1 1
0.357336 1 1
0 0 1
0 0 1
0 0 1
0.188296 0 1
0.342229 0 1
0.468788 0 1
0.58526 0.0282902 1
0.699306 0.0939956 1
0.812009 0.150256 1
0 0 1
0 0 1
0 0.0104829 1
0.166186 0.0426184 1
0.321416 0.078233 1
0.449378 0.114137 1
0.569894 0.152316 1
0.686732 0.19089 1
0.801358 0.228443 1
0 0.188159 1
0 0.19379 1
0 0.202289 1
0.0912795 0.214115 1
0.275929 0.229999 1
0.416846 0.249989 1
0.544533 0.27303 1
0.665919 0.2981 1
0.783642 0.324269 1
0 0.342916 1
0 0.345998 1
0 0.351217 1
0 0.359274 1
0.191989 0.370077 1
0.363012 0.383474 1
0.503883 0.398993 1
0.633005 0.416312 1
0.75584 0.435294 1
0 0.486259 1
0 0.488502 1
0 0.492241 1
0 0.497917 1
0 0.505455 1
0.275715 0.5149 1
0.442908 0.526116 1
0.585153 0.538979 1
0.716152 0.553399 1
0 0.62359 1
0 0.625223 1
0 0.627939 1
0 0.632136 1
0 0.637827 1
0.106523 0.644984 1
0.350622 0.653605 1
0.517601 0.663615 1
0.661952 0.674983 1
0 0.757305 1
0 0.758556 1
0 0.760693 1
0 0.764004 1
0 0.768505 1
0 0.774182 1
0.1935 0.781079 1
0.420706 0.789197 1
0.58854 0.798444 1
0 0.888945 1
0 0.889998 1
0 0.891707 1
0 0.894392 1
0 0.898054 1
0 0.902785 1
0 0.908522 1
0.26714 0.915343 1
0.48687 0.923247 1
0 1 1
0 1 1
0 1 1
0 1 1
0 1 1
0 1 1
0 1 1
0 1 1
0.334752 1 1
0 0 1
0 0 1
0 0 1
0.150332 0 1
0.31606 0 1
0.446403 0 1
0.567269 0 1
0.684184 0.0609445 1
0.79881 0.127321 1
0 0 1
0 0 1
0 0 1
0.11635 0.00114443 1
0.290089 0.0364385 1
0.4262 0.08159 1
0.551369 0.127672 1
0.671305 0.171069 1
0.787976 0.211658 1
0 0.164416 1
0 0.170321 1
0 0.179294 1
0.00737011 0.192599 1
0.239704 0.210651 1
0.392126 0.232837 1
0.525338 0.257786 1
0.65008 0.28423 1
0.770016 0.311574 1
0 0.328786 1
0 0.332189 1
0 0.337835 1
0 0.346441 1
0.142565 0.3579 1
0.335058 0.371939 1
0.483253 0.388037 1
0.616388 0.405875 1
0.741787 0.425299 1
0 0.476646 1
0 0.478965 1
0 0.482826 1
0 0.488609 1
0 0.496406 1
0.239887 0.506081 1
0.419699 0.517494 1
0.567224 0.530556 1
0.70135 0.545144 1
0 0.615991 1
0 0.617655 1
0 0.620417 1
0 0.624643 1
0 0.630381 1
0.0287327 0.637629 1
0.322164 0.646326 1
0.49752 0.656428 1
0.64593 0.667887 1
0 0.75079 1
0 0.752056 1
0 0.754208 1
0 0.757534 1
0 0.762036 1
0 0.767742 1
0.145357 0.774685 1
0.396567 0.782788 1
0.570855 0.79205 1
0 0.883085 1
0 0.884138 1
0 0.885893 1
0 0.888533 1
0 0.892195 1
0 0.896956 1
0 0.902678 1
0.231067 0.909514 1
0.465843 0.917464 1
0 1 1
0 1 1
0 1 1
0 1 1
0 1 1
0 1 1
0 1 1
0 1 1
0.305272 1 1
0 0 1
0 0 1
0 0 1
0.0899214 0 1
0.279652 0 1
0.418952 0 1
0.545602 0 1
0.666255 0.0225528 1
0.783307 0.0991531 1
0 0 1
0 0 1
0 0 1
0.0289006 0 1
0.248859 0 1
0.397711 0.0403143 1
0.529213 0.0977798 1
0.652903 0.14786 1
0.772198 0.192203 1
0 0.135103 1
0 0.141421 1
0 0.15201 1
0 0.167865 1
0.190753 0.188891 1
0.361196 0.213611 1
0.502068 0.24062 1
0.631098 0.26862 1
0.753796 0.297276 1
0 0.313451 1
0 0.317128 1
0 0.323217 1
0 0.332387 1
0.0641794 0.34461 1
0.299718 0.359167 1
0.458106 0.37586 1
0.596384 0.394247 1
0.724971 0.414145 1
0 0.466178 1
0 0.468574 1
0 0.472496 1
0 0.478477 1
0 0.486427 1
0.191989 0.4963 1
0.391028 0.507912 1
0.545617 0.521187 1
0.68365 0.535943 1
0 0.607645 1
0 0.609339 1
0 0.612131 1
0 0.616403 1
0 0.622202 1
0 0.629511 1
0.285542 0.63827 1
0.473106 0.648432 1
0.627008 0.659876 1
0 0.743618 1
0 0.744915 1
0 0.747051 1
0 0.750362 1
0 0.754864 1
0 0.760632 1
0.0711528 0.767529 1
0.366461 0.775647 1
0.549249 0.784955 1
0 0.8766 1
0 0.877623 1
0 0.879362 1
0 0.882033 1
0 0.885725 1
0 0.890425 1
0 0.896208 1
0.181857 0.903044 1
0.439918 0.910994 1
0 1 1
0 1 1
0 1 1
0 1 1
0 1 1
0 1 1
0 1 1
0 1 1
0.267903 1 1
0 0 1
0 0 1
0 0 1
0 0 1
0.229755 0 1
0.385336 0 1
0.519783 0 1
0.645045 0 1
0.765255 0.063447 1
0 0 1
0 0 1
0 0 1
0 0 1
0.193362 0 1
0.362692 0 1
0.502693 0.0608072 1
0.631266 0.120348 1
0.753811 0.169635 1
0 0.098558 1
0 0.106859 1
0 0.120241 1
0 0.139864 1
0.120333 0.164355 1
0.322866 0.192172 1
0.474067 0.221424 1
0.608637 0.251118 1
0.734905 0.281178 1
0 0.296941 1
0 0.300923 1
0 0.307485 1
0 0.317327 1
0 0.330022 1
0.254032 0.34522 1
0.427512 0.362478 1
0.572671 0.381384 1
0.705318 0.401785 1
0 0.454871 1
0 0.457328 1
0 0.461372 1
0 0.467445 1
0 0.475593 1
0.123278 0.485603 1
0.355367 0.497459 1
0.519875 0.510842 1
0.662974 0.525734 1
0 0.598596 1
0 0.600275 1
0 0.603098 1
0 0.607431 1
0 0.613291 1
0 0.62063 1
0.238178 0.629419 1
0.44358 0.639612 1
0.60441 0.651102 1
0 0.73579 1
0 0.737072 1
0 0.739223 1
0 0.74255 1
0 0.747021 1
0 0.752758 1
0 0.759686 1
0.329122 0.767742 1
0.523644 0.777081 1
0 0.869505 1
0 0.870527 1
0 0.872251 1
0 0.874907 1
0 0.878569 1
0 0.883314 1
0 0.889067 1
0.111147 0.895888 1
0.408331 0.903883 1
0 1 1
0 1 1
0 1 1
0 1 1
0 1 1
0 1 1
0 1 1
0 1 1
0.217578 1 1
