src/luts/sample/4-sample.cube
TITLE "Generated by Resolve"
LUT_3D_SIZE 5
0 0 0
0.158968 0.0273747 0.204776
0.398993 0.074052 0.299779
0.630488 0.135271 0.394644
0.845853 0.210636 0.502052
0 0.259541 0.309621
0.0352026 0.267857 0.33257
0.354925 0.286381 0.392859
0.591943 0.318379 0.47747
0.818311 0.360967 0.561715
0 0.516899 0.497887
0 0.521981 0.514672
0.168124 0.533516 0.550179
0.497215 0.552132 0.604776
0.752758 0.577508 0.676783
0 0.776959 0.691081
0 0.780224 0.703685
0 0.78764 0.732311
0.285252 0.799817 0.778668
0.630716 0.816693 0.842466
0 1 0.918029
0 1 0.928573
0 1 0.952483
0 1 0.991012
0.398505 1 1
0 0 0.572488
0.109056 0 0.640421
0.386709 0.032578 0.598535
0.620462 0.112215 0.636103
0.838407 0.196689 0.699138
0 0.239841 0.621164
0 0.250645 0.621164
0.338872 0.272297 0.647013
0.581704 0.307149 0.692363
0.810788 0.352148 0.744915
0 0.508873 0.715908
0 0.514275 0.725216
0.141146 0.526436 0.746532
0.486091 0.545724 0.783017
0.745037 0.571756 0.836118
0 0.772137 0.854459
0 0.775464 0.864012
0 0.783047 0.886229
0.268315 0.795407 0.923308
0.62211 0.812482 0.976181
0 1 1
0 1 1
0 1 1
0 1 1
0.386145 1 1
0 0 1
0.00369268 0 1
0.3617 0 0.937041
0.599924 0.0628977 0.959442
0.822919 0.169268 0.995026
0 0.208225 0.967453
0 0.221439 0.964446
0.30338 0.246784 0.979828
0.560174 0.286427 1
0.794965 0.335302 1
0 0.494911 1
0 0.50071 1
0.0658579 0.513588 1
0.461265 0.533806 1
0.728298 0.560647 1
0 0.763104 1
0 0.766491 1
0 0.774197 1
0.227497 0.78674 1
0.602808 0.804059 1
0 1 1
0 1 1
0 1 1
0 1 1
0.357336 1 1
0 0 1
0 0 1
0.31606 0 1
0.567269 0 1
0.79881 0.127321 1
0 0.164416 1
0 0.179294 1
0.239704 0.210651 1
0.525338 0.257786 1
0.770016 0.311574 1
0 0.476646 1
0 0.482826 1
0 0.496406 1
0.419699 0.517494 1
0.70135 0.545144 1
0 0.75079 1
0 0.754208 1
0 0.762036 1
0.145357 0.774685 1
0.570855 0.79205 1
0 1 1
0 1 1
0 1 1
0 1 1
0.305272 1 1
0 0 1
0 0 1
0.229755 0 1
0.519783 0 1
0.765255 0.063447 1
0 0.098558 1
0 0.120241 1
0.120333 0.164355 1
0.474067 0.221424 1
0.734905 0.281178 1
0 0.454871 1
0 0.461372 1
0 0.475593 1
0.355367 0.497459 1
0.662974 0.525734 1
0 0.73579 1
0 0.739223 1
0 0.747021 1
0 0.759686 1
0.523644 0.777081 1
0 1 1
0 1 1
0 1 1
0 1 1
0.217578 1 1
