src/luts/mine/1.cube
TITLE "Generated by Resolve"
LUT_3D_SIZE 9
0.0332036 0 0.239582
0.116304 0 0.250889
0.19733 0 0.26276
0.277516 0 0.274861
0.357183 0.00682078 0.287098
0.436454 0.0191653 0.299458
0.515404 0.0316014 0.311879
0.594095 0.0441138 0.324392
0.672572 0.056672 0.33695
0.0104372 0.0933394 0.216831
0.0935531 0.104646 0.228138
0.174578 0.116533 0.240009
0.254765 0.128634 0.25211
0.334432 0.140871 0.264347
0.413687 0.153216 0.276692
0.492638 0.165652 0.289128
0.571344 0.178149 0.301625
0.649805 0.190723 0.314199
0 0.226596 0.196109
0.0728313 0.237903 0.207416
0.153857 0.249775 0.219287
0.234043 0.261875 0.231388
0.31371 0.274128 0.243626
0.392966 0.286473 0.25597
0.471931 0.298909 0.268406
0.550622 0.311406 0.280919
0.629084 0.323964 0.293477
0 0.359518 0.176211
0.0529488 0.370825 0.187518
0.133959 0.382696 0.199405
0.21416 0.394797 0.21149
0.293812 0.40705 0.223743
0.373083 0.419394 0.236088
0.452033 0.43183 0.248524
0.530724 0.444327 0.261021
0.609201 0.456886 0.273594
0 0.492256 0.156802
0.0335241 0.503563 0.168109
0.114549 0.515435 0.17998
0.194751 0.527535 0.192081
0.274403 0.539773 0.204334
0.353674 0.552117 0.216678
0.432624 0.564553 0.229114
0.511315 0.577066 0.241611
0.589792 0.589624 0.25417
0 0.624857 0.137728
0.0144503 0.636164 0.149035
0.0954757 0.648035 0.160906
0.175677 0.660136 0.173007
0.255329 0.672374 0.185245
0.3346 0.684718 0.197604
0.41355 0.697154 0.21004
0.492241 0.709667 0.222538
0.570718 0.722225 0.235096
0 0.757351 0.118914
0 0.768658 0.13022
0.0766613 0.780529 0.142092
0.156847 0.79263 0.154192
0.236515 0.804868 0.16643
0.315785 0.817212 0.17879
0.394736 0.829648 0.191211
0.473426 0.842161 0.203723
0.551904 0.854719 0.216281
0 0.889754 0.100313
0 0.901061 0.11162
0.0580453 0.912932 0.123491
0.138247 0.925032 0.135592
0.217914 0.937285 0.147829
0.297169 0.94963 0.160174
0.37612 0.962066 0.17261
0.454826 0.974563 0.185107
0.533288 0.987121 0.197681
0 1 0.0818799
0 1 0.0931868
0.0396277 1 0.105058
0.119814 1 0.117159
0.199481 1 0.129396
0.278752 1 0.141756
0.357702 1 0.154177
0.436393 1 0.16669
0.51487 1 0.179248
0.0369726 0 0.31606
0.120073 0 0.327367
0.201099 0 0.339254
0.2813 0 0.351339
0.360952 0.0105898 0.363592
0.440223 0.0229496 0.375937
0.519173 0.0353704 0.388373
0.597864 0.0478828 0.40087
0.676341 0.060441 0.413443
0.0142214 0.0971237 0.293309
0.097322 0.108431 0.304616
0.178347 0.120302 0.316487
0.258534 0.132403 0.328588
0.338201 0.14464 0.340825
0.417472 0.156985 0.353185
0.496422 0.169421 0.365621
0.575113 0.181933 0.378119
0.65359 0.194491 0.390677
0 0.230365 0.272587
0.0766003 0.241688 0.283894
0.157626 0.253559 0.295766
0.237827 0.26566 0.307866
0.317479 0.277897 0.320119
0.39675 0.290242 0.332464
0.4757 0.302678 0.3449
0.554391 0.315175 0.357397
0.632868 0.327749 0.369955
0 0.363287 0.252705
0.0567178 0.374609 0.264012
0.137743 0.386481 0.275883
0.217929 0.398581 0.287984
0.297597 0.410819 0.300221
0.376852 0.423163 0.312581
0.455817 0.435599 0.325002
0.534508 0.448096 0.337514
0.61297 0.46067 0.350072
0 0.496025 0.233295
0.0373083 0.507332 0.244602
0.118334 0.519203 0.256474
0.19852 0.531304 0.268574
0.278187 0.543542 0.280812
0.357443 0.555901 0.293156
0.436393 0.568338 0.305592
0.515099 0.580835 0.318105
0.593561 0.593393 0.330663
0 0.628626 0.214206
0.0182345 0.639933 0.225528
0.0992447 0.651804 0.2374
0.179446 0.663905 0.2495
0.259098 0.676143 0.261738
0.338369 0.688502 0.274083
0.417319 0.700923 0.286519
0.49601 0.713436 0.299016
0.574487 0.725994 0.311589
0 0.76112 0.195392
0 0.772427 0.206699
0.0804303 0.784298 0.218585
0.160632 0.796399 0.230671
0.240284 0.808637 0.242924
0.319554 0.820996 0.255268
0.398505 0.833432 0.267704
0.477195 0.84593 0.280201
0.555673 0.858488 0.292775
0 0.893538 0.176791
0 0.904845 0.188098
0.0618296 0.916716 0.199969
0.142016 0.928817 0.21207
0.221683 0.941054 0.224308
0.300954 0.953399 0.236667
0.379904 0.965835 0.249088
0.458595 0.978332 0.261601
0.537072 0.990906 0.274159
0 1 0.158358
0 1 0.169665
0.0433967 1 0.181552
0.123598 1 0.193637
0.20325 1 0.20589
0.282521 1 0.218235
0.361471 1 0.230671
0.440162 1 0.243168
0.518639 1 0.255741
0.0404059 0 0.397009
0.123507 0 0.408316
0.204532 0 0.420188
0.284718 0.00178531 0.432288
0.364385 0.014023 0.444526
0.443656 0.0263676 0.456886
0.522606 0.0388037 0.469322
0.601297 0.0513161 0.481819
0.679774 0.0638743 0.494377
0.0176394 0.100542 0.374258
0.100755 0.111864 0.385565
0.181781 0.123735 0.397436
0.261967 0.135836 0.409537
0.341634 0.148074 0.421775
0.42089 0.160418 0.434119
0.49984 0.172854 0.446555
0.578546 0.185351 0.459068
0.657008 0.197925 0.471626
0 0.233799 0.353536
0.0800336 0.245106 0.364843
0.161059 0.256977 0.376715
0.241245 0.269078 0.388815
0.320912 0.281331 0.401053
0.400168 0.293675 0.413413
0.479133 0.306111 0.425834
0.557824 0.318608 0.438346
0.636286 0.331167 0.450904
0 0.36672 0.333654
0.0601511 0.378027 0.344961
0.141161 0.389899 0.356832
0.221363 0.401999 0.368933
0.301015 0.414252 0.38117
0.380285 0.426596 0.393515
0.459236 0.439033 0.405951
0.537926 0.45153 0.418448
0.616403 0.464088 0.431022
0 0.499458 0.314229
0.0407263 0.510765 0.325536
0.121752 0.522637 0.337423
0.201953 0.534737 0.349508
0.281605 0.546975 0.361761
0.360876 0.559319 0.374105
0.439826 0.571756 0.386542
0.518517 0.584268 0.399039
0.596994 0.596826 0.411612
0 0.632059 0.295155
0.0216526 0.643366 0.306462
0.102678 0.655238 0.318334
0.182879 0.667338 0.330434
0.262531 0.679576 0.342687
0.341802 0.69192 0.355032
0.420752 0.704356 0.367468
0.499443 0.716869 0.379965
0.57792 0.729427 0.392523
0 0.764553 0.276341
0.00283818 0.77586 0.287648
0.0838636 0.787732 0.299519
0.16405 0.799832 0.31162
0.243717 0.81207 0.323857
0.322988 0.824414 0.336217
0.401938 0.836851 0.348638
0.480629 0.849363 0.361151
0.559106 0.861921 0.373709
0 0.896956 0.25774
0 0.908263 0.269047
0.0652628 0.920134 0.280919
0.145449 0.932235 0.293019
0.225116 0.944488 0.305257
0.304372 0.956832 0.317601
0.383322 0.969268 0.330037
0.462028 0.981765 0.34255
0.54049 0.994324 0.355108
0 1 0.239307
0 1 0.250614
0.0468299 1 0.262486
0.127016 1 0.274586
0.206683 1 0.286824
0.285954 1 0.299184
0.364904 1 0.31162
0.443595 1 0.324117
0.522072 1 0.336675
0.0435187 0 0.481865
0.126635 0 0.493172
0.20766 0 0.505043
0.287846 0.00489815 0.517143
0.367514 0.0171511 0.529381
0.446769 0.0294957 0.541741
0.525734 0.0419318 0.554177
0.604425 0.0544289 0.566674
0.682887 0.0670024 0.579232
0.0207675 0.10367 0.459113
0.103868 0.114977 0.47042
0.184894 0.126848 0.482292
0.265095 0.138949 0.494392
0.344747 0.151202 0.50663
0.424018 0.163546 0.518975
0.502968 0.175982 0.531411
0.581659 0.188479 0.543923
0.660136 0.201038 0.556481
4.57771e-05 0.236927 0.438392
0.0831617 0.248234 0.449699
0.164172 0.260105 0.46157
0.244373 0.272206 0.473671
0.324041 0.284443 0.485908
0.403296 0.296803 0.498268
0.482246 0.309224 0.510689
0.560952 0.321736 0.523201
0.639414 0.334295 0.53576
0 0.369848 0.418509
0.0632639 0.381155 0.429816
0.144289 0.393027 0.441688
0.224491 0.405127 0.453788
0.304143 0.417365 0.466026
0.383413 0.429725 0.47837
0.462364 0.442145 0.490806
0.541054 0.454658 0.503319
0.619532 0.467216 0.515877
0 0.502586 0.399084
0.0438544 0.513893 0.410391
0.12488 0.525765 0.422278
0.205081 0.537865 0.434379
0.284733 0.550103 0.446616
0.364004 0.562448 0.458961
0.442954 0.574884 0.471397
0.521645 0.587381 0.483894
0.600122 0.599954 0.496468
0 0.635172 0.380011
0.0247807 0.646479 0.391318
0.105806 0.658366 0.403189
0.185992 0.670451 0.41529
0.26566 0.682704 0.427543
0.34493 0.695048 0.439887
0.42388 0.707485 0.452323
0.502571 0.719982 0.46482
0.581033 0.732555 0.477378
0 0.767666 0.361196
0.00596628 0.778973 0.372503
0.0869917 0.79086 0.384375
0.167178 0.80296 0.396475
0.246845 0.815198 0.408713
0.326101 0.827543 0.421073
0.405051 0.839979 0.433509
0.483757 0.852476 0.446006
0.562219 0.865049 0.458564
0 0.900084 0.342596
0 0.911391 0.353902
0.0683757 0.923262 0.365774
0.148577 0.935363 0.377874
0.228229 0.947601 0.390112
0.3075 0.95996 0.402457
0.38645 0.972381 0.414893
0.465141 0.984894 0.427405
0.543618 0.997452 0.439963
0 1 0.324163
0 1 0.33547
0.049958 1 0.347341
0.130144 1 0.359442
0.209812 1 0.371695
0.289067 1 0.384039
0.368032 1 0.396475
0.446723 1 0.408972
0.525185 1 0.42153
0.0463722 0 0.57023
0.129488 0 0.581537
0.210498 0 0.593423
0.2907 0.00775158 0.605509
0.370367 0.0200046 0.617761
0.449622 0.0323491 0.630106
0.528572 0.0447852 0.642542
0.607263 0.0572824 0.655039
0.68574 0.0698405 0.667613
0.023621 0.106523 0.547478
0.106722 0.11783 0.558785
0.187747 0.129702 0.570657
0.267948 0.141802 0.582757
0.347601 0.15404 0.594995
0.426871 0.1664 0.607355
0.505821 0.178836 0.619776
0.584512 0.191333 0.632288
0.662989 0.203891 0.644846
0.00289921 0.23978 0.526757
0.0859998 0.251087 0.538064
0.167025 0.262959 0.549935
0.247227 0.275059 0.562036
0.326879 0.287297 0.574289
0.406149 0.299641 0.586633
0.4851 0.312078 0.599069
0.56379 0.32459 0.611566
0.642267 0.337148 0.624125
0 0.372702 0.506874
0.0661173 0.384009 0.518181
0.147143 0.39588 0.530053
0.227344 0.40798 0.542153
0.306996 0.420218 0.554391
0.386267 0.432563 0.566735
0.465217 0.444999 0.579171
0.543908 0.457511 0.591684
0.622385 0.470069 0.604242
0 0.505425 0.487465
0.0467079 0.516732 0.498772
0.127733 0.528618 0.510643
0.207919 0.540703 0.522744
0.287587 0.552956 0.534981
0.366857 0.565301 0.547326
0.445808 0.577737 0.559762
0.524498 0.590234 0.572274
0.60296 0.602808 0.584833
0 0.638025 0.468376
0.0276341 0.649332 0.479683
0.108659 0.661204 0.491569
0.188846 0.673304 0.50367
0.268513 0.685557 0.515908
0.347768 0.697902 0.528252
0.426719 0.710338 0.540688
0.505425 0.722835 0.553185
0.583886 0.735393 0.565759
0 0.77052 0.449561
0.00881971 0.781826 0.460868
0.0898299 0.793713 0.47274
0.170031 0.805798 0.48484
0.249683 0.818051 0.497093
0.328954 0.830396 0.509438
0.407904 0.842832 0.521874
0.486595 0.855329 0.534371
0.565072 0.867903 0.546929
0 0.902937 0.430961
0 0.914244 0.442267
0.0712291 0.926116 0.454139
0.151431 0.938216 0.466239
0.231083 0.950454 0.478477
0.310353 0.962798 0.490837
0.389303 0.975235 0.503258
0.467994 0.987747 0.51577
0.546471 1 0.528328
0 1 0.412528
0 1 0.423835
0.0527962 1 0.435721
0.132998 1 0.447807
0.212665 1 0.46006
0.29192 1 0.472404
0.370871 1 0.48484
0.449577 1 0.497337
0.528038 1 0.509911
0.0489815 0 0.661799
0.132082 0 0.673106
0.213107 0 0.684977
0.293309 0.0103609 0.697078
0.372961 0.0225986 0.709316
0.452232 0.0349432 0.721675
0.531182 0.0473793 0.734112
0.609873 0.0598917 0.746609
0.68835 0.0724498 0.759167
0.026215 0.109133 0.639048
0.109331 0.120439 0.650355
0.190356 0.132311 0.662226
0.270542 0.144411 0.674327
0.35021 0.156649 0.686564
0.429465 0.168994 0.698909
0.508431 0.18143 0.711345
0.587121 0.193927 0.723857
0.665583 0.2065 0.736416
0.00550851 0.242374 0.618326
0.0886091 0.253681 0.629633
0.169635 0.265568 0.641505
0.249821 0.277653 0.653605
0.329488 0.289906 0.665843
0.408759 0.302251 0.678203
0.487709 0.314687 0.690623
0.5664 0.327184 0.703136
0.644877 0.339757 0.715694
0 0.375296 0.598444
0.0687266 0.386603 0.609751
0.149737 0.398489 0.621622
0.229938 0.410574 0.633722
0.309606 0.422827 0.64596
0.388861 0.435172 0.658305
0.467811 0.447608 0.670741
0.546517 0.460105 0.683253
0.624979 0.472679 0.695811
0 0.508034 0.579019
0.0493019 0.519341 0.590326
0.130327 0.531212 0.602213
0.210529 0.543313 0.614313
0.290181 0.55555 0.626551
0.369451 0.56791 0.638895
0.448402 0.580331 0.651331
0.527092 0.592844 0.663828
0.60557 0.605402 0.676402
0 0.640635 0.559945
0.0302281 0.651942 0.571252
0.111254 0.663813 0.583124
0.191455 0.675914 0.595224
0.271107 0.688151 0.607477
0.350378 0.700496 0.619821
0.429328 0.712932 0.632258
0.508019 0.725444 0.644755
0.586496 0.738003 0.657313
0 0.773129 0.541131
0.0114137 0.784436 0.552438
0.0924392 0.796307 0.564309
0.172625 0.808408 0.57641
0.252293 0.820645 0.588647
0.331563 0.83299 0.601007
0.410513 0.845426 0.613443
0.489204 0.857939 0.62594
0.567681 0.870497 0.638498
0 0.905531 0.52253
0 0.916838 0.533837
0.0738384 0.928725 0.545708
0.154025 0.94081 0.557809
0.233692 0.953063 0.570047
0.312947 0.965408 0.582391
0.391913 0.977844 0.594827
0.470603 0.990341 0.60734
0.549065 1 0.619898
0 1 0.504097
0 1 0.515404
0.0554055 1 0.527276
0.135607 1 0.539376
0.215259 1 0.551629
0.29453 1 0.563973
0.37348 1 0.57641
0.452171 1 0.588907
0.530648 1 0.601465
0.0513466 0 0.756313
0.134463 0 0.76762
0.215473 0.00062562 0.779492
0.295674 0.012726 0.791592
0.375341 0.024979 0.80383
0.454597 0.0373236 0.81619
0.533547 0.0497597 0.828611
0.612238 0.0622568 0.841123
0.690715 0.074815 0.853681
0.0285954 0.111498 0.733562
0.111696 0.122805 0.744869
0.192721 0.134676 0.756741
0.272923 0.146777 0.768841
0.352575 0.159014 0.781079
0.431846 0.171374 0.793423
0.510796 0.18381 0.805859
0.589487 0.196307 0.818372
0.667964 0.208865 0.83093
0.00787366 0.244755 0.71284
0.0909743 0.256062 0.724147
0.172 0.267933 0.736019
0.252201 0.280034 0.748119
0.331853 0.292271 0.760357
0.411124 0.304616 0.772702
0.490074 0.317052 0.785138
0.568765 0.329564 0.79765
0.647242 0.342123 0.810208
0 0.377676 0.692943
0.0710918 0.388983 0.704265
0.152117 0.400854 0.716136
0.232319 0.412955 0.728237
0.311971 0.425193 0.740475
0.391241 0.437537 0.752819
0.470192 0.449973 0.765255
0.548882 0.462486 0.777752
0.627359 0.475044 0.790326
0 0.510399 0.673533
0.0516823 0.521706 0.68484
0.132708 0.533593 0.696727
0.212894 0.545678 0.708812
0.292561 0.557931 0.721065
0.371832 0.570275 0.73341
0.450782 0.582712 0.745846
0.529473 0.595209 0.758343
0.607935 0.607782 0.770916
0 0.643 0.654459
0.0326085 0.654307 0.665766
0.113634 0.666178 0.677638
0.19382 0.678279 0.689738
0.273487 0.690532 0.701976
0.352743 0.702876 0.714336
0.431693 0.715312 0.726772
0.510399 0.72781 0.739269
0.588861 0.740368 0.751827
0 0.775494 0.635645
0.0137942 0.786801 0.646952
0.0948043 0.798688 0.658824
0.175006 0.810773 0.670924
0.254673 0.823026 0.683162
0.333928 0.83537 0.695521
0.412879 0.847807 0.707942
0.491569 0.860304 0.720455
0.570047 0.872877 0.733013
0 0.907912 0.617044
0 0.919219 0.628351
0.0762036 0.93109 0.640223
0.156405 0.943191 0.652323
0.236057 0.955428 0.664561
0.315328 0.967773 0.676905
0.394278 0.980209 0.689342
0.472969 0.992721 0.701854
0.551446 1 0.714412
0 1 0.598611
0 1 0.609918
0.0577859 1 0.62179
0.137972 1 0.63389
0.217639 1 0.646128
0.296895 1 0.658488
0.375845 1 0.670924
0.454551 1 0.683421
0.533013 1 0.695979
0.0535134 0 0.853559
0.136614 0 0.864866
0.217639 0.0027924 0.876738
0.297841 0.0148928 0.888838
0.377493 0.0271305 0.901091
0.456764 0.0394751 0.913436
0.535714 0.0519112 0.925872
0.614404 0.0644236 0.938369
0.692882 0.0769818 0.950942
0.0307469 0.113664 0.830808
0.113863 0.124971 0.842115
0.194888 0.136843 0.853986
0.275074 0.148943 0.866087
0.354742 0.161181 0.878325
0.433997 0.173526 0.890684
0.512963 0.185962 0.903105
0.591653 0.198474 0.915618
0.670115 0.211032 0.928176
0.0100404 0.246906 0.810086
0.0931411 0.258213 0.821393
0.174166 0.2701 0.833265
0.254353 0.282185 0.845365
0.33402 0.294438 0.857603
0.413291 0.306783 0.869963
0.492241 0.319219 0.882399
0.570932 0.331716 0.894896
0.649409 0.344289 0.907454
0 0.379828 0.790204
0.0732586 0.391135 0.801511
0.154269 0.403021 0.813382
0.23447 0.415106 0.825483
0.314137 0.427359 0.83772
0.393393 0.439704 0.850065
0.472343 0.45214 0.862501
0.551049 0.464637 0.875013
0.629511 0.477211 0.887572
0 0.512566 0.770794
0.0538491 0.523873 0.782101
0.134859 0.535744 0.793973
0.215061 0.547845 0.806073
0.294713 0.560082 0.818311
0.373983 0.572442 0.830655
0.452934 0.584863 0.843091
0.531624 0.597375 0.855604
0.610101 0.609934 0.868162
0 0.645167 0.751705
0.0347601 0.656474 0.763012
0.115785 0.668345 0.774899
0.195987 0.680446 0.786984
0.275639 0.692683 0.799237
0.35491 0.705028 0.811582
0.43386 0.717464 0.824018
0.512551 0.729976 0.836515
0.591028 0.742535 0.849088
0 0.777661 0.732891
0.0159457 0.788968 0.744198
0.0969711 0.800839 0.756069
0.177157 0.81294 0.76817
0.256825 0.825177 0.780423
0.336095 0.837522 0.792767
0.415045 0.849958 0.805203
0.493736 0.86247 0.8177
0.572213 0.875029 0.830259
0 0.910063 0.71429
0 0.92137 0.725597
0.0783703 0.933257 0.737469
0.158556 0.945342 0.749569
0.238224 0.957595 0.761807
0.317479 0.96994 0.774166
0.396445 0.982376 0.786587
0.475135 0.994873 0.7991
0.553597 1 0.811658
0 1 0.695857
0 1 0.707164
0.0599374 1 0.719051
0.140139 1 0.731136
0.219791 1 0.743389
0.299062 1 0.755734
0.378012 1 0.76817
0.456703 1 0.780667
0.53518 1 0.79324
0.0554665 0 0.953368
0.138582 0 0.964691
0.219593 0.00474556 0.976562
0.299794 0.016846 0.988663
0.379461 0.029099 1
0.458717 0.0414435 1
0.537667 0.0538796 1
0.616358 0.0663767 1
0.694835 0.0789349 1
0.0327153 0.115618 0.930617
0.115816 0.126925 0.941924
0.196841 0.138796 0.953796
0.277043 0.150896 0.965896
0.356695 0.163134 0.978149
0.435966 0.175494 0.990494
0.514916 0.18793 1
0.593606 0.200427 1
0.672084 0.212985 1
0.0119936 0.248875 0.909895
0.0950942 0.260182 0.921202
0.17612 0.272053 0.933089
0.256321 0.284153 0.945174
0.335973 0.296391 0.957427
0.415244 0.308736 0.969772
0.494194 0.321172 0.982208
0.572885 0.333684 0.994705
0.651362 0.346242 1
0 0.381796 0.890013
0.0752117 0.393103 0.90132
0.156237 0.404974 0.913191
0.236439 0.417075 0.925292
0.316091 0.429313 0.93753
0.395361 0.441657 0.949889
0.474311 0.454093 0.962325
0.553002 0.466606 0.974823
0.631479 0.479164 0.987381
0 0.514519 0.870604
0.0558022 0.525826 0.88191
0.136828 0.537713 0.893782
0.217014 0.549798 0.905882
0.296681 0.562051 0.91812
0.375952 0.574395 0.930465
0.454902 0.586831 0.942901
0.533593 0.599329 0.955413
0.612055 0.611902 0.967971
0 0.64712 0.85153
0.0367285 0.658427 0.862837
0.117754 0.670298 0.874708
0.19794 0.682399 0.886809
0.277607 0.694652 0.899046
0.356863 0.706996 0.911391
0.435813 0.719432 0.923827
0.514519 0.731929 0.936339
0.592981 0.744488 0.948898
0 0.779614 0.8327
0.0179141 0.790921 0.844007
0.0989242 0.802792 0.855894
0.179126 0.814893 0.867994
0.258778 0.827146 0.880232
0.338048 0.83949 0.892576
0.416999 0.851926 0.905013
0.495689 0.864424 0.91751
0.574166 0.876997 0.930083
0 0.912032 0.814099
0 0.923339 0.825406
0.0803235 0.93521 0.837278
0.160525 0.947311 0.849378
0.240177 0.959548 0.861631
0.319448 0.971893 0.873976
0.398398 0.984329 0.886412
0.477089 0.996841 0.898909
0.555566 1 0.911467
0 1 0.795682
0 1 0.806989
0.0618906 1 0.81886
0.142092 1 0.830961
0.221759 1 0.843198
0.301015 1 0.855543
0.379965 1 0.867979
0.458671 1 0.880476
0.537133 1 0.89305
