src/luts/mine/1.cube
TITLE "Generated by Resolve"
LUT_3D_SIZE 5
0.0332036 0 0.239582
0.19733 0 0.26276
0.357183 0.00682078 0.287098
0.515404 0.0316014 0.311879
0.672572 0.056672 0.33695
0 0.226596 0.196109
0.153857 0.249775 0.219287
0.31371 0.274128 0.243626
0.471931 0.298909 0.268406
0.629084 0.323964 0.293477
0 0.492256 0.156802
0.114549 0.515435 0.17998
0.274403 0.539773 0.204334
0.432624 0.564553 0.229114
0.589792 0.589624 0.25417
0 0.757351 0.118914
0.0766613 0.780529 0.142092
0.236515 0.804868 0.16643
0.394736 0.829648 0.191211
0.551904 0.854719 0.216281
0 1 0.0818799
0.0396277 1 0.105058
0.199481 1 0.129396
0.357702 1 0.154177
0.51487 1 0.179248
0.0404059 0 0.397009
0.204532 0 0.420188
0.364385 0.014023 0.444526
0.522606 0.0388037 0.469322
0.679774 0.0638743 0.494377
0 0.233799 0.353536
0.161059 0.256977 0.376715
0.320912 0.281331 0.401053
0.479133 0.306111 0.425834
0.636286 0.331167 0.450904
0 0.499458 0.314229
0.121752 0.522637 0.337423
0.281605 0.546975 0.361761
0.439826 0.571756 0.386542
0.596994 0.596826 0.411612
0 0.764553 0.276341
0.0838636 0.787732 0.299519
0.243717 0.81207 0.323857
0.401938 0.836851 0.348638
0.559106 0.861921 0.373709
0 1 0.239307
0.0468299 1 0.262486
0.206683 1 0.286824
0.364904 1 0.31162
0.522072 1 0.336675
0.0463722 0 0.57023
0.210498 0 0.593423
0.370367 0.0200046 0.617761
0.528572 0.0447852 0.642542
0.68574 0.0698405 0.667613
0.00289921 0.23978 0.526757
0.167025 0.262959 0.549935
0.326879 0.287297 0.574289
0.4851 0.312078 0.599069
0.642267 0.337148 0.624125
0 0.505425 0.487465
0.127733 0.528618 0.510643
0.287587 0.552956 0.534981
0.445808 0.577737 0.559762
0.60296 0.602808 0.584833
0 0.77052 0.449561
0.0898299 0.793713 0.47274
0.249683 0.818051 0.497093
0.407904 0.842832 0.521874
0.565072 0.867903 0.546929
0 1 0.412528
0.0527962 1 0.435721
0.212665 1 0.46006
0.370871 1 0.48484
0.528038 1 0.509911
0.0513466 0 0.756313
0.215473 0.00062562 0.779492
0.375341 0.024979 0.80383
0.533547 0.0497597 0.828611
0.690715 0.074815 0.853681
0.00787366 0.244755 0.71284
0.172 0.267933 0.736019
0.331853 0.292271 0.760357
0.490074 0.317052 0.785138
0.647242 0.342123 0.810208
0 0.510399 0.673533
0.132708 0.533593 0.696727
0.292561 0.557931 0.721065
0.450782 0.582712 0.745846
0.607935 0.607782 0.770916
0 0.775494 0.635645
0.0948043 0.798688 0.658824
0.254673 0.823026 0.683162
0.412879 0.847807 0.707942
0.570047 0.872877 0.733013
0 1 0.598611
0.0577859 1 0.62179
0.217639 1 0.646128
0.375845 1 0.670924
0.533013 1 0.695979
0.0554665 0 0.953368
0.219593 0.00474556 0.976562
0.379461 0.029099 1
0.537667 0.0538796 1
0.694835 0.0789349 1
0.0119936 0.248875 0.909895
0.17612 0.272053 0.933089
0.335973 0.296391 0.957427
0.494194 0.321172 0.982208
0.651362 0.346242 1
0 0.514519 0.870604
0.136828 0.537713 0.893782
0.296681 0.562051 0.91812
0.454902 0.586831 0.942901
0.612055 0.611902 0.967971
0 0.779614 0.8327
0.0989242 0.802792 0.855894
0.258778 0.827146 0.880232
0.416999 0.851926 0.905013
0.574166 0.876997 0.930083
0 1 0.795682
0.0618906 1 0.81886
0.221759 1 0.843198
0.379965 1 0.867979
0.537133 1 0.89305
