src/luts/mine/1.cube
TITLE "Generated by Resolve"
LUT_3D_SIZE 33
0.0332036 0 0.239582
0.0544442 0 0.242283
0.0752422 0 0.245106
0.0958419 0 0.247974
0.116304 0 0.250889
0.136675 0 0.253834
0.156954 0 0.256794
0.177172 0 0.25977
0.19733 0 0.26276
0.217441 0 0.265766
0.237507 0 0.268788
0.257527 0 0.271824
0.277516 0 0.274861
0.297475 0 0.277913
0.317403 0.000686656 0.280964
0.337301 0.00375372 0.284031
0.357183 0.00682078 0.287098
0.377035 0.0099031 0.290181
0.396857 0.0129854 0.293263
0.416663 0.0160678 0.296361
0.436454 0.0191653 0.299458
0.456214 0.0222782 0.302556
0.475959 0.0253758 0.305653
0.495689 0.0284886 0.308766
0.515404 0.0316014 0.311879
0.535103 0.0347295 0.315007
0.554772 0.0378424 0.318135
0.574441 0.0409705 0.321263
0.594095 0.0441138 0.324392
0.613733 0.0472419 0.32752
0.633356 0.0503853 0.330663
0.652964 0.0535286 0.333806
0.672572 0.056672 0.33695
0.0276799 0 0.234058
0.0489204 0 0.236759
0.0697185 0 0.239582
0.0903182 0.00112917 0.242451
0.11078 0.00404364 0.245365
0.131151 0.00697337 0.24831
0.151431 0.00993362 0.25127
0.171649 0.0129244 0.254246
0.191806 0.0159152 0.257237
0.211917 0.0189212 0.260258
0.231983 0.0219425 0.263264
0.252018 0.024979 0.2663
0.272007 0.0280156 0.269337
0.291966 0.0310674 0.272389
0.311894 0.0341192 0.275441
0.331792 0.0371862 0.278508
0.351659 0.0402533 0.28159
0.371511 0.0433356 0.284657
0.391333 0.0464179 0.287739
0.411139 0.0495003 0.290837
0.43093 0.0525978 0.293935
0.45069 0.0557107 0.297032
0.470436 0.0588083 0.300145
0.490166 0.0619211 0.303243
0.50988 0.0650339 0.306371
0.52958 0.0681621 0.309483
0.549264 0.0712749 0.312612
0.568917 0.074403 0.31574
0.588571 0.0775464 0.318868
0.608209 0.0806744 0.322011
0.627832 0.0838178 0.325139
0.64744 0.0869612 0.328283
0.667048 0.0901045 0.331426
0.021622 0.0263981 0.228016
0.0428779 0.0290837 0.230701
0.0636759 0.0319066 0.233524
0.0842756 0.0347906 0.236408
0.104738 0.037705 0.239322
0.125093 0.0406348 0.242252
0.145388 0.043595 0.245212
0.165591 0.0465858 0.248203
0.185763 0.0495766 0.251194
0.205875 0.0525826 0.2542
0.22594 0.0556039 0.257221
0.24596 0.0586252 0.260258
0.265949 0.061677 0.263294
0.285908 0.0647135 0.266346
0.305837 0.0677806 0.269398
0.325734 0.0708476 0.272465
0.345617 0.0739147 0.275532
0.365469 0.076997 0.278614
0.38529 0.0800793 0.281697
0.405097 0.0831617 0.284779
0.424872 0.0862593 0.287877
0.444648 0.0893568 0.29099
0.464393 0.0924697 0.294087
0.484123 0.0955825 0.2972
0.503838 0.0986954 0.300313
0.523522 0.101808 0.303441
0.543206 0.104936 0.306554
0.562875 0.108064 0.309682
0.582528 0.111192 0.312825
0.602167 0.114336 0.315953
0.62179 0.117479 0.319097
0.641398 0.120623 0.32224
0.66099 0.123766 0.325383
0.0158846 0.0599222 0.222263
0.0371252 0.062623 0.224964
0.0579385 0.0654459 0.227787
0.0785229 0.0683299 0.230655
0.0989853 0.0712291 0.23357
0.119356 0.0741741 0.236515
0.139635 0.0771344 0.239475
0.159854 0.0801099 0.242451
0.180011 0.0831159 0.245457
0.200122 0.0861219 0.248463
0.220188 0.0891432 0.251484
0.240223 0.0921645 0.254505
0.260212 0.095201 0.257542
0.280171 0.0982528 0.260594
0.300099 0.10132 0.263661
0.319997 0.104372 0.266712
0.339864 0.107454 0.269795
0.359716 0.110536 0.272862
0.379553 0.113619 0.275959
0.399344 0.116701 0.279042
0.419135 0.119799 0.282139
0.438895 0.122896 0.285237
0.45864 0.126009 0.28835
0.47837 0.129122 0.291463
0.498085 0.132235 0.294575
0.517784 0.135348 0.297688
0.537469 0.138476 0.300816
0.557122 0.141604 0.303944
0.576776 0.144732 0.307073
0.596414 0.147875 0.310216
0.616037 0.151019 0.313344
0.63566 0.154147 0.316487
0.655253 0.157305 0.319646
0.0104372 0.0933394 0.216831
0.031693 0.0960403 0.219516
0.052491 0.0988632 0.222339
0.0730907 0.101747 0.225223
0.0935531 0.104646 0.228138
0.113909 0.107591 0.231067
0.134188 0.110552 0.234028
0.154406 0.113527 0.237018
0.174578 0.116533 0.240009
0.194675 0.119539 0.243015
0.21474 0.12256 0.246036
0.234775 0.125582 0.249058
0.254765 0.128634 0.25211
0.274723 0.13167 0.255146
0.294652 0.134737 0.258213
0.314549 0.137804 0.26128
0.334432 0.140871 0.264347
0.354269 0.143954 0.26743
0.374105 0.147036 0.270512
0.393912 0.150118 0.273594
0.413687 0.153216 0.276692
0.433463 0.156313 0.279789
0.453208 0.159426 0.282902
0.472938 0.162539 0.286015
0.492638 0.165652 0.289128
0.512337 0.168765 0.292256
0.532021 0.171893 0.295369
0.55169 0.175021 0.298497
0.571344 0.178149 0.301625
0.590982 0.181292 0.304768
0.610605 0.184436 0.307912
0.630213 0.187579 0.311055
0.649805 0.190723 0.314199
0.00514229 0.126711 0.211521
0.0263828 0.129412 0.214221
0.0471809 0.132219 0.217044
0.0677806 0.135103 0.219913
0.0882429 0.138018 0.222827
0.108614 0.140948 0.225772
0.128893 0.143923 0.228733
0.149111 0.146899 0.231708
0.169268 0.149889 0.234699
0.18938 0.152895 0.237705
0.209445 0.155917 0.240726
0.22948 0.158953 0.243763
0.24947 0.16199 0.246799
0.269429 0.165042 0.249851
0.289357 0.168093 0.252903
0.309255 0.17116 0.25597
0.329122 0.174228 0.259052
0.348974 0.17731 0.262119
0.368795 0.180392 0.265202
0.388602 0.18349 0.268299
0.408392 0.186572 0.271397
0.428153 0.189685 0.274495
0.447898 0.192782 0.277607
0.467628 0.195895 0.280705
0.487343 0.199008 0.283833
0.507042 0.202136 0.286946
0.526726 0.205249 0.290074
0.54638 0.208377 0.293202
0.566033 0.211521 0.29633
0.585672 0.214649 0.299474
0.605295 0.217792 0.302602
0.624903 0.220935 0.305745
0.644511 0.224079 0.308888
0 0.160037 0.206317
0.0211795 0.162722 0.209018
0.0419776 0.165545 0.211841
0.0625772 0.168429 0.21471
0.0830396 0.171344 0.217624
0.10341 0.174273 0.220569
0.12369 0.177234 0.223529
0.143908 0.180224 0.226505
0.164065 0.183215 0.229496
0.184176 0.186221 0.232502
0.204242 0.189242 0.235523
0.224262 0.192279 0.23856
0.244251 0.195315 0.241596
0.26421 0.198367 0.244648
0.284138 0.201419 0.2477
0.304051 0.204486 0.250767
0.323919 0.207553 0.253834
0.343771 0.210636 0.256916
0.363592 0.213718 0.259998
0.383398 0.2168 0.263096
0.403189 0.219898 0.266194
0.42295 0.223011 0.269291
0.442695 0.226108 0.272389
0.462425 0.229221 0.275502
0.482139 0.232334 0.278614
0.501839 0.235462 0.281743
0.521508 0.238575 0.284871
0.541176 0.241703 0.287999
0.56083 0.244846 0.291127
0.580468 0.247974 0.294255
0.600092 0.251118 0.297398
0.619699 0.254261 0.300542
0.639307 0.257404 0.303685
0 0.193332 0.201175
0.0160525 0.196017 0.203876
0.0368505 0.19884 0.206699
0.0574502 0.201724 0.209583
0.0779126 0.204639 0.212482
0.0982681 0.207568 0.215427
0.118547 0.210529 0.218387
0.138766 0.213519 0.221363
0.158923 0.21651 0.224369
0.179034 0.219516 0.227375
0.1991 0.222538 0.230396
0.219135 0.225574 0.233417
0.239124 0.228611 0.236469
0.259083 0.231662 0.239506
0.279011 0.234714 0.242573
0.298909 0.237781 0.24564
0.318791 0.240848 0.248707
0.338628 0.243931 0.251789
0.358465 0.247013 0.254871
0.378271 0.250095 0.257954
0.398047 0.253193 0.261051
0.417807 0.256306 0.264149
0.437568 0.259403 0.267262
0.457282 0.262516 0.270375
0.476997 0.265629 0.273487
0.496696 0.268757 0.2766
0.516381 0.27187 0.279728
0.536049 0.274998 0.282856
0.555688 0.278141 0.285985
0.575326 0.28127 0.289128
0.594949 0.284413 0.292271
0.614572 0.287556 0.295415
0.634165 0.2907 0.298558
0 0.226596 0.196109
0.0109712 0.229297 0.198795
0.0317693 0.23212 0.201617
0.052369 0.234989 0.204501
0.0728313 0.237903 0.207416
0.0931868 0.240848 0.210346
0.113481 0.243809 0.213306
0.1337 0.246784 0.216297
0.153857 0.249775 0.219287
0.173968 0.252796 0.222293
0.194034 0.255802 0.225315
0.214054 0.258839 0.228351
0.234043 0.261875 0.231388
0.254002 0.264927 0.23444
0.27393 0.267979 0.237491
0.293828 0.271046 0.240558
0.31371 0.274128 0.243626
0.333562 0.277195 0.246708
0.353384 0.280278 0.24979
0.37319 0.283375 0.252888
0.392966 0.286473 0.25597
0.412741 0.28957 0.259083
0.432486 0.292683 0.262181
0.452216 0.295781 0.265293
0.471931 0.298909 0.268406
0.491615 0.302022 0.271534
0.511299 0.30515 0.274647
0.530968 0.308278 0.277775
0.550622 0.311406 0.280919
0.57026 0.314549 0.284047
0.589883 0.317678 0.28719
0.609491 0.320821 0.290333
0.629084 0.323964 0.293477
0 0.259846 0.191073
0.00593576 0.262547 0.193774
0.0267338 0.26537 0.196597
0.0473335 0.268254 0.199466
0.0677958 0.271153 0.20238
0.0881666 0.274098 0.205325
0.108446 0.277058 0.208286
0.128664 0.280034 0.211261
0.148821 0.28304 0.214252
0.168933 0.286046 0.217273
0.188998 0.289067 0.220279
0.209033 0.292088 0.223316
0.229023 0.295125 0.226352
0.248981 0.298177 0.229404
0.26891 0.301244 0.232456
0.288808 0.304295 0.235523
0.308675 0.307378 0.238605
0.328527 0.31046 0.241672
0.348348 0.313542 0.244755
0.368154 0.316625 0.247852
0.387945 0.319722 0.25095
0.407706 0.32282 0.254047
0.427451 0.325933 0.25716
0.447181 0.329046 0.260258
0.466896 0.332158 0.263386
0.486595 0.335271 0.266499
0.506279 0.338399 0.269627
0.525933 0.341527 0.272755
0.545586 0.344656 0.275883
0.565225 0.347799 0.279026
0.584848 0.350942 0.282155
0.604456 0.35407 0.285298
0.624063 0.357229 0.288441
0 0.293095 0.186084
0.000946059 0.295781 0.188785
0.0217594 0.298604 0.191608
0.0423438 0.301488 0.194476
0.0628061 0.304402 0.197391
0.0831769 0.307332 0.200336
0.103456 0.310292 0.203296
0.123674 0.313283 0.206271
0.143832 0.316274 0.209277
0.163943 0.31928 0.212284
0.184009 0.322301 0.215305
0.204044 0.325322 0.218326
0.224033 0.328374 0.221363
0.243992 0.331411 0.224414
0.26392 0.334478 0.227481
0.283818 0.337545 0.230533
0.303685 0.340612 0.233616
0.323537 0.343694 0.236683
0.343374 0.346777 0.23978
0.363165 0.349859 0.242863
0.382956 0.352956 0.24596
0.402716 0.356054 0.249058
0.422461 0.359167 0.252171
0.442191 0.36228 0.255283
0.461906 0.365393 0.258396
0.481605 0.368521 0.261509
0.501289 0.371633 0.264637
0.520943 0.374762 0.267765
0.540597 0.37789 0.270893
0.560235 0.381033 0.274037
0.579858 0.384176 0.277165
0.599481 0.38732 0.280308
0.619074 0.390463 0.283467
0 0.326314 0.18114
0 0.329015 0.183841
0.0168002 0.331823 0.186648
0.0373999 0.334707 0.189532
0.0578622 0.337621 0.192447
0.0782177 0.340551 0.195377
0.0985122 0.343526 0.198352
0.11873 0.346502 0.201328
0.138888 0.349493 0.204318
0.158999 0.352499 0.207324
0.179065 0.35552 0.210346
0.199084 0.358557 0.213382
0.219074 0.361593 0.216419
0.239033 0.364645 0.219471
0.258961 0.367697 0.222522
0.278859 0.370764 0.225589
0.298741 0.373831 0.228656
0.318593 0.376913 0.231739
0.338415 0.379995 0.234821
0.358221 0.383093 0.237919
0.378012 0.386175 0.241001
0.397772 0.389288 0.244114
0.417517 0.392386 0.247211
0.437247 0.395499 0.250324
0.456962 0.398611 0.253437
0.476646 0.40174 0.256565
0.49633 0.404852 0.259678
0.515999 0.40798 0.262806
0.535653 0.411124 0.265949
0.555291 0.414252 0.269078
0.574914 0.417395 0.272221
0.594522 0.420539 0.275364
0.614115 0.423682 0.278508
0 0.359518 0.176211
0 0.362219 0.178912
0.0118868 0.365042 0.181735
0.0324865 0.36791 0.184619
0.0529488 0.370825 0.187518
0.0733043 0.37377 0.190463
0.0935836 0.37673 0.193423
0.113802 0.379705 0.196399
0.133959 0.382696 0.199405
0.15407 0.385718 0.202411
0.174136 0.388724 0.205432
0.194171 0.39176 0.208453
0.21416 0.394797 0.21149
0.234119 0.397848 0.214542
0.254047 0.4009 0.217609
0.273945 0.403967 0.220661
0.293812 0.40705 0.223743
0.313664 0.410117 0.226825
0.333501 0.413199 0.229908
0.353307 0.416297 0.23299
0.373083 0.419394 0.236088
0.392844 0.422492 0.239185
0.412604 0.425605 0.242298
0.432319 0.428702 0.245411
0.452033 0.43183 0.248524
0.471733 0.434943 0.251637
0.491417 0.438071 0.254765
0.511086 0.441199 0.257893
0.530724 0.444327 0.261021
0.550362 0.447471 0.264164
0.569986 0.450599 0.267308
0.589609 0.453742 0.270436
0.609201 0.456886 0.273594
0 0.392721 0.171328
0 0.395422 0.174029
0.00698863 0.39823 0.176852
0.0275883 0.401114 0.179721
0.0480507 0.404028 0.182635
0.0684215 0.406958 0.18558
0.0887007 0.409934 0.18854
0.108919 0.412909 0.191516
0.129076 0.4159 0.194507
0.149187 0.418906 0.197513
0.169253 0.421927 0.200534
0.189273 0.424964 0.203571
0.209262 0.428 0.206607
0.229221 0.431052 0.209659
0.249149 0.434104 0.212711
0.269062 0.437171 0.215778
0.28893 0.440238 0.218845
0.308782 0.44332 0.221927
0.328603 0.446403 0.22501
0.348409 0.4495 0.228107
0.3682 0.452583 0.231205
0.387961 0.455695 0.234302
0.407706 0.458793 0.2374
0.427436 0.461906 0.240513
0.44715 0.465019 0.243626
0.46685 0.468147 0.246754
0.486519 0.47126 0.249882
0.506188 0.474388 0.25301
0.525841 0.477531 0.256138
0.54548 0.480659 0.259266
0.565103 0.483803 0.262409
0.58471 0.486946 0.265553
0.604318 0.490089 0.268696
0 0.42591 0.166461
0 0.428595 0.169162
0.002121 0.431418 0.171984
0.0227207 0.434302 0.174853
0.043183 0.437217 0.177768
0.0635538 0.440146 0.180713
0.0838331 0.443107 0.183673
0.104051 0.446097 0.186648
0.124208 0.449088 0.189639
0.14432 0.452094 0.192645
0.164385 0.455116 0.195666
0.184421 0.458152 0.198703
0.20441 0.461189 0.20174
0.224369 0.46424 0.204791
0.244297 0.467292 0.207843
0.264195 0.470359 0.21091
0.284062 0.473426 0.213993
0.303914 0.476509 0.21706
0.323735 0.479591 0.220142
0.343542 0.482689 0.223239
0.363333 0.485771 0.226337
0.383093 0.488884 0.229435
0.402838 0.491981 0.232547
0.422568 0.495094 0.235645
0.442283 0.498207 0.238773
0.461982 0.501335 0.241886
0.481666 0.504448 0.245014
0.50132 0.507576 0.248142
0.520974 0.510719 0.25127
0.540612 0.513848 0.254414
0.560235 0.516991 0.257542
0.579843 0.520134 0.260685
0.599451 0.523278 0.263828
0 0.459083 0.161624
0 0.461784 0.164324
0 0.464607 0.167147
0.0178836 0.467475 0.170016
0.0383459 0.47039 0.17293
0.0587167 0.473335 0.175875
0.078996 0.476295 0.178836
0.0992142 0.479271 0.181811
0.119371 0.482261 0.184802
0.139483 0.485267 0.187808
0.159548 0.488289 0.190829
0.179568 0.491325 0.193866
0.199557 0.494362 0.196902
0.219516 0.497414 0.199954
0.239445 0.500465 0.203006
0.259358 0.503532 0.206073
0.279225 0.5066 0.20914
0.299077 0.509682 0.212222
0.318898 0.512764 0.215305
0.338704 0.515862 0.218402
0.358495 0.518959 0.2215
0.378256 0.522057 0.224598
0.398001 0.525154 0.227695
0.417731 0.528267 0.230808
0.437446 0.531395 0.233921
0.457145 0.534508 0.237049
0.476814 0.537636 0.240177
0.496483 0.540764 0.243305
0.516136 0.543893 0.246433
0.535775 0.547021 0.249561
0.555398 0.550164 0.252705
0.575006 0.553307 0.255848
0.594614 0.556451 0.258991
0 0.492256 0.156802
0 0.494957 0.159503
0 0.497765 0.162325
0.0130617 0.500648 0.165194
0.0335241 0.503563 0.168109
0.0538949 0.506493 0.171054
0.0741741 0.509468 0.174014
0.0943923 0.512444 0.176989
0.114549 0.515435 0.17998
0.134661 0.518441 0.183001
0.154726 0.521462 0.186007
0.174762 0.524498 0.189044
0.194751 0.527535 0.192081
0.21471 0.530587 0.195132
0.234638 0.533639 0.198184
0.254536 0.536706 0.201251
0.274403 0.539773 0.204334
0.294255 0.542855 0.207401
0.314076 0.545937 0.210483
0.333883 0.549035 0.213581
0.353674 0.552117 0.216678
0.373434 0.55523 0.219776
0.393179 0.558328 0.222889
0.412909 0.56144 0.226001
0.432624 0.564553 0.229114
0.452323 0.567681 0.232227
0.472007 0.570794 0.235355
0.491661 0.573922 0.238483
0.511315 0.577066 0.241611
0.530953 0.580194 0.244755
0.550576 0.583337 0.247883
0.570184 0.58648 0.251026
0.589792 0.589624 0.25417
0 0.525414 0.15201
0 0.528115 0.154711
0 0.530938 0.157519
0.00827039 0.533806 0.160403
0.0287327 0.536721 0.163317
0.0490883 0.539666 0.166262
0.0693828 0.542626 0.169223
0.089601 0.545602 0.172198
0.109758 0.548592 0.175189
0.12987 0.551598 0.178195
0.149935 0.55462 0.181216
0.169955 0.557656 0.184253
0.189944 0.560693 0.187289
0.209903 0.563745 0.190341
0.229831 0.566796 0.193393
0.249729 0.569863 0.19646
0.269612 0.572931 0.199527
0.289464 0.576013 0.202609
0.309285 0.579095 0.205692
0.329091 0.582193 0.208789
0.348882 0.58529 0.211887
0.368643 0.588388 0.214984
0.388388 0.591485 0.218082
0.408118 0.594598 0.221195
0.427832 0.597711 0.224308
0.447517 0.600839 0.227436
0.467201 0.603967 0.230564
0.48687 0.607095 0.233692
0.506523 0.610224 0.23682
0.526162 0.613352 0.239948
0.545785 0.616495 0.243091
0.565393 0.619638 0.246235
0.585 0.622782 0.249378
0 0.558572 0.147234
0 0.561257 0.149935
0 0.56408 0.152743
0.00349432 0.566964 0.155627
0.0239567 0.569879 0.158541
0.0443122 0.572808 0.161471
0.0646067 0.575769 0.164431
0.0848249 0.578759 0.167422
0.104982 0.58175 0.170413
0.125093 0.584756 0.173419
0.145159 0.587777 0.17644
0.165179 0.590799 0.179477
0.185168 0.593851 0.182513
0.205127 0.596902 0.185565
0.225055 0.599954 0.188617
0.244953 0.603021 0.191684
0.264836 0.606088 0.194751
0.284688 0.609171 0.197833
0.304509 0.612253 0.200916
0.324315 0.615335 0.204013
0.344091 0.618433 0.207095
0.363867 0.621546 0.210208
0.383612 0.624643 0.213306
0.403342 0.627756 0.216419
0.423056 0.630869 0.219532
0.442741 0.633997 0.22266
0.462425 0.63711 0.225772
0.482094 0.640238 0.228901
0.501747 0.643381 0.232044
0.521385 0.64651 0.235172
0.541009 0.649653 0.238315
0.560616 0.652796 0.241459
0.580209 0.65594 0.244602
0 0.591714 0.142473
0 0.594415 0.145174
0 0.597223 0.147982
0 0.600107 0.150866
0.0191958 0.603021 0.15378
0.0395514 0.605966 0.156725
0.0598459 0.608927 0.159686
0.0800641 0.611902 0.162661
0.100221 0.614893 0.165652
0.120333 0.617899 0.168658
0.140398 0.62092 0.171679
0.160418 0.623957 0.174716
0.180407 0.626993 0.177752
0.200366 0.630045 0.180804
0.220295 0.633097 0.183856
0.240192 0.636164 0.186923
0.260075 0.639231 0.18999
0.279927 0.642313 0.193072
0.299748 0.645396 0.196155
0.319554 0.648493 0.199252
0.339345 0.651591 0.202335
0.359106 0.654688 0.205447
0.378851 0.657786 0.208545
0.398581 0.660899 0.211658
0.418296 0.664012 0.214771
0.43798 0.66714 0.217899
0.457664 0.670268 0.221027
0.477333 0.673396 0.224155
0.496986 0.676524 0.227283
0.516625 0.679652 0.230411
0.536248 0.682795 0.233555
0.555856 0.685939 0.236698
0.575448 0.689082 0.239841
0 0.624857 0.137728
0 0.627543 0.140429
0 0.630365 0.143252
0 0.633249 0.14612
0.0144503 0.636164 0.149035
0.0348211 0.639094 0.15198
0.0551003 0.642054 0.15494
0.0753185 0.645045 0.157916
0.0954757 0.648035 0.160906
0.115587 0.651041 0.163912
0.135653 0.654063 0.166934
0.155673 0.657084 0.16997
0.175677 0.660136 0.173007
0.195636 0.663172 0.176059
0.215549 0.666239 0.17911
0.235462 0.669306 0.182177
0.255329 0.672374 0.185245
0.275181 0.675456 0.188327
0.295003 0.678538 0.191409
0.314809 0.68162 0.194507
0.3346 0.684718 0.197604
0.35436 0.687831 0.200702
0.374105 0.690929 0.2038
0.393835 0.694041 0.206912
0.41355 0.697154 0.21004
0.433249 0.700282 0.213153
0.452918 0.703395 0.216281
0.472587 0.706523 0.219409
0.492241 0.709667 0.222538
0.511879 0.712795 0.225666
0.531502 0.715938 0.228809
0.55111 0.719081 0.231952
0.570718 0.722225 0.235096
0 0.657984 0.132998
0 0.660685 0.135698
0 0.663508 0.138521
0 0.666377 0.14139
0.00972 0.669291 0.144305
0.0300908 0.672236 0.14725
0.05037 0.675196 0.15021
0.0705882 0.678172 0.153185
0.0907454 0.681163 0.156191
0.110857 0.684169 0.159197
0.130922 0.68719 0.162219
0.150958 0.690227 0.16524
0.170947 0.693263 0.168276
0.190906 0.696315 0.171328
0.210834 0.699367 0.174395
0.230732 0.702434 0.177447
0.250599 0.705501 0.180529
0.270451 0.708583 0.183597
0.290288 0.711666 0.186694
0.310079 0.714763 0.189776
0.32987 0.717861 0.192874
0.34963 0.720958 0.195972
0.369375 0.724056 0.199084
0.389105 0.727169 0.202197
0.40882 0.730282 0.20531
0.428519 0.73341 0.208423
0.448203 0.736538 0.211551
0.467857 0.739666 0.214679
0.487511 0.742794 0.217807
0.507149 0.745922 0.220951
0.526772 0.749065 0.224079
0.546395 0.752209 0.227222
0.565988 0.755352 0.230381
0 0.691112 0.128298
0 0.693812 0.130983
0 0.696635 0.133806
0 0.699504 0.13669
0.00502022 0.702419 0.139605
0.0253758 0.705364 0.142535
0.045655 0.708324 0.145495
0.0658732 0.711299 0.148486
0.0860304 0.71429 0.151476
0.106142 0.717296 0.154482
0.126207 0.720317 0.157504
0.146242 0.723354 0.160525
0.166232 0.72639 0.163577
0.186191 0.729442 0.166613
0.206119 0.732494 0.16968
0.226017 0.735561 0.172747
0.245899 0.738628 0.175814
0.265736 0.741711 0.178897
0.285573 0.744793 0.181979
0.305379 0.74789 0.185061
0.325154 0.750988 0.188159
0.34493 0.754086 0.191257
0.364675 0.757183 0.194369
0.384405 0.760296 0.197482
0.404105 0.763409 0.200595
0.423804 0.766537 0.203708
0.443488 0.769665 0.206836
0.463157 0.772793 0.209964
0.482811 0.775921 0.213092
0.502434 0.779049 0.216236
0.522072 0.782193 0.219379
0.54168 0.785336 0.222522
0.561273 0.788479 0.225666
0 0.724224 0.123598
0 0.726925 0.126284
0 0.729747 0.129107
0 0.732631 0.131991
0.000320439 0.735531 0.134905
0.020676 0.738476 0.137835
0.0409705 0.741436 0.140795
0.0611887 0.744411 0.143786
0.0813458 0.747417 0.146777
0.101457 0.750423 0.149783
0.121523 0.753445 0.152804
0.141543 0.756466 0.15584
0.161532 0.759518 0.158877
0.181491 0.762554 0.161929
0.201419 0.765621 0.164981
0.221317 0.768688 0.168048
0.241199 0.771756 0.171115
0.261051 0.774838 0.174197
0.280873 0.77792 0.177279
0.300679 0.781003 0.180377
0.320455 0.7841 0.183459
0.34023 0.787198 0.186572
0.359976 0.790311 0.18967
0.379705 0.793423 0.192782
0.39942 0.796536 0.195895
0.419104 0.799649 0.199023
0.438788 0.802777 0.202136
0.458457 0.805905 0.205264
0.478111 0.809033 0.208408
0.497749 0.812177 0.211536
0.517372 0.81532 0.214679
0.53698 0.818463 0.217823
0.556573 0.821607 0.220966
0 0.757351 0.118914
0 0.760037 0.121614
0 0.76286 0.124422
0 0.765743 0.127306
0 0.768658 0.13022
0.0159915 0.771588 0.133165
0.036286 0.774548 0.136126
0.0565042 0.777539 0.139101
0.0766613 0.780529 0.142092
0.0967727 0.783536 0.145098
0.116838 0.786557 0.148119
0.136858 0.789593 0.151156
0.156847 0.79263 0.154192
0.176806 0.795682 0.157244
0.196735 0.798733 0.160296
0.216632 0.801801 0.163363
0.236515 0.804868 0.16643
0.256367 0.80795 0.169512
0.276188 0.811032 0.172595
0.295995 0.814115 0.175692
0.315785 0.817212 0.17879
0.335546 0.820325 0.181888
0.355291 0.823423 0.184985
0.375021 0.826535 0.188098
0.394736 0.829648 0.191211
0.41442 0.832776 0.194339
0.434104 0.835889 0.197467
0.453773 0.839017 0.200595
0.473426 0.842161 0.203723
0.493065 0.845289 0.206851
0.512688 0.848432 0.209995
0.532296 0.851575 0.213138
0.551904 0.854719 0.216281
0 0.790463 0.114244
0 0.793149 0.116945
0 0.795972 0.119753
0 0.798856 0.122637
0 0.80177 0.125551
0.0113222 0.8047 0.128481
0.0316167 0.80766 0.131456
0.0518349 0.810651 0.134432
0.0719921 0.813642 0.137423
0.0921035 0.816648 0.140429
0.112169 0.819669 0.14345
0.132189 0.82269 0.146487
0.152178 0.825742 0.149523
0.172137 0.828779 0.152575
0.192065 0.831846 0.155627
0.211963 0.834913 0.158694
0.231846 0.83798 0.161761
0.251698 0.841062 0.164843
0.271519 0.844144 0.167926
0.291325 0.847227 0.171023
0.311116 0.850324 0.174105
0.330877 0.853422 0.177218
0.350622 0.856535 0.180316
0.370352 0.859648 0.183429
0.390066 0.86276 0.186542
0.409751 0.865873 0.18967
0.429435 0.869001 0.192782
0.449104 0.872129 0.195911
0.468757 0.875257 0.199054
0.488396 0.878401 0.202182
0.508019 0.881544 0.205325
0.527626 0.884688 0.208469
0.547219 0.887831 0.211612
0 0.82356 0.10959
0 0.826261 0.112276
0 0.829084 0.115099
0 0.831952 0.117983
0 0.834867 0.120897
0.00666819 0.837812 0.123827
0.0269474 0.840772 0.126787
0.0471656 0.843748 0.129778
0.0673381 0.846738 0.132769
0.0874342 0.849744 0.135775
0.107515 0.852766 0.138796
0.127535 0.855802 0.141817
0.147524 0.858839 0.144869
0.167483 0.861891 0.147921
0.187411 0.864942 0.150973
0.207309 0.868009 0.15404
0.227192 0.871077 0.157107
0.247044 0.874159 0.160189
0.266865 0.877241 0.163272
0.286671 0.880339 0.166354
0.306447 0.883436 0.169451
0.326223 0.886534 0.172564
0.345968 0.889647 0.175662
0.365698 0.892744 0.178775
0.385397 0.895872 0.181888
0.405097 0.898985 0.185016
0.424781 0.902113 0.188128
0.44445 0.905241 0.191257
0.464103 0.90837 0.1944
0.483742 0.911498 0.197528
0.503365 0.914641 0.200671
0.522972 0.917784 0.203815
0.542565 0.920928 0.206958
0 0.856657 0.104936
0 0.859358 0.107637
0 0.862181 0.11046
0 0.865049 0.113329
0 0.867964 0.116243
0.00202945 0.870909 0.119188
0.0223087 0.873869 0.122148
0.0425269 0.876844 0.125124
0.0626841 0.87985 0.128115
