src/luts/mine/10.cube
TITLE "Generated by Resolve"
LUT_3D_SIZE 33
0 0 0
0.0312352 0 0
0.0624857 0 0
0.0937362 0 0
0.124987 0 0
0.156237 0 0
0.187488 0 0
0.218738 0 0
0.249989 0 0
0.281239 0 0
0.31249 0 0
0.34374 0 0
0.37499 0 0
0.406241 0 0
0.437491 0 0
0.468742 0 0
0.499992 0 0
0.531243 0 0
0.562493 0 0
0.593744 0 0
0.624994 0 0
0.656245 0 0
0.687495 0 0
0.718746 0 0
0.749996 0 0
0.781247 0 0
0.812497 0 0
0.843748 0 0
0.874998 0 0
0.906249 0 0
0.937499 0 0
0.96875 0 0
1 0 0
0.0437934 0.0172732 0.00935378
0.044007 0.0266423 0.00794995
0.0665141 0.0295872 0.0043946
0.0958572 0.0303044 0.00299077
0.126421 0.0305791 0.00231937
0.157366 0.0307012 0.00196841
0.188434 0.0307774 0.00178531
0.219593 0.030808 0.00166323
0.250782 0.0308385 0.0016022
0.282002 0.0308537 0.00158694
0.313237 0.0308537 0.00158694
0.344488 0.0308537 0.0016022
0.375738 0.0308385 0.00163272
0.407004 0.0308385 0.00167849
0.43827 0.0308385 0.00172427
0.469535 0.0308232 0.00178531
0.500801 0.030808 0.00184634
0.532067 0.0307927 0.00189212
0.563348 0.0307774 0.00196841
0.594629 0.0307622 0.00202945
0.625895 0.0307469 0.00210575
0.657176 0.0307317 0.00218204
0.688457 0.0307164 0.00225834
0.719738 0.0307012 0.00231937
0.751019 0.0306859 0.00239567
0.7823 0.0306706 0.00248722
0.813581 0.0306554 0.00256352
0.844862 0.0306401 0.00263981
0.876143 0.0306249 0.00271611
0.907423 0.0306096 0.00280766
0.938704 0.0305791 0.00288396
0.969985 0.0305638 0.00296025
1 0.0305486 0.0030518
0.087602 0.0345617 0.0187228
0.0842908 0.0444343 0.0226749
0.0880293 0.0532845 0.0158846
0.10692 0.0574044 0.01149
0.133043 0.059205 0.0087892
0.161837 0.0601053 0.00709545
0.19173 0.0606241 0.00596628
0.222156 0.0609445 0.00520333
0.252872 0.0611582 0.004654
0.283742 0.0613107 0.00424201
0.314733 0.0614176 0.00395209
0.345785 0.0614939 0.0037232
0.376898 0.0615549 0.00355535
0.408042 0.0616007 0.00343328
0.4392 0.0616465 0.00334173
0.47039 0.0616617 0.00328069
0.501579 0.0616922 0.00320439
0.532799 0.0617075 0.00317388
0.564019 0.0617075 0.00315862
0.595254 0.0617227 0.00315862
0.626505 0.0617227 0.00317388
0.65774 0.0617227 0.00318914
0.688991 0.0617227 0.00320439
0.720241 0.0617075 0.00323491
0.751507 0.0617075 0.00328069
0.782757 0.0617075 0.00331121
0.814023 0.0616922 0.00335698
0.845289 0.0616922 0.00340276
0.876539 0.061677 0.00343328
0.90782 0.0616617 0.00350958
0.939086 0.0616617 0.00355535
0.970352 0.0616465 0.00361639
1 0.0616312 0.00367742
0.131411 0.0518349 0.0280919
0.128099 0.0613413 0.0356298
0.125765 0.0718395 0.0305791
0.132052 0.079942 0.0238346
0.149157 0.0846265 0.0190738
0.172732 0.0872511 0.015671
0.199573 0.0888075 0.0131991
0.228107 0.0897993 0.011368
0.257588 0.0904707 0.0100099
0.287602 0.0909438 0.00895705
0.317968 0.0912795 0.00813306
0.348562 0.0915541 0.00749218
0.379309 0.0917525 0.00697337
0.410163 0.0919051 0.00654612
0.441108 0.0920272 0.00621042
0.472114 0.092134 0.00593576
0.503151 0.0922255 0.00569162
0.534234 0.0922866 0.00550851
0.565347 0.0923476 0.00534066
0.59649 0.0923934 0.00521859
0.627649 0.0924392 0.00509651
0.658808 0.0924697 0.00500496
0.689998 0.0925002 0.00492866
0.721187 0.0925154 0.00488289
0.752392 0.092546 0.00482185
0.783597 0.0925612 0.00477607
0.814817 0.0925612 0.00476081
0.846052 0.0925765 0.00474556
0.877272 0.0925765 0.00474556
0.908507 0.0925917 0.0047303
0.939742 0.0925917 0.00474556
0.970993 0.0925917 0.00476081
1 0.0925765 0.00479133
0.175235 0.0691234 0.0374609
0.171923 0.0784314 0.0468299
0.168582 0.0888685 0.0453651
0.168261 0.09897 0.0382696
0.176074 0.106584 0.0317845
0.192142 0.111604 0.0268101
0.213855 0.114824 0.0229801
0.238972 0.11696 0.0199588
0.266117 0.118425 0.0175937
0.294499 0.119463 0.0157015
0.32369 0.120226 0.0141909
0.353399 0.120806 0.0129549
0.383474 0.121263 0.0119478
0.413809 0.121614 0.0111086
0.444327 0.121904 0.0103914
0.474983 0.122148 0.00981155
0.505745 0.122332 0.009308
0.536599 0.122499 0.00886549
0.567514 0.122637 0.00849927
0.598474 0.122759 0.00817884
0.62948 0.12285 0.00790417
0.660517 0.122942 0.00766003
0.6916 0.123018 0.0074464
0.722698 0.123079 0.00727855
0.753811 0.12314 0.0071107
0.784939 0.123186 0.00698863
0.816098 0.123232 0.00686656
0.847257 0.123262 0.00677501
0.878431 0.123293 0.00668345
0.909606 0.123323 0.00660716
0.940795 0.123339 0.00654612
0.972 0.123369 0.00648508
1 0.123384 0.00642405
0.219043 0.0863966 0.0468147
0.215763 0.0955978 0.0573129
0.212329 0.105745 0.0588693
0.209735 0.116365 0.0534371
0.211414 0.125887 0.0460975
0.220096 0.133242 0.0397345
0.235492 0.138476 0.034638
0.255833 0.142138 0.0305028
0.279484 0.144732 0.0271
0.305333 0.146624 0.0243076
0.332647 0.148028 0.0219883
0.360937 0.149096 0.0200656
0.389929 0.149935 0.0184482
0.419409 0.150607 0.0170748
0.449241 0.151141 0.0159152
0.479347 0.151583 0.0149386
0.509651 0.151949 0.0140688
0.540124 0.152255 0.0133364
0.570718 0.152514 0.0126802
0.601419 0.152728 0.0121309
0.632197 0.152926 0.0116274
0.66302 0.153094 0.0111849
0.693919 0.153231 0.0108034
0.724865 0.153368 0.0104524
0.75584 0.153475 0.0101472
0.786862 0.153567 0.00987259
0.817899 0.153658 0.0096437
0.848951 0.153735 0.00941482
0.880049 0.153811 0.00923171
0.911147 0.153872 0.00906386
0.94226 0.153918 0.00889601
0.973404 0.153964 0.00875868
1 0.154009 0.00865187
0.262852 0.103685 0.0561837
0.259602 0.112795 0.0674144
0.256229 0.122698 0.0712749
0.252888 0.133303 0.0680552
0.25153 0.143694 0.0611734
0.254826 0.152743 0.0539254
0.264134 0.159899 0.0476844
0.279042 0.16527 0.0424964
0.298329 0.169268 0.0381476
0.32079 0.172244 0.0344549
0.345495 0.174517 0.0313268
0.371771 0.176257 0.0286717
0.399176 0.17763 0.0263828
0.427405 0.178729 0.0244297
0.456245 0.179614 0.0227512
0.485542 0.180346 0.0212863
0.515175 0.180957 0.0200046
0.545098 0.18146 0.0188907
0.575219 0.181903 0.0179141
0.605509 0.182269 0.0170443
0.63595 0.182589 0.0162814
0.666499 0.182864 0.0155947
0.697139 0.183108 0.0149844
0.727855 0.183322 0.014435
0.758633 0.18352 0.0139467
0.789471 0.183688 0.0135042
0.820356 0.183825 0.0131228
0.85127 0.183963 0.0127565
0.882231 0.184085 0.0124208
0.913222 0.184192 0.0121309
0.944228 0.184283 0.0118563
0.97528 0.184375 0.0116121
1 0.184451 0.0113985
0.306661 0.120958 0.0655528
0.303426 0.130022 0.0772869
0.300008 0.139788 0.0826886
0.29659 0.150179 0.0817731
0.293919 0.16083 0.0762188
0.293858 0.170886 0.0688487
0.298405 0.179522 0.061799
0.308156 0.186542 0.0556344
0.322713 0.192035 0.05037
0.341192 0.196292 0.0458686
0.362661 0.199588 0.0419623
0.386343 0.202182 0.0385748
0.411673 0.204242 0.0356146
0.438224 0.20589 0.0330358
0.465705 0.207248 0.0307927
0.493889 0.208347 0.028809
0.522622 0.209277 0.0270695
0.551766 0.210056 0.0255283
0.581231 0.210727 0.0241703
0.610986 0.211292 0.0229496
0.640955 0.21178 0.0218662
0.671092 0.212222 0.0209049
0.701381 0.212589 0.0200198
0.731792 0.212924 0.0192416
0.762295 0.213214 0.0185397
0.792889 0.213474 0.0178836
0.82356 0.213703 0.0173037
0.854292 0.213916 0.0167697
0.885069 0.214099 0.0162661
0.915908 0.214267 0.0158236
0.946777 0.21442 0.0154269
0.977691 0.214557 0.0150454
1 0.214694 0.0147097
0.350469 0.138247 0.0749065
0.347234 0.147265 0.0870375
0.343862 0.156893 0.0936599
0.340444 0.167102 0.094667
0.337194 0.177752 0.0907301
0.335409 0.188251 0.0840467
0.336538 0.197955 0.0765393
0.342107 0.206287 0.069688
0.352178 0.213199 0.0635843
0.366476 0.218769 0.0582742
0.384298 0.223224 0.0536355
0.404929 0.226795 0.0495613
0.427726 0.229679 0.0459449
0.452201 0.232013 0.0427558
0.477958 0.233921 0.0399329
0.504707 0.235523 0.0374151
0.53225 0.236851 0.0351873
0.560388 0.23798 0.0331884
0.589014 0.238926 0.0314183
0.618051 0.23975 0.0298161
0.647379 0.240467 0.0283818
0.676997 0.241093 0.0270848
0.706813 0.241627 0.0259098
0.736812 0.242115 0.0248569
0.766964 0.242527 0.0238804
0.797238 0.242908 0.0230106
0.827619 0.243244 0.0222019
0.858106 0.243549 0.0214847
0.88867 0.243824 0.020798
0.919295 0.244068 0.0201724
0.949981 0.244297 0.0196078
0.980728 0.244495 0.019089
1 0.244694 0.0186007
0.394293 0.15552 0.0842756
0.391058 0.164523 0.0966964
0.387701 0.174029 0.10428
0.384344 0.184054 0.106905
0.380865 0.194629 0.10457
0.378164 0.20528 0.09897
0.37731 0.215549 0.0917525
0.379492 0.224948 0.0842603
0.38587 0.233021 0.0775921
0.396201 0.239841 0.0715343
0.410285 0.245487 0.0661784
0.427588 0.250111 0.0614481
0.447517 0.25391 0.0572213
0.469535 0.257023 0.0534371
0.493233 0.259617 0.0500496
0.518242 0.261784 0.0469978
0.544305 0.2636 0.0442664
0.571206 0.265141 0.0418097
0.598779 0.266453 0.0395819
0.626886 0.267597 0.037583
0.655451 0.268574 0.0357671
0.684382 0.269429 0.0341192
0.713603 0.270191 0.0326238
0.743084 0.270848 0.0312657
0.772778 0.271443 0.0300145
0.802655 0.271962 0.0288853
0.832685 0.272435 0.0278325
0.862837 0.272847 0.0268711
0.893111 0.273228 0.0259861
0.923476 0.273579 0.0251774
0.953933 0.273884 0.0244144
0.984466 0.274174 0.0237278
1 0.274434 0.0230869
0.438102 0.172808 0.0936446
0.434882 0.181765 0.106294
0.43154 0.191211 0.114641
0.428092 0.201144 0.118379
0.424674 0.211521 0.117754
0.4215 0.222187 0.11342
0.419471 0.232746 0.106889
0.419562 0.242756 0.0994278
0.422843 0.251804 0.092195
0.429694 0.259724 0.0854963
0.440223 0.266499 0.079469
0.454139 0.27219 0.0740978
0.471 0.276951 0.069276
0.490333 0.280934 0.0649271
0.511681 0.284276 0.0610056
0.534676 0.287098 0.057435
0.558999 0.289479 0.0542153
0.584405 0.291508 0.0512856
0.610697 0.293248 0.0486152
0.637705 0.294759 0.0461891
0.665309 0.296071 0.0439918
0.693401 0.297215 0.0419623
0.721904 0.298207 0.0401312
0.750744 0.299092 0.0384375
0.779873 0.299886 0.0368963
0.809232 0.300587 0.0354772
0.838819 0.301213 0.034165
0.868574 0.301778 0.0329595
0.898497 0.302281 0.0318456
0.928542 0.302754 0.030808
0.958709 0.303166 0.0298619
0.988983 0.303548 0.0289769
1 0.303899 0.0281376
0.48191 0.190082 0.102998
0.478691 0.199039 0.115846
0.47538 0.208408 0.124804
0.471962 0.218235 0.129595
0.468559 0.228443 0.130388
0.465141 0.239063 0.127321
0.462394 0.249744 0.12166
0.461143 0.260105 0.114641
0.462089 0.269886 0.107118
0.466194 0.27866 0.100023
0.473564 0.286427 0.0934157
0.484245 0.293141 0.0874189
0.498024 0.298878 0.0820172
0.514519 0.303761 0.0771191
0.533333 0.307912 0.0726787
0.55407 0.311452 0.0686198
0.57644 0.314458 0.0649119
0.600137 0.317052 0.0615244
0.624933 0.31928 0.0584268
0.650645 0.321218 0.0555886
0.677119 0.322896 0.0529793
0.704219 0.324376 0.0505837
0.731838 0.325673 0.0483864
0.759915 0.326818 0.0463569
0.788357 0.32784 0.0444953
0.817136 0.328756 0.0427863
0.846174 0.329564 0.0411841
0.875456 0.330312 0.0397192
0.904936 0.330968 0.0383459
0.934585 0.331579 0.0370947
0.964401 0.332113 0.0359197
0.994354 0.332616 0.0348211
1 0.333074 0.0337987
0.525719 0.20737 0.112367
0.522515 0.216297 0.125368
0.519203 0.22562 0.134829
0.515801 0.23534 0.140505
0.512474 0.245411 0.14255
0.508919 0.255955 0.140688
0.505806 0.266621 0.136095
0.503639 0.277211 0.129686
0.50309 0.287404 0.122347
0.504829 0.296941 0.114809
0.509667 0.305486 0.107866
0.517449 0.31313 0.101335
0.528283 0.319799 0.0953689
0.541939 0.325582 0.0899519
0.558114 0.330556 0.0849928
0.576471 0.334844 0.0804608
0.596689 0.338537 0.0762951
0.618494 0.341741 0.0724651
0.641611 0.344518 0.068925
0.665843 0.346929 0.0656748
0.691005 0.349035 0.0626688
0.716945 0.350896 0.0598917
0.743557 0.352544 0.0573434
0.770718 0.353994 0.054963
0.798367 0.355276 0.052781
0.826429 0.356435 0.0507515
0.854826 0.357473 0.0488594
0.883543 0.358404 0.0471199
0.912505 0.359243 0.0454871
0.941695 0.360006 0.0439765
0.971084 0.360708 0.0425727
1 0.361334 0.0412604
1 0.361929 0.0400244
0.569543 0.224659 0.121736
0.566323 0.23357 0.134859
0.563027 0.242832 0.144762
0.559655 0.252476 0.151171
0.556191 0.262516 0.154009
0.552789 0.272862 0.153582
0.549432 0.283497 0.150042
0.5467 0.294163 0.144411
0.545129 0.304631 0.137499
0.545296 0.314626 0.130022
0.547738 0.323949 0.122515
0.553216 0.332296 0.115724
0.561349 0.339818 0.109255
0.572305 0.346441 0.103319
0.585855 0.352255 0.0978714
0.601755 0.357321 0.0928664
0.61973 0.361746 0.0882582
0.639475 0.365591 0.0840009
0.660761 0.368948 0.0800488
0.68336 0.371893 0.0764019
0.707057 0.374472 0.0730144
0.731701 0.376761 0.0698558
0.757153 0.378775 0.0669413
0.783291 0.380575 0.0642405
0.81001 0.382177 0.0617075
0.837247 0.383597 0.0593729
0.864897 0.384894 0.0571756
0.892943 0.386053 0.0551461
0.921309 0.387106 0.0532387
0.949966 0.388052 0.0514687
0.978866 0.388907 0.0498207
1 0.3897 0.0482643
1 0.390433 0.0468147
0.613352 0.241932 0.131106
0.610147 0.250828 0.144335
0.606851 0.26006 0.154589
0.603494 0.269642 0.161639
0.600046 0.279576 0.165377
0.596674 0.289799 0.166064
0.593194 0.300389 0.163546
0.590112 0.31107 0.158785
0.587854 0.321675 0.152453
0.586892 0.331975 0.145235
0.587732 0.341772 0.137697
0.590951 0.350835 0.130419
0.596826 0.359075 0.123598
0.60528 0.366491 0.117189
0.616327 0.373098 0.111269
0.629801 0.378943 0.105806
0.645457 0.384085 0.100755
0.663081 0.388602 0.0960708
0.682414 0.392584 0.0917372
0.703227 0.396094 0.0876936
0.725338 0.399191 0.0839246
0.748547 0.401938 0.080415
0.772702 0.404379 0.0771496
0.797681 0.406546 0.0740826
0.823362 0.408484 0.0712444
0.849653 0.410239 0.068574
0.876478 0.411795 0.0660868
0.903761 0.413214 0.0637522
0.931441 0.414496 0.0615702
0.959472 0.415656 0.0595407
0.987808 0.416724 0.0576333
1 0.417685 0.0558328
1 0.41857 0.054139
0.65716 0.25922 0.140459
0.653956 0.268101 0.153796
0.650675 0.277302 0.16437
0.647334 0.286824 0.171954
0.6439 0.296681 0.176471
0.640589 0.306783 0.17818
0.637018 0.317281 0.176638
0.633722 0.327947 0.172763
0.630991 0.338613 0.167117
0.629221 0.349111 0.160327
0.62887 0.359258 0.152926
0.630335 0.368872 0.145388
0.634272 0.377707 0.138308
0.640513 0.385824 0.131487
0.649226 0.393179 0.125124
0.660349 0.399756 0.119219
0.673747 0.405615 0.113741
0.689204 0.410819 0.108644
0.706523 0.415442 0.103914
0.725475 0.419547 0.0994888
0.745876 0.423178 0.0953689
0.767529 0.426429 0.0914931
0.79028 0.429313 0.0878767
0.813977 0.431907 0.0844892
0.838514 0.434226 0.0813153
0.863752 0.436301 0.0783398
0.889632 0.438193 0.0755474
0.916045 0.439887 0.0729229
0.942946 0.441428 0.0704662
0.970275 0.442832 0.0681468
0.997971 0.444114 0.06598
1 0.445274 0.0639353
1 0.446342 0.0620127
0.700969 0.276493 0.149828
0.697765 0.285374 0.163241
0.694499 0.294545 0.17409
0.691157 0.304021 0.182147
0.687755 0.313787 0.187335
0.684276 0.323888 0.189639
0.680903 0.334203 0.189349
0.677455 0.344823 0.186358
0.674418 0.355505 0.181476
0.672084 0.366125 0.175204
0.670832 0.376501 0.168109
0.671061 0.386481 0.160601
0.673106 0.395926 0.153079
0.677607 0.404578 0.14612
0.68423 0.412573 0.139376
0.693172 0.419852 0.133059
0.704372 0.426398 0.127169
0.717708 0.432288 0.121675
0.732982 0.437552 0.116548
0.750011 0.442252 0.111757
0.768627 0.446464 0.107271
0.788647 0.450233 0.103075
0.809888 0.453605 0.0991073
0.832212 0.456641 0.0953994
0.855482 0.459358 0.0919051
0.879591 0.461814 0.0886244
0.904433 0.464027 0.0855268
0.9299 0.466041 0.0826123
0.955932 0.467872 0.0798657
0.982467 0.469535 0.0772869
1 0.471046 0.0748455
1 0.472435 0.0725414
1 0.473716 0.0703746
0.744778 0.293782 0.159197
0.741588 0.302647 0.172686
0.738323 0.311788 0.183764
0.734997 0.321218 0.192248
0.731594 0.330938 0.198032
0.72813 0.340948 0.201083
0.724804 0.351156 0.201724
0.721263 0.361715 0.199588
0.718013 0.372381 0.195468
0.715282 0.383062 0.189822
0.713375 0.393591 0.183139
0.712642 0.40383 0.17583
0.71342 0.413657 0.168276
0.715999 0.422934 0.160784
0.721019 0.431418 0.153964
0.727977 0.439307 0.147265
0.737133 0.446525 0.140993
0.748394 0.453056 0.135103
0.761669 0.458946 0.12961
0.776776 0.464271 0.124453
0.793576 0.469062 0.119615
0.811887 0.473365 0.115068
0.83154 0.477241 0.110796
0.852399 0.480735 0.106767
0.874327 0.483894 0.102953
0.8972 0.486748 0.0993668
0.920897 0.489326 0.0959793
0.945342 0.491676 0.0927749
0.970428 0.493812 0.0897536
0.996094 0.495766 0.0869001
1 0.497551 0.0841993
1 0.499168 0.081651
1 0.500679 0.0792248
0.788602 0.311055 0.168551
0.785397 0.319921 0.182116
0.782147 0.329046 0.193408
0.77882 0.33843 0.202258
0.775433 0.348089 0.208576
0.771984 0.358022 0.212299
0.768704 0.368139 0.213825
0.765133 0.378622 0.212482
0.76173 0.389258 0.209125
0.758724 0.399954 0.20415
0.756329 0.410574 0.197955
0.754879 0.420996 0.190951
0.75465 0.431113 0.18352
0.755947 0.440772 0.175967
0.759014 0.449912 0.168505
0.764508 0.458244 0.161807
0.771771 0.466041 0.155169
0.781094 0.473182 0.148928
0.792416 0.479698 0.143053
0.805646 0.485618 0.137545
0.8206 0.49099 0.132372
0.837171 0.495842 0.127489
0.855207 0.500237 0.122881
0.87454 0.504219 0.118547
0.895048 0.50782 0.114443
0.916609 0.511101 0.110552
0.939101 0.514076 0.106874
0.962417 0.516777 0.103395
0.986481 0.519249 0.100099
1 0.521508 0.0969711
1 0.523568 0.0940108
1 0.52546 0.0912032
1 0.527214 0.0885328
0.83241 0.328344 0.17792
0.829206 0.337209 0.191531
0.825956 0.346303 0.203006
0.822644 0.355642 0.212192
0.819272 0.365255 0.218982
0.815839 0.375128 0.223316
0.81236 0.38526 0.225238
0.809018 0.39556 0.225071
0.805524 0.406149 0.222477
0.802319 0.416831 0.218173
0.799573 0.427497 0.212528
0.797559 0.438056 0.205921
0.796551 0.448371 0.198703
0.796826 0.458335 0.191196
0.798611 0.467857 0.183642
0.802457 0.476722 0.176593
0.808042 0.485054 0.169665
0.815579 0.49276 0.163088
0.825071 0.499855 0.156863
0.836454 0.506355 0.151003
0.849622 0.512291 0.145495
0.864454 0.517693 0.140276
0.880812 0.522606 0.135363
0.898589 0.527092 0.130709
0.917632 0.531167 0.126314
0.937819 0.534874 0.122133
0.95903 0.538262 0.118181
0.981155 0.541344 0.114427
1 0.544167 0.110857
1 0.546761 0.107469
1 0.549126 0.10425
1 0.551308 0.101183
1 0.553307 0.0982834
0.876219 0.345617 0.187289
0.87303 0.354482 0.200946
0.86978 0.363561 0.212589
0.866468 0.372869 0.222065
0.863111 0.382437 0.229282
0.859693 0.392248 0.23418
0.856214 0.402304 0.236759
0.852918 0.412512 0.237385
0.849363 0.423041 0.235508
0.846021 0.433707 0.231891
0.84303 0.444389 0.226841
0.840436 0.455085 0.220478
0.838972 0.465492 0.213779
0.838407 0.475685 0.206409
0.839139 0.485527 0.198871
0.841398 0.494911 0.191348
0.845701 0.503609 0.184405
0.851621 0.511833 0.177523
0.859419 0.519463 0.170993
0.869047 0.526513 0.164797
0.880476 0.532998 0.158953
0.893599 0.538949 0.153429
0.908309 0.544396 0.148196
0.924498 0.549371 0.143252
0.942031 0.553918 0.138552
0.9608 0.558083 0.134096
0.980682 0.561898 0.129854
1 0.565377 0.125826
1 0.568566 0.121996
1 0.571511 0.118349
1 0.574197 0.114885
1 0.576684 0.111574
1 0.578973 0.108415
0.920027 0.362905 0.196643
0.916838 0.371756 0.210361
0.913588 0.380819 0.222156
0.910292 0.390097 0.231891
0.90695 0.399619 0.23949
0.903532 0.409384 0.244877
0.900069 0.419379 0.248066
0.896834 0.429496 0.249454
0.893248 0.439963 0.248264
0.889784 0.450584 0.245319
0.88661 0.461265 0.240864
0.883879 0.471946 0.235218
0.881773 0.482506 0.228687
0.880552 0.492882 0.221546
0.88043 0.502968 0.214099
0.881605 0.512673 0.206546
0.884276 0.52192 0.199054
0.889021 0.53048 0.192218
0.895262 0.538613 0.185397
0.903273 0.546181 0.178912
0.913039 0.553185 0.172747
0.924498 0.559655 0.166903
0.937591 0.565606 0.161364
0.952193 0.571084 0.156115
0.9682 0.57612 0.151141
0.985519 0.580743 0.146395
1 0.584985 0.141894
1 0.588876 0.137606
1 0.592462 0.133516
1 0.595758 0.12961
1 0.598795 0.125887
1 0.601587 0.122347
1 0.604181 0.118944
0.963851 0.380179 0.206012
0.960647 0.389029 0.219776
0.957412 0.398077 0.231693
0.954116 0.40734 0.241672
0.950774 0.416815 0.249622
0.947387 0.426535 0.255467
0.943938 0.436469 0.25919
0.940459 0.446616 0.260868
0.937133 0.456916 0.260761
0.933623 0.467475 0.258473
0.930297 0.478141 0.254627
0.927337 0.488823 0.249516
0.924819 0.499489 0.243336
0.923125 0.509972 0.236576
0.922301 0.520241 0.229297
0.922591 0.53019 0.221775
0.924193 0.539773 0.214221
0.92726 0.548898 0.206775
0.932403 0.557336 0.200061
0.938918 0.565377 0.193286
0.947143 0.572869 0.186831
0.957015 0.579843 0.180682
0.968521 0.586313 0.174853
0.981567 0.592279 0.169314
0.996078 0.597787 0.16405
1 0.602869 0.15903
1 0.607553 0.154253
1 0.611872 0.149706
1 0.615839 0.145357
1 0.619516 0.141207
1 0.622904 0.137255
1 0.626032 0.133455
1 0.628931 0.129839
1 0.397467 0.215381
1 0.406302 0.229175
1 0.415351 0.24123
0.99794 0.424582 0.251423
0.994614 0.434028 0.259678
0.991226 0.443687 0.265934
0.987778 0.453574 0.270176
0.984298 0.463676 0.272404
0.981048 0.473869 0.273045
0.977478 0.484382 0.271366
0.97406 0.495018 0.268132
0.970916 0.505699 0.263569
0.96817 0.516381 0.257908
0.966018 0.52697 0.251438
0.964614 0.537377 0.244388
0.964172 0.547555 0.237003
0.964874 0.557397 0.22945
0.966888 0.566842 0.221912
0.970352 0.575845 0.214557
0.975845 0.584176 0.207889
0.98262 0.592126 0.201175
0.991012 0.599573 0.194751
1 0.606516 0.188632
1 0.612955 0.182803
1 0.618936 0.177249
1 0.624475 0.171969
1 0.629602 0.166934
1 0.634348 0.162112
1 0.638727 0.157519
1 0.642786 0.153124
1 0.64654 0.148928
1 0.650019 0.1449
1 0.653239 0.141054
1 0.414755 0.22475
1 0.42359 0.238575
1 0.432609 0.250736
1 0.441825 0.261128
1 0.45124 0.269673
1 0.460868 0.27631
1 0.470695 0.28101
1 0.480735 0.283787
1 0.490852 0.2851
1 0.50132 0.284016
1 0.51191 0.281376
1 0.522576 0.277363
1 0.533272 0.272206
1 0.543908 0.266133
1 0.554437 0.259373
1 0.564752 0.252155
1 0.574823 0.244694
1 0.584543 0.237125
1 0.593896 0.229618
1 0.602625 0.222705
1 0.610986 0.215747
1 0.618875 0.209064
1 0.626261 0.20267
1 0.633173 0.196567
1 0.639612 0.190753
1 0.645594 0.185199
1 0.651164 0.179889
1 0.656336 0.174823
1 0.661128 0.169986
1 0.665568 0.165347
1 0.669703 0.160906
1 0.673533 0.156664
1 0.677104 0.15259
1 0.432029 0.234104
1 0.440864 0.247974
1 0.449882 0.260243
1 0.459068 0.270817
1 0.468452 0.279622
1 0.47805 0.28661
1 0.487831 0.291722
1 0.497826 0.295003
1 0.507942 0.296635
1 0.518257 0.296452
1 0.528817 0.294392
1 0.539452 0.290929
1 0.550149 0.286259
1 0.560815 0.280613
1 0.57142 0.274189
1 0.581872 0.267216
1 0.592096 0.259876
1 0.60206 0.252369
1 0.611673 0.244816
1 0.620905 0.237324
1 0.629526 0.230503
1 0.637797 0.223606
1 0.645609 0.216953
1 0.652949 0.21059
1 0.659831 0.204517
1 0.666255 0.198688
1 0.672251 0.193133
1 0.677852 0.187823
1 0.683055 0.182727
1 0.687892 0.177859
1 0.692409 0.17319
1 0.696605 0.168704
1 0.700511 0.164416
1 0.449317 0.243473
1 0.458137 0.257374
1 0.46714 0.269734
1 0.476326 0.280476
1 0.485679 0.289525
1 0.495232 0.296818
1 0.504982 0.302342
1 0.514916 0.306065
1 0.525048 0.308034
1 0.535225 0.30869
1 0.545739 0.307164
1 0.556344 0.30425
1 0.567025 0.300084
1 0.577707 0.294881
1 0.588357 0.288838
1 0.598901 0.282155
1 0.609262 0.275013
1 0.61941 0.267582
1 0.629252 0.260044
1 0.638758 0.252491
1 0.647898 0.245045
1 0.656397 0.238331
1 0.664591 0.231464
1 0.672343 0.224857
1 0.679637 0.218524
1 0.686488 0.212451
1 0.692912 0.206638
1 0.698909 0.201083
1 0.704524 0.195758
1 0.709773 0.190646
1 0.714656 0.185733
1 0.719234 0.181033
1 0.723491 0.176516
1 0.46659 0.252842
1 0.475425 0.266758
1 0.484413 0.27921
1 0.493568 0.290105
1 0.502907 0.299382
1 0.512428 0.306981
1 0.522133 0.312856
1 0.532021 0.317021
1 0.542107 0.319463
