src/luts/mine/10.cube
TITLE "Generated by Resolve"
LUT_3D_SIZE 5
0 0 0
0.249989 0 0
0.499992 0 0
0.749996 0 0
1 0 0
0.350469 0.138247 0.0749065
0.352178 0.213199 0.0635843
0.53225 0.236851 0.0351873
0.766964 0.242527 0.0238804
1 0.244694 0.0186007
0.700969 0.276493 0.149828
0.674418 0.355505 0.181476
0.704372 0.426398 0.127169
0.855482 0.459358 0.0919051
1 0.473716 0.0703746
1 0.414755 0.22475
1 0.490852 0.2851
1 0.574823 0.244694
1 0.639612 0.190753
1 0.677104 0.15259
1 0.553002 0.299657
1 0.627604 0.374685
1 0.711025 0.362936
1 0.791852 0.306157
1 0.852811 0.254337
0.22031 0 0
0.248981 0.000167849 0.251316
0.499702 0 0.253468
0.750515 0 0.255665
1 0 0.257847
0 0.258991 0.202899
0.249989 0.249989 0.249989
0.500832 0.249516 0.252171
0.75169 0.249042 0.254353
1 0.248569 0.25655
0.619928 0.328603 0.122362
0.600488 0.388235 0.32491
0.602182 0.463203 0.313573
0.782254 0.486854 0.285176
1 0.492531 0.273884
0.973816 0.462867 0.226719
0.950988 0.526497 0.399817
0.924422 0.605509 0.431464
0.954391 0.676402 0.377157
1 0.709361 0.341894
1 0.599329 0.316411
1 0.664744 0.474739
1 0.740856 0.535088
1 0.824826 0.494682
1 0.889616 0.440742
0.44065 0 0
0.384482 0 0.416602
0.497978 0.000335698 0.502647
0.748653 0 0.504799
0.99942 0 0.506981
0.458747 0.168032 0
0.470314 0.211765 0.229847
0.498985 0.250156 0.50132
0.749706 0.249714 0.503487
1 0.249256 0.505653
0 0.517998 0.405798
0.235706 0.508995 0.452888
0.499992 0.499992 0.499992
0.749996 0.499992 0.499992
1 0.499992 0.499992
0.878294 0.527749 0.115373
0.869932 0.578592 0.372351
0.850492 0.638239 0.574914
0.852186 0.713207 0.563577
1 0.736858 0.53518
1 0.657206 0.244709
1 0.712871 0.476707
1 0.776501 0.649821
1 0.855512 0.681468
1 0.926406 0.627161
0.660975 0 0
0.64007 0 0.475181
0.572244 0 0.699413
0.74696 0.000503548 0.753979
0.99762 9.15541e-05 0.756146
0.617411 0.156344 0
0.690639 0.173541 0.209689
0.634485 0.218433 0.666621
0.747982 0.250324 0.752651
0.998657 0.249897 0.754803
0.828031 0.321523 0.0797284
0.708751 0.418021 0.211093
0.720317 0.461769 0.47985
0.748989 0.50016 0.751324
0.99971 0.499718 0.753491
0 0.777005 0.608698
0.221424 0.768002 0.655802
0.48571 0.758999 0.702892
0.749996 0.749996 0.749996
1 0.749523 0.752178
1 0.729305 0.0991531
1 0.777752 0.365347
1 0.828595 0.622354
1 0.888243 0.824918
1 0.963211 0.813581
0.8813 0 0
0.895094 0 0.479072
0.768978 0 0.833249
0.796155 0 0.963226
0.995956 0.000671397 1
0.814984 0.129473 0
0.910979 0.135317 0.189548
0.890074 0.161776 0.725185
0.822248 0.233616 0.949416
0.996963 0.250492 1
0.91751 0.336065 0
0.867414 0.406348 0.10956
0.940642 0.423545 0.459693
0.884489 0.468437 0.916625
0.997986 0.500328 1
1 0.455436 0.259174
1 0.571511 0.329732
0.958755 0.668025 0.461097
0.970321 0.711772 0.729854
0.998993 0.750164 1
0 1 0.811612
0.207141 1 0.858701
0.471427 1 0.905806
0.735714 1 0.952895
1 1 1
