src/luts/mine/10.cube
TITLE "Generated by Resolve"
LUT_3D_SIZE 9
0 0 0
0.124987 0 0
0.249989 0 0
0.37499 0 0
0.499992 0 0
0.624994 0 0
0.749996 0 0
0.874998 0 0
1 0 0
0.175235 0.0691234 0.0374609
0.176074 0.106584 0.0317845
0.266117 0.118425 0.0175937
0.383474 0.121263 0.0119478
0.505745 0.122332 0.009308
0.62948 0.12285 0.00790417
0.753811 0.12314 0.0071107
0.878431 0.123293 0.00668345
1 0.123384 0.00642405
0.350469 0.138247 0.0749065
0.337194 0.177752 0.0907301
0.352178 0.213199 0.0635843
0.427726 0.229679 0.0459449
0.53225 0.236851 0.0351873
0.647379 0.240467 0.0283818
0.766964 0.242527 0.0238804
0.88867 0.243824 0.020798
1 0.244694 0.0186007
0.525719 0.20737 0.112367
0.512474 0.245411 0.14255
0.50309 0.287404 0.122347
0.528283 0.319799 0.0953689
0.596689 0.338537 0.0762951
0.691005 0.349035 0.0626688
0.798367 0.355276 0.052781
0.912505 0.359243 0.0454871
1 0.361929 0.0400244
0.700969 0.276493 0.149828
0.687755 0.313787 0.187335
0.674418 0.355505 0.181476
0.673106 0.395926 0.153079
0.704372 0.426398 0.127169
0.768627 0.446464 0.107271
0.855482 0.459358 0.0919051
0.955932 0.467872 0.0798657
1 0.473716 0.0703746
0.876219 0.345617 0.187289
0.863111 0.382437 0.229282
0.849363 0.423041 0.235508
0.838972 0.465492 0.213779
0.845701 0.503609 0.184405
0.880476 0.532998 0.158953
0.942031 0.553918 0.138552
1 0.568566 0.121996
1 0.578973 0.108415
1 0.414755 0.22475
1 0.45124 0.269673
1 0.490852 0.2851
1 0.533272 0.272206
1 0.574823 0.244694
1 0.610986 0.215747
1 0.639612 0.190753
1 0.661128 0.169986
1 0.677104 0.15259
1 0.483879 0.262196
1 0.52015 0.309194
1 0.559182 0.330755
1 0.600778 0.327092
1 0.643351 0.304906
1 0.683558 0.275395
1 0.718151 0.247211
1 0.746212 0.222538
1 0.76817 0.201511
1 0.553002 0.299657
1 0.589105 0.34818
1 0.627604 0.374685
1 0.668421 0.378698
1 0.711025 0.362936
1 0.753017 0.336202
1 0.791852 0.306157
1 0.825177 0.278752
1 0.852811 0.254337
0.110155 0 0
0.124483 7.62951e-05 0.125643
0.249851 0 0.126726
0.37525 0 0.127825
0.500664 0 0.128908
0.626093 0 0.130007
0.751507 0 0.131106
0.876936 0 0.132189
1 0 0.133288
0 0.129488 0.101442
0.124987 0.124987 0.124987
0.249989 0.124987 0.124987
0.37499 0.124987 0.124987
0.499992 0.124987 0.124987
0.624994 0.124987 0.124987
0.749996 0.124987 0.124987
0.874998 0.124987 0.124987
1 0.124987 0.124987
0.309957 0.164294 0.0611734
0.300237 0.19411 0.162448
0.301091 0.231586 0.156771
0.391119 0.243412 0.14258
0.508476 0.246265 0.136934
0.630747 0.247333 0.134295
0.754482 0.247852 0.132891
0.878813 0.248142 0.132097
1 0.248295 0.13167
0.4869 0.231434 0.113359
0.475486 0.263233 0.199908
0.462211 0.302754 0.215717
0.47718 0.338201 0.188571
0.552743 0.354665 0.170947
0.657252 0.361852 0.160174
0.772396 0.365469 0.153368
0.891966 0.367529 0.148882
1 0.368826 0.145785
0.662654 0.299657 0.158206
0.650736 0.332372 0.237354
0.637476 0.370413 0.267536
0.628092 0.412406 0.247333
0.653284 0.4448 0.220356
0.721706 0.463539 0.201282
0.816007 0.474037 0.187655
0.923384 0.480278 0.177768
1 0.484245 0.170489
0.838132 0.368277 0.200015
0.825986 0.401495 0.274815
0.812757 0.438788 0.312337
0.79942 0.480507 0.306462
0.798108 0.520928 0.278065
0.829389 0.5514 0.252155
0.893645 0.571466 0.232258
0.980484 0.58436 0.216892
1 0.592874 0.204852
1 0.437079 0.24033
1 0.470619 0.312276
0.988113 0.507439 0.354269
0.97438 0.548043 0.36051
0.963989 0.590494 0.338766
0.970718 0.628611 0.309392
1 0.658 0.28394
1 0.67892 0.263539
1 0.693568 0.246998
1 0.505974 0.279805
1 0.539742 0.349737
1 0.576242 0.394675
1 0.615854 0.410086
1 0.658274 0.397192
1 0.699825 0.36968
1 0.735988 0.340734
1 0.764614 0.31574
1 0.78613 0.294972
1 0.574945 0.318746
1 0.608865 0.387198
1 0.645136 0.434195
1 0.684184 0.455741
1 0.72578 0.452079
1 0.768353 0.429908
1 0.80856 0.400381
1 0.843153 0.372198
1 0.871214 0.347524
0.22031 0 0
0.192233 0 0.208301
0.248981 0.000167849 0.251316
0.374319 0 0.252399
0.499702 0 0.253468
0.625116 0 0.254566
0.750515 0 0.255665
0.875929 0 0.256748
1 0 0.257847
0.229358 0.0840009 0
0.235157 0.105882 0.114916
0.249485 0.125063 0.250645
0.374853 0.124849 0.251728
0.500252 0.12462 0.252827
0.625666 0.124392 0.25391
0.751095 0.124147 0.255009
0.876509 0.123919 0.256107
1 0.12369 0.257191
0 0.258991 0.202899
0.117845 0.25449 0.226444
0.249989 0.249989 0.249989
0.375418 0.24976 0.251087
0.500832 0.249516 0.252171
0.626261 0.249287 0.253269
0.75169 0.249042 0.254353
0.877119 0.248814 0.255451
1 0.248569 0.25655
0.439139 0.263874 0.0576791
0.434958 0.289296 0.18616
0.425238 0.319112 0.287449
0.426093 0.356588 0.281773
0.516121 0.368414 0.267582
0.633478 0.371267 0.261936
0.755749 0.372335 0.259297
0.879484 0.372854 0.257893
1 0.373144 0.257099
0.619928 0.328603 0.122362
0.611902 0.35642 0.238346
0.600488 0.388235 0.32491
0.587213 0.427756 0.340719
0.602182 0.463203 0.313573
0.677745 0.479667 0.295949
0.782254 0.486854 0.285176
0.897398 0.490471 0.27837
1 0.492531 0.273884
0.797452 0.39527 0.177371
0.787655 0.424659 0.283192
0.775738 0.457374 0.362356
0.762478 0.495415 0.392538
0.753094 0.537408 0.372335
0.778286 0.569802 0.345357
0.846708 0.58854 0.326284
0.941009 0.599039 0.312657
1 0.60528 0.30277
0.973816 0.462867 0.226719
0.963134 0.493278 0.325002
0.950988 0.526497 0.399817
0.937758 0.56379 0.437339
0.924422 0.605509 0.431464
0.92311 0.64593 0.403067
0.954391 0.676402 0.377157
1 0.696468 0.357259
1 0.709361 0.341894
1 0.530953 0.272648
1 0.562081 0.365332
1 0.595621 0.437278
1 0.632441 0.479271
1 0.673045 0.485512
1 0.715496 0.463767
1 0.753613 0.434394
1 0.783001 0.408942
1 0.803922 0.38854
1 0.599329 0.316411
1 0.630976 0.404791
1 0.664744 0.474739
1 0.701244 0.519677
1 0.740856 0.535088
1 0.783276 0.522194
1 0.824826 0.494682
1 0.86099 0.465736
1 0.889616 0.440742
0.33048 0 0
0.320027 0 0.237583
0.286122 0 0.349691
0.37348 0.000244144 0.376974
0.498802 4.57771e-05 0.378058
0.62417 0 0.379141
0.749569 0 0.380224
0.874968 0 0.381323
1 0 0.382406
0.308705 0.078172 0
0.345312 0.0867628 0.104845
0.317235 0.109209 0.333303
0.373983 0.125154 0.376318
0.499321 0.124941 0.377401
0.624704 0.124712 0.378485
0.750118 0.124498 0.379568
0.875517 0.124254 0.380652
1 0.124025 0.38175
0.414008 0.160754 0.0398566
0.354376 0.209003 0.105531
0.360159 0.230884 0.239918
0.374487 0.250065 0.375647
0.499855 0.249851 0.37673
0.625254 0.249622 0.377829
0.750668 0.249393 0.378912
0.876097 0.249149 0.380011
1 0.24892 0.381109
0 0.388495 0.304341
0.110704 0.383993 0.327886
0.242847 0.379492 0.351446
0.37499 0.37499 0.37499
0.499992 0.37499 0.37499
0.624994 0.37499 0.37499
0.749996 0.37499 0.37499
0.874998 0.37499 0.37499
1 0.37499 0.37499
0.56582 0.364645 0.0495766
0.564141 0.388861 0.182666
0.55996 0.414298 0.311162
0.55024 0.444114 0.412451
0.551095 0.48159 0.406775
0.641123 0.493416 0.392584
0.75848 0.496269 0.386938
0.880751 0.497337 0.384298
1 0.497856 0.382895
0.750057 0.42768 0.120974
0.74493 0.45359 0.247349
0.736904 0.481422 0.363348
0.72549 0.513237 0.449912
0.712215 0.552758 0.465721
0.727184 0.588205 0.438575
0.802747 0.604669 0.420951
0.907256 0.611856 0.410178
1 0.615473 0.403372
0.9299 0.492897 0.183536
0.922454 0.520272 0.302358
0.912657 0.549661 0.408194
0.90074 0.582376 0.487358
0.88748 0.620417 0.51754
0.878096 0.662409 0.497337
0.903288 0.694804 0.470359
0.97171 0.713542 0.451286
1 0.724041 0.437659
1 0.55938 0.239719
1 0.587869 0.351705
1 0.61828 0.450004
1 0.651499 0.524819
1 0.688792 0.562341
1 0.73051 0.556466
1 0.770932 0.528069
1 0.801404 0.502159
1 0.821469 0.482261
1 0.626612 0.291463
1 0.655955 0.397635
1 0.687083 0.490333
1 0.720623 0.56228
1 0.757443 0.604273
1 0.798047 0.610513
1 0.840497 0.588769
1 0.878614 0.559396
1 0.908003 0.533944
0.44065 0 0
0.447547 0 0.239506
0.384482 0 0.416602
0.398062 0 0.481605
0.497978 0.000335698 0.502647
0.623285 0.000122072 0.503731
0.748653 0 0.504799
0.874037 0 0.505882
0.99942 0 0.506981
0.407492 0.0647288 0
0.455482 0.0676585 0.0947738
0.445029 0.0808881 0.362585
0.411124 0.116808 0.474708
0.498482 0.125231 0.501976
0.623804 0.125032 0.503059
0.749172 0.124804 0.504143
0.874571 0.12459 0.505226
0.999969 0.124361 0.50631
0.458747 0.168032 0
0.433707 0.203159 0.0547646
0.470314 0.211765 0.229847
0.442237 0.234211 0.458305
0.498985 0.250156 0.50132
0.624323 0.249943 0.502403
0.749706 0.249714 0.503487
0.87512 0.2495 0.50457
1 0.249256 0.505653
0.621225 0.227726 0.129549
0.53901 0.285756 0.164858
0.479377 0.334005 0.230533
0.485161 0.355886 0.36492
0.499489 0.375067 0.500648
0.624857 0.374853 0.501732
0.750256 0.374624 0.502831
0.875669 0.374395 0.503914
1 0.374151 0.505013
0 0.517998 0.405798
0.103563 0.513497 0.429343
0.235706 0.508995 0.452888
0.367849 0.504494 0.476448
0.499992 0.499992 0.499992
0.624994 0.499992 0.499992
0.749996 0.499992 0.499992
0.874998 0.499992 0.499992
1 0.499992 0.499992
0.691447 0.465873 0.040177
0.690822 0.489647 0.174563
0.689143 0.513863 0.307668
0.684962 0.5393 0.436164
0.675242 0.569116 0.537453
0.676097 0.606592 0.531777
0.766125 0.618418 0.517586
0.883482 0.621271 0.51194
1 0.622339 0.5093
0.878294 0.527749 0.115373
0.875044 0.552682 0.245945
0.869932 0.578592 0.372351
0.861906 0.606424 0.48835
0.850492 0.638239 0.574914
0.837217 0.67776 0.590723
0.852186 0.713207 0.563577
0.927749 0.729671 0.545953
1 0.736858 0.53518
1 0.591775 0.183124
1 0.617899 0.308522
1 0.645274 0.427359
1 0.674662 0.533196
1 0.707378 0.61236
1 0.745418 0.642542
1 0.787411 0.622339
1 0.819806 0.595361
1 0.838544 0.576288
1 0.657206 0.244709
1 0.684382 0.364706
1 0.712871 0.476707
1 0.743282 0.575006
1 0.776501 0.649821
1 0.813794 0.687343
1 0.855512 0.681468
1 0.895933 0.653071
1 0.926406 0.627161
0.550805 0 0
0.569055 0 0.232074
0.509407 0 0.456245
0.470848 0 0.562753
0.516136 0 0.610925
0.622461 0.000411994 0.628305
0.747784 0.000213626 0.629389
0.873137 0 0.630472
0.998505 0 0.631556
0.513024 0.0484016 0
0.565637 0.0485389 0.0846876
0.572534 0.0554055 0.364523
0.509483 0.093431 0.541619
0.523064 0.119982 0.606607
0.62298 0.125322 0.627649
0.748287 0.125109 0.628717
0.873655 0.124895 0.629801
0.999039 0.124681 0.630884
0.530205 0.165179 0
0.532494 0.189731 0.021973
0.580484 0.19266 0.219776
0.570031 0.20589 0.487587
0.536126 0.24181 0.59971
0.623484 0.250233 0.626978
0.748806 0.250034 0.628061
0.874174 0.249805 0.629145
0.999573 0.249592 0.630228
0.637766 0.246952 0.0153658
0.583749 0.293019 0.0860914
0.558709 0.328161 0.179767
0.595315 0.336767 0.354849
0.567239 0.359213 0.583307
0.623987 0.375158 0.626322
0.749325 0.374945 0.627405
0.874708 0.374716 0.628489
1 0.374502 0.629572
0.881926 0.263645 0.369253
0.746258 0.352712 0.254582
0.664012 0.410758 0.28986
0.604379 0.459007 0.355535
0.610162 0.480888 0.489921
0.624491 0.500069 0.62565
0.749859 0.499855 0.626734
0.875257 0.499626 0.627832
1 0.499397 0.628916
0 0.647501 0.507256
0.0964218 0.643 0.5308
0.228565 0.638498 0.554345
0.360708 0.633997 0.57789
0.492851 0.629496 0.60145
0.624994 0.624994 0.624994
0.749996 0.624994 0.624994
0.874998 0.624994 0.624994
1 0.624994 0.624994
0.816526 0.567315 0.0302739
0.816449 0.590875 0.165164
0.815824 0.614649 0.299565
0.814145 0.638865 0.43267
0.809964 0.664302 0.561166
0.800244 0.694118 0.662455
0.801099 0.731594 0.656779
0.891127 0.74342 0.642588
1 0.746273 0.636942
1 0.628367 0.10779
1 0.65275 0.240345
1 0.677684 0.370947
0.994934 0.703593 0.497353
0.986908 0.731426 0.613352
0.975494 0.763241 0.699916
0.962219 0.802762 0.715724
0.977188 0.838209 0.688579
1 0.854673 0.670954
1 0.691432 0.179126
1 0.716777 0.30811
1 0.742901 0.433524
1 0.770275 0.552361
1 0.799664 0.658198
1 0.83238 0.737362
1 0.87042 0.767544
1 0.912413 0.747341
1 0.944808 0.720363
0.660975 0 0
0.686549 0 0.221836
0.64007 0 0.475181
0.57673 0 0.624933
0.572244 0 0.699413
0.636805 0 0.739025
0.74696 0.000503548 0.753979
0.872267 0.00030518 0.755062
0.99762 9.15541e-05 0.756146
0.62118 0.030808 0
0.675807 0.0294347 0.0746166
0.694057 0.0326543 0.357107
0.634409 0.0649119 0.581247
0.59585 0.10277 0.687755
0.641138 0.121614 0.735927
0.747463 0.125399 0.753307
0.872786 0.1252 0.754391
0.998138 0.124987 0.755459
0.617411 0.156344 0
0.638025 0.173404 0
0.690639 0.173541 0.209689
0.697536 0.180407 0.489525
0.634485 0.218433 0.666621
0.648066 0.244984 0.731609
0.747982 0.250324 0.752651
0.873289 0.250111 0.753719
0.998657 0.249897 0.754803
0.688121 0.252049 0
0.655207 0.290166 0.0289006
0.657496 0.314733 0.146975
0.705486 0.317662 0.344778
0.695033 0.330892 0.612589
0.661128 0.366812 0.724712
0.748486 0.375235 0.75198
0.873808 0.375036 0.753063
0.999176 0.374807 0.754147
0.828031 0.321523 0.0797284
0.762768 0.371954 0.140368
0.708751 0.418021 0.211093
0.683711 0.453162 0.304768
0.720317 0.461769 0.47985
0.692241 0.484215 0.708309
0.748989 0.50016 0.751324
0.874327 0.499947 0.752407
0.99971 0.499718 0.753491
1 0.301534 0.699855
1 0.388647 0.49424
0.87126 0.477714 0.379583
0.789014 0.53576 0.414862
0.729381 0.584009 0.480537
0.735164 0.60589 0.614923
0.749493 0.625071 0.750652
0.874861 0.624857 0.751736
1 0.624628 0.752834
0 0.777005 0.608698
0.0892805 0.772503 0.632242
0.221424 0.768002 0.655802
0.353567 0.7635 0.679347
0.48571 0.758999 0.702892
0.617853 0.754498 0.726452
0.749996 0.749996 0.749996
0.875425 0.749767 0.751095
1 0.749523 0.752178
0.941329 0.668864 0.0201114
0.941527 0.692317 0.155261
0.941451 0.715877 0.290166
0.940826 0.739651 0.424567
0.939147 0.763867 0.557671
0.934966 0.789303 0.686168
0.925246 0.81912 0.787457
0.926101 0.856596 0.781781
1 0.868421 0.76759
1 0.729305 0.0991531
1 0.753353 0.232776
1 0.777752 0.365347
1 0.802686 0.495949
1 0.828595 0.622354
1 0.856428 0.738354
1 0.888243 0.824918
1 0.927764 0.840726
1 0.963211 0.813581
0.77113 0 0
0.801678 0 0.210803
0.769116 0 0.481224
0.699702 0 0.66865
0.659892 0 0.773449
0.681849 0 0.832303
0.758785 0 0.866438
0.871458 0.000579843 0.879637
0.996765 0.000381476 0.880735
0.730495 0.0125887 0
0.785977 0.0103151 0.0645457
0.811551 0.011368 0.346868
0.765072 0.0367742 0.600183
0.701732 0.0776379 0.749935
0.697246 0.108614 0.824414
0.761807 0.122591 0.864027
0.871962 0.12549 0.878981
0.997269 0.125292 0.880064
0.713588 0.143984 0
0.746166 0.15581 0
0.800809 0.154437 0.199619
0.819059 0.157656 0.482109
0.759411 0.189914 0.706249
0.720851 0.227771 0.812757
0.76614 0.246616 0.860929
0.872465 0.250401 0.878309
0.997787 0.250202 0.879393
0.756283 0.250431 0
0.742412 0.281346 0
0.763027 0.298405 0.123003
0.815641 0.298543 0.334691
0.822538 0.305409 0.614527
0.759487 0.343435 0.791623
0.773068 0.369985 0.856611
0.872984 0.375326 0.877653
0.998291 0.375113 0.878721
0.864485 0.331991 0
0.813138 0.377035 0.0666361
0.780209 0.415167 0.153903
0.782498 0.439734 0.271977
0.830488 0.442664 0.46978
0.820035 0.455894 0.737591
0.78613 0.491814 0.849714
0.873487 0.500237 0.876982
0.99881 0.500038 0.878065
1 0.394034 0.149691
0.953048 0.44651 0.20473
0.88777 0.496956 0.26537
0.833753 0.543023 0.336095
0.808713 0.578164 0.42977
0.845319 0.58677 0.604852
0.817243 0.609216 0.83331
0.873991 0.625162 0.876326
0.999329 0.624949 0.877409
1 0.357214 1
1 0.426535 0.824857
1 0.513649 0.619242
0.996262 0.602716 0.504585
0.914015 0.660761 0.539864
0.854383 0.70901 0.605539
0.860166 0.730892 0.739925
0.874495 0.750072 0.875654
0.999863 0.749859 0.876738
0 0.906493 0.710155
0.0821393 0.902007 0.7337
0.214282 0.897505 0.757244
0.346426 0.893004 0.780804
0.478569 0.888502 0.804349
0.610712 0.884001 0.827893
0.742855 0.879499 0.851453
0.874998 0.874998 0.874998
1 0.874998 0.874998
1 0.771954 0.007187
1 0.793866 0.145098
1 0.817319 0.280262
1 0.840879 0.415167
1 0.864652 0.549569
1 0.888869 0.682673
1 0.914305 0.81117
1 0.944121 0.912459
1 0.981598 0.906783
0.8813 0 0
0.915343 0 0.199435
0.895094 0 0.479072
0.829358 0 0.696605
0.768978 0 0.833249
0.755108 0 0.913405
0.796155 0 0.963226
0.881514 0 0.993423
0.995956 0.000671397 1
0.840345 0 0
0.896132 0 0.0544747
0.92668 0 0.335851
0.894118 0.0104219 0.606256
0.824704 0.0493019 0.793652
0.784894 0.0877089 0.898451
0.806851 0.112398 0.957305
0.883787 0.123232 0.99144
0.99646 0.125566 1
0.814984 0.129473 0
0.855482 0.137591 0
0.910979 0.135317 0.189548
0.936553 0.13637 0.47187
0.890074 0.161776 0.725185
0.826734 0.20264 0.874937
0.822248 0.233616 0.949416
0.886809 0.247593 0.989029
0.996963 0.250492 1
0.836927 0.244129 0
0.83859 0.268986 0
0.871168 0.280812 0.103777
0.925811 0.279438 0.32462
0.94406 0.282658 0.607111
0.884413 0.314916 0.83125
0.845853 0.352773 0.937758
0.891142 0.371618 0.985931
0.997467 0.375402 1
0.91751 0.336065 0
0.881285 0.375433 0.00689708
0.867414 0.406348 0.10956
0.888029 0.423407 0.248005
0.940642 0.423545 0.459693
0.94754 0.430411 0.739528
0.884489 0.468437 0.916625
0.89807 0.494987 0.981613
0.997986 0.500328 1
1 0.408194 0.0540169
0.989487 0.456977 0.1187
0.93814 0.502037 0.191638
0.905211 0.540169 0.278904
0.9075 0.564736 0.396979
0.955489 0.567666 0.594781
0.945037 0.580896 0.862593
0.911131 0.616815 0.974716
0.998489 0.625238 1
1 0.455436 0.259174
1 0.519036 0.274693
1 0.571511 0.329732
1 0.621958 0.390372
0.958755 0.668025 0.461097
0.933715 0.703166 0.554772
0.970321 0.711772 0.729854
0.942245 0.734218 0.958312
0.998993 0.750164 1
1 0.431662 1
1 0.482216 1
1 0.551537 0.949859
1 0.638651 0.744244
1 0.727718 0.629587
1 0.785763 0.664866
0.979385 0.834012 0.730541
0.985168 0.855894 0.864927
0.999496 0.875074 1
0 1 0.811612
0.0749981 1 0.835157
0.207141 1 0.858701
0.339284 1 0.882246
0.471427 1 0.905806
0.603571 1 0.929351
0.735714 1 0.952895
0.867857 1 0.976455
1 1 1
