src/luts/mine/2.cube
LUT_3D_SIZE 6
0.074770 0.074915 0.075443
0.112360 0.112689 0.113881
0.186008 0.186914 0.190177
0.263741 0.265574 0.272132
0.336509 0.339509 0.350180
0.387900 0.391903 0.406078
0.110549 0.110867 0.112021
0.151657 0.152258 0.154428
0.229416 0.230799 0.235762
0.305428 0.307894 0.316686
0.374924 0.378659 0.391903
0.422584 0.427348 0.444169
0.182069 0.182937 0.186064
0.227213 0.228570 0.233438
0.299086 0.301450 0.309881
0.370387 0.374032 0.386957
0.436225 0.441307 0.459230
0.479176 0.485328 0.506951
0.257819 0.259570 0.265836
0.300925 0.303318 0.311853
0.368396 0.372001 0.384787
0.434289 0.439324 0.457089
0.496895 0.503519 0.526770
0.536292 0.544033 0.571114
0.328530 0.331388 0.341559
0.368814 0.372428 0.385243
0.432319 0.437308 0.454912
0.495585 0.502174 0.525303
0.557296 0.565669 0.594911
0.592463 0.601953 0.634999
0.393231 0.397346 0.411913
0.430233 0.435173 0.452608
0.490493 0.496945 0.519601
0.550391 0.558553 0.587075
0.609016 0.619056 0.653974
0.662813 0.674756 0.716113
0.125445 0.125856 0.127341
0.167143 0.167873 0.170509
0.245618 0.247206 0.252894
0.320890 0.323615 0.333319
0.389661 0.393701 0.408005
0.435383 0.440444 0.458299
0.165841 0.166561 0.169155
0.209852 0.211008 0.215161
0.284695 0.286834 0.294474
0.356753 0.360131 0.372123
0.423141 0.427918 0.444783
0.471028 0.476969 0.497864
0.241767 0.243305 0.248816
0.282381 0.284485 0.292002
0.352467 0.355763 0.367469
0.419710 0.424408 0.441001
0.483638 0.489908 0.511935
0.526051 0.533493 0.559550
0.314732 0.317352 0.326688
0.351977 0.355264 0.366937
0.417956 0.422614 0.439068
0.481912 0.488135 0.510006
0.544014 0.551984 0.579850
0.582014 0.591164 0.623055
0.381910 0.385789 0.399530
0.417177 0.421817 0.438211
0.479494 0.485654 0.507306
0.541631 0.549530 0.577152
0.601828 0.611627 0.645726
0.637249 0.648267 0.686496
0.442501 0.447732 0.466174
0.479732 0.485898 0.507572
0.538104 0.545899 0.573163
0.596438 0.606058 0.639550
0.654523 0.666162 0.706491
0.707453 0.721109 0.768223
0.225752 0.227091 0.231897
0.269668 0.271584 0.278440
0.339138 0.342186 0.353024
0.408511 0.412958 0.428678
0.472430 0.478407 0.499426
0.512434 0.519487 0.544214
0.268423 0.270322 0.277114
0.308704 0.311223 0.320205
0.376943 0.380719 0.394105
0.443434 0.448687 0.467207
0.505807 0.512676 0.536768
0.546627 0.554675 0.582809
0.335963 0.338954 0.349590
0.375036 0.378774 0.392026
0.440989 0.446184 0.464500
0.504577 0.511412 0.535387
0.566237 0.574887 0.605074
0.610688 0.620785 0.655895
0.402745 0.407065 0.422345
0.438664 0.443804 0.461928
0.502407 0.509182 0.532951
0.564451 0.573045 0.603043
0.623953 0.634504 0.671155
0.663153 0.675109 0.716508
0.464857 0.470640 0.490991
0.499624 0.506323 0.529829
0.561779 0.570290 0.600004
0.621542 0.632010 0.668378
0.680739 0.693356 0.736979
0.716753 0.730780 0.779141
0.521866 0.529188 0.554832
0.557510 0.565890 0.595155
0.623688 0.634231 0.670851
0.678232 0.690754 0.734057
0.733812 0.748536 0.799226
0.786614 0.803607 0.861855
0.325891 0.328702 0.338711
0.366387 0.369953 0.382600
0.429926 0.434859 0.452269
0.492903 0.499420 0.522299
0.554546 0.562835 0.591790
0.589770 0.599172 0.631919
0.364627 0.368157 0.380684
0.401240 0.405527 0.420693
0.464616 0.470393 0.490723
0.527130 0.534603 0.560767
0.587819 0.597157 0.629688
0.622728 0.633237 0.669744
0.426631 0.431488 0.448632
0.463129 0.468869 0.489069
0.525179 0.532595 0.558566
0.586382 0.595673 0.628045
0.645721 0.657042 0.696294
0.683006 0.695710 0.739624
0.487886 0.494268 0.516684
0.523304 0.530667 0.556452
0.584533 0.593764 0.625932
0.646333 0.657675 0.697001
0.705280 0.718850 0.765674
0.749206 0.764573 0.817412
0.547312 0.555381 0.583585
0.581406 0.590537 0.622362
0.641653 0.652827 0.691586
0.703329 0.716821 0.763387
0.761861 0.777768 0.832408
0.799717 0.817299 0.877505
0.599603 0.609328 0.643176
0.633572 0.644459 0.682249
0.696374 0.709594 0.755244
0.764767 0.780800 0.835857
0.817423 0.835818 0.898721
0.867170 0.887796 0.958081
0.416343 0.420964 0.437292
0.453713 0.459217 0.478605
0.513884 0.520978 0.545845
0.574576 0.583488 0.614571
0.634125 0.645032 0.682887
0.665752 0.677805 0.719529
0.452485 0.457959 0.477242
0.486541 0.492887 0.515180
0.547214 0.555280 0.583474
0.607585 0.617577 0.652331
0.666761 0.678852 0.720702
0.698225 0.711518 0.757411
0.510998 0.518012 0.542600
0.545128 0.553132 0.581111
0.605936 0.615873 0.650439
0.665279 0.677314 0.718979
0.724500 0.738842 0.788253
0.756766 0.772455 0.826366
0.569531 0.578284 0.608823
0.604082 0.613957 0.648311
0.663341 0.675305 0.716727
0.724989 0.739351 0.788829
0.783725 0.800588 0.858410
0.818616 0.837067 0.900153
0.627417 0.638089 0.675148
0.661314 0.673202 0.714372
0.720719 0.734907 0.783804
0.781940 0.798725 0.856283
0.841784 0.861331 0.928041
0.883892 0.904193 0.973524
0.676356 0.688806 0.731870
0.709472 0.723208 0.770591
0.770570 0.786854 0.842750
0.834756 0.853967 0.919567
0.902197 0.921010 0.985636
0.943729 0.955846 0.998435
0.477126 0.483225 0.504663
0.511308 0.518331 0.542949
0.567458 0.576146 0.606463
0.624453 0.635022 0.671732
0.680984 0.693610 0.737265
0.734698 0.749459 0.800272
0.510185 0.517176 0.541687
0.546069 0.554100 0.582177
0.600718 0.610480 0.644453
0.657189 0.668926 0.709584
0.714148 0.728072 0.776081
0.767072 0.783205 0.838595
0.565026 0.573638 0.603696
0.599056 0.608763 0.642549
0.662562 0.674497 0.715822
0.716505 0.730523 0.778850
0.772458 0.788825 0.844996
0.824328 0.843046 0.907017
0.620168 0.630589 0.666797
0.652626 0.664196 0.704292
0.714830 0.728781 0.776882
0.781267 0.798022 0.855481
0.833390 0.852536 0.917922
0.881703 0.902107 0.971754
0.674631 0.687016 0.729861
0.708052 0.721732 0.768925
0.768210 0.784392 0.839946
0.831341 0.850390 0.915454
0.895453 0.914941 0.981714
0.936009 0.949645 0.997330
0.727206 0.741658 0.791440
0.759587 0.775396 0.829710
0.819307 0.837791 0.900984
0.878622 0.899140 0.969137
0.935845 0.949511 0.997301
1.002935 1.002950 1.003007
