src/luts/mine/2.cube
LUT_3D_SIZE 16
0.074770 0.074915 0.075443
0.078568 0.078728 0.079311
0.092149 0.092369 0.093171
0.112360 0.112689 0.113881
0.135601 0.136080 0.137815
0.160254 0.160926 0.163348
0.186008 0.186914 0.190177
0.212105 0.213286 0.217529
0.238477 0.239973 0.245335
0.263741 0.265574 0.272132
0.288280 0.290474 0.298307
0.312828 0.315416 0.324639
0.336509 0.339509 0.350180
0.359350 0.362778 0.374945
0.379249 0.383073 0.396623
0.387900 0.391903 0.406078
0.078503 0.078663 0.079245
0.082411 0.082588 0.083229
0.096423 0.096665 0.097543
0.117014 0.117370 0.118662
0.140776 0.141294 0.143164
0.165665 0.166383 0.168972
0.191468 0.192429 0.195886
0.217608 0.218851 0.223317
0.243971 0.245537 0.251149
0.268987 0.270894 0.277715
0.293386 0.295659 0.303772
0.317932 0.320606 0.330132
0.341461 0.344552 0.355539
0.364186 0.367708 0.380205
0.383894 0.387813 0.401697
0.392242 0.396337 0.410831
0.091404 0.091622 0.092410
0.095771 0.096009 0.096875
0.109638 0.109951 0.111085
0.131766 0.132219 0.133857
0.156728 0.157370 0.159687
0.182249 0.183119 0.186252
0.207973 0.209108 0.213187
0.234111 0.235552 0.240720
0.260301 0.262085 0.268473
0.285068 0.287213 0.294873
0.309083 0.311609 0.320613
0.332984 0.335921 0.346369
0.356046 0.359410 0.371355
0.378561 0.382371 0.395873
0.397796 0.402009 0.416916
0.405424 0.409802 0.425286
0.110549 0.110867 0.112021
0.115304 0.115650 0.116905
0.130746 0.131192 0.132805
0.151657 0.152258 0.154428
0.177541 0.178366 0.181339
0.203521 0.204608 0.208514
0.229416 0.230799 0.235762
0.255359 0.257076 0.263224
0.281193 0.283279 0.290733
0.305428 0.307894 0.316686
0.329063 0.331931 0.342135
0.352382 0.355676 0.367376
0.374924 0.378659 0.391903
0.397068 0.401265 0.416118
0.415717 0.420324 0.436603
0.422584 0.427348 0.444169
0.133463 0.133928 0.135609
0.138716 0.139219 0.141034
0.155034 0.155662 0.157930
0.176743 0.177561 0.180507
0.200508 0.201562 0.205354
0.226577 0.227925 0.232766
0.252478 0.254156 0.260166
0.278007 0.280046 0.287331
0.303376 0.305808 0.314483
0.326925 0.329755 0.339827
0.350001 0.353250 0.364793
0.373096 0.376795 0.389910
0.395356 0.399517 0.414242
0.416901 0.421535 0.437907
0.434930 0.439980 0.457797
0.441080 0.446277 0.464602
0.157674 0.158323 0.160669
0.163261 0.163958 0.166472
0.180024 0.180872 0.183929
0.202254 0.203327 0.207185
0.226664 0.228013 0.232858
0.250974 0.252632 0.258570
0.275858 0.277865 0.285039
0.300896 0.303288 0.311821
0.325756 0.328565 0.338565
0.348980 0.352210 0.363685
0.371344 0.375008 0.388000
0.393836 0.397964 0.412576
0.415726 0.420333 0.436613
0.436988 0.442087 0.460073
0.454573 0.460099 0.479561
0.460086 0.465749 0.485685
0.182069 0.182937 0.186064
0.187694 0.188617 0.191940
0.204805 0.205905 0.209861
0.227213 0.228570 0.233438
0.251355 0.253018 0.258975
0.275380 0.277380 0.284528
0.299086 0.301450 0.309881
0.323615 0.326387 0.336256
0.347971 0.351182 0.362591
0.370387 0.374032 0.386957
0.392680 0.396783 0.411310
0.414833 0.419421 0.435631
0.436225 0.441307 0.459230
0.457207 0.462798 0.482486
0.474307 0.480332 0.501519
0.479176 0.485328 0.506951
0.207171 0.208297 0.212345
0.212778 0.213966 0.218236
0.229787 0.231175 0.236154
0.251855 0.253524 0.259505
0.275758 0.277764 0.284932
0.299747 0.302121 0.310589
0.322812 0.325570 0.335390
0.345980 0.349154 0.360433
0.369890 0.373525 0.386416
0.391744 0.395827 0.410285
0.413593 0.418152 0.434266
0.435217 0.440275 0.458115
0.456708 0.462286 0.481931
0.477385 0.483490 0.504952
0.493948 0.500492 0.523468
0.498185 0.504844 0.528216
0.233038 0.234466 0.239586
0.238768 0.240267 0.245642
0.255331 0.257048 0.263194
0.276824 0.278845 0.286068
0.300340 0.302723 0.311225
0.323666 0.326439 0.336311
0.346426 0.349608 0.360917
0.369144 0.372764 0.385603
0.391479 0.395557 0.409995
0.413144 0.417694 0.433772
0.434012 0.439041 0.456783
0.455492 0.461041 0.480581
0.476729 0.482817 0.504220
0.497279 0.503914 0.527200
0.513586 0.520672 0.545510
0.517223 0.524412 0.549603
0.257819 0.259570 0.265836
0.263473 0.265302 0.271846
0.279900 0.281967 0.289352
0.300925 0.303318 0.311853
0.323441 0.326210 0.336069
0.346008 0.349182 0.360464
0.368396 0.372001 0.384787
0.390637 0.394698 0.409074
0.412553 0.417089 0.433122
0.434289 0.439324 0.457089
0.454795 0.460327 0.479807
0.476236 0.482311 0.503670
0.496895 0.503519 0.526770
0.517164 0.524352 0.549537
0.533164 0.540813 0.567579
0.536292 0.544033 0.571114
0.281487 0.283578 0.291047
0.286845 0.289017 0.296772
0.303182 0.305612 0.314275
0.324103 0.326883 0.336782
0.345915 0.349088 0.360363
0.367799 0.371392 0.384138
0.389741 0.393782 0.408092
0.411512 0.416025 0.431977
0.433000 0.438006 0.455665
0.454464 0.459987 0.479439
0.475640 0.481700 0.503006
0.496558 0.503174 0.526393
0.516930 0.524111 0.549273
0.537016 0.544778 0.571932
0.552574 0.560803 0.589551
0.555092 0.563397 0.592409
0.304990 0.307449 0.316216
0.310133 0.312676 0.321741
0.326215 0.329032 0.339060
0.346432 0.349614 0.360923
0.367353 0.370937 0.383652
0.389270 0.393302 0.407577
0.411036 0.415538 0.431453
0.432450 0.437443 0.455057
0.453596 0.459097 0.478475
0.474662 0.480696 0.501915
0.495597 0.502187 0.525316
0.516312 0.523476 0.548577
0.537431 0.545206 0.572402
0.556894 0.565254 0.594454
0.571852 0.580679 0.611467
0.573831 0.582719 0.613721
0.328530 0.331388 0.341559
0.333636 0.336585 0.347074
0.349111 0.352343 0.363827
0.368814 0.372428 0.385243
0.389546 0.393583 0.407879
0.410870 0.415369 0.431271
0.432319 0.437308 0.454912
0.453496 0.458995 0.478365
0.474372 0.480399 0.501592
0.495585 0.502174 0.525303
0.515992 0.523147 0.548218
0.536312 0.544053 0.571136
0.557296 0.565669 0.594911
0.576453 0.585425 0.616711
0.590993 0.600434 0.633317
0.592463 0.601953 0.634999
0.350987 0.354255 0.365863
0.356007 0.359370 0.371312
0.371103 0.374762 0.387737
0.390329 0.394382 0.408735
0.410576 0.415068 0.430947
0.431384 0.436351 0.453879
0.452442 0.457915 0.477194
0.473329 0.479329 0.500428
0.493992 0.500538 0.523518
0.514516 0.521629 0.546556
0.534887 0.542587 0.569526
0.555115 0.563420 0.592434
0.575752 0.584702 0.615912
0.595851 0.605452 0.638877
0.610093 0.620169 0.655211
0.610972 0.621079 0.656221
0.379315 0.383140 0.396696
0.384123 0.388047 0.401948
0.398790 0.403024 0.418006
0.417914 0.422571 0.439023
0.438469 0.443604 0.461712
0.459130 0.464769 0.484623
0.479479 0.485639 0.507289
0.500039 0.506749 0.530295
0.520499 0.527782 0.553292
0.540938 0.548816 0.576367
0.561056 0.569544 0.599182
0.580945 0.590061 0.621836
0.600873 0.610640 0.644632
0.620669 0.631107 0.667374
0.641110 0.652265 0.690958
0.633678 0.644570 0.682372
0.393231 0.397346 0.411913
0.397723 0.401934 0.416835
0.411659 0.416176 0.432139
0.430233 0.435173 0.452608
0.450653 0.456082 0.475210
0.471035 0.476976 0.497872
0.490493 0.496945 0.519601
0.510476 0.517475 0.542013
0.530455 0.538025 0.564519
0.550391 0.558553 0.587075
0.570538 0.579323 0.609970
0.589280 0.598665 0.631358
0.609016 0.619056 0.653974
0.627711 0.638393 0.675487
0.647427 0.658809 0.698269
0.662813 0.674756 0.716113
0.079678 0.079843 0.080442
0.083552 0.083733 0.084392
0.097793 0.098042 0.098945
0.118828 0.119196 0.120529
0.142681 0.143213 0.145133
0.167509 0.168243 0.170890
0.193516 0.194498 0.198030
0.219663 0.220930 0.225480
0.246016 0.247609 0.253315
0.271029 0.272965 0.279890
0.295333 0.297637 0.305858
0.319936 0.322645 0.332291
0.343275 0.346399 0.357503
0.365953 0.369509 0.382127
0.385596 0.389550 0.403558
0.393820 0.397948 0.412558
0.083453 0.083634 0.084291
0.087427 0.087626 0.088347
0.101360 0.101627 0.102597
0.121997 0.122385 0.123790
0.145811 0.146367 0.148373
0.170668 0.171430 0.174177
0.196589 0.197602 0.201247
0.222681 0.223983 0.228659
0.248938 0.250569 0.256411
0.273757 0.275733 0.282798
0.298045 0.300392 0.308764
0.322671 0.325427 0.335239
0.345900 0.349072 0.360346
0.368568 0.372176 0.384975
0.388357 0.392369 0.406578
0.396936 0.401131 0.415973
0.097124 0.097369 0.098260
0.100833 0.101098 0.102058
0.115273 0.115619 0.116873
0.137434 0.137927 0.139709
0.162409 0.163098 0.165587
0.187736 0.188659 0.191983
0.213554 0.214751 0.219052
0.239609 0.241119 0.246532
0.265672 0.267532 0.274186
0.290128 0.292350 0.300284
0.314115 0.316725 0.326024
0.338146 0.341176 0.351951
0.360936 0.364395 0.376669
0.383301 0.387208 0.401050
0.402548 0.406864 0.422129
0.410308 0.414795 0.430654
0.117191 0.117549 0.118845
0.120508 0.120886 0.122257
0.136539 0.137025 0.138784
0.157907 0.158559 0.160911
0.183673 0.184557 0.187739
0.209369 0.210520 0.214654
0.235220 0.236675 0.241892
0.261030 0.262824 0.269248
0.286708 0.288877 0.296625
0.310712 0.313265 0.322364
0.334316 0.337277 0.347809
0.357569 0.360962 0.373009
0.379998 0.383837 0.397441
0.401971 0.406274 0.421495
0.420576 0.425293 0.441955
0.427530 0.432408 0.449625
0.140480 0.140995 0.142857
0.143713 0.144252 0.146201
0.160655 0.161330 0.163765
0.182794 0.183669 0.186821
0.206759 0.207881 0.211913
0.232628 0.234051 0.239153
0.258352 0.260110 0.266403
0.283702 0.285826 0.293412
0.308893 0.311415 0.320408
0.332288 0.335212 0.345617
0.355233 0.358581 0.370471
0.378146 0.381947 0.395419
0.400340 0.404608 0.419706
0.421827 0.426573 0.443334
0.439803 0.444969 0.463188
0.445986 0.451302 0.470035
0.165102 0.165814 0.168386
0.168393 0.169135 0.171810
0.185675 0.186578 0.189830
0.208173 0.209310 0.213397
0.232746 0.234170 0.239278
0.256956 0.258695 0.264919
0.281705 0.283798 0.291279
0.306539 0.309023 0.317879
0.331212 0.334117 0.344455
0.354321 0.357652 0.369481
0.376493 0.380261 0.393615
0.398886 0.403122 0.418111
0.420636 0.425355 0.442021
0.441877 0.447093 0.465484
0.459448 0.465095 0.484976
0.464983 0.470769 0.491131
0.189683 0.190626 0.194019
0.192911 0.193886 0.197396
0.210442 0.211605 0.215781
0.232960 0.234386 0.239503
0.257193 0.258935 0.265171
0.281230 0.283316 0.290772
0.304857 0.307313 0.316072
0.329184 0.332054 0.342265
0.353369 0.356682 0.368448
0.375682 0.379433 0.392730
0.397813 0.402026 0.416935
0.419824 0.424524 0.441127
0.441026 0.446222 0.464542
0.462053 0.467766 0.487873
0.479163 0.485314 0.506937
0.484048 0.490328 0.512393
0.214611 0.215820 0.220164
0.217712 0.218956 0.223426
0.235207 0.236661 0.241878
0.257537 0.259283 0.265536
0.281472 0.283563 0.291031
0.305457 0.307923 0.316717
0.328377 0.331232 0.341394
0.351468 0.354745 0.366385
0.375227 0.378968 0.392233
0.396898 0.401092 0.415932
0.418573 0.423245 0.439748
0.440328 0.445507 0.463769
0.461578 0.467279 0.487344
0.482219 0.488450 0.510349
0.498779 0.505455 0.528882
0.503013 0.509805 0.533631
0.240574 0.242097 0.247553
0.243685 0.245247 0.250846
0.260560 0.262348 0.268748
0.282167 0.284268 0.291773
0.305946 0.308421 0.317243
0.329207 0.332077 0.342290
0.351825 0.355109 0.366772
0.374486 0.378213 0.391425
0.396750 0.400941 0.415769
0.418327 0.422993 0.439477
0.438908 0.444053 0.462198
0.460477 0.466150 0.486120
0.481570 0.487785 0.509625
0.502106 0.508873 0.532614
0.518407 0.525629 0.550935
0.522040 0.529367 0.555028
0.265437 0.267294 0.273936
0.268530 0.270431 0.277229
0.285388 0.287537 0.295214
0.306344 0.308825 0.317669
0.328788 0.331651 0.341838
0.351421 0.354697 0.366334
0.373646 0.377356 0.390509
0.395840 0.400011 0.414772
0.417709 0.422361 0.438796
0.439433 0.444590 0.462778
0.459805 0.465461 0.485373
0.481084 0.487286 0.509081
0.501688 0.508444 0.532145
0.521993 0.529318 0.554975
0.537965 0.545755 0.573005
0.541079 0.548962 0.576528
0.288655 0.290854 0.298708
0.291553 0.293798 0.301810
0.308382 0.310897 0.319860
0.329395 0.332268 0.342493
0.351070 0.354339 0.365952
0.373173 0.376873 0.389994
0.394874 0.399025 0.413714
0.416598 0.421226 0.437574
0.438047 0.443172 0.461245
0.459501 0.465149 0.485034
0.480682 0.486873 0.508633
0.501451 0.508200 0.531878
0.521834 0.529154 0.554795
0.541854 0.549760 0.577405
0.557351 0.565726 0.594974
0.559865 0.568317 0.597829
0.312152 0.314729 0.323912
0.314920 0.317543 0.326890
0.331346 0.334254 0.344600
0.351562 0.354841 0.366486
0.372382 0.376067 0.389131
0.394502 0.398644 0.413305
0.416078 0.420694 0.437001
0.437458 0.442569 0.460594
0.458564 0.464189 0.483993
0.479552 0.485714 0.507371
0.500528 0.507251 0.530843
0.521162 0.528464 0.554039
0.542382 0.550304 0.578003
0.561722 0.570231 0.599939
0.576588 0.585564 0.616865
0.578571 0.587610 0.619126
0.335414 0.338395 0.348996
0.338167 0.341197 0.351973
0.353845 0.357167 0.368964
0.373613 0.377323 0.390474
0.394535 0.398678 0.413342
0.415903 0.420514 0.436808
0.437259 0.442365 0.460373
0.458423 0.464044 0.483836
0.479273 0.485427 0.507059
0.500469 0.507191 0.530778
0.520775 0.528065 0.553603
0.541031 0.548912 0.576473
0.562186 0.570710 0.600467
0.581235 0.590360 0.622167
0.595688 0.605284 0.638691
0.597154 0.606797 0.640369
0.357577 0.360970 0.373017
0.360312 0.363758 0.375991
0.375674 0.379425 0.392721
0.395081 0.399236 0.413940
0.415564 0.420168 0.436436
0.436445 0.441531 0.459473
0.457321 0.462915 0.482613
0.478192 0.484318 0.505853
0.498842 0.505519 0.528952
0.519320 0.526569 0.551964
0.539792 0.547636 0.575071
0.559839 0.568290 0.597799
0.580469 0.589569 0.621292
0.600588 0.610345 0.644304
0.614773 0.625009 0.660590
0.615638 0.625903 0.661584
0.385761 0.389719 0.403739
0.388613 0.392631 0.406858
0.403556 0.407894 0.423235
0.422844 0.427613 0.444455
0.443521 0.448777 0.467304
0.464242 0.470010 0.490307
0.484384 0.490672 0.512768
0.504911 0.511755 0.535761
0.525355 0.532777 0.558765
0.545771 0.553794 0.581840
0.565926 0.574566 0.604720
0.585748 0.595019 0.627321
0.605629 0.615555 0.650086
0.625417 0.636019 0.672842
0.645777 0.657099 0.696358
0.638329 0.649385 0.687744
0.399335 0.403581 0.418604
0.402546 0.406862 0.422126
0.416667 0.421295 0.437649
0.435343 0.440403 0.458254
0.455798 0.461354 0.480920
0.476217 0.482292 0.503649
0.495457 0.502043 0.525159
0.515387 0.522524 0.547536
0.535340 0.543053 0.570038
0.555266 0.563577 0.592606
0.575418 0.584357 0.615530
0.594097 0.603640 0.636869
0.613810 0.624013 0.659483
0.632557 0.643409 0.681077
0.652092 0.663642 0.703672
0.667461 0.679577 0.721516
0.097756 0.098005 0.098907
0.102164 0.102436 0.103421
0.116296 0.116649 0.117925
0.139357 0.139864 0.141696
0.164820 0.165530 0.168093
0.190303 0.191252 0.194668
0.216235 0.217463 0.221872
0.242305 0.243849 0.249385
0.268363 0.270261 0.277050
0.292828 0.295092 0.303174
0.316914 0.319571 0.329036
0.340844 0.343923 0.354870
0.363491 0.366999 0.379448
0.385676 0.389632 0.403645
0.404623 0.408984 0.424407
0.411870 0.416391 0.432371
0.101984 0.102255 0.103237
0.105815 0.106106 0.107163
0.120410 0.120788 0.122156
0.143263 0.143799 0.145736
0.168684 0.169428 0.172112
0.193971 0.194957 0.198506
0.219919 0.221189 0.225750
0.245898 0.247489 0.253190
0.271850 0.273798 0.280765
0.296180 0.298497 0.306766
0.320186 0.322899 0.332560
0.344066 0.347205 0.358360
0.366539 0.370107 0.382765
0.388742 0.392763 0.407000
0.407778 0.412208 0.427872
0.415226 0.419823 0.436063
0.115714 0.116063 0.117326
0.120051 0.120427 0.121787
0.135152 0.135629 0.137352
0.157316 0.157963 0.160298
0.182302 0.183172 0.186307
0.207391 0.208520 0.212576
0.233120 0.234548 0.239672
0.258780 0.260544 0.266857
0.284307 0.286440 0.294059
0.308409 0.310924 0.319889
0.332073 0.334994 0.345386
0.355575 0.358930 0.370843
0.377909 0.381706 0.395161
0.399973 0.404233 0.419303
0.419296 0.423985 0.440545
0.427683 0.432564 0.449793
0.137998 0.138495 0.140291
0.142096 0.142623 0.144528
0.156638 0.157279 0.159594
0.179328 0.180170 0.183203
0.204627 0.205726 0.209675
0.230076 0.231467 0.236459
0.255452 0.257171 0.263323
0.280728 0.282807 0.290236
0.305819 0.308291 0.317106
0.329546 0.332422 0.342656
0.352588 0.355886 0.367600
0.375153 0.378894 0.392153
0.397630 0.401839 0.416734
0.419192 0.423878 0.440430
0.437671 0.442787 0.460829
0.444995 0.450286 0.468937
0.162471 0.163161 0.165651
0.166413 0.167137 0.169750
0.180439 0.181291 0.184362
0.203734 0.204822 0.208737
0.228229 0.229598 0.234510
0.253559 0.255252 0.261313
0.278610 0.280657 0.287974
0.303354 0.305786 0.314459
0.327943 0.330791 0.340926
0.351061 0.354330 0.365943
0.373566 0.377275 0.390423
0.395608 0.399774 0.414518
0.417894 0.422550 0.439000
0.439066 0.444215 0.462373
0.456885 0.462468 0.482128
0.463312 0.469057 0.489273
0.187598 0.188520 0.191839
0.191560 0.192522 0.195983
0.205200 0.206305 0.210276
0.228534 0.229906 0.234831
0.253706 0.255401 0.261469
0.277680 0.279714 0.286982
0.301739 0.304145 0.312727
0.325944 0.328757 0.338769
0.350056 0.353306 0.364853
0.372719 0.376410 0.389498
0.394539 0.398682 0.413346
0.416355 0.420976 0.437306
0.438157 0.443285 0.461367
0.459070 0.464708 0.484556
0.476477 0.482558 0.503939
0.482187 0.488418 0.510314
0.212500 0.213685 0.217944
0.216398 0.217628 0.222044
0.230089 0.231480 0.236472
0.253165 0.254853 0.260895
0.277550 0.279581 0.286843
0.301429 0.303830 0.312393
0.324596 0.327385 0.337314
0.348312 0.351529 0.362961
0.371980 0.375657 0.388693
0.393862 0.397991 0.412605
0.415597 0.420201 0.436471
0.436941 0.442039 0.460022
0.458390 0.464011 0.483800
0.479186 0.485338 0.506962
0.496102 0.502705 0.525882
0.501094 0.507833 0.531478
0.237460 0.238943 0.244260
0.241144 0.242673 0.248156
0.254549 0.256255 0.262363
0.277389 0.279418 0.286671
0.301040 0.303434 0.311976
0.324845 0.327639 0.337583
0.347535 0.350738 0.362119
0.370320 0.373963 0.386883
0.393580 0.397702 0.412295
0.414864 0.419452 0.435664
0.436141 0.441220 0.459137
0.457496 0.463094 0.482807
0.478699 0.484838 0.506419
0.499199 0.505886 0.529353
0.515672 0.522818 0.547858
0.519989 0.527256 0.552717
0.262819 0.264639 0.271150
0.266418 0.268289 0.274980
0.279124 0.281179 0.288523
0.301360 0.303760 0.312320
0.325079 0.327876 0.337835
0.348055 0.351267 0.362682
0.370460 0.374106 0.387036
0.392858 0.396966 0.411505
0.414868 0.419456 0.435669
0.436025 0.441101 0.459009
0.456684 0.462263 0.481905
0.477958 0.484078 0.505592
0.498721 0.505395 0.528817
0.519028 0.526268 0.551635
0.535221 0.542930 0.569902
0.538936 0.546755 0.574103
0.287156 0.289332 0.297105
0.290783 0.293015 0.300985
0.303568 0.306004 0.314689
0.325007 0.327803 0.337758
0.347375 0.350575 0.361945
0.370032 0.373670 0.386570
0.391843 0.395929 0.410393
0.413821 0.418386 0.434517
0.435481 0.440544 0.458407
0.456854 0.462436 0.482093
0.477280 0.483382 0.504835
0.498268 0.504930 0.528310
0.518894 0.526131 0.551484
0.538898 0.546715 0.574060
0.554655 0.562946 0.591912
0.557800 0.566189 0.595484
0.310029 0.312570 0.321629
0.313429 0.316027 0.325286
0.326122 0.328938 0.338961
0.347456 0.350658 0.362034
0.369026 0.372643 0.385474
0.391408 0.395485 0.409917
0.412726 0.417266 0.433312
0.434271 0.439306 0.457070
0.455552 0.461102 0.480648
0.476697 0.482784 0.504185
0.497717 0.504364 0.527692
0.518348 0.525570 0.550870
0.539099 0.546922 0.574287
0.558692 0.567107 0.596496
0.573937 0.582830 0.613843
0.576477 0.585450 0.616738
0.333201 0.336142 0.346604
0.336554 0.339555 0.350229
0.348949 0.352178 0.363652
0.369440 0.373066 0.385925
0.390165 0.394215 0.408556
0.412496 0.417031 0.433059
0.433596 0.438615 0.456324
0.454818 0.460350 0.479832
0.475817 0.481882 0.503203
0.496622 0.503239 0.526464
0.517358 0.524551 0.549754
0.537995 0.545786 0.573039
0.559193 0.567624 0.597066
0.578326 0.587358 0.618847
0.593077 0.602587 0.635702
0.595094 0.604670 0.638010
0.355854 0.359214 0.371146
0.359096 0.362519 0.374669
0.370971 0.374627 0.387593
0.391151 0.395222 0.409635
0.411994 0.416518 0.432508
0.433519 0.438536 0.456238
0.454517 0.460041 0.479498
0.475548 0.481605 0.502903
0.496318 0.502927 0.526124
0.517395 0.524589 0.549797
0.537535 0.545313 0.572519
0.557699 0.566084 0.595368
0.578476 0.587513 0.619019
0.597625 0.607284 0.640909
0.612083 0.622227 0.657498
0.613554 0.623749 0.659189
0.377706 0.381498 0.394939
0.380926 0.384784 0.398454
0.392639 0.396741 0.411265
0.412301 0.416831 0.432844
0.432495 0.437488 0.455107
0.453654 0.459157 0.478541
0.474397 0.480425 0.501620
0.495149 0.501727 0.524814
0.515748 0.522895 0.547942
0.536154 0.543890 0.570957
0.556546 0.564896 0.594060
0.576751 0.585732 0.617050
0.596792 0.606423 0.639954
0.616891 0.627199 0.663026
0.631096 0.641896 0.679391
0.631928 0.642757 0.680351
0.405353 0.409730 0.425208
0.408584 0.413032 0.428758
0.420642 0.425361 0.442028
0.440084 0.445257 0.463499
0.460518 0.466192 0.486165
0.481313 0.487521 0.509337
0.501518 0.508269 0.531954
0.521937 0.529261 0.554912
0.542294 0.550213 0.577903
0.562507 0.571041 0.600832
0.582529 0.591696 0.623644
0.602569 0.612393 0.646576
0.622261 0.632754 0.669206
0.641794 0.652973 0.691749
0.662105 0.674022 0.715291
0.654600 0.666242 0.706581
0.417978 0.422636 0.439093
0.421383 0.426119 0.442845
0.434399 0.439437 0.457211
0.453017 0.458505 0.477833
0.473221 0.479218 0.500307
0.493387 0.499916 0.522840
0.512795 0.519860 0.544621
0.532591 0.540223 0.566931
0.552425 0.560649 0.589383
0.572137 0.580972 0.611791
0.591885 0.601356 0.634338
0.610830 0.620931 0.656058
0.630587 0.641370 0.678804
0.649110 0.660553 0.700218
0.668467 0.680621 0.722686
0.683758 0.696491 0.740502
0.125445 0.125856 0.127341
0.130478 0.130922 0.132528
0.146086 0.146643 0.148657
0.167143 0.167873 0.170509
0.194164 0.195152 0.198707
0.220220 0.221494 0.226067
0.245618 0.247206 0.252894
0.271315 0.273256 0.280195
0.296809 0.299136 0.307439
0.320890 0.323615 0.333319
0.344164 0.347304 0.358466
0.366950 0.370526 0.383212
0.389661 0.393701 0.408005
0.411118 0.415623 0.431544
0.429136 0.434050 0.451396
0.435383 0.440444 0.458299
0.130293 0.130736 0.132338
0.134019 0.134488 0.136183
0.150192 0.150781 0.152909
0.171761 0.172533 0.175316
0.198541 0.199574 0.203292
0.224168 0.225488 0.230226
0.249604 0.251244 0.257118
0.275169 0.277165 0.284303
0.300532 0.302919 0.311432
0.324628 0.327418 0.337349
0.347689 0.350895 0.362285
0.370403 0.374047 0.386974
0.393007 0.397117 0.411668
0.414405 0.418983 0.435160
0.432461 0.437453 0.455069
0.438832 0.443975 0.462114
0.145500 0.146053 0.148050
0.149729 0.150315 0.152430
0.164622 0.165330 0.167887
0.187532 0.188453 0.191770
0.213437 0.214632 0.218928
0.238650 0.240147 0.245518
0.263725 0.265557 0.272114
0.288830 0.291032 0.298895
0.313741 0.316345 0.325621
0.337556 0.340576 0.351313
0.360182 0.363625 0.375849
0.382522 0.386413 0.400198
0.404989 0.409358 0.424808
0.426302 0.431151 0.448269
0.444493 0.449772 0.468381
0.451418 0.456865 0.476058
0.165841 0.166561 0.169155
0.170447 0.171207 0.173948
0.186686 0.187599 0.190887
0.209852 0.211008 0.215161
0.234828 0.236277 0.241477
0.260237 0.262021 0.268405
0.284695 0.286834 0.294474
0.309177 0.311704 0.320713
0.333412 0.336357 0.346832
0.356753 0.360131 0.372123
0.378942 0.382760 0.396288
0.400725 0.405002 0.420129
0.423141 0.427918 0.444783
0.444350 0.449625 0.468222
0.462891 0.468624 0.488804
0.471028 0.476969 0.497864
0.191634 0.192596 0.196060
0.196041 0.197049 0.200673
0.211494 0.212668 0.216886
0.234003 0.235442 0.240606
0.258861 0.260626 0.266944
0.283446 0.285566 0.293139
0.307570 0.310071 0.318987
0.331527 0.334438 0.344795
0.355320 0.358670 0.370566
0.378212 0.382015 0.395491
0.399976 0.404236 0.419307
0.421251 0.425984 0.442699
0.443209 0.448457 0.466959
0.464079 0.469843 0.490126
0.481979 0.488204 0.510081
0.488997 0.495408 0.517927
0.216919 0.218154 0.222591
0.221170 0.222454 0.227067
0.236077 0.237543 0.242798
0.258305 0.260062 0.266353
0.283136 0.285251 0.292808
0.306799 0.309287 0.318158
0.330162 0.333048 0.343321
0.353614 0.356932 0.368714
0.377024 0.380802 0.394195
0.399114 0.403355 0.418361
0.420710 0.425431 0.442103
0.441889 0.447105 0.465497
0.463486 0.469235 0.489466
0.484010 0.490289 0.512350
0.501343 0.508089 0.531758
0.507469 0.514384 0.538634
0.241767 0.243305 0.248816
0.245911 0.247502 0.253204
0.260576 0.262364 0.268766
0.282381 0.284485 0.292002
0.306443 0.308925 0.317776
0.329908 0.332790 0.343047
0.352467 0.355763 0.367469
0.375473 0.379219 0.392502
0.398510 0.402738 0.417698
0.419710 0.424408 0.441001
0.441062 0.446258 0.464581
0.462090 0.467803 0.487913
0.483638 0.489908 0.511935
0.503994 0.510813 0.534732
0.520765 0.528055 0.553592
0.526051 0.533493 0.559550
0.266831 0.268707 0.275419
0.270870 0.272804 0.279721
0.284996 0.287140 0.294796
0.305908 0.308382 0.317201
0.329153 0.332022 0.342232
0.352326 0.355619 0.367315
0.374738 0.378470 0.391700
0.397017 0.401213 0.416062
