src/luts/mine/3.cube
TITLE "Generated by Resolve"
LUT_3D_SIZE 9
0.0464942 0 0.355932
0.157946 0 0.356313
0.278386 0 0.35491
0.404364 0 0.352087
0.535882 0 0.347662
0.67332 0 0.341238
0.82237 0 0.331899
1 0 0.308522
1 0 0.285206
0.041825 0.0488441 0.351263
0.153567 0.0495003 0.351919
0.273823 0.0479133 0.350332
0.399542 0.0448463 0.347265
0.530755 0.0401312 0.34255
0.668101 0.0336004 0.336019
0.817014 0.0241245 0.326543
1 0.000640879 0.303059
1 0 0.279576
0.0423743 0.162951 0.351812
0.153841 0.163348 0.352209
0.273991 0.161654 0.3505
0.399588 0.15845 0.347311
0.530602 0.153521 0.342382
0.667994 0.147051 0.335912
0.816861 0.13753 0.32639
1 0.113985 0.302846
1 0.0906081 0.279469
0.0458228 0.274983 0.355261
0.157321 0.27541 0.355688
0.277424 0.273655 0.353933
0.403006 0.270436 0.350713
0.533989 0.265492 0.345769
0.671473 0.259098 0.339376
0.820432 0.249668 0.329946
1 0.226139 0.306416
1 0.203021 0.283299
0.0504616 0.386343 0.359899
0.162097 0.386892 0.360449
0.282261 0.385214 0.35877
0.407935 0.382086 0.355642
0.53904 0.377264 0.35082
0.676692 0.371054 0.34461
0.825849 0.361822 0.335378
1 0.33846 0.312016
1 0.315663 0.289219
0.0559854 0.497795 0.365423
0.167773 0.498497 0.366125
0.288106 0.496986 0.364614
0.413764 0.493858 0.361486
0.545357 0.489509 0.357137
0.683284 0.483574 0.351202
0.832761 0.474662 0.34229
1 0.451652 0.31928
1 0.429252 0.29688
0.0615396 0.610117 0.370977
0.173587 0.611078 0.371939
0.294209 0.609873 0.370733
0.420203 0.60705 0.36791
0.552163 0.603082 0.363943
0.690501 0.597559 0.358419
0.840406 0.589075 0.349935
1 0.566552 0.327413
1 0.544686 0.305547
0.066865 0.723934 0.376318
0.179309 0.725292 0.377661
0.300359 0.724498 0.376883
0.426795 0.722133 0.374517
0.559258 0.718654 0.371038
0.698131 0.713664 0.366049
0.848386 0.705547 0.357916
1 0.683894 0.336263
1 0.662684 0.315068
0.0712291 0.840162 0.380667
0.184176 0.842039 0.382528
0.305745 0.841764 0.382254
0.432807 0.840024 0.380529
0.565911 0.837186 0.377691
0.705486 0.832898 0.373404
0.856672 0.825696 0.366201
1 0.807187 0.347692
1 0.792386 0.332891
0.0480812 0 0.4495
0.159533 0 0.449882
0.280095 0 0.4486
0.406043 0 0.445747
0.537499 0 0.441276
0.674952 0 0.434867
0.823987 0 0.425498
1 0 0.402121
1 0 0.378683
0.0435035 0.0505226 0.444923
0.155154 0.0510872 0.445502
0.275441 0.0495308 0.443946
0.401144 0.0464485 0.440864
0.532204 0.0415656 0.435966
0.669688 0.0351873 0.429587
0.818586 0.0256962 0.420096
1 0.00218204 0.396597
1 0 0.373129
0.0439002 0.164477 0.445335
0.155428 0.164935 0.445777
0.275563 0.163226 0.444068
0.40116 0.160021 0.440864
0.532128 0.155047 0.435889
0.669551 0.148608 0.429465
0.818433 0.139101 0.419959
1 0.115511 0.396353
1 0.092195 0.373053
0.0473335 0.276493 0.448768
0.158892 0.276967 0.449241
0.278981 0.275227 0.447486
0.404501 0.271946 0.444205
0.535561 0.267063 0.439338
0.67306 0.2607 0.432959
0.822034 0.25127 0.423545
1 0.22771 0.399985
1 0.204669 0.376928
0.052018 0.3879 0.453452
0.163684 0.388479 0.454032
0.283848 0.386801 0.452354
0.409369 0.38352 0.449073
0.540673 0.378897 0.44445
0.67834 0.372702 0.438254
0.827451 0.363424 0.428977
1 0.340169 0.405722
1 0.317403 0.382956
0.0576028 0.499413 0.459037
0.169421 0.500145 0.45977
0.289769 0.498665 0.458274
0.415457 0.495537 0.455161
0.547066 0.491218 0.450843
0.685039 0.485328 0.444953
0.834379 0.47628 0.435889
1 0.453498 0.413108
1 0.431144 0.390753
0.0632334 0.611826 0.464668
0.175326 0.612818 0.465675
0.295979 0.611643 0.464485
0.422004 0.608865 0.461707
0.554009 0.604929 0.457786
0.692409 0.599466 0.452308
0.84213 0.590799 0.443656
1 0.568582 0.421424
1 0.546746 0.399603
0.0686961 0.725765 0.47013
0.181186 0.727153 0.471519
0.302052 0.726192 0.470558
0.428779 0.724117 0.468482
0.561288 0.720699 0.465064
0.700236 0.71577 0.460136
0.850553 0.707698 0.452079
1 0.686122 0.430488
1 0.665003 0.409369
0.0732128 0.842145 0.474647
0.186221 0.844083 0.47657
0.307668 0.843671 0.476158
0.435004 0.842222 0.474708
0.568185 0.83946 0.471946
0.707866 0.835279 0.467765
0.859419 0.828443 0.460929
1 0.811063 0.443565
1 0.797818 0.43032
0.0489815 0 0.54786
0.160876 0 0.548684
0.281407 0 0.547372
0.407324 0 0.544488
0.538552 0 0.539788
0.676188 0 0.533547
0.825193 0 0.524163
1 0 0.500557
1 0 0.477333
0.0445411 0.0515602 0.543435
0.15639 0.0523384 0.544198
0.276661 0.0507668 0.542626
0.40235 0.0476539 0.539513
0.533394 0.0427558 0.53463
0.670878 0.0363622 0.528237
0.81976 0.0268711 0.51873
1 0.00315862 0.495018
1 0 0.471763
0.0449378 0.165515 0.543832
0.156619 0.166125 0.544427
0.276753 0.164401 0.542718
0.402319 0.161166 0.539483
0.533288 0.156222 0.534524
0.670726 0.149783 0.528099
0.819608 0.140276 0.518593
1 0.116594 0.494896
1 0.0934005 0.471702
0.0484474 0.277607 0.547326
0.160067 0.278141 0.547875
0.280156 0.276402 0.54612
0.405524 0.272953 0.542687
0.536751 0.268254 0.537987
0.674266 0.261891 0.531624
0.823224 0.252476 0.52221
1 0.228946 0.49868
1 0.205921 0.475654
0.0532082 0.38909 0.552087
0.164874 0.38967 0.552682
0.285054 0.388006 0.551019
0.410529 0.384695 0.547707
0.541924 0.380148 0.543145
0.679606 0.373968 0.53698
0.828702 0.36466 0.527672
1 0.341497 0.504509
1 0.318776 0.481773
0.0588235 0.500633 0.557717
0.170672 0.501396 0.558465
0.29099 0.499886 0.556954
0.41677 0.496849 0.553933
0.548409 0.492576 0.549645
0.686412 0.486702 0.543786
0.835737 0.477638 0.534707
1 0.454948 0.512032
1 0.432654 0.489723
0.0645609 0.613138 0.563439
0.176669 0.614176 0.564477
0.297215 0.612863 0.56318
0.423438 0.6103 0.560601
0.555489 0.606409 0.556725
0.693858 0.600916 0.551232
0.843717 0.592386 0.542687
1 0.570214 0.520531
1 0.548455 0.498772
0.070161 0.727214 0.569039
0.182681 0.728664 0.570489
0.303593 0.727718 0.569543
0.430365 0.725704 0.567544
0.562951 0.722347 0.564187
0.701793 0.717327 0.559152
0.852354 0.709514 0.551339
1 0.687999 0.529824
1 0.666972 0.508812
0.0748455 0.843778 0.573739
0.187915 0.845762 0.575723
0.309407 0.845411 0.575372
0.43682 0.844038 0.573983
0.570077 0.841367 0.571313
0.709667 0.837079 0.567041
0.862333 0.831357 0.561318
1 0.815061 0.545007
1 0.802777 0.532723
0.0497139 0 0.651896
0.161791 0 0.652888
0.282292 0 0.65156
0.408087 0 0.648554
0.539376 0 0.6439
0.676982 0 0.637644
0.825971 0 0.62826
1 0 0.604608
1 0 0.581399
0.0453803 0.0523995 0.647562
0.157214 0.0531472 0.64831
0.277455 0.0515602 0.646723
0.402945 0.0482338 0.643412
0.534157 0.0435187 0.638697
0.671626 0.0371252 0.632288
0.820508 0.0276188 0.622782
1 0.00390631 0.599069
1 0 0.575814
0.045716 0.166293 0.647898
0.157382 0.166873 0.648493
0.277501 0.165148 0.646769
0.402853 0.161715 0.64332
0.534035 0.15697 0.638575
0.671489 0.150546 0.632151
0.820172 0.140841 0.622446
1 0.117357 0.598962
1 0.0941787 0.575784
0.0491951 0.278355 0.651377
0.160815 0.278889 0.651911
0.280919 0.27715 0.650172
0.406271 0.273716 0.646738
0.537514 0.269017 0.642054
0.675044 0.262684 0.635706
0.823819 0.253071 0.626093
1 0.22977 0.602792
1 0.206775 0.579797
0.0539712 0.389853 0.656153
0.165652 0.390448 0.656748
0.285847 0.3888 0.6551
0.411337 0.385489 0.651804
0.542748 0.380972 0.647272
0.680476 0.374823 0.641138
0.82948 0.365454 0.631754
1 0.342412 0.608728
1 0.319722 0.586023
0.0596475 0.501457 0.66183
0.171511 0.502235 0.662608
0.291691 0.500572 0.660945
0.417655 0.497749 0.658122
0.54934 0.493507 0.65388
0.687373 0.487663 0.648035
0.836744 0.478645 0.639017
1 0.456001 0.616388
1 0.433753 0.594125
0.0654612 0.614038 0.667643
0.177615 0.615106 0.668727
0.298131 0.613779 0.667384
0.424475 0.611322 0.664942
0.556558 0.607492 0.661097
0.694926 0.601984 0.655589
0.844892 0.593561 0.647166
1 0.57145 0.625055
1 0.549752 0.603357
0.0711833 0.728252 0.673381
0.183719 0.729702 0.67483
0.304738 0.728878 0.674006
0.431571 0.726909 0.672038
0.564218 0.723613 0.668742
0.703044 0.718578 0.663706
0.853758 0.710903 0.656031
1 0.689479 0.634607
1 0.668482 0.613611
0.0760662 0.845014 0.678264
0.189044 0.846891 0.68014
0.310765 0.846769 0.680018
0.438239 0.845457 0.678706
0.571527 0.842802 0.676051
0.711345 0.838758 0.672007
0.865263 0.834287 0.667536
1 0.819348 0.652598
1 0.80795 0.641199
0.0501106 0 0.762417
0.162188 0 0.763409
0.282658 0 0.762036
0.408377 0 0.758953
0.539696 0 0.754345
0.677287 0 0.748074
0.82623 0 0.738613
1 0 0.715007
1 0 0.691783
0.045716 0.0527352 0.758022
0.157534 0.0534676 0.758755
0.27776 0.0518502 0.757137
0.403189 0.0484932 0.753765
0.534432 0.0437934 0.749081
0.671885 0.0373846 0.742672
0.82063 0.0277409 0.733013
1 0.00416571 0.709453
1 0 0.686183
0.0459907 0.166567 0.758297
0.157656 0.167147 0.758877
0.277684 0.165347 0.757061
0.403113 0.161975 0.753689
0.534295 0.157229 0.748943
0.671748 0.150805 0.742519
0.820401 0.14107 0.732799
1 0.117632 0.709361
1 0.0944686 0.686183
0.0494545 0.278614 0.761761
0.161074 0.279149 0.762295
0.280995 0.277226 0.760372
0.406546 0.273991 0.757137
0.537804 0.269306 0.752453
0.675334 0.262974 0.74612
0.82414 0.253376 0.736522
1 0.230106 0.713252
1 0.207141 0.690288
0.0542306 0.390112 0.766537
0.165942 0.390738 0.767163
0.285924 0.388876 0.765301
0.411658 0.385824 0.762249
0.543084 0.381308 0.757733
0.680644 0.375006 0.751431
0.829877 0.36585 0.742275
1 0.342855 0.71928
1 0.320195 0.69662
0.0599832 0.501793 0.77229
0.171862 0.502586 0.773083
0.292073 0.500954 0.77145
0.418067 0.498161 0.768658
0.549798 0.49395 0.764446
0.687648 0.487938 0.758419
0.837278 0.479179 0.749676
1 0.456596 0.727077
1 0.434379 0.704875
0.0658885 0.614466 0.778195
0.178088 0.615579 0.779309
0.298619 0.614282 0.778012
0.42501 0.611872 0.775601
0.557168 0.608087 0.771817
0.69546 0.602518 0.766247
0.845594 0.594263 0.757992
1 0.572213 0.735943
1 0.550347 0.714076
0.0717632 0.728817 0.78407
0.184146 0.730129 0.785367
0.305409 0.729534 0.784787
0.432303 0.727642 0.782895
0.565011 0.724407 0.77966
0.703899 0.719432 0.774685
0.854673 0.711833 0.767071
1 0.690471 0.745724
1 0.669535 0.724773
0.0768139 0.845747 0.78912
0.189776 0.847623 0.790997
0.31165 0.847669 0.791028
0.4392 0.846418 0.789792
0.572534 0.843824 0.787182
0.712795 0.840223 0.783581
0.867857 0.836881 0.78024
1 0.823468 0.766842
1 0.813153 0.756512
0.0489662 0 0.893141
0.161013 0 0.894102
0.281453 0 0.892699
0.407065 0 0.889509
0.538445 0 0.884962
0.67602 0 0.87866
0.82475 0 0.869001
1 0 0.845563
1 0 0.822339
0.04448 0.0514992 0.88864
0.156268 0.0522011 0.889342
0.276448 0.0505531 0.887694
0.401892 0.0471962 0.884337
0.533135 0.0424964 0.879637
0.670588 0.0360876 0.873228
0.819226 0.0263371 0.863478
1 0.00285344 0.839994
1 0 0.816739
0.0446937 0.16527 0.888869
0.156344 0.16585 0.889433
0.276326 0.163973 0.887556
0.401801 0.160647 0.884245
0.532982 0.155917 0.879499
0.670405 0.149462 0.873045
0.819104 0.139773 0.863371
1 0.11635 0.839933
1 0.0931868 0.81677
0.0481422 0.277302 0.892302
0.159762 0.277836 0.892851
0.279652 0.275883 0.890883
0.405249 0.272694 0.887694
0.536522 0.268025 0.883024
0.673945 0.26157 0.876585
0.822889 0.25214 0.86714
1 0.228885 0.843885
1 0.205905 0.820905
0.0529488 0.38883 0.897108
0.164584 0.38938 0.897673
0.284657 0.38761 0.895903
0.410422 0.384588 0.892866
0.541878 0.380102 0.88838
0.679423 0.373785 0.882063
0.828717 0.364691 0.872969
1 0.341726 0.850019
1 0.318975 0.827268
0.0587472 0.500557 0.902907
0.170474 0.501213 0.903563
0.290898 0.499779 0.902129
0.416922 0.497017 0.899367
0.548684 0.492836 0.895201
0.686564 0.486854 0.88922
0.836255 0.478157 0.880507
1 0.455619 0.857969
1 0.433219 0.835584
0.0647593 0.613336 0.908934
0.176761 0.614252 0.909834
0.297581 0.61323 0.908827
0.424002 0.610864 0.906447
0.556023 0.606943 0.902525
0.69456 0.601617 0.8972
0.844755 0.593423 0.889021
1 0.57145 0.867033
1 0.54963 0.845228
0.0707713 0.72784 0.914946
0.183215 0.729183 0.916289
0.304524 0.728649 0.915755
0.431479 0.726818 0.913924
0.564004 0.723415 0.910521
0.703212 0.718761 0.905867
0.854078 0.711223 0.898329
1 0.689982 0.877089
1 0.669383 0.856489
0.0760204 0.844953 0.92018
0.189029 0.846891 0.922118
0.310979 0.846998 0.922225
0.438621 0.845838 0.921065
0.571984 0.843259 0.918486
0.713283 0.840696 0.915923
0.869398 0.838422 0.913664
1 0.825879 0.901106
1 0.816938 0.892164
0.0448005 0 1
0.156832 0 1
0.277028 0 1
0.402808 0 1
0.534173 0 1
0.671733 0 1
0.820462 0 1
1 0 1
1 0 0.991485
0.0402228 0.0472419 1
0.151995 0.0479286 1
0.271962 0.046067 1
0.397604 0.0428931 1
0.528817 0.0381781 1
0.66627 0.0317693 1
0.814908 0.0220188 1
1 0 1
1 0 0.985901
0.0403906 0.160967 1
0.152041 0.161532 1
0.271916 0.159564 1
0.397482 0.156344 1
0.528679 0.151598 1
0.665888 0.144945 1
0.814801 0.13547 1
1 0.112062 1
1 0.0889296 0.985977
0.0438239 0.272984 1
0.155428 0.273503 1
0.275334 0.271565 1
0.400961 0.268391 1
0.532235 0.263737 1
0.669581 0.257221 1
0.818647 0.247898 1
1 0.224659 1
1 0.201648 0.990127
0.048661 0.384543 1
0.16025 0.385061 1
0.2804 0.383352 1
0.40618 0.380346 1
0.537652 0.375875 1
0.675242 0.369604 1
0.824567 0.36054 1
1 0.337621 1
1 0.314809 0.996567
0.0545205 0.49633 1
0.166217 0.496956 1
0.286717 0.495613 1
0.412787 0.492882 1
0.544457 0.488624 1
0.682521 0.482811 1
0.832242 0.474144 1
1 0.451621 1
1 0.429313 1
0.0605783 0.609155 1
0.172671 0.610178 1
0.293553 0.609201 1
0.42002 0.606882 1
0.552026 0.602945 1
0.690669 0.597726 1
0.840925 0.589593 1
1 0.567544 1
1 0.545953 1
0.0666209 0.72369 1
0.179294 0.725277 1
0.300664 0.724804 1
0.42768 0.723018 1
0.560265 0.719661 1
0.69955 0.715084 1
0.850492 0.707637 1
1 0.68629 1
1 0.666804 1
0.0720073 0.84094 1
0.185321 0.843183 1
0.307332 0.843351 1
0.434882 0.8421 1
0.568582 0.839872 1
0.711147 0.83856 1
0.868666 0.83769 1
1 0.826093 1
1 0.817792 1
0.0408789 0 1
0.152865 0 1
0.27303 0 1
0.39881 0 1
0.530159 0 1
0.667536 0 1
0.816388 0 1
1 0 1
1 0 1
0.0362097 0.0432288 1
0.147967 0.0439002 1
0.267918 0.0420081 1
0.39353 0.0388342 1
0.524758 0.0341192 1
0.661967 0.0274662 1
0.810834 0.0179446 1
1 0 1
1 0 1
0.0363317 0.156909 1
0.147768 0.157275 1
0.267842 0.155489 1
0.393408 0.152255 1
0.524605 0.147524 1
0.66183 0.140887 1
0.810758 0.131426 1
1 0.108019 1
1 0.0846723 1
0.0397498 0.26891 1
0.151156 0.26923 1
0.271275 0.267521 1
0.396902 0.264347 1
0.528206 0.259709 1
0.665568 0.253193 1
0.814649 0.2439 1
1 0.220691 1
1 0.197574 1
0.0446174 0.380499 1
0.15613 0.380926 1
0.276387 0.379355 1
0.402197 0.376364 1
0.533471 0.371695 1
0.671305 0.365667 1
0.820691 0.356649 1
1 0.333776 1
1 0.310994 1
0.0505379 0.492348 1
0.16228 0.493004 1
0.282811 0.491691 1
0.408911 0.489006 1
0.54052 0.484672 1
0.678721 0.479011 1
0.828504 0.47039 1
1 0.447868 1
1 0.425666 1
0.0566567 0.605234 1
0.168841 0.606332 1
0.289754 0.605417 1
0.416281 0.603128 1
0.548348 0.599268 1
0.687053 0.59411 1
0.837369 0.586038 1
1 0.563928 1
1 0.542519 1
0.0628367 0.719905 1
0.175631 0.721599 1
0.297063 0.721202 1
0.424018 0.719356 1
0.556802 0.716197 1
0.696147 0.711681 1
0.847135 0.704295 1
1 0.683131 1
1 0.664912 1
0.0684825 0.83743 1
0.181888 0.83975 1
0.303975 0.839979 1
0.431571 0.838773 1
0.565744 0.837034 1
0.709422 0.836835 1
0.868284 0.837308 1
1 0.826993 1
1 0.819013 1
0.0366522 0 1
0.148562 0 1
0.268742 0 1
0.394507 0 1
0.525826 0 1
0.663127 0 1
0.812055 0 1
1 0 1
1 0 1
0.0318914 0.0389105 1
0.143481 0.0394293 1
0.263569 0.0376745 1
0.389181 0.0344854 1
0.520348 0.0297093 1
0.657603 0.0231022 1
0.80647 0.0135805 1
1 0 1
1 0 1
0.0319677 0.15256 1
0.143374 0.152865 1
0.263478 0.151125 1
0.389044 0.147906 1
0.520104 0.143023 1
0.657481 0.136538 1
0.806409 0.127077 1
1 0.1037 1
1 0.080354 1
0.0353857 0.264546 1
0.146792 0.264866 1
0.266926 0.263172 1
0.392584 0.260014 1
0.523659 0.255161 1
0.661265 0.248905 1
0.810376 0.239612 1
1 0.216297 1
1 0.193362 1
0.0401007 0.375982 1
0.151812 0.376608 1
0.272099 0.375067 1
0.39794 0.372091 1
0.529244 0.367468 1
0.667109 0.361456 1
0.81651 0.352483 1
1 0.329397 1
1 0.306905 1
0.046067 0.487877 1
0.158053 0.488777 1
0.278614 0.487495 1
0.404746 0.48484 1
0.5364 0.480552 1
0.674647 0.474937 1
0.824475 0.466377 1
1 0.443748 1
1 0.421759 1
0.0523995 0.600977 1
0.164752 0.602243 1
0.28571 0.601358 1
0.412039 0.598901 1
0.544396 0.595315 1
0.683162 0.590219 1
0.833539 0.582208 1
1 0.560174 1
1 0.538827 1
0.058854 0.715923 1
0.171695 0.717678 1
0.293187 0.717327 1
0.420096 0.715434 1
0.553063 0.712474 1
0.692485 0.708019 1
0.843534 0.700679 1
1 0.679973 1
1 0.662882 1
0.0646982 0.833631 1
0.178164 0.836027 1
0.300343 0.836347 1
0.428092 0.835294 1
0.56321 0.834485 1
0.707958 0.835386 1
0.867842 0.836866 1
1 0.827726 1
1 0.82005 1
