src/luts/mine/3.cube
TITLE "Generated by Resolve"
LUT_3D_SIZE 33
0.0464942 0 0.355932
0.0733043 0 0.356374
0.100923 0 0.356619
0.128817 0 0.356207
0.157946 0 0.356313
0.187503 0 0.356191
0.217411 0 0.355871
0.24773 0 0.355444
0.278386 0 0.35491
0.309224 0 0.354314
0.340795 0 0.35378
0.372519 0 0.352972
0.404364 0 0.352087
0.436744 0 0.351049
0.469276 0 0.349966
0.502312 0 0.34873
0.535882 0 0.347662
0.569543 0 0.346242
0.603677 0 0.344701
0.638331 0 0.343023
0.67332 0 0.341238
0.708827 0 0.339345
0.745037 0 0.337484
0.781842 0 0.335195
0.82237 0 0.331899
0.86949 0 0.326818
0.921462 0 0.320409
0.973678 0 0.314244
1 0 0.308522
1 0 0.302754
1 0 0.296925
1 0 0.291051
1 0 0.285206
0.0457923 0 0.35523
0.0726635 0 0.355734
0.100328 0 0.356023
0.128862 0 0.356268
0.157916 0 0.356283
0.187381 0 0.356069
0.217258 0 0.355718
0.247547 0 0.355276
0.278202 0 0.354711
0.309255 0 0.354345
0.340597 0 0.353582
0.372274 0 0.352728
0.404105 0 0.351827
0.436454 0 0.350774
0.469184 0 0.349859
0.502235 0 0.348653
0.535546 0 0.347326
0.569207 0 0.345907
0.603326 0 0.34435
0.637964 0 0.342657
0.673167 0 0.341085
0.708629 0 0.339147
0.744625 0 0.337072
0.78143 0 0.334768
0.821942 0 0.331472
0.869062 0 0.32639
0.921248 0 0.320195
0.97322 0 0.313787
1 0 0.308064
1 0 0.302281
1 0 0.296452
1 0 0.290639
1 0 0.284855
0.0449531 0 0.354391
0.0718853 0 0.354955
0.0996872 0 0.355383
0.128054 0 0.355444
0.157 0 0.355352
0.18645 0 0.355123
0.216312 0 0.354772
0.246708 0 0.354437
0.27744 0 0.353948
0.308248 0 0.353323
0.339574 0 0.35256
0.371237 0 0.35169
0.403052 0 0.350759
0.435569 0 0.349874
0.468132 0 0.348821
0.501137 0 0.347555
0.534432 0 0.346212
0.568078 0 0.344778
0.602182 0 0.343221
0.637049 0 0.341726
0.672007 0 0.339925
0.707469 0 0.337987
0.74345 0 0.335897
0.78024 0 0.333577
0.820752 0 0.330266
0.86807 0 0.325399
0.920027 0 0.318975
0.972 0 0.312566
1 0 0.306828
1 0 0.301045
1 0 0.29543
1 0 0.28954
1 0 0.283604
0.0426795 0.0195926 0.352117
0.069688 0.0202335 0.352758
0.0973068 0.0204929 0.353002
0.125658 0.0205386 0.353063
0.154589 0.0204318 0.352941
0.184009 0.0201877 0.352697
0.213977 0.0199283 0.352438
0.244343 0.0195468 0.352056
0.274952 0.0189517 0.351476
0.305745 0.0183108 0.35082
0.337057 0.0175174 0.350042
0.368704 0.0166476 0.349157
0.400732 0.0159457 0.348455
0.433066 0.0148623 0.347372
0.465553 0.0137331 0.346242
0.498543 0.0124666 0.344976
0.531838 0.0111086 0.343633
0.565652 0.00982681 0.342351
0.599802 0.00831617 0.340825
0.634424 0.0065919 0.339101
0.669383 0.00477607 0.337285
0.704829 0.00282292 0.335348
0.74081 0.000732433 0.333242
0.777798 0 0.331151
0.818296 0 0.327825
0.8654 0 0.322728
0.917357 0 0.316304
0.969314 0 0.30988
1 0 0.304143
1 0 0.298573
1 0 0.292729
1 0 0.286839
1 0 0.280888
0.041825 0.0488441 0.351263
0.0686503 0.0493019 0.35172
0.0962539 0.0495308 0.351949
0.12459 0.0495766 0.351995
0.153567 0.0495003 0.351919
0.183139 0.0494087 0.351827
0.212985 0.049012 0.351431
0.243214 0.0485237 0.350942
0.273823 0.0479133 0.350332
0.304601 0.0472572 0.349676
0.335988 0.0465553 0.348974
0.367742 0.0457771 0.348196
0.399542 0.0448463 0.347265
0.431861 0.0437476 0.346166
0.464347 0.0426184 0.345037
0.497322 0.0413367 0.343755
0.530755 0.0401312 0.34255
0.564462 0.0387427 0.341161
0.59855 0.0371557 0.339574
0.633158 0.0354314 0.33785
0.668101 0.0336004 0.336019
0.703548 0.0316472 0.334066
0.739727 0.0297551 0.332158
0.776516 0.027451 0.32987
0.817014 0.0241245 0.326543
0.864103 0.0190127 0.321431
0.916045 0.0125887 0.315007
0.968017 0.00616464 0.308568
1 0.000640879 0.303059
1 0 0.297261
1 0 0.291417
1 0 0.285527
1 0 0.279576
0.0413519 0.0776379 0.35079
0.0681621 0.0780652 0.351232
0.0957504 0.078294 0.351446
0.124102 0.0783551 0.351507
0.153201 0.0784009 0.351553
0.182589 0.0781262 0.351278
0.212421 0.0777142 0.350866
0.242634 0.0772106 0.350362
0.273228 0.076585 0.349737
0.304082 0.0760052 0.349157
0.335515 0.0753338 0.348486
0.367132 0.0744335 0.347585
0.398917 0.0734722 0.346624
0.43122 0.0723735 0.345525
0.463691 0.0712291 0.344381
0.496895 0.0701762 0.343328
0.530175 0.0688029 0.341955
0.56379 0.0673381 0.34049
0.597864 0.0657359 0.338888
0.632471 0.0640116 0.337163
0.667552 0.0623178 0.33547
0.703075 0.060441 0.333593
0.73904 0.0583352 0.331487
0.775814 0.0560006 0.329152
0.816297 0.0526741 0.325826
0.863386 0.0475624 0.320714
0.915526 0.0413214 0.314473
0.967514 0.0349279 0.30808
1 0.0291905 0.302342
1 0.0233921 0.296544
1 0.0175479 0.2907
1 0.0116426 0.28481
1 0.00593576 0.279088
0.0413062 0.106188 0.350744
0.068101 0.1066 0.351171
0.0959182 0.107042 0.351614
0.124208 0.107042 0.351614
0.153094 0.106889 0.351461
0.182483 0.1066 0.351171
0.212299 0.106188 0.350759
0.242542 0.105684 0.350256
0.27332 0.105257 0.349828
0.304067 0.104585 0.349157
0.335348 0.103761 0.348333
0.366964 0.102846 0.347417
0.398733 0.101884 0.346456
0.431113 0.100847 0.345418
0.463722 0.0998398 0.344411
0.496696 0.098558 0.34313
0.529961 0.0971847 0.341756
0.563577 0.0957046 0.340276
0.59765 0.0941176 0.338689
0.63238 0.0925002 0.337072
0.667414 0.0907607 0.335332
0.702861 0.0888075 0.333364
0.738811 0.0866865 0.331258
0.775586 0.0843519 0.328923
0.816068 0.0810254 0.325597
0.863325 0.0760815 0.320653
0.915328 0.0697032 0.314275
0.967285 0.0632792 0.307851
1 0.0575265 0.302098
1 0.0517433 0.296315
1 0.0458991 0.290455
1 0.0402228 0.284794
1 0.034287 0.278859
0.0416114 0.134524 0.351049
0.0686198 0.135149 0.35169
0.0961929 0.135348 0.351888
0.124483 0.135348 0.351888
0.153368 0.13518 0.35172
0.182727 0.134874 0.351415
0.212543 0.134463 0.351003
0.242969 0.134157 0.350698
0.273548 0.133516 0.350057
0.30428 0.13283 0.349371
0.335546 0.132006 0.348531
0.367163 0.131075 0.347616
0.398993 0.130175 0.3467
0.431449 0.129229 0.345754
0.463905 0.128069 0.344594
0.49688 0.126757 0.343297
0.530144 0.125383 0.341924
0.563745 0.123903 0.340444
0.598047 0.122545 0.339071
0.632654 0.12079 0.337331
0.667582 0.118959 0.3355
0.703014 0.116991 0.333532
0.738979 0.114885 0.331411
0.77586 0.112657 0.329198
0.816449 0.109438 0.325978
0.863539 0.104326 0.320867
0.91548 0.0979019 0.314443
0.967437 0.0914626 0.308003
1 0.0857252 0.302266
1 0.0800946 0.296635
1 0.0743267 0.290852
1 0.0684215 0.284962
1 0.0624857 0.279026
0.0423743 0.162951 0.351812
0.0691386 0.163348 0.352209
0.0966964 0.163531 0.352392
0.124971 0.163516 0.352377
0.153841 0.163348 0.352209
0.183429 0.163256 0.352117
0.21323 0.162829 0.35169
0.243427 0.162295 0.351141
0.273991 0.161654 0.3505
0.304738 0.160952 0.349813
0.335988 0.160128 0.348974
0.367819 0.159426 0.348272
0.399588 0.15845 0.347311
0.431876 0.157336 0.346181
0.464332 0.156161 0.345022
0.497292 0.154864 0.343725
0.530602 0.153521 0.342382
0.564385 0.152224 0.341085
0.598459 0.150622 0.339483
0.633066 0.148882 0.337743
0.667994 0.147051 0.335912
0.703426 0.145083 0.333944
0.739483 0.143069 0.33193
0.776379 0.140871 0.329732
0.816861 0.13753 0.32639
0.863951 0.132418 0.321279
0.915908 0.125994 0.314855
0.967865 0.11957 0.308431
1 0.113985 0.302846
1 0.108278 0.297139
1 0.102434 0.291295
1 0.0965438 0.285405
1 0.0906081 0.279469
0.043061 0.191028 0.352499
0.06981 0.191424 0.35288
0.0973678 0.191592 0.353063
0.125643 0.191577 0.353033
0.154711 0.191608 0.353063
0.184085 0.191302 0.352773
0.21387 0.190875 0.352331
0.244068 0.190326 0.351781
0.274632 0.18967 0.351141
0.305364 0.188983 0.350439
0.336843 0.188373 0.349828
0.368444 0.187442 0.348898
0.400214 0.186465 0.347921
0.432486 0.185336 0.346807
0.464942 0.184176 0.345632
0.497948 0.18291 0.344366
0.531395 0.18172 0.343175
0.565011 0.18024 0.341711
0.599069 0.178637 0.340108
0.633677 0.176898 0.338354
0.668605 0.175051 0.336522
0.704265 0.173312 0.334783
0.74023 0.171206 0.332677
0.777005 0.168887 0.330343
0.817487 0.16556 0.327016
0.864576 0.160449 0.321904
0.916625 0.154116 0.315572
0.968734 0.147829 0.3093
1 0.142107 0.303563
1 0.136324 0.29778
1 0.13048 0.291951
1 0.124605 0.286076
1 0.118822 0.280278
0.0437171 0.219089 0.353155
0.0704662 0.219471 0.353536
0.098024 0.219654 0.353719
0.126513 0.219852 0.353918
0.155367 0.219654 0.353735
0.184726 0.219333 0.353414
0.214511 0.218891 0.352956
0.244694 0.218341 0.352407
0.275441 0.217884 0.351965
0.306203 0.217227 0.351293
0.337469 0.216373 0.350454
0.369055 0.215442 0.349508
0.400824 0.214466 0.348531
0.433097 0.213352 0.347417
0.465797 0.212406 0.346471
0.498756 0.211109 0.345174
0.532006 0.20972 0.343801
0.565621 0.208255 0.342321
0.599695 0.206653 0.340719
0.634318 0.204929 0.338994
0.669459 0.203311 0.337377
0.70489 0.201343 0.335409
0.740871 0.199237 0.333303
0.777646 0.196918 0.330983
0.818128 0.193591 0.327657
0.865293 0.188556 0.322621
0.917418 0.1823 0.316365
0.96939 0.175875 0.309957
1 0.170153 0.304234
1 0.164385 0.298451
1 0.158556 0.292638
1 0.152819 0.286885
1 0.147005 0.281071
0.0446632 0.247013 0.354101
0.0715343 0.247517 0.354604
0.0991836 0.247776 0.354879
0.127443 0.247745 0.354849
0.156298 0.247562 0.35465
0.185641 0.247242 0.35433
0.215427 0.246784 0.353887
0.245792 0.246418 0.353506
0.276402 0.245808 0.352911
0.307134 0.245106 0.352209
0.338384 0.244266 0.35137
0.36997 0.243336 0.350423
0.40174 0.242359 0.349447
0.434241 0.241459 0.348562
0.466712 0.240299 0.347402
0.499672 0.239002 0.34609
0.532937 0.237629 0.344717
0.566552 0.236149 0.343252
0.600626 0.234562 0.34165
0.635462 0.233051 0.340139
0.670405 0.23122 0.338308
0.705837 0.229267 0.336355
0.741817 0.227161 0.334249
0.778592 0.224842 0.331945
0.819318 0.221759 0.328847
0.866423 0.216663 0.323751
0.918395 0.210254 0.317342
0.970382 0.203845 0.310948
1 0.198138 0.305226
1 0.192432 0.299519
1 0.186786 0.293873
1 0.180926 0.288014
1 0.175021 0.282109
0.0458228 0.274983 0.355261
0.0726787 0.275471 0.355749
0.100206 0.275624 0.355901
0.128481 0.275593 0.355871
0.157321 0.27541 0.355688
0.186664 0.275074 0.355352
0.216678 0.274861 0.355138
0.24686 0.274311 0.354589
0.277424 0.273655 0.353933
0.308156 0.272953 0.353231
0.339406 0.272114 0.352392
0.371176 0.271351 0.351629
0.403006 0.270436 0.350713
0.435294 0.269322 0.349599
0.46775 0.268162 0.34844
0.50071 0.266865 0.347143
0.533989 0.265492 0.345769
0.567819 0.26424 0.344518
0.601907 0.262654 0.342931
0.636515 0.260929 0.341207
0.671473 0.259098 0.339376
0.70692 0.25716 0.337438
0.742901 0.255055 0.335348
0.779919 0.252979 0.333257
0.820432 0.249668 0.329946
0.867536 0.244587 0.324865
0.919524 0.238193 0.318471
0.971511 0.2318 0.312078
1 0.226139 0.306416
1 0.220569 0.300847
1 0.214755 0.295048
1 0.208911 0.289189
1 0.203021 0.283299
0.046891 0.302968 0.356329
0.0736248 0.303349 0.356695
0.101167 0.303502 0.356863
0.129427 0.303471 0.356832
0.158373 0.30338 0.356741
0.187854 0.303181 0.356542
0.217639 0.302739 0.356085
0.247822 0.30219 0.355535
0.27837 0.301534 0.354894
0.309117 0.300832 0.354192
0.34052 0.30016 0.353506
0.372198 0.299306 0.352651
0.403967 0.298329 0.35169
0.436255 0.297215 0.350576
0.468727 0.296056 0.349416
0.501701 0.294774 0.348119
0.53518 0.293599 0.34696
0.568826 0.292165 0.345525
0.602914 0.290593 0.343938
0.637537 0.288869 0.342214
0.672496 0.287053 0.340414
0.707942 0.285115 0.33846
0.744167 0.283253 0.336599
0.780972 0.280949 0.33431
0.821485 0.277653 0.331014
0.868605 0.272587 0.325933
0.920592 0.266194 0.319554
0.972824 0.260044 0.31339
1 0.254353 0.307698
1 0.248615 0.301961
1 0.242817 0.296178
1 0.236988 0.290333
1 0.231144 0.284489
0.0480812 0.330755 0.357519
0.074815 0.331121 0.357885
0.102358 0.331289 0.358053
0.130709 0.331334 0.358099
0.159701 0.331289 0.358053
0.189044 0.330968 0.357733
0.21883 0.330526 0.35729
0.249027 0.329976 0.356741
0.279591 0.329335 0.3561
0.310552 0.328862 0.355627
0.341817 0.328023 0.354803
0.373419 0.327108 0.353872
0.405188 0.326146 0.352911
0.437491 0.325032 0.351797
0.4701 0.324025 0.35079
0.503182 0.322835 0.349599
0.536461 0.321477 0.348241
0.570092 0.320027 0.346792
0.604181 0.318441 0.345205
0.638819 0.316732 0.343496
0.673976 0.315129 0.341894
0.709484 0.313222 0.340002
0.74548 0.311162 0.337926
0.782284 0.308873 0.335637
0.822828 0.305577 0.332357
0.869963 0.300526 0.327291
0.922194 0.294377 0.321141
0.974212 0.287999 0.314763
1 0.282322 0.309087
1 0.2766 0.303365
1 0.270832 0.297597
1 0.265034 0.291798
1 0.259373 0.286152
0.0493172 0.358511 0.358755
0.0760967 0.358907 0.359167
0.103838 0.359274 0.359533
0.132097 0.359243 0.359503
0.160952 0.35906 0.359304
0.190311 0.35874 0.358984
0.220096 0.358297 0.358557
0.25037 0.357839 0.358083
0.281086 0.357351 0.357595
0.311833 0.356664 0.356909
0.343099 0.35584 0.356085
0.374716 0.354925 0.355169
0.4065 0.353964 0.354208
0.438926 0.352987 0.353246
0.471504 0.351949 0.352193
0.504494 0.350668 0.350927
0.537789 0.349325 0.349569
0.571435 0.34789 0.348135
0.605539 0.346319 0.346578
0.64036 0.344793 0.345037
0.675395 0.343053 0.343313
0.710872 0.341131 0.34139
0.746883 0.339086 0.33933
0.783719 0.336812 0.337057
0.824262 0.333532 0.333776
0.871641 0.32871 0.328969
0.923659 0.322362 0.322606
0.975692 0.315999 0.316258
1 0.310338 0.310597
1 0.304631 0.304875
1 0.299107 0.299351
1 0.293309 0.293568
1 0.287465 0.287709
0.0504616 0.386343 0.359899
0.0774243 0.386938 0.360494
0.104967 0.387106 0.360662
0.133242 0.387076 0.360632
0.162097 0.386892 0.360449
0.191455 0.386587 0.360143
0.221317 0.386206 0.359762
0.251682 0.38584 0.359396
0.282261 0.385214 0.35877
0.313008 0.384527 0.358083
0.344289 0.383719 0.357275
0.375906 0.382803 0.356359
0.407935 0.382086 0.355642
0.440253 0.381003 0.354559
0.47274 0.379873 0.353429
0.505745 0.378607 0.352163
0.53904 0.377264 0.35082
0.572808 0.375952 0.349508
0.60705 0.374517 0.348074
0.641703 0.372824 0.34638
0.676692 0.371054 0.34461
0.712184 0.369146 0.342702
0.748211 0.367102 0.340658
0.785229 0.365011 0.338567
0.825849 0.361822 0.335378
0.873014 0.356786 0.330343
0.925048 0.350439 0.323995
0.977096 0.344106 0.317662
1 0.33846 0.312016
1 0.332998 0.306554
1 0.32726 0.300832
1 0.321477 0.295048
1 0.315663 0.289219
0.0520027 0.414313 0.36144
0.0787671 0.414694 0.361837
0.10631 0.414878 0.362005
0.134585 0.414847 0.36199
0.163455 0.414679 0.361807
0.193042 0.414603 0.36173
0.222858 0.414176 0.361303
0.253056 0.413642 0.360784
0.283635 0.413016 0.360159
0.314397 0.41236 0.359487
0.345739 0.411597 0.358724
0.377554 0.41088 0.358007
0.409354 0.409949 0.357076
0.441688 0.408865 0.355993
0.474189 0.407752 0.354879
0.50721 0.4065 0.353628
0.540627 0.40528 0.352407
0.574426 0.403983 0.35111
0.608545 0.402457 0.349584
0.643229 0.400778 0.347906
0.678233 0.399023 0.346151
0.713741 0.397131 0.344259
0.749935 0.395254 0.342382
0.786877 0.393088 0.340215
0.827451 0.389853 0.33698
0.874632 0.384833 0.331975
0.926696 0.378515 0.325643
0.978759 0.372198 0.319326
1 0.366796 0.313939
1 0.361135 0.308263
1 0.355428 0.302556
1 0.34966 0.296788
1 0.343862 0.29099
0.0533455 0.4421 0.362783
0.0800946 0.442496 0.363165
0.107652 0.442679 0.363348
0.135943 0.442664 0.363348
0.165042 0.442725 0.363409
0.194415 0.44242 0.363104
0.224231 0.442008 0.362692
0.254459 0.441505 0.362173
0.285054 0.440879 0.361563
0.315862 0.440253 0.360937
0.347356 0.439658 0.360342
0.379004 0.438773 0.359457
0.410819 0.437842 0.358526
0.443153 0.43679 0.357473
0.47567 0.435676 0.356359
0.508934 0.434669 0.355352
0.54226 0.433371 0.35404
0.575952 0.431968 0.352651
0.610086 0.430442 0.351125
0.644785 0.428779 0.349462
0.679896 0.427131 0.347814
0.715572 0.425406 0.34609
0.751629 0.423392 0.344076
0.78851 0.42118 0.341848
0.829099 0.41796 0.338628
0.87631 0.412955 0.333639
0.928527 0.406806 0.327489
0.980713 0.400595 0.321279
1 0.394995 0.315679
1 0.389349 0.310018
1 0.383658 0.304326
1 0.37792 0.298604
1 0.372335 0.293019
0.0545815 0.469963 0.364019
0.0813458 0.470359 0.364416
0.109117 0.470741 0.364813
0.137438 0.470771 0.364843
0.166323 0.470619 0.364691
0.195712 0.470329 0.364401
0.225544 0.469932 0.364004
0.255772 0.469429 0.363485
0.28661 0.469062 0.363119
0.317403 0.468406 0.362478
0.348714 0.467628 0.3617
0.380377 0.466758 0.36083
0.412192 0.465843 0.359915
0.444587 0.46482 0.358892
0.477333 0.463951 0.358007
0.510369 0.46273 0.356786
0.543709 0.461433 0.355489
0.577417 0.460044 0.354116
0.611582 0.458549 0.352621
0.646357 0.456977 0.351049
0.681559 0.455406 0.349477
0.717113 0.453559 0.347631
0.753201 0.451575 0.345632
0.790097 0.449378 0.343435
0.830716 0.446174 0.340246
0.878065 0.441321 0.335393
0.930266 0.435157 0.329229
0.982391 0.428885 0.322957
1 0.423316 0.317372
1 0.417685 0.311757
1 0.412009 0.306081
1 0.406546 0.300603
1 0.400793 0.294865
0.0559854 0.497795 0.365423
0.082948 0.49839 0.366018
0.110567 0.498634 0.366262
0.138872 0.49865 0.366278
0.167773 0.498497 0.366125
0.197177 0.498238 0.365866
0.227008 0.497841 0.365469
0.257496 0.497581 0.365209
0.288106 0.496986 0.364614
0.318914 0.496361 0.363989
0.35024 0.495598 0.363226
0.381918 0.494743 0.362371
0.413764 0.493858 0.361486
0.446372 0.49305 0.360678
0.47892 0.491981 0.359609
0.511986 0.490791 0.358419
0.545357 0.489509 0.357137
0.579065 0.488136 0.355764
0.613489 0.4869 0.354528
0.648219 0.485283 0.352911
0.683284 0.483574 0.351202
0.718853 0.481743 0.349371
0.754955 0.479774 0.347402
0.791943 0.477653 0.345281
0.832761 0.474662 0.34229
0.880003 0.469718 0.337346
0.932128 0.463447 0.331075
0.984268 0.457206 0.324834
1 0.451652 0.31928
1 0.446174 0.313802
1 0.44065 0.308278
1 0.434974 0.302602
1 0.429252 0.29688
0.0574655 0.525979 0.366903
0.0842451 0.526406 0.367315
0.111849 0.526619 0.367544
0.140169 0.52665 0.367559
0.16907 0.526513 0.367437
0.198657 0.526421 0.367346
0.22858 0.526116 0.367041
0.258839 0.525643 0.366552
0.289479 0.525063 0.365988
0.320287 0.524453 0.365362
0.351629 0.523705 0.364614
0.383551 0.523095 0.364004
0.415427 0.522225 0.363149
0.447822 0.521218 0.362127
0.480385 0.520165 0.361074
0.513466 0.518975 0.359899
0.546868 0.517723 0.358648
0.580835 0.516625 0.357534
0.615045 0.51516 0.356069
0.64979 0.513558 0.354482
0.684886 0.511879 0.352804
0.720485 0.510079 0.351003
0.756664 0.508186 0.349096
0.79379 0.506218 0.347127
0.834455 0.503059 0.343984
0.881743 0.498146 0.339071
0.933883 0.49192 0.332845
0.986053 0.485695 0.326619
1 0.480262 0.321187
1 0.47483 0.315755
1 0.46923 0.31014
1 0.463584 0.304494
1 0.457893 0.298802
0.0588693 0.553933 0.368322
0.0856794 0.55436 0.36875
0.113283 0.554589 0.368978
0.141634 0.554635 0.369024
0.170718 0.554681 0.36907
0.200214 0.554513 0.368902
0.230091 0.554147 0.368536
0.260365 0.553704 0.368093
0.29102 0.553155 0.367544
0.321859 0.552544 0.366949
0.353429 0.552026 0.366415
0.385168 0.551232 0.365621
0.41706 0.550378 0.364767
0.44947 0.549401 0.36379
0.482063 0.548363 0.362753
0.51516 0.547204 0.361593
0.548806 0.546197 0.360586
0.582574 0.544884 0.359274
0.616815 0.54345 0.357839
0.651591 0.541878 0.356268
0.686687 0.540215 0.354604
0.722545 0.538674 0.353063
0.758709 0.536767 0.351156
0.795682 0.534646 0.349035
0.836378 0.531518 0.345907
0.88368 0.526619 0.341009
0.935897 0.520455 0.334844
0.988296 0.514473 0.328862
1 0.50898 0.323369
1 0.503441 0.31783
1 0.497856 0.312245
1 0.492241 0.30663
1 0.486671 0.30106
0.0601205 0.58201 0.369574
0.0869459 0.582467 0.370016
0.114565 0.582712 0.37026
0.143145 0.583001 0.37055
0.172107 0.58291 0.370459
0.201556 0.582681 0.37023
0.231434 0.582345 0.369894
0.261738 0.581903 0.369451
0.292561 0.581521 0.36907
0.323507 0.581033 0.368582
0.354894 0.580331 0.36788
0.386633 0.579538 0.367086
0.418524 0.578698 0.366247
0.450965 0.577737 0.365286
0.483787 0.576928 0.364477
0.51696 0.57583 0.363378
0.550393 0.574624 0.362173
0.584176 0.573327 0.360876
0.618433 0.571923 0.359472
0.653239 0.570367 0.357916
0.688609 0.568978 0.356527
0.724254 0.567224 0.354772
0.760433 0.565332 0.35288
0.797436 0.563241 0.35079
0.838178 0.560143 0.347707
0.885527 0.555306 0.342855
0.937957 0.549355 0.336904
0.990173 0.543191 0.330739
1 0.537728 0.325277
1 0.532235 0.319783
1 0.52668 0.314229
1 0.521157 0.308705
1 0.515709 0.303258
0.0615396 0.610117 0.370977
0.0884565 0.610666 0.371527
0.116258 0.611093 0.371954
0.144625 0.611154 0.372015
0.173587 0.611078 0.371939
0.203052 0.61088 0.37174
0.232975 0.610574 0.371435
0.263416 0.610285 0.37113
0.294209 0.609873 0.370733
0.325093 0.609308 0.370169
0.356512 0.608637 0.369497
0.388266 0.607858 0.368719
0.420203 0.60705 0.36791
0.452842 0.606287 0.367147
0.485542 0.605371 0.366217
0.5187 0.604257 0.365118
0.552163 0.603082 0.363943
0.585977 0.601816 0.362676
0.620249 0.600427 0.361288
0.655329 0.599145 0.360006
0.690501 0.597559 0.358419
0.726177 0.595834 0.356695
0.762387 0.593973 0.354833
0.79942 0.591897 0.352758
0.840406 0.589075 0.349935
0.887785 0.584253 0.345113
0.940032 0.578119 0.338979
0.992279 0.571984 0.332845
1 0.566552 0.327413
1 0.56109 0.32195
1 0.555825 0.316686
1 0.550271 0.311131
1 0.544686 0.305547
0.0628824 0.638407 0.37232
0.0899214 0.639078 0.372992
0.117586 0.639368 0.373281
0.145983 0.63946 0.373373
0.17496 0.639399 0.373327
0.204456 0.639216 0.373144
0.234623 0.639155 0.373083
0.264973 0.638773 0.372686
0.295689 0.638285 0.372198
0.326589 0.637751 0.371679
0.358022 0.637095 0.371008
0.389929 0.636469 0.370382
0.422004 0.635798 0.369726
0.45449 0.634897 0.368811
0.48716 0.633936 0.367849
0.520348 0.632853 0.366766
0.553841 0.631693 0.365621
0.587854 0.63064 0.364553
0.622232 0.629358 0.363272
0.657099 0.627863 0.361776
0.692287 0.626291 0.360204
0.728008 0.624598 0.358526
0.764263 0.622782 0.356695
0.801541 0.620981 0.354894
0.842344 0.61796 0.351873
0.889754 0.613153 0.347082
0.942031 0.607065 0.340978
0.994324 0.600977 0.33489
1 0.59559 0.329503
1 0.590387 0.3243
1 0.584909 0.318822
1 0.5794 0.313313
1 0.573861 0.307774
0.0643778 0.666911 0.373816
0.091249 0.667414 0.374319
0.118929 0.667735 0.374624
0.147356 0.667857 0.374746
0.17641 0.667872 0.374777
0.206119 0.667903 0.374792
0.236072 0.667628 0.374533
0.266438 0.667262 0.374151
0.297185 0.666804 0.373693
0.328115 0.6663 0.373205
0.359686 0.665766 0.372671
0.391623 0.665187 0.372076
0.423606 0.664424 0.371328
0.456138 0.663554 0.370443
0.488838 0.662623 0.369528
0.522042 0.66157 0.368475
0.555718 0.660609 0.367498
0.589685 0.65948 0.366384
0.624033 0.658167 0.365057
0.65893 0.656718 0.363607
0.694163 0.655177 0.362081
0.7299 0.653513 0.360418
0.766415 0.651957 0.358862
0.803525 0.649973 0.356878
0.844358 0.646983 0.353887
0.891783 0.642222 0.349126
0.944106 0.636149 0.343053
0.996658 0.63032 0.337209
1 0.624994 0.331899
1 0.619608 0.326497
1 0.61416 0.321065
1 0.608698 0.315587
1 0.603189 0.310079
0.0656443 0.695354 0.375082
0.0925612 0.695903 0.375631
0.120256 0.696223 0.375967
0.14873 0.696406 0.376135
0.177966 0.69659 0.376333
0.207507 0.696468 0.376196
0.237507 0.696223 0.375967
0.267903 0.695888 0.375616
0.298665 0.695445 0.375174
