src/luts/mine/3.cube
TITLE "Generated by Resolve"
LUT_3D_SIZE 5
0.0464942 0 0.355932
0.278386 0 0.35491
0.535882 0 0.347662
0.82237 0 0.331899
1 0 0.285206
0.0423743 0.162951 0.351812
0.273991 0.161654 0.3505
0.530602 0.153521 0.342382
0.816861 0.13753 0.32639
1 0.0906081 0.279469
0.0504616 0.386343 0.359899
0.282261 0.385214 0.35877
0.53904 0.377264 0.35082
0.825849 0.361822 0.335378
1 0.315663 0.289219
0.0615396 0.610117 0.370977
0.294209 0.609873 0.370733
0.552163 0.603082 0.363943
0.840406 0.589075 0.349935
1 0.544686 0.305547
0.0712291 0.840162 0.380667
0.305745 0.841764 0.382254
0.565911 0.837186 0.377691
0.856672 0.825696 0.366201
1 0.792386 0.332891
0.0489815 0 0.54786
0.281407 0 0.547372
0.538552 0 0.539788
0.825193 0 0.524163
1 0 0.477333
0.0449378 0.165515 0.543832
0.276753 0.164401 0.542718
0.533288 0.156222 0.534524
0.819608 0.140276 0.518593
1 0.0934005 0.471702
0.0532082 0.38909 0.552087
0.285054 0.388006 0.551019
0.541924 0.380148 0.543145
0.828702 0.36466 0.527672
1 0.318776 0.481773
0.0645609 0.613138 0.563439
0.297215 0.612863 0.56318
0.555489 0.606409 0.556725
0.843717 0.592386 0.542687
1 0.548455 0.498772
0.0748455 0.843778 0.573739
0.309407 0.845411 0.575372
0.570077 0.841367 0.571313
0.862333 0.831357 0.561318
1 0.802777 0.532723
0.0501106 0 0.762417
0.282658 0 0.762036
0.539696 0 0.754345
0.82623 0 0.738613
1 0 0.691783
0.0459907 0.166567 0.758297
0.277684 0.165347 0.757061
0.534295 0.157229 0.748943
0.820401 0.14107 0.732799
1 0.0944686 0.686183
0.0542306 0.390112 0.766537
0.285924 0.388876 0.765301
0.543084 0.381308 0.757733
0.829877 0.36585 0.742275
1 0.320195 0.69662
0.0658885 0.614466 0.778195
0.298619 0.614282 0.778012
0.557168 0.608087 0.771817
0.845594 0.594263 0.757992
1 0.550347 0.714076
0.0768139 0.845747 0.78912
0.31165 0.847669 0.791028
0.572534 0.843824 0.787182
0.867857 0.836881 0.78024
1 0.813153 0.756512
0.0448005 0 1
0.277028 0 1
0.534173 0 1
0.820462 0 1
1 0 0.991485
0.0403906 0.160967 1
0.271916 0.159564 1
0.528679 0.151598 1
0.814801 0.13547 1
1 0.0889296 0.985977
0.048661 0.384543 1
0.2804 0.383352 1
0.537652 0.375875 1
0.824567 0.36054 1
1 0.314809 0.996567
0.0605783 0.609155 1
0.293553 0.609201 1
0.552026 0.602945 1
0.840925 0.589593 1
1 0.545953 1
0.0720073 0.84094 1
0.307332 0.843351 1
0.568582 0.839872 1
0.868666 0.83769 1
1 0.817792 1
0.0366522 0 1
0.268742 0 1
0.525826 0 1
0.812055 0 1
1 0 1
0.0319677 0.15256 1
0.263478 0.151125 1
0.520104 0.143023 1
0.806409 0.127077 1
1 0.080354 1
0.0401007 0.375982 1
0.272099 0.375067 1
0.529244 0.367468 1
0.81651 0.352483 1
1 0.306905 1
0.0523995 0.600977 1
0.28571 0.601358 1
0.544396 0.595315 1
0.833539 0.582208 1
1 0.538827 1
0.0646982 0.833631 1
0.300343 0.836347 1
0.56321 0.834485 1
0.867842 0.836866 1
1 0.82005 1
