src/luts/mine/4.cube
TITLE "Generated by Resolve"
LUT_3D_SIZE 5
0.00886549 0.0206607 0
0.305486 0.00201419 0
0.603754 0 0
0.870573 0.0037232 0
1 0.161715 0
0.0548714 0.259831 0
0.321584 0.249714 0
0.585245 0.248508 0
0.812955 0.283268 0
1 0.348974 0.0153811
0 0.551278 0
0 0.547799 0
0.321248 0.550347 0
0.608972 0.565805 0.0628061
0.868574 0.595987 0.117281
0 0.903944 0.226734
0 0.896132 0.223621
0 0.878813 0.215412
0.0164492 0.856687 0.204715
0.630793 0.858991 0.21857
0 1 0.439857
0 1 0.430167
0 1 0.407828
0 1 0.371725
0 1 0.329091
0.0157473 0.00573739 0.0294652
0.306233 0 0.043183
0.600061 0 0.0552987
0.859876 0 0.0909743
1 0.157885 0.144289
0.0544747 0.250111 0.0865339
0.315389 0.240604 0.0883345
0.574182 0.240986 0.104402
0.798642 0.27837 0.13669
1 0.348577 0.176715
0 0.548043 0.188876
0 0.544823 0.187747
0.290867 0.547616 0.192523
0.594675 0.56643 0.209583
0.860075 0.597421 0.233631
0 0.908141 0.349783
0 0.900343 0.34255
0 0.883101 0.326207
0 0.859663 0.303532
0.62034 0.861021 0.30518
0 1 0.52282
0 1 0.511772
0 1 0.486427
0 1 0.445655
0 1 0.396628
0.0349584 0 0.287861
0.313451 0 0.282155
0.598962 0 0.278721
0.846906 0 0.295689
1 0.163912 0.326802
0.0514992 0.240146 0.312901
0.306188 0.233387 0.309529
0.558434 0.239673 0.313756
0.778332 0.283131 0.328862
0.98555 0.353857 0.34934
0 0.556573 0.385779
0 0.553506 0.380453
0.219959 0.554406 0.374578
0.563134 0.572106 0.378515
0.841031 0.602411 0.388418
0 0.919768 0.513191
0 0.911833 0.503609
0 0.893919 0.481926
0 0.868147 0.449836
0.595148 0.865904 0.439231
0 1 0.657511
0 1 0.645014
0 1 0.616602
0 1 0.570916
0 1 0.514275
0.0636606 0 0.465919
0.325795 0 0.457969
0.589212 0 0.456535
0.819333 0 0.472053
1 0.175555 0.496269
0.0107118 0.230213 0.492332
0.271031 0.228107 0.489235
0.520729 0.243351 0.491661
0.73904 0.293599 0.502129
0.955428 0.36318 0.514885
0 0.573205 0.567117
0 0.570092 0.560067
0.0223545 0.56759 0.547478
0.503105 0.581796 0.543359
0.80647 0.610468 0.546166
0 0.938811 0.682689
0 0.93051 0.671809
0 0.911742 0.647028
0 0.882979 0.608606
0.547784 0.873503 0.586358
0 1 0.81149
0 1 0.798138
0 1 0.767651
0 1 0.718456
0 1 0.655573
0.0686503 0 0.62295
0.307897 0 0.618326
0.550103 0 0.620295
0.765667 0.0115511 0.636271
0.973663 0.191226 0.655467
0 0.225589 0.660014
0.136828 0.229618 0.656855
0.434226 0.25452 0.657282
0.671672 0.308339 0.664027
0.907195 0.375494 0.671748
0 0.598062 0.741711
0 0.594766 0.733501
0 0.58912 0.715892
0.39382 0.595163 0.701381
0.751247 0.620737 0.698756
0 0.964874 0.851194
0 0.956115 0.839399
0 0.935958 0.812284
0 0.903822 0.768917
0.465812 0.883619 0.733623
0 1 0.971145
0 1 0.957168
0 1 0.925185
0 1 0.873442
0 1 0.805554
