src/luts/mine/4.cube
TITLE "Generated by Resolve"
LUT_3D_SIZE 33
0.00886549 0.0206607 0
0.0443885 0.0193332 0
0.0822919 0.0172274 0
0.119493 0.0152438 0
0.156329 0.0130465 0
0.193393 0.010605 0
0.230625 0.00796521 0
0.268009 0.00508125 0
0.305486 0.00201419 0
0.342916 0 0
0.380255 0 0
0.417533 0 0
0.45478 0 0
0.491997 0 0
0.529213 0 0
0.566506 0 0
0.603754 0 0
0.640177 0 0
0.675731 0 0
0.710384 0 0
0.744137 0 0
0.777111 0 0
0.809339 0 0
0.840513 0 0
0.870573 0.0037232 0
0.899626 0.0175479 0
0.927565 0.0344854 0
0.95436 0.0547799 0
0.980072 0.0780499 0
1 0.100359 0
1 0.121553 0
1 0.142016 0
1 0.161715 0
0.014847 0.0493629 0
0.0513161 0.047715 0
0.0887617 0.0457923 0
0.12549 0.0437934 0
0.161715 0.0416114 0
0.198337 0.0391699 0
0.235233 0.0365148 0
0.272297 0.0336767 0
0.309392 0.0307317 0
0.346563 0.0276646 0
0.383688 0.0245518 0
0.420844 0.0213626 0
0.457938 0.018204 0
0.495079 0.0149538 0
0.532265 0.0116579 0
0.569512 0.00825513 0
0.606088 0.00560006 0
0.641886 0.00396735 0
0.676799 0.0037232 0
0.710872 0.00497444 0
0.744091 0.00793469 0
0.776394 0.0128481 0
0.807828 0.0198672 0
0.838331 0.0292058 0
0.867872 0.0411078 0
0.896315 0.0559854 0
0.923659 0.0741131 0
0.94992 0.0929427 0
0.975158 0.111986 0
0.999802 0.130709 0
1 0.149081 0
1 0.167208 0
1 0.184802 0
0.0205997 0.0781872 0
0.0572976 0.076463 0
0.0948196 0.0745251 0
0.130999 0.0725261 0
0.166629 0.0703441 0
0.202747 0.0679637 0
0.239139 0.0654002 0
0.275761 0.0626993 0
0.312535 0.0598611 0
0.349416 0.0569162 0
0.386313 0.0539101 0
0.423239 0.0508888 0
0.460243 0.047776 0
0.497307 0.0445869 0
0.534524 0.0412451 0
0.571191 0.0384527 0
0.607111 0.0365606 0
0.642237 0.0358282 0
0.6766 0.036347 0
0.710079 0.0384985 0
0.742748 0.0423133 0
0.774594 0.0480201 0
0.805493 0.0559548 0
0.835477 0.0662242 0
0.864485 0.0790875 0
0.892393 0.0931106 0
0.919219 0.108248 0
0.944961 0.124269 0
0.969924 0.140703 0
0.994385 0.157137 0
1 0.173526 0
1 0.189899 0
1 0.205783 0
0.026276 0.107408 0
0.0630961 0.105684 0
0.100633 0.103777 0
0.136065 0.101854 0
0.171038 0.0997635 0
0.206561 0.0975052 0
0.242542 0.0950484 0
0.278813 0.092195 0
0.315236 0.0894789 0
0.351843 0.0866712 0
0.388556 0.083772 0
0.42533 0.080827 0
0.462257 0.0777447 0
0.499336 0.0745251 0
0.535988 0.0717021 0
0.572 0.0696269 0
0.607309 0.0684825 0
0.64181 0.068574 0
0.675593 0.0699321 0
0.708644 0.0727855 0
0.74078 0.0777447 0
0.772076 0.0840314 0
0.802487 0.0918593 0
0.831952 0.101213 0
0.860426 0.111986 0
0.8878 0.124147 0
0.914122 0.137469 0
0.939529 0.151659 0
0.964355 0.166217 0
0.988647 0.181064 0
1 0.196017 0
1 0.210956 0
1 0.225376 0
0.0323186 0.137484 0
0.0691234 0.135912 0
0.106813 0.134157 0
0.14107 0.132464 0
0.175326 0.130617 0
0.210315 0.128618 0
0.245808 0.126467 0
0.281712 0.124193 0
0.317861 0.121828 0
0.354238 0.119341 0
0.390814 0.116747 0
0.427497 0.114076 0
0.464363 0.111269 0
0.500832 0.108782 0
0.536721 0.106813 0
0.571969 0.105562 0
0.606546 0.10518 0
0.640436 0.105791 0
0.673609 0.107485 0
0.705959 0.110445 0
0.73756 0.114611 0
0.768292 0.12015 0
0.798138 0.127047 0
0.827008 0.135302 0
0.854932 0.144854 0
0.881758 0.155703 0
0.907561 0.167697 0
0.932799 0.180255 0
0.957488 0.193286 0
0.98172 0.206638 0
1 0.220279 0
1 0.233753 0
1 0.246845 0
0.0383917 0.167803 0
0.0750591 0.166339 0
0.112459 0.164736 0
0.145846 0.16318 0
0.1794 0.161517 0
0.213855 0.159716 0
0.248951 0.157778 0
0.284489 0.155734 0
0.320378 0.153582 0
0.356588 0.151308 0
0.393027 0.148943 0
0.429435 0.146609 0
0.465461 0.144533 0
0.500984 0.142855 0
0.536049 0.141634 0
0.570535 0.141024 0
0.604318 0.141207 0
0.637552 0.142123 0
0.669993 0.14406 0
0.701701 0.146975 0
0.732708 0.150912 0
0.762814 0.156039 0
0.791959 0.162432 0
0.820279 0.169909 0
0.847623 0.178576 0
0.873869 0.188464 0
0.899458 0.19913 0
0.924468 0.210407 0
0.949096 0.222065 0
0.973236 0.234165 0
0.997024 0.246479 0
1 0.25861 0
1 0.270314 0
0.0441596 0.198337 0
0.0807355 0.196963 0
0.117739 0.195453 0
0.150301 0.194034 0
0.183276 0.192477 0
0.217243 0.190814 0
0.251987 0.189014 0
0.287266 0.187091 0
0.323003 0.185061 0
0.35877 0.183062 0
0.394385 0.18117 0
0.429755 0.179477 0
0.46479 0.178058 0
0.499413 0.17702 0
0.533593 0.176394 0
0.567239 0.176318 0
0.60032 0.176883 0
0.632792 0.178149 0
0.664561 0.18024 0
0.695583 0.183215 0
0.725902 0.187076 0
0.755337 0.192004 0
0.783871 0.197986 0
0.811505 0.205005 0
0.838224 0.213046 0
0.864103 0.222034 0
0.889509 0.231601 0
0.914504 0.241672 0
0.938994 0.252262 0
0.963058 0.263218 0
0.987121 0.274159 0
1 0.284916 0
1 0.294789 0
0.0496376 0.229038 0
0.0861524 0.227695 0
0.122835 0.226261 0
0.154757 0.224887 0
0.187198 0.223438 0
0.220706 0.221851 0
0.254841 0.220218 0
0.289357 0.21857 0
0.32401 0.216968 0
0.358709 0.215442 0
0.393317 0.214069 0
0.427726 0.212894 0
0.461814 0.212009 0
0.495613 0.211444 0
0.528939 0.211307 0
0.561822 0.211658 0
0.594141 0.212573 0
0.625864 0.21413 0
0.656886 0.216419 0
0.687266 0.21944 0
0.716747 0.223407 0
0.745602 0.228122 0
0.77351 0.233829 0
0.800488 0.240497 0
0.826658 0.248035 0
0.852415 0.256123 0
0.877729 0.264775 0
0.90251 0.273976 0
0.927077 0.283482 0
0.951354 0.293263 0
0.975723 0.302968 0
0.999893 0.312352 0
1 0.321172 0.00180056
0.0548714 0.259831 0
0.090898 0.258595 0
0.126635 0.257282 0
0.157519 0.256077 0
0.188876 0.254841 0
0.221256 0.253544 0
0.254353 0.252232 0
0.287846 0.250935 0
0.321584 0.249714 0
0.355352 0.2486 0
0.389105 0.247639 0
0.422675 0.246906 0
0.45597 0.246448 0
0.488945 0.246311 0
0.521584 0.24654 0
0.553628 0.247288 0
0.585245 0.248508 0
0.616236 0.250324 0
0.646555 0.252781 0
0.676188 0.255955 0
0.705074 0.259861 0
0.733104 0.264607 0
0.760327 0.270161 0
0.786831 0.276448 0
0.812955 0.283268 0
0.838605 0.290654 0
0.863874 0.298512 0
0.888624 0.306889 0
0.913375 0.315419 0
0.938079 0.32401 0
0.962692 0.332479 0
0.986511 0.340246 0
1 0.348974 0.0153811
0.0535286 0.291524 0
0.0881819 0.290501 0
0.123003 0.289372 0
0.153414 0.288365 0
0.184253 0.287327 0
0.216159 0.286259 0
0.248661 0.285222 0
0.28159 0.28423 0
0.314687 0.28333 0
0.347814 0.282567 0
0.38088 0.281971 0
0.413825 0.28159 0
0.446494 0.281468 0
0.478752 0.281712 0
0.510719 0.282277 0
0.542138 0.283299 0
0.572992 0.284825 0
0.603326 0.28687 0
0.632914 0.289525 0
0.661875 0.292805 0
0.690044 0.296788 0
0.717479 0.301442 0
0.74432 0.306722 0
0.77084 0.312474 0
0.796857 0.318776 0
0.822492 0.325536 0
0.8477 0.332753 0
0.872801 0.340215 0
0.897993 0.347707 0
0.923018 0.355215 0
0.94725 0.362005 0
0.97261 0.369635 0.0145876
0.998215 0.377798 0.0283818
0.0418708 0.324361 0
0.0748455 0.323583 0
0.10811 0.322698 0
0.139788 0.321798 0
0.171267 0.320928 0
0.203525 0.320043 0
0.236179 0.319219 0
0.269078 0.318471 0
0.302007 0.31783 0
0.334951 0.317327 0
0.367651 0.317052 0
0.400183 0.31696 0
0.432395 0.317159 0
0.46421 0.317678 0
0.495552 0.318578 0
0.52639 0.319875 0
0.55668 0.32163 0
0.586374 0.323888 0
0.615396 0.326696 0
0.643656 0.330098 0
0.671366 0.334051 0
0.698695 0.33846 0
0.725521 0.343374 0
0.75201 0.34873 0
0.778119 0.354513 0
0.80383 0.360708 0
0.829496 0.367117 0
0.8551 0.373663 0
0.880705 0.380163 0
0.905455 0.386007 0
0.931121 0.392813 0.0157931
0.957244 0.400015 0.029221
0.983749 0.407416 0.0411383
0.0182193 0.358144 0
0.0485084 0.357839 0
0.0797894 0.357214 0
0.111635 0.356497 0
0.146242 0.355688 0
0.180529 0.354925 0
0.214466 0.354269 0
0.248295 0.353689 0
0.281743 0.353277 0
0.314992 0.353017 0
0.347845 0.352956 0
0.380301 0.353155 0
0.412375 0.353613 0
0.443931 0.354391 0
0.474937 0.355535 0
0.505364 0.357076 0
0.535286 0.359014 0
0.564508 0.361456 0
0.593057 0.364385 0
0.621286 0.367697 0
0.649165 0.371405 0
0.676631 0.37554 0
0.703609 0.380118 0
0.730266 0.385061 0
0.756634 0.390326 0
0.782986 0.395804 0
0.809262 0.401404 0
0.835431 0.406973 0
0.860807 0.411948 0.00352483
0.887144 0.417929 0.0191196
0.913832 0.424292 0.0318914
0.94078 0.430915 0.0432593
0.96788 0.437781 0.0537881
0 0.393317 0
0.00825513 0.392889 0
0.0364843 0.392798 0
0.0657816 0.392447 0
0.100954 0.391852 0
0.140963 0.391104 0
0.178836 0.390524 0
0.215427 0.390051 0
0.250858 0.389761 0
0.285389 0.38967 0
0.319142 0.389822 0
0.352224 0.390219 0
0.384619 0.39089 0
0.416297 0.391897 0
0.44744 0.393225 0
0.477897 0.394919 0
0.507698 0.397024 0
0.537224 0.39942 0
0.566278 0.402182 0
0.594873 0.405325 0
0.623026 0.408835 0
0.650797 0.412695 0
0.678264 0.416876 0
0.705562 0.421302 0
0.732723 0.42594 0
0.759838 0.430655 0
0.786587 0.435294 0
0.812833 0.439582 0.0106508
0.840055 0.444816 0.0245518
0.86746 0.450431 0.0363317
0.894972 0.456336 0.0470741
0.922698 0.46244 0.0570382
0.95079 0.468635 0.0664836
0 0.430167 0
0 0.429679 0
0 0.429282 0
0.00407416 0.429007 0
0.0353704 0.429053 0
0.0733959 0.428794 0
0.118547 0.428229 0
0.162921 0.427741 0
0.203357 0.427512 0
0.241459 0.427512 0
0.277806 0.427756 0
0.312734 0.428275 0
0.346456 0.429099 0
0.379339 0.430198 0
0.411627 0.43154 0
0.443091 0.433234 0
0.474067 0.435203 0
0.504448 0.437491 0
0.534279 0.440101 0
0.563592 0.443046 0
0.592447 0.446296 0
0.621134 0.449775 0
0.649653 0.453437 0
0.678004 0.457252 0
0.706127 0.461143 0
0.733349 0.464485 0.00424201
0.761257 0.46862 0.0197757
0.789441 0.473243 0.0318456
0.817792 0.478141 0.0425422
0.846128 0.48336 0.0524147
0.874647 0.488746 0.061738
0.903441 0.49427 0.0706188
0.93225 0.499992 0.0791791
0 0.468833 0
0 0.468376 0
0 0.467964 0
0 0.467597 0
0 0.467262 0
0 0.466987 0
0.0260166 0.467109 0
0.0717632 0.467185 0
0.12459 0.46685 0
0.173663 0.466682 0
0.217334 0.466819 0
0.257557 0.467247 0
0.295506 0.467948 0
0.33164 0.46894 0
0.366476 0.470207 0
0.400168 0.471748 0
0.433021 0.473564 0
0.464729 0.475746 0
0.496208 0.47808 0
0.527184 0.480674 0
0.557717 0.483467 0
0.587945 0.486427 0
0.617777 0.489494 0
0.646876 0.492287 0
0.675883 0.495232 0.0184024
0.705287 0.498924 0.030396
0.734661 0.502983 0.0408026
0.764157 0.507271 0.0503548
0.793729 0.511772 0.0593576
0.82327 0.516503 0.0679026
0.852888 0.521416 0.0761578
0.882628 0.526482 0.084123
0.912413 0.531716 0.0918593
0 0.509377 0
0 0.508965 0
0 0.508568 0
0 0.508202 0
0 0.507805 0
0 0.507408 0
0 0.506996 0
0 0.506691 0
0.00805676 0.506691 0
0.0615091 0.507134 0
0.122515 0.506981 0
0.177722 0.507027 0
0.225406 0.507439 0
0.268299 0.508202 0
0.308156 0.50927 0
0.346242 0.510536 0
0.382559 0.512078 0
0.417746 0.513848 0
0.451972 0.515801 0
0.485512 0.517906 0
0.518166 0.52015 0
0.549874 0.522133 0.00437934
0.581125 0.524315 0.021561
0.612573 0.527184 0.032578
0.643809 0.530404 0.0422522
0.675013 0.533852 0.0511788
0.706035 0.53756 0.0595865
0.737026 0.541451 0.0676585
0.767712 0.545632 0.0754253
0.798657 0.549889 0.082948
0.829343 0.554406 0.0903334
0.860365 0.558953 0.0975204
0.891188 0.563729 0.104555
0 0.551278 0
0 0.550851 0
0 0.550454 0
0 0.550088 0
0 0.549645 0
0 0.549187 0
0 0.548684 0
0 0.548211 0
0 0.547799 0
0 0.547433 0
0 0.547326 0
0.0461128 0.547936 0
0.114916 0.547951 0
0.178439 0.548043 0
0.231434 0.548486 0
0.278187 0.549294 0
0.321248 0.550347 0
0.361593 0.551598 0
0.400183 0.552911 0
0.436439 0.553857 0.0180056
0.472129 0.555596 0.029572
0.507256 0.557717 0.0389105
0.541558 0.560189 0.0473182
0.575494 0.562875 0.0552529
0.608972 0.565805 0.0628061
0.642069 0.568948 0.0701305
0.6748 0.572335 0.0772412
0.7075 0.575845 0.084184
0.739818 0.579599 0.0910353
0.772091 0.583474 0.097734
0.804379 0.587488 0.104341
0.836408 0.591699 0.110887
0.868574 0.595987 0.117281
0 0.594278 0
0 0.593866 0
0 0.593454 0
0 0.593057 0
0 0.592569 0
0 0.592035 0
0 0.591501 0
0 0.590845 0
0 0.590188 0
0 0.589502 0
0 0.588876 0
0 0.588296 0
0 0.58793 0
0.0360113 0.588296 0
0.114092 0.588205 0.00178531
0.184939 0.587945 0.00920119
0.24155 0.58764 0.0245212
0.29131 0.58819 0.0343023
0.337163 0.589197 0.0421454
0.379919 0.590585 0.0493477
0.42063 0.592248 0.0561837
0.459739 0.594171 0.0628061
0.497688 0.596323 0.0692454
0.534478 0.598749 0.0756085
0.570596 0.601358 0.0818494
0.606043 0.604166 0.0880751
0.640986 0.607172 0.0942092
0.675486 0.610361 0.100282
0.709773 0.613672 0.10634
0.743587 0.617212 0.112306
0.777401 0.620813 0.118242
0.810987 0.624582 0.124178
0.844602 0.628428 0.130007
0 0.637812 0.00447089
0 0.637339 0.00521859
0 0.636881 0.00595102
0 0.636423 0.00671397
0 0.635859 0.00766003
0 0.635218 0.00885023
0 0.634501 0.0103151
0 0.633722 0.0121004
0 0.632837 0.014313
0 0.631846 0.0171054
0 0.630854 0.0207218
0 0.629725 0.0258335
0 0.628153 0.037171
0 0.627085 0.0441444
0 0.626383 0.0495613
0.0355077 0.626627 0.0551614
0.124331 0.626444 0.0598154
0.199374 0.626429 0.0643473
0.259327 0.627039 0.0691691
0.312337 0.627985 0.0740978
0.360281 0.629297 0.0791791
0.405035 0.6309 0.0843061
0.447639 0.632731 0.0894942
0.488457 0.634791 0.0947433
0.527977 0.637034 0.100038
0.566598 0.639445 0.105348
0.604089 0.6421 0.110658
0.640864 0.644938 0.116014
0.67715 0.647913 0.121355
0.713146 0.650996 0.126726
0.748684 0.654246 0.132082
0.783856 0.657633 0.137407
0.818921 0.661112 0.142733
0 0.6813 0.0429694
0 0.680705 0.0443122
0 0.68014 0.0458534
0 0.679545 0.0475166
0 0.678843 0.0499733
0 0.677806 0.0548562
0 0.676677 0.0607462
0 0.675593 0.06421
0 0.674495 0.0672007
0 0.673381 0.0699931
0 0.67219 0.0726177
0 0.670985 0.0750896
0 0.669795 0.0774853
0 0.668605 0.0798505
0 0.667491 0.0822003
0 0.666499 0.0846265
0 0.665827 0.0872816
0.051667 0.666194 0.0909285
0.148943 0.665888 0.0937514
0.224445 0.666056 0.0969863
0.286152 0.666773 0.100679
0.340459 0.667872 0.104677
0.390082 0.669261 0.108873
0.436286 0.670939 0.113191
0.480446 0.672801 0.117647
0.522622 0.674891 0.122164
0.563485 0.67715 0.126802
0.603342 0.679576 0.131456
0.642237 0.68217 0.136202
0.680323 0.684916 0.140978
0.717891 0.6878 0.145785
0.755001 0.690806 0.150622
0.79173 0.693919 0.155459
0 0.723857 0.0979477
0 0.723278 0.0987411
0 0.722713 0.0994736
0 0.722148 0.100175
0 0.721477 0.100954
0 0.720729 0.101839
0 0.719844 0.1028
0 0.718853 0.103792
0 0.717769 0.104845
0 0.716609 0.105882
0 0.715343 0.106996
0 0.714061 0.10811
0 0.712642 0.109209
0 0.711254 0.110307
0 0.709834 0.111437
0 0.7084 0.112566
0 0.707103 0.113832
0 0.705913 0.115206
0 0.70515 0.117006
0.086305 0.705425 0.119768
0.185687 0.704997 0.121813
0.259068 0.705333 0.124544
0.320653 0.706157 0.127733
0.375479 0.707332 0.131197
0.426184 0.708736 0.134874
0.473671 0.710399 0.138689
0.518791 0.712276 0.142657
0.561944 0.714366 0.146731
0.604013 0.716579 0.150896
0.644846 0.718959 0.155138
0.685008 0.721431 0.159411
0.724346 0.724056 0.163775
0.76318 0.726772 0.168124
0 0.768185 0.134493
0 0.767605 0.134768
0 0.76701 0.135027
0 0.76643 0.135271
0 0.765743 0.135576
0 0.764935 0.135912
0 0.764004 0.136248
0 0.762951 0.136614
0 0.761822 0.137011
0 0.76054 0.137377
0 0.759182 0.137758
0 0.757702 0.138109
0 0.756115 0.13846
0 0.754482 0.138811
0 0.752819 0.139132
0 0.75108 0.139467
0 0.749294 0.139803
0 0.747631 0.140185
0 0.745968 0.140658
0 0.74461 0.141421
0.0252842 0.744198 0.14313
0.142473 0.743709 0.144701
0.231693 0.743557 0.146563
0.302266 0.743999 0.149065
0.362768 0.744915 0.151919
0.417685 0.746105 0.155047
0.468513 0.74757 0.158373
0.516732 0.749187 0.161868
0.56257 0.751034 0.165469
0.606821 0.753017 0.169177
0.64979 0.755138 0.172992
0.691707 0.757397 0.176852
0.732799 0.759747 0.180774
0 0.813107 0.166934
0 0.812497 0.166979
0 0.811872 0.16701
0 0.811246 0.16701
0 0.810513 0.167041
0 0.809674 0.167041
0 0.808667 0.167056
0 0.807538 0.167041
0 0.806287 0.166979
0 0.804929 0.166918
0 0.803449 0.166827
0 0.801785 0.166674
0 0.800061 0.166476
0 0.798199 0.166247
0 0.796231 0.165972
0 0.794232 0.165682
0 0.792157 0.165362
0 0.790005 0.165011
0 0.787854 0.16466
0 0.785779 0.16437
0 0.783886 0.164309
0 0.782437 0.164675
0.0932326 0.782208 0.166262
0.20531 0.781353 0.167163
0.285389 0.781445 0.169009
0.352316 0.782025 0.171344
0.411566 0.782986 0.173999
0.466224 0.784146 0.176898
0.517174 0.785565 0.17995
0.565545 0.787167 0.183169
0.611872 0.788937 0.186496
0.656809 0.790829 0.189914
0.700557 0.792813 0.193408
0 0.858396 0.197452
0 0.85771 0.197299
0 0.857069 0.197162
0 0.856428 0.197024
0 0.855619 0.196841
0 0.854749 0.196658
0 0.85362 0.196353
0 0.85243 0.196094
0 0.851087 0.195743
0 0.849607 0.1953
0 0.847944 0.194812
0 0.846204 0.194293
0 0.844266 0.193668
0 0.842222 0.193011
0 0.840055 0.192264
0 0.837751 0.191409
0 0.83537 0.190555
0 0.832868 0.189578
0 0.83035 0.188632
0 0.827726 0.18764
0 0.825193 0.186694
0 0.822736 0.185855
0 0.820676 0.185367
0.0499275 0.819959 0.186267
0.181018 0.818677 0.186587
0.272236 0.818311 0.187823
0.345113 0.818616 0.189654
0.408972 0.819257 0.191897
0.466865 0.820203 0.1944
0.520348 0.821408 0.197086
0.571313 0.822736 0.199954
0.61973 0.824277 0.202945
0.666697 0.825879 0.206027
0 0.903944 0.226734
0 0.903258 0.22649
0 0.902525 0.2262
0 0.901823 0.225925
0 0.900969 0.225605
0 0.900008 0.225223
0 0.898878 0.22475
0 0.897566 0.224201
0 0.896132 0.223621
0 0.894484 0.222858
0 0.892744 0.222126
0 0.890822 0.221241
0 0.888716 0.220264
0 0.886488 0.219211
0 0.884092 0.218067
0 0.881529 0.216785
0 0.878813 0.215412
0 0.876066 0.213993
0 0.873167 0.212482
0 0.870222 0.210941
0 0.867155 0.209339
0 0.864027 0.207675
0 0.861143 0.20621
0 0.858396 0.204974
0.0164492 0.856687 0.204715
0.160845 0.855451 0.204913
0.263432 0.854612 0.205554
0.342168 0.854612 0.207004
0.410025 0.854994 0.20885
0.470909 0.855695 0.210986
0.52723 0.856626 0.213352
0.580194 0.857755 0.2159
0.630793 0.858991 0.21857
0 0.94963 0.255161
0 0.948852 0.25481
0 0.948119 0.254414
0 0.947387 0.254047
0 0.946426 0.253544
0 0.945418 0.253025
0 0.944213 0.252399
0 0.942824 0.251667
0 0.941238 0.250813
0 0.939574 0.249928
0 0.937621 0.248814
0 0.935546 0.247654
0 0.933272 0.246387
0 0.9308 0.244953
0 0.928267 0.243488
0 0.92549 0.24184
0 0.922499 0.24004
0 0.919432 0.238193
0 0.916197 0.236194
0 0.912902 0.23415
0 0.909422 0.231983
0 0.905867 0.22974
0 0.902281 0.227497
0 0.898787 0.22536
0 0.895537 0.223453
0 0.893019 0.222309
0.147906 0.891569 0.222217
0.2607 0.890288 0.222354
0.34432 0.889982 0.223407
0.415427 0.890135 0.224933
0.478996 0.890593 0.226749
0.537499 0.891295 0.22884
0.591836 0.892287 0.231128
0 0.995407 0.282933
0 0.994598 0.282445
0 0.993805 0.282002
0 0.992996 0.281514
0 0.992081 0.280949
0 0.990951 0.280247
0 0.989639 0.279454
0 0.988113 0.278523
0 0.986496 0.277546
0 0.984619 0.276356
0 0.982574 0.27509
0 0.980316 0.27364
0 0.97792 0.272099
0 0.975311 0.270405
0 0.972488 0.268559
0 0.969482 0.26656
0 0.966323 0.264454
0 0.962951 0.262165
0 0.959365 0.259724
0 0.955642 0.257176
0 0.951843 0.254536
0 0.94786 0.251774
0 0.943816 0.248981
0 0.939666 0.246113
0 0.935653 0.243351
0 0.931823 0.240833
0 0.928756 0.239017
0.146044 0.926863 0.238468
0.264088 0.925353 0.238239
0.351415 0.924788 0.238987
0.424247 0.924834 0.240284
0.489265 0.9252 0.241901
0.548592 0.925872 0.243809
0 1 0.310109
0 1 0.30956
0 1 0.30901
0 1 0.308431
0 1 0.307759
0 1 0.306966
0 1 0.306035
0 1 0.304936
0 1 0.303761
