src/luts/mine/4.cube
TITLE "Generated by Resolve"
LUT_3D_SIZE 9
0.00886549 0.0206607 0
0.156329 0.0130465 0
0.305486 0.00201419 0
0.45478 0 0
0.603754 0 0
0.744137 0 0
0.870573 0.0037232 0
0.980072 0.0780499 0
1 0.161715 0
0.0323186 0.137484 0
0.175326 0.130617 0
0.317861 0.121828 0
0.464363 0.111269 0
0.606546 0.10518 0
0.73756 0.114611 0
0.854932 0.144854 0
0.957488 0.193286 0
1 0.246845 0
0.0548714 0.259831 0
0.188876 0.254841 0
0.321584 0.249714 0
0.45597 0.246448 0
0.585245 0.248508 0
0.705074 0.259861 0
0.812955 0.283268 0
0.913375 0.315419 0
1 0.348974 0.0153811
0 0.393317 0
0.100954 0.391852 0
0.250858 0.389761 0
0.384619 0.39089 0
0.507698 0.397024 0
0.623026 0.408835 0
0.732723 0.42594 0
0.840055 0.444816 0.0245518
0.95079 0.468635 0.0664836
0 0.551278 0
0 0.549645 0
0 0.547799 0
0.114916 0.547951 0
0.321248 0.550347 0
0.472129 0.555596 0.029572
0.608972 0.565805 0.0628061
0.739818 0.579599 0.0910353
0.868574 0.595987 0.117281
0 0.723857 0.0979477
0 0.721477 0.100954
0 0.717769 0.104845
0 0.712642 0.109209
0 0.707103 0.113832
0.185687 0.704997 0.121813
0.426184 0.708736 0.134874
0.604013 0.716579 0.150896
0.76318 0.726772 0.168124
0 0.903944 0.226734
0 0.900969 0.225605
0 0.896132 0.223621
0 0.888716 0.220264
0 0.878813 0.215412
0 0.867155 0.209339
0.0164492 0.856687 0.204715
0.410025 0.854994 0.20885
0.630793 0.858991 0.21857
0 1 0.336767
0 1 0.334051
0 1 0.329473
0 1 0.322316
0 1 0.312291
0 1 0.299351
0 1 0.284184
0 0.99913 0.270344
0.442267 0.994263 0.269871
0 1 0.439857
0 1 0.43624
0 1 0.430167
0 1 0.420783
0 1 0.407828
0 1 0.391424
0 1 0.371725
0 1 0.349615
0 1 0.329091
0.0142519 0.0178836 0
0.160952 0.00947585 0
0.308507 0 0
0.45684 0 0
0.604791 0 0
0.743313 0 0
0.867857 0.000961318 0
0.973617 0.0740978 0
1 0.157763 0.0498207
0.0373541 0.134386 0
0.179095 0.127367 0
0.320394 0.118395 0
0.465995 0.107546 0
0.606394 0.102007 0
0.735622 0.112276 0
0.850843 0.142687 0
0.950317 0.189166 0.0273899
1 0.243412 0.0684215
0.0575265 0.258473 0
0.190158 0.253498 0
0.321675 0.248386 0
0.454871 0.245136 0
0.582803 0.247135 0
0.700847 0.258122 0
0.805646 0.279362 0.024506
0.905837 0.311543 0.0623178
1 0.347921 0.0948348
0 0.392523 0
0.091783 0.391012 0
0.24416 0.388724 0
0.37821 0.389425 0
0.499519 0.393683 0.0204166
0.614267 0.404776 0.0511635
0.724605 0.422187 0.0783551
0.83505 0.44387 0.104234
0.947158 0.468559 0.129152
0 0.547997 0.0750896
0 0.546227 0.0780041
0 0.544228 0.0824903
0.0897536 0.544396 0.0905776
0.307774 0.546929 0.101091
0.463859 0.554345 0.115557
0.603159 0.565469 0.132128
0.735531 0.579675 0.149935
0.865141 0.596368 0.168444
0 0.723598 0.181613
0 0.721431 0.181109
0 0.718013 0.180255
0 0.713146 0.178882
0 0.707698 0.177462
0.169162 0.705592 0.179431
0.418936 0.709224 0.186831
0.599313 0.717098 0.197894
0.759579 0.727398 0.210712
0 0.905257 0.281147
0 0.902388 0.279149
0 0.897505 0.275746
0 0.890135 0.270481
0 0.880308 0.263233
0 0.868513 0.254307
0 0.857603 0.246433
0.403342 0.855787 0.247623
0.626841 0.859724 0.25452
0 1 0.378546
0 1 0.375433
0 1 0.370199
0 1 0.36199
0 1 0.350576
0 1 0.33608
0 1 0.319249
0 1 0.303258
0.436759 0.995102 0.300664
0 1 0.473823
0 1 0.469978
0 1 0.463554
0 1 0.453513
0 1 0.43978
0 1 0.422385
0 1 0.401572
0 1 0.378195
0 1 0.3561
0.0157473 0.00573739 0.0294652
0.16083 0 0.0363775
0.306233 0 0.043183
0.453178 0 0.0486763
0.600061 0 0.0552987
0.736385 0 0.0690013
0.859876 0 0.0909743
0.967269 0.0721447 0.117449
1 0.157885 0.144289
0.0380255 0.122271 0.062623
0.17789 0.115175 0.0626383
0.317601 0.106157 0.0637369
0.46186 0.0954757 0.0673228
0.600092 0.0916915 0.0762646
0.727947 0.104295 0.0911269
0.84268 0.137972 0.110887
0.944259 0.18854 0.133822
1 0.243793 0.157473
0.0544747 0.250111 0.0865339
0.185351 0.245335 0.0862593
0.315389 0.240604 0.0883345
0.447318 0.237964 0.0941787
0.574182 0.240986 0.104402
0.691783 0.253727 0.118807
0.798642 0.27837 0.13669
0.899809 0.311757 0.156512
1 0.348577 0.176715
0 0.386969 0.126452
0.0714122 0.385733 0.127779
0.228779 0.38381 0.129427
0.365011 0.385336 0.134798
0.489097 0.391974 0.143923
0.605432 0.404456 0.156115
0.71722 0.422553 0.17055
0.828992 0.444572 0.186221
0.94226 0.469429 0.202655
0 0.548043 0.188876
0 0.546548 0.188281
0 0.544823 0.187747
0.0547799 0.545098 0.189242
0.290867 0.547616 0.192523
0.452415 0.5552 0.199847
0.594675 0.56643 0.209583
0.728908 0.580728 0.221012
0.860075 0.597421 0.233631
0 0.72578 0.266361
0 0.72369 0.264622
0 0.720272 0.261723
0 0.71545 0.257511
0 0.709911 0.252415
0.138872 0.707454 0.249989
0.406668 0.710628 0.252781
0.591272 0.71841 0.259525
0.754116 0.728573 0.268147
0 0.908141 0.349783
0 0.905211 0.347082
0 0.900343 0.34255
0 0.892958 0.335607
0 0.883101 0.326207
0 0.871168 0.314717
0 0.859663 0.303532
0.391974 0.857252 0.301335
0.62034 0.861021 0.30518
0 1 0.43595
0 1 0.43238
0 1 0.426413
0 1 0.417136
0 1 0.404349
0 1 0.388113
0 1 0.369253
0 1 0.350896
0.426246 0.996689 0.345586
0 1 0.52282
0 1 0.51873
0 1 0.511772
0 1 0.50106
0 1 0.486427
0 1 0.467811
0 1 0.445655
0 1 0.420722
0 1 0.396628
0.0222171 0 0.17995
0.165728 0 0.179446
0.308446 0 0.178515
0.454307 0 0.177188
0.59942 0 0.177844
0.732982 0 0.18468
0.854429 0 0.199054
0.96051 0.0732128 0.217899
1 0.160143 0.237171
0.0442664 0.109651 0.196902
0.181735 0.102815 0.194171
0.319692 0.0939956 0.19173
0.461738 0.0845045 0.191058
0.597314 0.0839246 0.194522
0.723064 0.100618 0.202869
0.83595 0.138079 0.215549
0.936828 0.190417 0.23125
1 0.245914 0.247837
0.0545815 0.244846 0.210956
0.183322 0.240574 0.20914
0.311955 0.236606 0.208576
0.442359 0.235142 0.210483
0.567773 0.239673 0.215656
0.683894 0.254139 0.224247
0.790204 0.279957 0.235874
0.891814 0.313802 0.249317
0.995254 0.350637 0.263294
0 0.386572 0.23946
0.0448157 0.385611 0.239368
0.209735 0.384085 0.238773
0.349996 0.386145 0.240833
0.475898 0.393378 0.245808
0.593423 0.406378 0.253254
0.706905 0.424613 0.262562
0.820279 0.446647 0.272953
0.93489 0.471489 0.284169
0 0.551232 0.290105
0 0.549859 0.288502
0 0.548119 0.286229
0.0037232 0.547478 0.284306
0.263554 0.550195 0.284611
0.435035 0.557534 0.28806
0.581765 0.568673 0.293736
0.718837 0.58291 0.300969
0.85214 0.599496 0.309316
0 0.730205 0.356207
0 0.728084 0.353719
0 0.724651 0.34966
0 0.719783 0.343633
0 0.714046 0.33611
0.0826734 0.710994 0.33048
0.387121 0.713161 0.329305
0.578973 0.720653 0.332601
0.74522 0.730663 0.337804
0 0.912993 0.42948
0 0.910033 0.426261
0 0.905165 0.42089
0 0.897673 0.41265
0 0.887633 0.401495
0 0.875471 0.387808
0 0.863127 0.373571
0.372976 0.859739 0.367956
0.61001 0.863096 0.368902
0 1 0.506706
0 1 0.50277
0 1 0.496147
0 1 0.485908
0 1 0.471824
0 1 0.454032
0 1 0.43331
0 1 0.412375
0.409918 0.999039 0.403891
0 1 0.586038
0 1 0.581598
0 1 0.574228
0 1 0.562829
0 1 0.547189
0 1 0.527428
0 1 0.503868
0 1 0.477272
0 1 0.450904
0.0349584 0 0.287861
0.174472 0 0.285252
0.313451 0 0.282155
0.457816 0 0.278965
0.598962 0 0.278721
0.728634 0 0.283833
0.846906 0 0.295689
0.951247 0.0763104 0.311421
1 0.163912 0.326802
0.0538186 0.0941024 0.300267
0.188373 0.0874647 0.296818
0.324071 0.0787976 0.293568
0.461601 0.0721447 0.292287
0.593545 0.0755169 0.294514
0.716289 0.0978561 0.300954
0.826459 0.140047 0.311009
0.926558 0.194049 0.323323
1 0.249424 0.336095
0.0514992 0.240146 0.312901
0.1785 0.236454 0.310765
0.306188 0.233387 0.309529
0.434974 0.23331 0.310292
0.558434 0.239673 0.313756
0.67245 0.256229 0.320104
0.778332 0.283131 0.328862
0.88069 0.317235 0.338949
0.98555 0.353857 0.34934
0 0.387869 0.338933
0.00621042 0.386603 0.337743
0.177523 0.386114 0.336782
0.326772 0.388632 0.337285
0.45655 0.396323 0.340276
0.576318 0.409735 0.345357
0.692378 0.427985 0.351812
0.807996 0.449897 0.359136
0.924529 0.474571 0.367102
0 0.556573 0.385779
0 0.555261 0.383688
0 0.553506 0.380453
0 0.552193 0.376501
0.219959 0.554406 0.374578
0.409384 0.561196 0.375418
0.563134 0.572106 0.378515
0.704723 0.586053 0.383001
0.841031 0.602411 0.388418
0 0.736675 0.446159
0 0.734508 0.443229
0 0.73106 0.438422
0 0.72604 0.431235
0 0.719982 0.422004
0.00639353 0.71519 0.412985
0.357839 0.716838 0.409339
0.561181 0.723812 0.410025
0.732708 0.733532 0.412619
0 0.919768 0.513191
0 0.916793 0.509606
0 0.911833 0.503609
0 0.904204 0.494408
0 0.893919 0.481926
0 0.881407 0.466545
0 0.868147 0.449836
0.345266 0.863096 0.440787
0.595148 0.865904 0.439231
0 1 0.584054
0 1 0.579828
0 1 0.572656
0 1 0.561624
0 1 0.546471
0 1 0.527382
0 1 0.505074
0 1 0.481865
0.385199 1 0.470054
0 1 0.657511
0 1 0.652873
0 1 0.645014
0 1 0.633005
0 1 0.616602
0 1 0.595804
0 1 0.570916
0 1 0.542901
0 1 0.514275
0.049485 0 0.381262
0.184054 0 0.377615
0.319554 0 0.373541
0.461128 0 0.370153
0.596262 0 0.370291
0.721431 0 0.375067
0.835767 0 0.385931
0.938369 0.0815595 0.400076
1 0.169116 0.413046
0.0649882 0.0753643 0.391546
0.196124 0.068925 0.387961
0.326116 0.0622873 0.385031
0.458625 0.059266 0.383993
0.58648 0.0673228 0.386099
0.705669 0.0960555 0.391897
0.812848 0.143694 0.400763
0.912383 0.199252 0.411124
1 0.254078 0.421439
0.0390326 0.235264 0.405417
0.165255 0.23241 0.403357
0.294301 0.230426 0.401877
0.422202 0.232074 0.402228
0.543679 0.240803 0.404929
0.655848 0.259663 0.410147
0.761578 0.28777 0.417273
0.865599 0.321828 0.425223
0.972473 0.358083 0.433295
0 0.390677 0.431769
0 0.389487 0.430014
0.117754 0.389914 0.428931
0.290578 0.392538 0.428092
0.428092 0.400626 0.429786
0.552361 0.414313 0.433326
0.672435 0.432441 0.437949
0.791348 0.454124 0.443244
0.910842 0.478416 0.449012
0 0.563928 0.477729
0 0.562646 0.475288
0 0.56083 0.471412
0 0.559045 0.466163
0.14638 0.560342 0.462226
0.372534 0.566033 0.460685
0.537682 0.576471 0.46186
0.685359 0.590112 0.464393
0.825971 0.606134 0.467781
0 0.745068 0.53489
0 0.74287 0.53167
0 0.739345 0.526345
0 0.734188 0.518334
0 0.727718 0.507866
0 0.721523 0.496345
0.315282 0.721584 0.48986
0.536797 0.727794 0.488396
0.715953 0.737026 0.489006
0 0.928405 0.59794
0 0.925338 0.594079
0 0.920272 0.587625
0 0.912566 0.577737
0 0.902052 0.564279
0 0.889052 0.547524
0 0.8748 0.52874
0.305257 0.867353 0.516106
0.574807 0.869398 0.512398
0 1 0.664256
0 1 0.65977
0 1 0.652262
0 1 0.640558
0 1 0.624567
0 1 0.60444
0 1 0.580789
0 1 0.555596
0.350881 1 0.54023
0 1 0.733333
0 1 0.728496
0 1 0.720363
0 1 0.707881
0 1 0.690852
0 1 0.669123
0 1 0.643229
0 1 0.613718
0 1 0.58323
0.0636606 0 0.465919
0.193713 0 0.461967
0.325795 0 0.457969
0.460212 0 0.45568
0.589212 0 0.456535
0.7093 0 0.461433
0.819333 0 0.472053
0.920729 0.0892653 0.48513
1 0.175555 0.496269
0.0729839 0.0538338 0.475959
0.197147 0.049073 0.472938
0.321782 0.0453498 0.470649
0.449805 0.0466316 0.470161
0.5738 0.06009 0.472602
0.689113 0.0961471 0.47834
0.793942 0.14905 0.486519
0.893797 0.205631 0.495491
0.995789 0.259709 0.504036
0.0107118 0.230213 0.492332
0.133913 0.22887 0.490944
0.271031 0.228107 0.489235
0.400244 0.231876 0.489357
0.520729 0.243351 0.491661
0.632425 0.264408 0.496178
0.73904 0.293599 0.502129
0.845869 0.327352 0.508522
0.955428 0.36318 0.514885
0 0.395453 0.520943
0 0.394598 0.518914
0.0214237 0.394965 0.516884
0.232837 0.398016 0.515282
0.386496 0.406332 0.515785
0.519768 0.419944 0.518029
0.64596 0.437858 0.521218
0.769604 0.459174 0.525032
0.89279 0.483101 0.529183
0 0.573205 0.567117
0 0.571939 0.564416
0 0.570092 0.560067
0 0.56791 0.553811
0.0223545 0.56759 0.547478
0.319371 0.572076 0.543862
0.503105 0.581796 0.543359
0.659983 0.594903 0.54435
0.80647 0.610468 0.546166
0 0.755367 0.622324
0 0.75317 0.618906
0 0.749554 0.613214
0 0.744137 0.604532
0 0.737285 0.593072
0 0.729931 0.579675
0.252293 0.727489 0.569848
0.504051 0.73254 0.566293
0.693843 0.741192 0.56527
0 0.938811 0.682689
0 0.935668 0.678584
0 0.93051 0.671809
0 0.92256 0.661295
0 0.911742 0.647028
0 0.898177 0.629099
0 0.882979 0.608606
0.245441 0.872709 0.592294
0.547784 0.873503 0.586358
0 1 0.745632
0 1 0.740993
0 1 0.733104
0 1 0.720928
0 1 0.704189
0 1 0.683238
0 1 0.658488
0 1 0.631617
0.301122 1 0.61236
0 1 0.81149
0 1 0.806485
0 1 0.798138
0 1 0.785229
0 1 0.767651
0 1 0.745281
0 1 0.718456
0 1 0.687861
0 1 0.655573
0.0773632 0 0.545235
0.200595 0 0.541802
0.324285 0 0.538979
0.451789 0 0.537789
0.575021 0 0.539437
0.690028 0 0.544686
0.796399 0.00198367 0.555245
0.897658 0.0989242 0.567376
0.999023 0.182956 0.576928
0.060441 0.0327001 0.556832
0.182361 0.0300145 0.554391
0.306004 0.0293889 0.552682
0.43154 0.0354162 0.552895
0.552316 0.055314 0.555856
0.664118 0.099382 0.561776
0.768322 0.156252 0.569329
0.869963 0.213077 0.577081
0.974975 0.266224 0.584192
0 0.226505 0.576654
0.0687877 0.226612 0.575738
0.227115 0.227283 0.573632
0.363485 0.233478 0.573465
0.485496 0.24799 0.575509
0.59968 0.270771 0.579293
0.709575 0.300481 0.584192
0.820539 0.333806 0.589288
0.933898 0.368994 0.594293
0 0.402869 0.608255
0 0.40235 0.606043
0 0.402411 0.602914
0.12549 0.405905 0.600748
0.325338 0.41352 0.599344
0.475608 0.426627 0.600198
0.611276 0.44416 0.602136
0.741665 0.465003 0.604685
0.870039 0.488396 0.607538
0 0.584573 0.654887
0 0.583307 0.651972
0 0.581353 0.647227
0 0.578882 0.640192
0 0.576928 0.631678
0.238224 0.579568 0.625528
0.456886 0.587991 0.623072
0.627283 0.600397 0.622675
0.781643 0.615412 0.623178
0 0.767544 0.708782
0 0.76527 0.70515
0 0.761593 0.699168
0 0.755932 0.689906
0 0.748623 0.677577
0 0.740246 0.662699
0.144579 0.735164 0.649653
0.46096 0.737987 0.643229
0.666056 0.745815 0.640742
0 0.950973 0.767071
0 0.94786 0.76286
0 0.942504 0.755734
0 0.934279 0.744747
0 0.923095 0.729763
0 0.908995 0.710842
0 0.892699 0.688777
0.146471 0.879484 0.668971
0.512154 0.878264 0.660243
0 1 0.827405
0 1 0.822553
0 1 0.814389
0 1 0.80174
0 1 0.784543
0 1 0.762829
0 1 0.737179
0 1 0.708843
0.225376 1 0.685603
0 1 0.890944
0 1 0.885832
0 1 0.877287
0 1 0.864073
0 1 0.845945
0 1 0.823026
0 1 0.795422
0 1 0.763745
0 1 0.729824
0.0686503 0 0.62295
0.187366 0 0.62031
0.307897 0 0.618326
0.431205 0 0.618036
0.550103 0 0.620295
0.660487 0 0.625879
0.765667 0.0115511 0.636271
0.868544 0.109926 0.647288
0.973663 0.191226 0.655467
0.0164645 0.0136873 0.635126
0.137118 0.0137636 0.633753
0.270497 0.0163424 0.63241
0.398215 0.0274205 0.633585
0.517784 0.0547494 0.637095
0.628595 0.105837 0.643091
0.734035 0.165682 0.649927
0.839857 0.221561 0.656458
0.949233 0.273442 0.662242
0 0.225589 0.660014
0 0.226078 0.658183
0.136828 0.229618 0.656855
0.301152 0.238087 0.655894
0.434226 0.25452 0.657282
0.554757 0.278813 0.660273
0.671672 0.308339 0.664027
0.788678 0.341054 0.667948
0.907195 0.375494 0.671748
0 0.413184 0.694728
0 0.413001 0.692393
0 0.413367 0.688792
0 0.415671 0.684398
0.229465 0.422415 0.681453
0.414847 0.434501 0.680476
0.566323 0.451316 0.681102
0.706462 0.471519 0.68246
0.841886 0.49424 0.684153
0 0.598062 0.741711
0 0.596765 0.738628
0 0.594766 0.733501
0 0.592004 0.725826
0 0.58912 0.715892
0.086305 0.58938 0.706966
0.39382 0.595163 0.701381
0.585611 0.606546 0.699474
0.751247 0.620737 0.698756
0 0.781689 0.794583
0 0.779339 0.790784
0 0.775418 0.784436
0 0.769528 0.774701
0 0.761776 0.761608
0 0.752438 0.745434
0 0.743801 0.728466
0.403342 0.744198 0.719203
0.631022 0.750942 0.715145
0 0.964874 0.851194
0 0.961593 0.846769
0 0.956115 0.839399
0 0.947646 0.82797
0 0.935958 0.812284
0 0.921202 0.792416
0 0.903822 0.768917
0 0.886931 0.745037
0.465812 0.883619 0.733623
0 1 0.909255
0 1 0.904204
0 1 0.895811
0 1 0.882872
0 1 0.865187
0 1 0.842954
0 1 0.816358
0 1 0.786679
0.0883803 1 0.760006
0 1 0.971145
0 1 0.965911
0 1 0.957168
0 1 0.943664
0 1 0.925185
0 1 0.901778
0 1 0.873442
0 1 0.840879
0 1 0.805554
