src/luts/mine/7.cube
TITLE "Generated by Resolve"
LUT_3D_SIZE 5
0.0317388 0.0112459 0
0.321569 0 0
0.668574 0 0
1 0 0
1 0 0
0.0137484 0.262974 0.226169
0.189425 0.250584 0.175998
0.472786 0.213809 0.0875715
0.779385 0.188281 0.0102693
1 0.197589 0
0.0384527 0.501671 0.438071
0.166079 0.503105 0.410925
0.392706 0.498238 0.360555
0.681804 0.486931 0.296223
1 0.469718 0.222217
0 0.71284 0.67628
0.0582284 0.732418 0.649332
0.317143 0.731853 0.592401
0.63624 0.716945 0.516564
0.999603 0.69044 0.426719
0 0.91426 0.908217
0.0210117 0.930282 0.852415
0.309514 0.934676 0.790143
0.647395 0.917998 0.707561
1 0.889738 0.613245
0.0979629 0.0295567 0
0.346578 0 0
0.68423 0 0
1 0 0
1 0 0
0.0458534 0.270634 0.225528
0.212558 0.256977 0.177157
0.485832 0.222553 0.0932631
0.784833 0.200412 0.0204929
1 0.20737 0
0.0606088 0.506371 0.437217
0.18381 0.506996 0.410727
0.406302 0.501732 0.361105
0.693065 0.490074 0.297047
1 0.472496 0.223026
0 0.719005 0.669169
0.082475 0.735302 0.646357
0.334615 0.733333 0.590265
0.650019 0.718044 0.515053
1 0.691356 0.425574
0 0.915022 0.892103
0.0491951 0.934386 0.848814
0.328573 0.93547 0.786984
0.661799 0.91841 0.705287
1 0.890089 0.611582
0.168582 0.0762188 0
0.39678 0.0298314 0
0.723705 0 0
1 0 0
1 0 0
0.109514 0.306249 0.15024
0.263081 0.292836 0.106432
0.520577 0.260929 0.037644
0.805997 0.238102 0
1 0.230213 0
0.104662 0.535943 0.369284
0.222965 0.53431 0.350912
0.439719 0.523766 0.326345
0.722148 0.50425 0.282002
1 0.47776 0.223484
0 0.741741 0.651072
0.135454 0.746563 0.628473
0.377508 0.737224 0.582086
0.684123 0.719921 0.510536
1 0.692897 0.42211
0 0.923812 0.863111
0.115602 0.940261 0.838254
0.375265 0.936645 0.778622
0.696803 0.918914 0.699306
1 0.890532 0.607187
0.199329 0.147875 0
0.445304 0.0916915 0
0.755261 0.0170291 0
1 0 0
1 0.0174411 0
0.17908 0.347234 0.111177
0.314946 0.337377 0.0731365
0.549874 0.319081 0.00872816
0.826398 0.311086 0
1 0.309148 0
0.139223 0.582712 0.303899
0.256565 0.5832 0.277745
0.475624 0.578073 0.227131
0.764126 0.565179 0.160723
1 0.542901 0.0862593
0.050721 0.802167 0.506889
0.188418 0.808545 0.481086
0.433906 0.802197 0.428977
0.745541 0.780133 0.365698
1 0.735256 0.339849
0.0514992 0.975647 0.789441
0.192966 0.980713 0.76701
0.44239 0.9691 0.720317
0.755306 0.940749 0.659358
1 0.898039 0.58967
0.271168 0.215839 0
0.421134 0.186892 0
0.695796 0.138659 0
0.950271 0.139315 0
1 0.18323 0
0.241413 0.396185 0.0915236
0.357794 0.391165 0.0608225
0.567102 0.383703 0.00730907
0.834669 0.380087 0
1 0.375387 0
0.159365 0.625483 0.28072
0.275425 0.626581 0.254551
0.493858 0.622522 0.202914
0.784451 0.610819 0.132738
1 0.590311 0.0492714
0.0769055 0.840833 0.465782
0.21593 0.848066 0.438224
0.464637 0.843351 0.380789
0.782849 0.825528 0.303258
1 0.795239 0.21239
0.119249 1 0.630167
0.262013 1 0.60209
0.51426 1 0.545022
0.8327 1 0.470619
1 0.986496 0.390005
