src/luts/mine/7.cube
TITLE "Generated by Resolve"
LUT_3D_SIZE 33
0.0317388 0.0112459 0
0.0741131 0.00914015 0
0.119814 0.00616464 0
0.147402 0.00555428 0
0.171695 0.00459297 0
0.203952 0.000579843 0
0.240391 0 0
0.279866 0 0
0.321569 0 0
0.364233 0 0
0.407263 0 0
0.450446 0 0
0.493538 0 0
0.536446 0 0
0.57969 0 0
0.623606 0 0
0.668574 0 0
0.713603 0 0
0.758541 0 0
0.803326 0 0
0.847898 0 0
0.892241 0 0
0.936309 0 0
0.980102 0 0
1 0 0
1 0 0
1 0 0
1 0 0
1 0 0
1 0 0
1 0 0
1 0 0
1 0 0
0.0411536 0.0370642 0
0.0869306 0.0342107 0
0.121355 0.0328069 0
0.142977 0.0323949 0
0.171298 0.0294652 0
0.20473 0.024445 0
0.241794 0.0176242 0
0.281102 0.00947585 0
0.321798 0.000366217 0
0.363394 0 0
0.405432 0 0
0.447715 0 0
0.490059 0 0
0.532891 0 0
0.576394 0 0
0.621057 0 0
0.66601 0 0
0.710964 0 0
0.755718 0 0
0.800305 0 0
0.844724 0 0
0.888869 0 0
0.932769 0 0
0.976303 0 0
1 0 0
1 0 0
1 0 0
1 0 0
1 0 0
1 0 0
1 0 0
1 0 0
1 0 0
0.0180056 0.0706188 0.0407263
0.0760052 0.0644694 0.016083
0.105699 0.0627298 0.00433356
0.132692 0.0600443 0
0.164309 0.0556039 0
0.199359 0.0497444 0
0.236851 0.0426795 0
0.276066 0.0346685 0
0.316472 0.0258793 0
0.357641 0.016556 0
0.399268 0.00689708 0
0.441184 0 0
0.483742 0 0
0.527001 0 0
0.571511 0 0
0.616449 0 0
0.661418 0 0
0.706279 0 0
0.751034 0 0
0.79556 0 0
0.839872 0 0
0.883955 0 0
0.927657 0 0
0.97081 0 0
1 0 0
1 0 0
1 0 0
1 0 0
1 0 0
1 0 0
1 0 0
1 0 0
1 0 0
0.00314336 0.10251 0.0797436
0.0334325 0.101244 0.0694285
0.0567636 0.0999466 0.0605783
0.0841382 0.0965286 0.0493782
0.118822 0.0909895 0.0341192
0.173495 0.0804303 0.00640879
0.218036 0.0717479 0
0.260395 0.0631418 0
0.302434 0.0542763 0
0.34464 0.0450599 0
0.386999 0.0355993 0
0.429923 0.0256962 0
0.473579 0.015259 0
0.518364 0.00395209 0
0.563622 0 0
0.608896 0 0
0.654063 0 0
0.699046 0 0
0.743908 0 0
0.788525 0 0
0.832792 0 0
0.876814 0 0
0.920272 0 0
0.962966 0 0
1 0 0
1 0 0
1 0 0
1 0 0
1 0 0
1 0 0
1 0 0
1 0 0
1 0 0
0.000595102 0.135302 0.112261
0.0201267 0.135653 0.106264
0.0424353 0.133959 0.0985275
0.0653391 0.131212 0.0900435
0.0921645 0.127047 0.0794385
0.122835 0.12195 0.0671702
0.157259 0.115709 0.0529946
0.19556 0.108248 0.0366827
0.238392 0.0994888 0.0178073
0.292424 0.0878004 0
0.355428 0.0737011 0
0.404852 0.0623331 0
0.453193 0.05066 0
0.500771 0.03888 0
0.547753 0.0271153 0
0.594171 0.0155184 0
0.640177 0.0041352 0
0.685832 0 0
0.731212 0 0
0.776074 0 0
0.8206 0 0
0.864668 0 0
0.90782 0 0
0.949874 0 0
0.990768 0 0
1 0 0
1 0 0
1 0 0
1 0 0
1 0 0
1 0 0
1 0 0
1 0 0
0 0.168948 0.14403
0.0173648 0.168841 0.138338
0.0379187 0.167636 0.13196
0.0582895 0.16585 0.125322
0.0816205 0.163317 0.117433
0.108248 0.159869 0.10811
0.137819 0.155505 0.0973983
0.170275 0.150103 0.0852216
0.205356 0.143664 0.0715801
0.243305 0.135943 0.056199
0.28455 0.126574 0.038529
0.32874 0.11632 0.0192569
0.375982 0.105165 0
0.428016 0.0927596 0
0.500114 0.0756542 0
0.557717 0.0619516 0
0.608865 0.0499123 0
0.657862 0.0384985 0
0.705242 0.0278782 0
0.751583 0.0179294 0
0.797116 0.00866712 0
0.841413 0.000610361 0
0.884199 0 0
0.925521 0 0
0.96524 0 0
1 0 0
1 0 0
1 0 0
1 0 0
1 0.00120546 0
1 0.00946059 0
1 0.0197299 0
1 0.0353552 0
0 0.201266 0.173175
0.0189517 0.201038 0.167956
0.0380713 0.200214 0.162478
0.0569162 0.198962 0.156847
0.0784924 0.197131 0.150179
0.10312 0.194644 0.142351
0.130617 0.191394 0.133303
0.160784 0.187335 0.123064
0.1935 0.182345 0.111559
0.228367 0.176532 0.0989548
0.265064 0.16997 0.0853895
0.303471 0.162646 0.0708782
0.34342 0.15462 0.0554665
0.384817 0.145953 0.0392157
0.427619 0.13666 0.0221256
0.471809 0.126772 0.00419623
0.517494 0.116274 0
0.563989 0.106081 0
0.611399 0.0960708 0
0.659861 0.0862593 0
0.708949 0.0770123 0
0.757229 0.0691081 0
0.803769 0.0628367 0
0.844724 0.0592203 0
0.877623 0.0590829 0
0.907393 0.061265 0
0.937316 0.0645457 0
0.967132 0.0690929 0
0.997101 0.0748302 0
1 0.0818494 0
1 0.0893111 0
1 0.0958724 0
1 0.102174 0
0.00497444 0.232654 0.200626
0.0235904 0.23238 0.195727
0.041825 0.231678 0.190707
0.0597848 0.230655 0.185595
0.080415 0.229145 0.179522
0.104051 0.22707 0.172366
0.130312 0.224414 0.164233
0.158999 0.221149 0.155123
0.189761 0.217319 0.14519
0.222461 0.212879 0.134417
0.256809 0.207904 0.122927
0.292576 0.202457 0.110826
0.329625 0.196551 0.0981613
0.367849 0.190219 0.0849775
0.407004 0.183597 0.0714275
0.446998 0.176715 0.0575723
0.487556 0.169757 0.0436255
0.528756 0.162692 0.0295415
0.570214 0.155795 0.0156252
0.611643 0.14931 0.00218204
0.652399 0.143786 0
0.692699 0.139071 0
0.731975 0.135683 0
0.770001 0.133837 0
0.80705 0.133364 0
0.843626 0.133883 0
0.879957 0.13521 0
0.915709 0.137636 0
0.951583 0.140581 0
0.987732 0.143908 0
1 0.147265 0
1 0.150423 0
1 0.153567 0
0.0137484 0.262974 0.226169
0.031693 0.262623 0.22153
0.049134 0.261982 0.216846
0.0662547 0.261128 0.212131
0.0858015 0.259907 0.206638
0.108125 0.258274 0.200229
0.132998 0.256184 0.19295
0.160159 0.25362 0.184863
0.189425 0.250584 0.175998
0.220447 0.24712 0.166506
0.253132 0.243214 0.156359
0.287221 0.238941 0.145724
0.322484 0.234348 0.134661
0.358831 0.22948 0.123217
0.396109 0.224369 0.111482
0.434073 0.219165 0.0996262
0.472786 0.213809 0.0875715
0.511803 0.208591 0.0756847
0.55082 0.203754 0.06421
0.589837 0.199298 0.0531777
0.628641 0.195438 0.0427863
0.666911 0.192432 0.0333562
0.704738 0.190249 0.0248264
0.742107 0.188968 0.0172274
0.779385 0.188281 0.0102693
0.816556 0.18822 0.00393683
0.853697 0.188739 0
0.890593 0.18999 0
0.927932 0.191424 0
0.965743 0.192981 0
1 0.194507 0
1 0.196094 0
1 0.197589 0
0.0237736 0.292775 0.250935
0.0407721 0.29247 0.246647
0.0572976 0.291951 0.242344
0.0735027 0.291249 0.238041
0.0919966 0.290303 0.233051
0.113222 0.288991 0.227222
0.136873 0.287343 0.22063
0.162814 0.285283 0.213275
0.190707 0.282872 0.205295
0.220432 0.280095 0.196689
0.251698 0.276997 0.187594
0.284413 0.273579 0.177996
0.318349 0.269886 0.168017
0.353292 0.266011 0.157748
0.389242 0.261936 0.147204
0.425788 0.257832 0.136614
0.462791 0.253788 0.12607
0.500099 0.249928 0.115724
0.537545 0.246357 0.105669
0.574929 0.243198 0.0960861
0.612314 0.240467 0.0869459
0.649409 0.238376 0.0784924
0.686458 0.236774 0.0705577
0.723674 0.235538 0.0629587
0.760815 0.234821 0.0558938
0.798001 0.234562 0.0492866
0.835294 0.234714 0.0430762
0.872847 0.235157 0.0370947
0.91107 0.235569 0.0310216
0.949828 0.236042 0.0249485
0.989075 0.236591 0.0188907
1 0.237034 0.0126497
1 0.237583 0.00646983
0.033463 0.322423 0.275639
0.0496071 0.322164 0.271641
0.0652781 0.321752 0.267674
0.0806592 0.321202 0.263722
0.0982681 0.320455 0.259144
0.118441 0.319432 0.253834
0.141085 0.31809 0.247761
0.165866 0.316472 0.241047
0.19263 0.314534 0.233738
0.22118 0.312291 0.225849
0.251255 0.309789 0.217533
0.282811 0.307027 0.208728
0.315541 0.304051 0.199619
0.349248 0.300954 0.19028
0.383688 0.29781 0.18085
0.418769 0.294682 0.171374
0.454337 0.29163 0.161975
0.490196 0.288762 0.152743
0.526345 0.286107 0.143725
0.562448 0.283833 0.135119
0.598672 0.28191 0.126864
0.635218 0.280186 0.118791
0.671824 0.278843 0.111101
0.70869 0.27776 0.103639
0.745724 0.277012 0.0964981
0.782879 0.276585 0.0896773
0.820554 0.276265 0.0829023
0.858793 0.27599 0.0760967
0.897551 0.275776 0.0692912
0.936812 0.275608 0.0625162
0.97673 0.275395 0.0555886
1 0.27512 0.0485542
1 0.274815 0.0414282
0.0421454 0.35198 0.300496
0.0575113 0.351797 0.296773
0.0723888 0.351492 0.293141
0.0870832 0.351064 0.289464
0.103868 0.3505 0.285237
0.123217 0.349676 0.280308
0.144854 0.348638 0.274723
0.168658 0.347341 0.268513
0.194369 0.345785 0.261769
0.221836 0.343999 0.254505
0.250767 0.342016 0.24686
0.280995 0.339879 0.23888
0.312383 0.337591 0.230625
0.344717 0.33521 0.222171
0.377844 0.33283 0.213642
0.411521 0.330495 0.205127
0.445823 0.328206 0.196597
0.480461 0.32607 0.18822
0.515373 0.324163 0.180041
0.550698 0.322393 0.171984
0.586496 0.320745 0.163989
0.622568 0.31931 0.156207
0.658915 0.318074 0.148608
0.695552 0.317082 0.141207
0.732448 0.316289 0.134005
0.770062 0.315465 0.126696
0.808103 0.314763 0.119448
0.84683 0.314015 0.112093
0.886046 0.313329 0.104738
0.925872 0.312596 0.0972915
0.966339 0.311818 0.0897383
1 0.310979 0.082063
1 0.310201 0.074403
0.0492256 0.381537 0.32575
0.06392 0.38143 0.322271
0.0781109 0.381231 0.318898
0.0921035 0.380941 0.315511
0.108171 0.380514 0.311589
0.12665 0.379919 0.307042
0.14728 0.379156 0.30193
0.170062 0.37818 0.296223
0.194629 0.37702 0.290059
0.220874 0.375692 0.283452
0.248585 0.374212 0.276463
0.277577 0.372595 0.2692
0.307683 0.370901 0.261692
0.33872 0.369162 0.254032
0.370657 0.367361 0.24622
0.403204 0.365637 0.238422
0.436347 0.363958 0.23061
0.470192 0.362295 0.222751
0.504616 0.360678 0.214893
0.539467 0.359197 0.207126
0.574792 0.357809 0.199405
0.610544 0.356542 0.191775
0.646693 0.355398 0.184253
0.68336 0.35433 0.17673
0.720653 0.353262 0.169162
0.758618 0.352178 0.161486
0.79707 0.351141 0.153826
0.836164 0.350057 0.146075
0.875822 0.348974 0.138247
0.916136 0.347814 0.130297
0.956985 0.346654 0.122286
0.998398 0.345464 0.114199
1 0.344045 0.105821
0.0534981 0.411261 0.351827
0.0673686 0.411261 0.348653
0.0808881 0.4112 0.345556
0.094255 0.411032 0.342428
0.109545 0.410788 0.338842
0.127077 0.410437 0.334707
0.146853 0.409934 0.329992
0.168597 0.409277 0.324788
0.192035 0.408499 0.319173
0.217243 0.407553 0.3131
0.243824 0.4065 0.306722
0.271733 0.405341 0.300038
0.300694 0.404135 0.293156
0.330724 0.402853 0.286076
0.361776 0.401495 0.278782
0.393606 0.400137 0.271412
0.426322 0.398733 0.26389
0.459648 0.39736 0.256336
0.493629 0.396017 0.248753
0.528161 0.39472 0.241169
0.56318 0.3935 0.2336
0.598886 0.392264 0.225971
0.635248 0.391028 0.218265
0.672282 0.389761 0.210452
0.709941 0.388479 0.202594
0.74815 0.387213 0.194659
0.78706 0.38587 0.186618
0.826505 0.384527 0.178515
0.866728 0.383062 0.170214
0.907317 0.381659 0.161959
0.948577 0.380163 0.153536
0.9906 0.378515 0.1449
1 0.376822 0.136187
0.053254 0.441291 0.379278
0.0665141 0.441428 0.376364
0.0794537 0.441489 0.373495
0.0921645 0.441489 0.370657
0.106752 0.441444 0.367376
0.123629 0.441291 0.363546
0.14255 0.441032 0.359228
0.163394 0.440681 0.354452
0.186023 0.440192 0.349248
0.210315 0.439582 0.343633
0.236164 0.438849 0.337667
0.263401 0.43801 0.33135
0.291814 0.437079 0.324804
0.321324 0.436072 0.318029
0.351827 0.435004 0.311055
0.383246 0.433875 0.303929
0.415549 0.432715 0.296651
0.448402 0.431586 0.289372
0.48217 0.430396 0.28191
0.516716 0.42916 0.274327
0.551949 0.427878 0.266636
0.587945 0.426566 0.258824
0.624643 0.425193 0.250889
0.661875 0.423835 0.242939
0.699947 0.422354 0.23476
0.738567 0.420874 0.226535
0.777737 0.419379 0.21825
0.81767 0.417746 0.209766
0.858289 0.416037 0.201144
0.899321 0.414343 0.192508
0.941054 0.412528 0.183688
0.983444 0.410605 0.174716
1 0.408591 0.165606
0.0478218 0.471565 0.408225
0.0606088 0.471855 0.405539
0.0731212 0.472053 0.402869
0.0854047 0.47219 0.400229
0.0996719 0.472282 0.397116
0.115999 0.472313 0.393561
0.1346 0.472236 0.389425
0.155001 0.472068 0.384878
0.177218 0.471794 0.379919
0.201205 0.471382 0.374502
0.226566 0.470878 0.368795
0.253239 0.470298 0.362799
0.281315 0.469581 0.356466
0.310445 0.468803 0.34992
0.340551 0.467964 0.343191
0.371847 0.466987 0.336172
0.403983 0.465965 0.329015
0.437049 0.464851 0.32166
0.47097 0.463676 0.314153
0.50576 0.462409 0.306432
0.541253 0.461097 0.298619
0.577569 0.459693 0.290623
0.614557 0.458228 0.282521
0.652201 0.456718 0.274296
0.690562 0.455131 0.265934
0.729625 0.453452 0.257404
0.769268 0.451728 0.248798
0.809613 0.449897 0.240024
0.850401 0.448066 0.231235
0.892042 0.446052 0.222156
0.934096 0.444022 0.213062
0.97705 0.441779 0.203677
1 0.43949 0.194186
0.0384527 0.501671 0.438071
0.0510414 0.502098 0.435508
0.0633249 0.502434 0.432975
0.0754559 0.502693 0.430442
0.0895094 0.502922 0.427482
0.10573 0.50309 0.424018
0.12398 0.503197 0.420096
0.144167 0.503197 0.415702
0.166079 0.503105 0.410925
0.189715 0.502907 0.405737
0.214847 0.502602 0.400198
0.241474 0.502159 0.394293
0.269444 0.501595 0.388067
0.298497 0.500938 0.381628
0.328923 0.50013 0.374807
0.360327 0.499229 0.367788
0.392706 0.498238 0.360555
0.425986 0.497154 0.35314
0.460334 0.495903 0.345434
0.495354 0.494621 0.337636
0.531151 0.493263 0.329671
0.567758 0.491798 0.321523
0.605097 0.490257 0.313222
0.643137 0.488624 0.304784
0.681804 0.486931 0.296223
0.721233 0.485115 0.28748
0.761242 0.483238 0.278645
0.80206 0.481209 0.269551
0.843397 0.479133 0.26041
0.885313 0.476967 0.251118
0.928023 0.474617 0.241596
0.971145 0.472251 0.232029
1 0.469718 0.222217
0.0254368 0.531395 0.468574
0.0379034 0.531991 0.466148
0.0501259 0.532479 0.463722
0.0622416 0.532876 0.461265
0.0763104 0.533242 0.458366
0.092546 0.533562 0.454994
0.110704 0.533822 0.451179
0.131014 0.533959 0.446845
0.153063 0.534005 0.4421
0.176867 0.533913 0.436927
0.202197 0.533715 0.431388
0.229114 0.533349 0.425437
0.257237 0.532876 0.419226
0.286687 0.532265 0.412665
0.317281 0.531518 0.405844
0.348959 0.530663 0.398764
0.381735 0.529656 0.391394
0.41529 0.528572 0.383886
0.449836 0.527367 0.37612
0.485283 0.526024 0.368139
0.521401 0.52462 0.360037
0.558389 0.523079 0.35172
0.596155 0.521431 0.343206
0.634516 0.519722 0.334585
0.673671 0.517876 0.32578
0.713481 0.515953 0.316808
0.753994 0.513893 0.307683
0.795148 0.511727 0.29839
0.836942 0.509468 0.288945
0.879255 0.507134 0.279408
0.922332 0.504616 0.269627
0.966003 0.502007 0.259709
1 0.499214 0.249546
0.0102846 0.560418 0.499168
0.0229496 0.561212 0.496788
0.0352483 0.561883 0.494438
0.0475624 0.562417 0.492012
0.0617533 0.562936 0.489174
0.078233 0.563378 0.485801
0.0968032 0.56376 0.481941
0.117174 0.564065 0.477668
0.13962 0.564218 0.472877
0.163729 0.564233 0.467689
0.189319 0.564141 0.462135
0.216541 0.563851 0.456153
0.245106 0.563439 0.449836
0.2748 0.56289 0.443244
0.305791 0.562188 0.436316
0.337896 0.561318 0.429099
0.370916 0.560357 0.421683
0.405035 0.559228 0.413962
0.439826 0.558022 0.406119
0.475654 0.556649 0.398001
0.512215 0.555184 0.3897
0.549554 0.553597 0.381231
0.587671 0.551888 0.372564
0.626429 0.550088 0.36376
0.666087 0.548119 0.354696
0.706462 0.546014 0.345434
0.74728 0.543862 0.336126
0.788724 0.541604 0.326665
0.831006 0.539162 0.316945
0.87396 0.536583 0.307027
0.917479 0.533898 0.296986
0.961563 0.531106 0.286793
1 0.528115 0.276371
0 0.58851 0.529397
0.00706493 0.589593 0.527138
0.0195773 0.590478 0.524834
0.032166 0.591196 0.522438
0.0465858 0.591882 0.519631
0.063447 0.592508 0.516243
0.0822003 0.593057 0.512444
0.103136 0.593484 0.50808
0.125841 0.593774 0.503304
0.150362 0.593912 0.498054
0.176455 0.593881 0.492409
0.204028 0.593698 0.486381
0.232929 0.593362 0.480018
0.263218 0.592828 0.473259
0.294499 0.592172 0.466285
0.327062 0.591333 0.458946
0.360525 0.590372 0.451392
0.395026 0.589242 0.443549
0.430243 0.588006 0.435554
0.466484 0.586603 0.427283
0.503441 0.585092 0.418845
0.54136 0.583413 0.410117
0.579873 0.581628 0.401282
0.61912 0.579721 0.392264
0.659175 0.577661 0.383001
0.699825 0.575494 0.373602
0.741207 0.57319 0.364004
0.783307 0.570718 0.354208
0.825986 0.568154 0.344259
0.86923 0.565484 0.334188
0.913176 0.562631 0.323888
0.957763 0.55964 0.313405
1 0.556481 0.302693
0 0.615473 0.55903
0 0.616999 0.557
0.00340276 0.618189 0.554833
0.0162203 0.619165 0.552499
0.0309606 0.620081 0.549722
0.0479591 0.620951 0.546441
0.0672923 0.621683 0.542565
0.0887007 0.622263 0.538186
0.111879 0.622705 0.533349
0.136904 0.62295 0.528038
0.163607 0.623026 0.522271
0.191546 0.622934 0.516213
0.221088 0.622629 0.509682
0.251728 0.622187 0.502876
0.283528 0.621546 0.495766
0.316411 0.620768 0.48835
0.350347 0.619806 0.480659
0.385321 0.618662 0.472679
0.421195 0.617365 0.464454
0.457877 0.61593 0.456031
0.495262 0.614374 0.447425
0.533593 0.612634 0.438544
0.572641 0.610773 0.42948
0.612345 0.608789 0.420249
0.652842 0.606622 0.410788
0.694026 0.604334 0.40116
0.735943 0.601877 0.391287
0.778241 0.599374 0.381384
0.8215 0.596628 0.371145
0.865187 0.59382 0.36083
0.909743 0.590768 0.35021
0.954833 0.587594 0.339437
1 0.584268 0.328481
0 0.640848 0.587549
0 0.643183 0.586145
0 0.644907 0.584253
0 0.64625 0.582116
0.0149538 0.647501 0.579431
0.0325322 0.64863 0.57615
0.0523384 0.649607 0.57229
0.0742046 0.650401 0.567895
0.0980087 0.651011 0.562997
0.123598 0.651408 0.55761
0.150698 0.651606 0.551812
0.179446 0.651576 0.545541
0.20943 0.651362 0.538949
0.240696 0.650935 0.531991
0.272969 0.650355 0.524773
0.306325 0.649592 0.51725
0.340932 0.6486 0.509346
0.376333 0.647471 0.501244
0.412665 0.646159 0.492866
0.449882 0.644678 0.48426
0.487907 0.643046 0.47541
0.52665 0.64126 0.466377
0.566049 0.639353 0.457176
0.606439 0.637232 0.447654
0.647288 0.635019 0.438041
0.688945 0.632624 0.428183
0.731258 0.630076 0.418143
0.774258 0.627375 0.407904
0.817792 0.624567 0.397528
0.862104 0.621561 0.386877
0.907134 0.618357 0.376013
0.952621 0.615061 0.365026
0.99884 0.611566 0.353796
0 0.664149 0.614542
0 0.667399 0.613642
0 0.670298 0.612772
0 0.672282 0.611048
0 0.674022 0.608576
0.0170138 0.675563 0.605432
0.037232 0.67686 0.601633
0.0597391 0.677928 0.597223
0.0843214 0.678721 0.592218
0.110353 0.679301 0.586816
0.138155 0.679622 0.580896
0.167544 0.679683 0.574517
0.198215 0.679545 0.567773
0.230091 0.679179 0.560678
0.263081 0.678599 0.553262
0.297124 0.677821 0.545541
0.332082 0.676875 0.53756
0.368078 0.675715 0.529274
0.404898 0.674388 0.52076
0.442634 0.672877 0.511971
0.481117 0.671199 0.502968
0.520455 0.669337 0.493706
0.560403 0.667353 0.484291
0.60116 0.665171 0.474617
0.642557 0.662852 0.464775
0.684703 0.660365 0.454704
0.727489 0.657725 0.44445
0.771008 0.654887 0.433967
0.81529 0.651865 0.423224
0.859998 0.648753 0.41239
0.905287 0.645487 0.401373
0.9514 0.641993 0.390082
0.998047 0.638346 0.378622
0 0.688136 0.644526
0 0.690623 0.641077
0 0.693492 0.639246
0 0.69688 0.638849
0 0.699519 0.636988
0.00177005 0.701656 0.63418
0.0227054 0.703395 0.630426
0.0456855 0.704799 0.626062
0.0708782 0.705852 0.621042
0.0978714 0.7066 0.615473
0.126421 0.707057 0.609445
0.156313 0.707271 0.603006
0.187655 0.707195 0.596124
0.220142 0.706889 0.588907
0.253788 0.70634 0.581323
0.288441 0.705592 0.573434
0.324132 0.704616 0.56524
0.360723 0.703441 0.556771
0.398047 0.702098 0.548104
0.436362 0.700526 0.539117
0.47538 0.698802 0.529931
0.515297 0.696864 0.520455
0.555764 0.694804 0.510842
0.596994 0.692561 0.500984
0.638895 0.69015 0.490929
0.681575 0.687541 0.480629
0.724804 0.68481 0.470176
0.768856 0.681849 0.459449
0.813428 0.678767 0.448569
0.858625 0.675517 0.437507
0.904616 0.672053 0.426154
0.951003 0.668467 0.41471
0.998276 0.664637 0.40293
0 0.71284 0.67628
0 0.714565 0.671366
0 0.716899 0.667338
0 0.7196 0.664897
0 0.723613 0.664164
0 0.726818 0.662043
0.0087892 0.729213 0.658656
0.0324407 0.731029 0.654353
0.0582284 0.732418 0.649332
0.0859693 0.733379 0.643702
0.115251 0.73402 0.637568
0.145876 0.73434 0.631006
0.17792 0.734356 0.623987
0.211124 0.734096 0.616602
0.245457 0.733593 0.60885
0.280827 0.73283 0.600778
0.317143 0.731853 0.592401
0.354192 0.730678 0.58381
0.392126 0.729305 0.574945
0.430869 0.727733 0.56582
0.470634 0.725902 0.556359
0.511055 0.723918 0.546715
0.551919 0.721813 0.53695
0.593912 0.719417 0.526802
0.63624 0.716945 0.516564
0.679393 0.71426 0.506065
0.723232 0.711376 0.495354
0.767758 0.708324 0.484413
0.812833 0.705104 0.473304
0.858549 0.701717 0.461982
0.904921 0.698146 0.450446
0.951873 0.694408 0.438727
0.999603 0.69044 0.426719
0 0.738125 0.708476
0 0.739254 0.702647
0 0.740841 0.69749
0 0.743023 0.693141
0 0.746197 0.68983
0 0.75082 0.688838
0 0.754238 0.686122
0.0202029 0.756649 0.682033
0.0467994 0.758404 0.677028
0.0749981 0.759655 0.671412
0.105226 0.760464 0.665125
0.136828 0.760891 0.658366
0.169451 0.761013 0.651255
0.203464 0.7608 0.643671
0.238331 0.760342 0.635813
0.274342 0.759609 0.627573
0.311345 0.758602 0.619013
0.348943 0.757427 0.610254
0.38764 0.755978 0.601129
0.426886 0.754376 0.591852
0.467079 0.752514 0.582254
0.507942 0.750484 0.572442
0.549615 0.748241 0.562371
0.591806 0.745846 0.552132
0.634867 0.743221 0.541619
0.678462 0.740459 0.530938
0.722744 0.737484 0.520027
0.767926 0.734279 0.508797
0.813367 0.730983 0.49752
0.859541 0.727474 0.485985
0.906493 0.723751 0.474174
0.953826 0.71989 0.462257
1 0.715892 0.450187
0 0.763714 0.740551
0 0.76437 0.73402
0 0.765438 0.728008
0 0.766964 0.722698
0 0.769512 0.717494
0 0.773358 0.713939
0 0.778454 0.712627
0.00984207 0.781674 0.708949
0.0366522 0.783902 0.704112
0.0658427 0.785428 0.698405
0.0968643 0.786435 0.692027
0.128985 0.787015 0.685206
0.162554 0.787198 0.677867
0.197009 0.787076 0.670222
0.2327 0.786618 0.66215
0.269352 0.785885 0.653742
0.306767 0.784924 0.645075
0.345113 0.783688 0.636072
0.384451 0.782193 0.626764
0.424338 0.780514 0.617258
0.464912 0.778637 0.607523
0.506401 0.776532 0.597498
0.54847 0.774227 0.587274
0.591394 0.77171 0.576745
0.634775 0.769039 0.566094
0.678859 0.766171 0.555215
0.723613 0.763104 0.544091
0.769253 0.759793 0.532677
0.815198 0.756374 0.521157
0.861708 0.752773 0.509468
0.908522 0.749081 0.497704
0.956237 0.745129 0.485603
1 0.741131 0.473503
0 0.789364 0.771878
0 0.789685 0.76495
0 0.790341 0.758328
0 0.791409 0.752102
0 0.793271 0.745968
0 0.796597 0.740154
0 0.801694 0.737835
0.00140383 0.806165 0.735103
0.0284886 0.808927 0.73048
