src/luts/mine/7.cube
TITLE "Generated by Resolve"
LUT_3D_SIZE 9
0.0317388 0.0112459 0
0.171695 0.00459297 0
0.321569 0 0
0.493538 0 0
0.668574 0 0
0.847898 0 0
1 0 0
1 0 0
1 0 0
0.000595102 0.135302 0.112261
0.0921645 0.127047 0.0794385
0.238392 0.0994888 0.0178073
0.453193 0.05066 0
0.640177 0.0041352 0
0.8206 0 0
0.990768 0 0
1 0 0
1 0 0
0.0137484 0.262974 0.226169
0.0858015 0.259907 0.206638
0.189425 0.250584 0.175998
0.322484 0.234348 0.134661
0.472786 0.213809 0.0875715
0.628641 0.195438 0.0427863
0.779385 0.188281 0.0102693
0.927932 0.191424 0
1 0.197589 0
0.0492256 0.381537 0.32575
0.108171 0.380514 0.311589
0.194629 0.37702 0.290059
0.307683 0.370901 0.261692
0.436347 0.363958 0.23061
0.574792 0.357809 0.199405
0.720653 0.353262 0.169162
0.875822 0.348974 0.138247
1 0.344045 0.105821
0.0384527 0.501671 0.438071
0.0895094 0.502922 0.427482
0.166079 0.503105 0.410925
0.269444 0.501595 0.388067
0.392706 0.498238 0.360555
0.531151 0.493263 0.329671
0.681804 0.486931 0.296223
0.843397 0.479133 0.26041
1 0.469718 0.222217
0 0.615473 0.55903
0.0309606 0.620081 0.549722
0.111879 0.622705 0.533349
0.221088 0.622629 0.509682
0.350347 0.619806 0.480659
0.495262 0.614374 0.447425
0.652842 0.606622 0.410788
0.8215 0.596628 0.371145
1 0.584268 0.328481
0 0.71284 0.67628
0 0.723613 0.664164
0.0582284 0.732418 0.649332
0.17792 0.734356 0.623987
0.317143 0.731853 0.592401
0.470634 0.725902 0.556359
0.63624 0.716945 0.516564
0.812833 0.705104 0.473304
0.999603 0.69044 0.426719
0 0.814908 0.802075
0 0.817487 0.773816
0.0229496 0.833585 0.756008
0.15404 0.838315 0.729168
0.303212 0.836088 0.695048
0.465522 0.829435 0.656107
0.63827 0.819379 0.61355
0.819699 0.806531 0.568109
1 0.791196 0.520088
0 0.91426 0.908217
0 0.91458 0.876478
0.0210117 0.930282 0.852415
0.156466 0.936736 0.825284
0.309514 0.934676 0.790143
0.473457 0.928084 0.750668
0.647395 0.917998 0.707561
0.82974 0.905074 0.661601
1 0.889738 0.613245
0.0582437 0.0178988 0
0.183383 0.0101167 0
0.330266 0 0
0.498863 0 0
0.673823 0 0
0.852354 0 0
1 0 0
1 0 0
1 0 0
0.00759899 0.143252 0.117205
0.0981003 0.134005 0.0850233
0.237049 0.107271 0.0270695
0.454398 0.0570077 0
0.642802 0.0100557 0
0.822583 0 0
0.991287 0 0
1 0 0
1 0 0
0.0248112 0.26627 0.226505
0.0955215 0.262745 0.20708
0.197406 0.25333 0.176898
0.328679 0.237354 0.136233
0.477241 0.21738 0.0900587
0.631266 0.199924 0.046479
0.781125 0.193088 0.0144045
0.929503 0.195972 0
1 0.201434 0
0.0589151 0.383642 0.325429
0.116686 0.382452 0.311498
0.201694 0.378943 0.290333
0.313313 0.372915 0.262409
0.440772 0.366155 0.231754
0.578515 0.360067 0.200763
0.723995 0.355474 0.170535
0.878981 0.351049 0.139544
1 0.346014 0.107057
0.0463111 0.503517 0.437919
0.0967422 0.50457 0.427375
0.172412 0.504646 0.410986
0.274846 0.503059 0.388312
0.397589 0.499611 0.360861
0.5355 0.494591 0.330053
0.685878 0.488167 0.296605
0.847166 0.480308 0.260792
1 0.470787 0.222553
0 0.617639 0.558679
0.0393835 0.621607 0.549096
0.119341 0.623865 0.532784
0.22742 0.623636 0.509285
0.356085 0.620661 0.480308
0.500359 0.615167 0.447181
0.657481 0.607355 0.41062
0.825727 0.59733 0.371038
1 0.584924 0.328405
0 0.714855 0.673213
0 0.726253 0.663981
0.067155 0.733547 0.648295
0.185397 0.735103 0.623072
0.323461 0.732448 0.591684
0.476295 0.72639 0.555734
0.641443 0.717342 0.515984
0.817502 0.705486 0.472831
1 0.690837 0.426383
0 0.815518 0.796689
0 0.819379 0.77052
0.0330358 0.835035 0.754772
0.162615 0.838926 0.727855
0.310491 0.836454 0.693904
0.47187 0.829694 0.655116
0.643565 0.819638 0.612818
0.824659 0.806729 0.567391
1 0.791409 0.519539
0 0.914397 0.902113
0 0.915846 0.871931
0.0311437 0.931975 0.851255
0.165087 0.937301 0.823896
0.316487 0.935012 0.789029
0.479774 0.928252 0.749599
0.652644 0.918181 0.706767
0.834577 0.905196 0.660853
1 0.889845 0.612573
0.0979629 0.0295567 0
0.204227 0.0201724 0
0.346578 0 0
0.510018 0 0
0.68423 0 0
0.860624 0 0
1 0 0
1 0 0
1 0 0
0.0258488 0.153124 0.121279
0.113222 0.142473 0.090013
0.243931 0.116548 0.0358892
0.458137 0.0658579 0
0.648493 0.0186007 0
0.827008 0 0
0.992828 0 0
1 0 0
1 0 0
0.0458534 0.270634 0.225528
0.113939 0.266468 0.20647
0.212558 0.256977 0.177157
0.340536 0.241459 0.137728
0.485832 0.222553 0.0932631
0.636759 0.206531 0.0516213
0.784833 0.200412 0.0204929
0.932906 0.202884 0
1 0.20737 0
0.0763104 0.386694 0.324269
0.132097 0.38526 0.310719
0.214618 0.381735 0.290211
0.323583 0.375952 0.263127
0.448997 0.369451 0.233173
0.585306 0.363546 0.20264
0.730037 0.358907 0.172549
0.884733 0.354238 0.141405
1 0.348898 0.108675
0.0606088 0.506371 0.437217
0.109789 0.507118 0.426825
0.18381 0.506996 0.410727
0.28484 0.505257 0.388312
0.406302 0.501732 0.361105
0.543343 0.49662 0.330434
0.693065 0.490074 0.297047
0.853819 0.482124 0.261265
1 0.472496 0.223026
0.00230411 0.620874 0.55761
0.0539864 0.623957 0.547829
0.132418 0.625681 0.531579
0.238773 0.625147 0.508324
0.366079 0.621988 0.479561
0.509117 0.616419 0.446677
0.6654 0.60853 0.410239
0.833051 0.598413 0.370718
1 0.585885 0.328084
0 0.719005 0.669169
0 0.72987 0.662745
0.082475 0.735302 0.646357
0.198535 0.736233 0.621317
0.334615 0.733333 0.590265
0.486015 0.727153 0.554574
0.650019 0.718044 0.515053
0.825498 0.706081 0.471946
1 0.691356 0.425574
0 0.816983 0.788327
0 0.823484 0.765835
0.0504005 0.837171 0.752438
0.176944 0.839902 0.725628
0.32256 0.837049 0.691997
0.482216 0.830137 0.653544
0.653056 0.819944 0.611337
0.832639 0.807111 0.566339
1 0.791821 0.5187
0 0.915022 0.892103
0 0.918669 0.865141
0.0491951 0.934386 0.848814
0.180026 0.938155 0.821378
0.328573 0.93547 0.786984
0.49012 0.928573 0.74789
0.661799 0.91841 0.705287
0.842481 0.905455 0.659678
1 0.890089 0.611582
0.135409 0.0504005 0
0.233677 0.0356146 0
0.369955 0.0041352 0
0.52932 0 0
0.702312 0 0
0.874678 0 0
1 0 0
1 0 0
1 0 0
0.0545205 0.171603 0.0955215
0.136446 0.160891 0.0660258
0.258961 0.136614 0.0146639
0.444358 0.0912184 0
0.657328 0.0361944 0
0.834165 0 0
0.994842 0 0
1 0 0
1 0.0158846 0
0.0749523 0.285679 0.186313
0.140398 0.28072 0.169604
0.23566 0.270268 0.145937
0.359228 0.252628 0.123705
0.500252 0.231235 0.0931868
0.646662 0.215549 0.0581521
0.792203 0.2103 0.028275
0.939529 0.212299 0.00529488
1 0.215625 0
0.100664 0.39617 0.308461
0.154498 0.393652 0.298207
0.234455 0.388663 0.28249
0.340352 0.381064 0.261585
0.462806 0.374014 0.234684
0.596765 0.368414 0.204929
0.740429 0.363622 0.174929
0.894377 0.358709 0.143725
1 0.353063 0.110826
0.0831006 0.511269 0.43357
0.130739 0.51104 0.424781
0.202716 0.510246 0.409735
0.301472 0.508278 0.387732
0.420951 0.504616 0.360906
0.55639 0.499397 0.330541
0.704875 0.49276 0.297353
0.864637 0.484703 0.261707
1 0.474845 0.223392
0.027924 0.625116 0.555184
0.0776989 0.627192 0.545327
0.153628 0.628199 0.529274
0.257328 0.627222 0.506416
0.382147 0.623865 0.478126
0.523583 0.618097 0.445487
0.678447 0.610086 0.409293
0.844968 0.599878 0.36997
1 0.587289 0.327474
0 0.727306 0.667796
0.0229496 0.734218 0.659785
0.106645 0.737713 0.643061
0.219135 0.737835 0.618448
0.352422 0.734554 0.587823
0.50164 0.728176 0.552544
0.664088 0.718929 0.513283
0.838087 0.70692 0.470497
1 0.692073 0.424216
0 0.820661 0.776257
0 0.831662 0.764248
0.0777142 0.839887 0.748379
0.199863 0.841184 0.721859
0.341878 0.837827 0.688807
0.498833 0.830701 0.650874
0.667277 0.820493 0.609232
0.845579 0.807568 0.564462
1 0.792233 0.517052
0 0.91722 0.878157
0 0.925185 0.858396
0.0772412 0.937301 0.844587
0.20325 0.939284 0.817365
0.348272 0.936019 0.78349
0.506737 0.928923 0.745022
0.676204 0.9187 0.702892
0.855375 0.905699 0.657618
1 0.890318 0.609781
0.168582 0.0762188 0
0.267231 0.0583505 0
0.39678 0.0298314 0
0.553246 0 0
0.723705 0 0
0.894347 0 0
1 0 0
1 0 0
1 0 0
0.0908522 0.195743 0.0696117
0.166659 0.186007 0.0403906
0.280903 0.164614 0
0.439155 0.127245 0
0.659266 0.074815 0
0.83949 0.0355993 0
0.994598 0.0174258 0
1 0.0257115 0
1 0.0603494 0
0.109514 0.306249 0.15024
0.171649 0.301762 0.132692
0.263081 0.292836 0.106432
0.383459 0.278447 0.0726482
0.520577 0.260929 0.037644
0.66276 0.246265 0.00872816
0.805997 0.238102 0
0.951568 0.234012 0
1 0.230213 0
0.129839 0.419532 0.247013
0.181643 0.417517 0.235859
0.25893 0.413428 0.219379
0.361883 0.40705 0.198566
0.482506 0.399344 0.176486
0.614588 0.391089 0.159716
0.75668 0.381674 0.150439
0.909545 0.371603 0.13164
1 0.359579 0.110613
0.104662 0.535943 0.369284
0.151522 0.535805 0.361624
0.222965 0.53431 0.350912
0.320867 0.530022 0.343175
0.439719 0.523766 0.326345
0.574624 0.51516 0.305394
0.722148 0.50425 0.282002
0.880858 0.490669 0.25658
1 0.47776 0.223484
0.0496986 0.64448 0.520088
0.0996414 0.64564 0.512001
0.175235 0.645289 0.499046
0.27866 0.642222 0.480659
0.402945 0.635981 0.458259
0.543496 0.626474 0.432731
0.696971 0.613748 0.404868
0.862028 0.601663 0.368582
1 0.588952 0.326284
0 0.741741 0.651072
0.0534981 0.745495 0.642939
0.135454 0.746563 0.628473
0.246113 0.743908 0.607584
0.377508 0.737224 0.582086
0.52398 0.729335 0.549355
0.684123 0.719921 0.510536
0.856168 0.707835 0.468147
1 0.692897 0.42211
0 0.829862 0.766613
0.0282292 0.838895 0.759823
0.115206 0.842786 0.742351
0.231662 0.842634 0.716411
0.368948 0.838682 0.684169
0.52221 0.831312 0.646967
0.6878 0.821012 0.605936
0.863874 0.808042 0.561654
1 0.792752 0.514748
0 0.923812 0.863111
0.0258793 0.934966 0.855726
0.115602 0.940261 0.838254
0.235294 0.940551 0.811643
0.375265 0.936645 0.778622
0.529747 0.929335 0.740978
0.696803 0.918914 0.699306
0.87332 0.905959 0.654673
1 0.890532 0.607187
0.179538 0.111498 0
0.295537 0.0880446 0
0.422477 0.0596933 0
0.57705 0.0202182 0
0.741802 0 0
0.908446 0 0
1 0 0
1 0 0
1 0 0
0.130877 0.220096 0.0490883
0.201144 0.210468 0.0223239
0.305577 0.192172 0
0.446189 0.162646 0
0.614816 0.12546 0
0.813046 0.0886702 0
0.942946 0.0852979 0
1 0.104906 0
1 0.128252 0
0.144366 0.326207 0.12781
0.202655 0.322148 0.111208
0.289357 0.314504 0.086183
0.404837 0.302663 0.0532235
0.537011 0.289784 0.0170291
0.676143 0.280629 0
0.819669 0.276692 0
0.969329 0.275944 0
1 0.27393 0
0.155596 0.440757 0.219654
0.20531 0.439429 0.207813
0.279942 0.436774 0.189868
0.380636 0.432639 0.165728
0.500252 0.427573 0.137774
0.633112 0.422446 0.108309
0.778103 0.41648 0.0781567
0.933669 0.408835 0.0488441
1 0.397833 0.0243839
0.125093 0.561532 0.324224
0.171893 0.561944 0.31426
0.243549 0.561456 0.29868
0.342458 0.559274 0.276997
0.462791 0.554925 0.250767
0.599207 0.548363 0.222126
0.748501 0.539086 0.193301
0.907607 0.525826 0.169589
1 0.507332 0.166842
0.075227 0.675608 0.434928
0.125368 0.67718 0.425605
0.201434 0.677409 0.410864
0.305409 0.67509 0.390509
0.430198 0.669413 0.367361
0.570581 0.659709 0.345525
0.722835 0.64538 0.337987
0.887053 0.628229 0.320104
1 0.607782 0.29485
0.0268406 0.773022 0.57052
0.0801251 0.776272 0.569497
0.161624 0.776791 0.56228
0.271626 0.773754 0.547127
0.40267 0.766674 0.526635
0.549859 0.755627 0.502129
0.709758 0.740719 0.474586
0.881056 0.721843 0.444205
1 0.69897 0.411353
0.00500496 0.856764 0.724651
0.058732 0.863584 0.718441
0.145907 0.8654 0.703655
0.262165 0.86247 0.682124
0.399084 0.85478 0.655802
0.550866 0.842756 0.626215
0.714534 0.82678 0.593942
0.887999 0.808454 0.557778
1 0.793179 0.511406
0.0176699 0.941558 0.84831
0.0735485 0.946288 0.839948
0.159884 0.947295 0.824063
0.274693 0.943999 0.801328
0.409766 0.937255 0.77229
0.560235 0.929564 0.735363
0.723156 0.919142 0.694682
0.897261 0.906065 0.650538
1 0.890715 0.603693
0.199329 0.147875 0
0.290303 0.128359 0
0.445304 0.0916915 0
0.596323 0.0543221 0
0.755261 0.0170291 0
0.915709 0 0
1 0 0
1 0 0
1 0.0174411 0
0.17377 0.244038 0.0318608
0.237064 0.235691 0.00875868
0.331502 0.221012 0
0.45803 0.198947 0
0.605234 0.173098 0
0.756497 0.15407 0
0.896117 0.154223 0
1 0.167742 0
1 0.181949 0
0.17908 0.347234 0.111177
0.23328 0.343755 0.0960708
0.314946 0.337377 0.0731365
0.424079 0.328222 0.0425879
0.549874 0.319081 0.00872816
0.68455 0.313176 0
0.826398 0.311086 0
0.977493 0.310521 0
1 0.309148 0
0.178088 0.461891 0.20264
0.225162 0.461082 0.191318
0.296574 0.459327 0.173907
0.394491 0.456306 0.150011
0.511696 0.452628 0.121874
0.643992 0.448524 0.0909438
0.789654 0.443534 0.0578927
0.947021 0.437339 0.02327
1 0.429297 0
0.139223 0.582712 0.303899
0.185458 0.583322 0.293767
0.256565 0.5832 0.277745
0.355367 0.581552 0.255009
0.475624 0.578073 0.227131
0.612955 0.572625 0.195331
0.764126 0.565179 0.160723
0.927245 0.555474 0.124102
1 0.542901 0.0862593
0.0897841 0.697383 0.406104
0.139956 0.699306 0.396048
0.216541 0.700099 0.379751
0.321508 0.698741 0.356512
0.448157 0.694713 0.327916
0.591546 0.687922 0.295399
0.748867 0.678157 0.26006
0.917769 0.665171 0.223362
1 0.647974 0.187839
0.050721 0.802167 0.506889
0.105211 0.806561 0.497536
0.188418 0.808545 0.481086
0.30042 0.807248 0.457588
0.433906 0.802197 0.428977
0.58349 0.793301 0.397375
0.745541 0.780133 0.365698
0.916747 0.760922 0.341772
1 0.735256 0.339849
0.0419013 0.89604 0.615625
0.0959182 0.902434 0.609598
0.182895 0.903975 0.596521
0.298955 0.900542 0.579156
0.434424 0.891356 0.569787
0.584558 0.878141 0.554833
0.747616 0.861402 0.530465
0.920165 0.841245 0.502144
1 0.817868 0.470939
0.0514992 0.975647 0.789441
0.107591 0.979965 0.781552
0.192966 0.980713 0.76701
0.307591 0.977127 0.745922
0.44239 0.9691 0.720317
0.592935 0.956847 0.691142
0.755306 0.940749 0.659358
0.927367 0.92108 0.625498
1 0.898039 0.58967
0.234974 0.181094 0
0.307179 0.164843 0
0.427375 0.137163 0
0.602625 0.097261 0
0.757549 0.0658732 0
0.909636 0.0447395 0
1 0.0443885 0
1 0.0650339 0
1 0.106798 0
0.214847 0.269871 0.0191501
0.271626 0.263233 0
0.357183 0.252064 0
0.472419 0.236255 0
0.605615 0.219776 0
0.743313 0.210712 0
0.881331 0.212497 0
1 0.221454 0
1 0.229938 0
0.212268 0.370291 0.0991379
0.262608 0.367468 0.0855421
0.338445 0.362737 0.0648508
0.440711 0.356283 0.0370947
0.559701 0.3505 0.00622568
0.690578 0.346716 0
0.831037 0.345388 0
0.983047 0.344289 0
1 0.342306 0
0.196704 0.484611 0.191028
0.241581 0.484215 0.180255
0.31043 0.483055 0.163531
0.405524 0.480934 0.140368
0.520409 0.478218 0.112703
0.65243 0.474464 0.0812543
0.798138 0.469856 0.0472725
0.956329 0.463905 0.0108949
1 0.456184 0
0.150408 0.603769 0.290379
0.196262 0.604517 0.280247
0.266987 0.604593 0.264149
0.365347 0.60325 0.241215
0.485695 0.600076 0.212757
0.623178 0.595071 0.180087
0.775158 0.588083 0.143923
0.939498 0.578988 0.104982
1 0.567376 0.0634775
0.100542 0.717052 0.388663
0.150851 0.719127 0.378393
0.227619 0.72015 0.36173
0.332937 0.719112 0.337835
0.460227 0.71548 0.308141
0.604578 0.709224 0.27393
0.76321 0.700267 0.236027
0.934051 0.688518 0.195163
1 0.673594 0.151766
0.0649424 0.822202 0.482567
0.119265 0.826856 0.472892
0.203143 0.82916 0.455573
0.316106 0.828336 0.430549
0.450706 0.824048 0.399542
0.601816 0.816419 0.36408
0.766751 0.805447 0.325063
0.943679 0.790982 0.28336
1 0.772976 0.240558
0.0653697 0.921904 0.571466
0.120989 0.928481 0.562829
0.209171 0.931121 0.545251
0.327153 0.929702 0.519753
0.465797 0.924254 0.488746
0.620081 0.915007 0.453895
0.786191 0.902129 0.417075
0.961959 0.885359 0.380407
1 0.863203 0.350851
0.0949111 1 0.668589
0.151049 1 0.659754
0.236728 1 0.644022
0.351568 1 0.622324
0.486549 1 0.598566
0.63563 1 0.578759
0.79559 0.982422 0.573526
0.966781 0.961715 0.550698
1 0.937957 0.522576
0.271168 0.215839 0
0.330037 0.205097 0
0.421134 0.186892 0
0.546822 0.162722 0
0.695796 0.138659 0
0.836271 0.127962 0
0.950271 0.139315 0
1 0.162951 0
1 0.18323 0
0.25214 0.298695 0.0117494
0.303288 0.293858 0
0.38114 0.286 0
0.486458 0.275563 0
0.608164 0.26627 0
0.737591 0.262684 0
0.873381 0.265385 0
1 0.270741 0
1 0.275425 0
0.241413 0.396185 0.0915236
0.287587 0.394278 0.0793622
0.357794 0.391165 0.0608225
0.453117 0.38732 0.0360266
0.567102 0.383703 0.00730907
0.694469 0.381552 0
0.834669 0.380087 0
0.987411 0.378317 0
1 0.375387 0
0.211414 0.509102 0.183307
0.25449 0.509026 0.173083
0.320958 0.508446 0.157137
0.413504 0.507103 0.134813
0.527581 0.504723 0.107271
0.659175 0.501228 0.0757305
0.805295 0.496605 0.0410468
0.964324 0.490547 0.00358587
1 0.482689 0
0.159365 0.625483 0.28072
0.204944 0.626352 0.270634
0.275425 0.626581 0.254551
0.373571 0.625452 0.231586
0.493858 0.622522 0.202914
0.631922 0.617624 0.169635
0.784451 0.610819 0.132738
0.94992 0.601801 0.0925154
1 0.590311 0.0492714
0.109194 0.736568 0.376013
0.159823 0.738796 0.365621
0.236988 0.739971 0.348745
0.342733 0.739101 0.324514
0.470405 0.735683 0.294331
0.615702 0.729595 0.259251
0.775235 0.720897 0.220233
0.947341 0.709453 0.177752
1 0.695033 0.132097
0.0769055 0.840833 0.465782
0.131716 0.845624 0.455879
0.21593 0.848066 0.438224
0.32929 0.847425 0.412665
0.464637 0.843351 0.380789
0.616724 0.836042 0.34406
0.782849 0.825528 0.303258
0.961303 0.811765 0.258961
1 0.795239 0.21239
0.0834211 0.941939 0.54844
0.1402 0.948104 0.538949
0.228046 0.950729 0.520821
0.345892 0.949599 0.494392
0.48481 0.944686 0.461845
0.639475 0.936339 0.424735
0.806943 0.924834 0.384039
0.984833 0.910384 0.340703
1 0.893187 0.295705
0.119249 1 0.630167
0.176043 1 0.619913
0.262013 1 0.60209
0.377295 1 0.576532
0.51426 1 0.545022
0.667018 1 0.509346
0.8327 1 0.470619
1 1 0.430243
1 0.986496 0.390005
