src/luts/mine/9.cube
TITLE "Generated by Resolve"
LUT_3D_SIZE 5
0 0 0
0.0540475 0.0540475 0.0415503
0.10811 0.10811 0.0831006
0.162158 0.162158 0.124651
0.216205 0.216205 0.166217
0.168322 0.168322 0.313313
0.22237 0.22237 0.354864
0.276432 0.276432 0.396414
0.33048 0.33048 0.43798
0.384527 0.384527 0.47953
0.33666 0.33666 0.626657
0.390707 0.390707 0.668208
0.444755 0.444755 0.709758
0.498817 0.498817 0.751308
0.552865 0.552865 0.792859
0.504997 0.504997 0.939986
0.559045 0.559045 0.981537
0.613092 0.613092 1
0.66714 0.66714 1
0.721202 0.721202 1
0.67332 0.67332 1
0.727367 0.727367 1
0.78143 0.78143 1
0.835477 0.835477 1
0.88954 0.88954 1
0.0216526 0.0216526 0
0.0757153 0.0757153 0.0132143
0.129763 0.129763 0.0547646
0.18381 0.18381 0.0963149
0.237873 0.237873 0.137865
0.189975 0.189975 0.284977
0.244038 0.244038 0.326528
0.298085 0.298085 0.368078
0.352132 0.352132 0.409628
0.406195 0.406195 0.451194
0.358312 0.358312 0.598306
0.41236 0.41236 0.639872
0.466423 0.466423 0.681422
0.52047 0.52047 0.722972
0.574533 0.574533 0.764523
0.52665 0.52665 0.91165
0.580697 0.580697 0.953201
0.63476 0.63476 0.994751
0.688807 0.688807 1
0.742855 0.742855 1
0.694987 0.694987 1
0.749035 0.749035 1
0.803082 0.803082 1
0.857145 0.857145 1
0.911192 0.911192 1
0.0433204 0.0433204 0
0.0973678 0.0973678 0
0.151415 0.151415 0.0264286
0.205478 0.205478 0.0679789
0.259525 0.259525 0.109529
0.211643 0.211643 0.256641
0.26569 0.26569 0.298192
0.319753 0.319753 0.339742
0.3738 0.3738 0.381292
0.427848 0.427848 0.422843
0.37998 0.37998 0.56997
0.434028 0.434028 0.611521
0.488075 0.488075 0.653071
0.542138 0.542138 0.694636
0.596185 0.596185 0.736187
0.548302 0.548302 0.883314
0.602365 0.602365 0.924865
0.656413 0.656413 0.966415
0.71046 0.71046 1
0.764523 0.764523 1
0.71664 0.71664 1
0.770687 0.770687 1
0.82475 0.82475 1
0.878798 0.878798 1
0.93286 0.93286 1
0.0649729 0.0649729 0
0.119036 0.119036 0
0.173083 0.173083 0
0.227131 0.227131 0.0396429
0.281193 0.281193 0.0811933
0.23331 0.23331 0.22829
0.287358 0.287358 0.269841
0.341405 0.341405 0.311406
0.395453 0.395453 0.352956
0.449516 0.449516 0.394507
0.401633 0.401633 0.541634
0.45568 0.45568 0.583185
0.509743 0.509743 0.624735
0.56379 0.56379 0.666285
0.617853 0.617853 0.707835
0.56997 0.56997 0.854963
0.624018 0.624018 0.896513
0.67808 0.67808 0.938079
0.732128 0.732128 0.979629
0.786175 0.786175 1
0.738308 0.738308 1
0.792355 0.792355 1
0.846403 0.846403 1
0.900465 0.900465 1
0.954513 0.954513 1
0.0866407 0.0866407 0
0.140688 0.140688 0
0.194751 0.194751 0
0.248798 0.248798 0.0112917
0.302846 0.302846 0.0528573
0.254963 0.254963 0.199954
0.30901 0.30901 0.241505
0.363073 0.363073 0.283055
0.417121 0.417121 0.32462
0.471168 0.471168 0.366171
0.423301 0.423301 0.513298
0.477348 0.477348 0.554849
0.531395 0.531395 0.596399
0.585458 0.585458 0.637949
0.639506 0.639506 0.6795
0.591638 0.591638 0.826627
0.645685 0.645685 0.868177
0.699733 0.699733 0.909728
0.75378 0.75378 0.951278
0.807843 0.807843 0.992844
0.75996 0.75996 1
0.814008 0.814008 1
0.86807 0.86807 1
0.922118 0.922118 1
0.976181 0.976181 1
