src/luts/mine/9.cube
TITLE "Generated by Resolve"
LUT_3D_SIZE 33
0 0 0
0.00675975 0.00675975 0.00518807
0.0135042 0.0135042 0.0103914
0.020264 0.020264 0.0155795
0.0270237 0.0270237 0.0207675
0.0337835 0.0337835 0.0259709
0.0405432 0.0405432 0.0311589
0.0472877 0.0472877 0.0363622
0.0540475 0.0540475 0.0415503
0.0608072 0.0608072 0.0467384
0.0675669 0.0675669 0.0519417
0.0743267 0.0743267 0.0571298
0.0810712 0.0810712 0.0623331
0.0878309 0.0878309 0.0675212
0.0945907 0.0945907 0.0727092
0.10135 0.10135 0.0779126
0.10811 0.10811 0.0831006
0.114855 0.114855 0.088304
0.121614 0.121614 0.093492
0.128374 0.128374 0.0986801
0.135134 0.135134 0.103883
0.141894 0.141894 0.109071
0.148638 0.148638 0.114275
0.155398 0.155398 0.119463
0.162158 0.162158 0.124651
0.168917 0.168917 0.129854
0.175677 0.175677 0.135042
0.182422 0.182422 0.140246
0.189181 0.189181 0.145434
0.195941 0.195941 0.150622
0.202701 0.202701 0.155825
0.209461 0.209461 0.161013
0.216205 0.216205 0.166217
0.0210269 0.0210269 0.0391546
0.0277867 0.0277867 0.0443427
0.0345464 0.0345464 0.0495308
0.0412909 0.0412909 0.0547341
0.0480507 0.0480507 0.0599222
0.0548104 0.0548104 0.0651102
0.0615702 0.0615702 0.0703136
0.0683299 0.0683299 0.0755016
0.0750744 0.0750744 0.080705
0.0818341 0.0818341 0.085893
0.0885939 0.0885939 0.0910811
0.0953536 0.0953536 0.0962844
0.102113 0.102113 0.101472
0.108858 0.108858 0.106676
0.115618 0.115618 0.111864
0.122377 0.122377 0.117052
0.129137 0.129137 0.122255
0.135897 0.135897 0.127443
0.142641 0.142641 0.132647
0.149401 0.149401 0.137835
0.156161 0.156161 0.143023
0.162921 0.162921 0.148226
0.16968 0.16968 0.153414
0.176425 0.176425 0.158618
0.183185 0.183185 0.163806
0.189944 0.189944 0.168994
0.196704 0.196704 0.174197
0.203464 0.203464 0.179385
0.210208 0.210208 0.184588
0.216968 0.216968 0.189776
0.223728 0.223728 0.194965
0.230488 0.230488 0.200168
0.237247 0.237247 0.205356
0.0420691 0.0420691 0.0783093
0.0488289 0.0488289 0.0835126
0.0555886 0.0555886 0.0887007
0.0623331 0.0623331 0.0938888
0.0690929 0.0690929 0.0990921
0.0758526 0.0758526 0.10428
0.0826123 0.0826123 0.109483
0.0893721 0.0893721 0.114672
0.0961166 0.0961166 0.11986
0.102876 0.102876 0.125063
0.109636 0.109636 0.130251
0.116396 0.116396 0.135454
0.123156 0.123156 0.140642
0.1299 0.1299 0.14583
0.13666 0.13666 0.151034
0.14342 0.14342 0.156222
0.150179 0.150179 0.161425
0.156939 0.156939 0.166613
0.163684 0.163684 0.171801
0.170443 0.170443 0.177005
0.177203 0.177203 0.182193
0.183963 0.183963 0.187396
0.190723 0.190723 0.192584
0.197467 0.197467 0.197772
0.204227 0.204227 0.202976
0.210986 0.210986 0.208164
0.217746 0.217746 0.213367
0.224506 0.224506 0.218555
0.23125 0.23125 0.223743
0.23801 0.23801 0.228946
0.24477 0.24477 0.234134
0.25153 0.25153 0.239338
0.258289 0.258289 0.244526
0.0631113 0.0631113 0.117479
0.0698711 0.0698711 0.122667
0.0766308 0.0766308 0.127871
0.0833753 0.0833753 0.133059
0.090135 0.090135 0.138262
0.0968948 0.0968948 0.14345
0.103655 0.103655 0.148638
0.110414 0.110414 0.153841
0.117159 0.117159 0.15903
0.123919 0.123919 0.164233
0.130678 0.130678 0.169421
0.137438 0.137438 0.174609
0.144198 0.144198 0.179812
0.150942 0.150942 0.185
0.157702 0.157702 0.190204
0.164462 0.164462 0.195392
0.171221 0.171221 0.20058
0.177981 0.177981 0.205783
0.184726 0.184726 0.210971
0.191485 0.191485 0.216175
0.198245 0.198245 0.221363
0.205005 0.205005 0.226551
0.211765 0.211765 0.231754
0.218509 0.218509 0.236942
0.225269 0.225269 0.242145
0.232029 0.232029 0.247333
0.238788 0.238788 0.252522
0.245548 0.245548 0.257725
0.252293 0.252293 0.262913
0.259052 0.259052 0.268116
0.265812 0.265812 0.273304
0.272572 0.272572 0.278492
0.279332 0.279332 0.283696
0.0841535 0.0841535 0.156649
0.0909133 0.0909133 0.161837
0.097673 0.097673 0.167041
0.104417 0.104417 0.172229
0.111177 0.111177 0.177417
0.117937 0.117937 0.18262
0.124697 0.124697 0.187808
0.131456 0.131456 0.193011
0.138201 0.138201 0.198199
0.144961 0.144961 0.203387
0.15172 0.15172 0.208591
0.15848 0.15848 0.213779
0.16524 0.16524 0.218982
0.171984 0.171984 0.22417
0.178744 0.178744 0.229358
0.185504 0.185504 0.234562
0.192264 0.192264 0.23975
0.199023 0.199023 0.244953
0.205768 0.205768 0.250141
0.212528 0.212528 0.255329
0.219287 0.219287 0.260533
0.226047 0.226047 0.265721
0.232807 0.232807 0.270924
0.239551 0.239551 0.276112
0.246311 0.246311 0.2813
0.253071 0.253071 0.286503
0.259831 0.259831 0.291691
0.26659 0.26659 0.296895
0.273335 0.273335 0.302083
0.280095 0.280095 0.307271
0.286854 0.286854 0.312474
0.293614 0.293614 0.317662
0.300374 0.300374 0.322866
0.105196 0.105196 0.195819
0.111955 0.111955 0.201007
0.118715 0.118715 0.206195
0.12546 0.12546 0.211398
0.132219 0.132219 0.216587
0.138979 0.138979 0.22179
0.145739 0.145739 0.226978
0.152499 0.152499 0.232166
0.159243 0.159243 0.237369
0.166003 0.166003 0.242557
0.172763 0.172763 0.247761
0.179522 0.179522 0.252949
0.186282 0.186282 0.258137
0.193027 0.193027 0.26334
0.199786 0.199786 0.268528
0.206546 0.206546 0.273732
0.213306 0.213306 0.27892
0.220066 0.220066 0.284108
0.22681 0.22681 0.289311
0.23357 0.23357 0.294499
0.24033 0.24033 0.299702
0.247089 0.247089 0.304891
0.253849 0.253849 0.310079
0.260594 0.260594 0.315282
0.267353 0.267353 0.32047
0.274113 0.274113 0.325673
0.280873 0.280873 0.330861
0.287617 0.287617 0.336049
0.294377 0.294377 0.341253
0.301137 0.301137 0.346441
0.307897 0.307897 0.351644
0.314656 0.314656 0.356832
0.321401 0.321401 0.36202
0.126238 0.126238 0.234989
0.132998 0.132998 0.240177
0.139757 0.139757 0.245365
0.146502 0.146502 0.250568
0.153262 0.153262 0.255756
0.160021 0.160021 0.260945
0.166781 0.166781 0.266148
0.173541 0.173541 0.271336
0.180285 0.180285 0.276539
0.187045 0.187045 0.281727
0.193805 0.193805 0.286915
0.200565 0.200565 0.292119
0.207309 0.207309 0.297307
0.214069 0.214069 0.30251
0.220829 0.220829 0.307698
0.227588 0.227588 0.312886
0.234348 0.234348 0.31809
0.241093 0.241093 0.323278
0.247852 0.247852 0.328481
0.254612 0.254612 0.333669
0.261372 0.261372 0.338857
0.268132 0.268132 0.34406
0.274876 0.274876 0.349248
0.281636 0.281636 0.354452
0.288396 0.288396 0.35964
0.295155 0.295155 0.364828
0.301915 0.301915 0.370031
0.308659 0.308659 0.375219
0.315419 0.315419 0.380423
0.322179 0.322179 0.385611
0.328939 0.328939 0.390799
0.335698 0.335698 0.396002
0.342443 0.342443 0.40119
0.14728 0.14728 0.274144
0.15404 0.15404 0.279347
0.160784 0.160784 0.284535
0.167544 0.167544 0.289723
0.174304 0.174304 0.294926
0.181064 0.181064 0.300114
0.187823 0.187823 0.305318
0.194568 0.194568 0.310506
0.201328 0.201328 0.315694
0.208087 0.208087 0.320897
0.214847 0.214847 0.326085
0.221607 0.221607 0.331289
0.228351 0.228351 0.336477
0.235111 0.235111 0.341665
0.241871 0.241871 0.346868
0.248631 0.248631 0.352056
0.25539 0.25539 0.357259
0.262135 0.262135 0.362448
0.268894 0.268894 0.367636
0.275654 0.275654 0.372839
0.282414 0.282414 0.378027
0.289174 0.289174 0.38323
0.295918 0.295918 0.388418
0.302678 0.302678 0.393606
0.309438 0.309438 0.39881
0.316197 0.316197 0.403998
0.322957 0.322957 0.409201
0.329702 0.329702 0.414389
0.336461 0.336461 0.419577
0.343221 0.343221 0.424781
0.349981 0.349981 0.429969
0.356741 0.356741 0.435172
0.363485 0.363485 0.44036
0.168322 0.168322 0.313313
0.175082 0.175082 0.318502
0.181827 0.181827 0.323705
0.188586 0.188586 0.328893
0.195346 0.195346 0.334096
0.202106 0.202106 0.339284
0.208865 0.208865 0.344472
0.21561 0.21561 0.349676
0.22237 0.22237 0.354864
0.229129 0.229129 0.360067
0.235889 0.235889 0.365255
0.242649 0.242649 0.370443
0.249393 0.249393 0.375647
0.256153 0.256153 0.380835
0.262913 0.262913 0.386038
0.269673 0.269673 0.391226
0.276432 0.276432 0.396414
0.283177 0.283177 0.401617
0.289937 0.289937 0.406806
0.296696 0.296696 0.412009
0.303456 0.303456 0.417197
0.310216 0.310216 0.422385
0.31696 0.31696 0.427588
0.32372 0.32372 0.432776
0.33048 0.33048 0.43798
0.33724 0.33724 0.443168
0.343999 0.343999 0.448356
0.350744 0.350744 0.453559
0.357504 0.357504 0.458747
0.364263 0.364263 0.463951
0.371023 0.371023 0.469139
0.377783 0.377783 0.474327
0.384527 0.384527 0.47953
0.189364 0.189364 0.352483
0.196124 0.196124 0.357671
0.202869 0.202869 0.362875
0.209628 0.209628 0.368063
0.216388 0.216388 0.373251
0.223148 0.223148 0.378454
0.229908 0.229908 0.383642
0.236652 0.236652 0.388846
0.243412 0.243412 0.394034
0.250172 0.250172 0.399222
0.256931 0.256931 0.404425
0.263691 0.263691 0.409613
0.270436 0.270436 0.414816
0.277195 0.277195 0.420005
0.283955 0.283955 0.425193
0.290715 0.290715 0.430396
0.297475 0.297475 0.435584
0.304219 0.304219 0.440787
0.310979 0.310979 0.445975
0.317739 0.317739 0.451164
0.324498 0.324498 0.456367
0.331258 0.331258 0.461555
0.338003 0.338003 0.466758
0.344762 0.344762 0.471946
0.351522 0.351522 0.477134
0.358282 0.358282 0.482338
0.365042 0.365042 0.487526
0.371786 0.371786 0.492729
0.378546 0.378546 0.497917
0.385306 0.385306 0.503105
0.392065 0.392065 0.508309
0.398825 0.398825 0.513497
0.40557 0.40557 0.5187
0.210407 0.210407 0.391653
0.217166 0.217166 0.396841
0.223911 0.223911 0.402029
0.230671 0.230671 0.407233
0.23743 0.23743 0.412421
0.24419 0.24419 0.417624
0.25095 0.25095 0.422812
0.257694 0.257694 0.428
0.264454 0.264454 0.433204
0.271214 0.271214 0.438392
0.277974 0.277974 0.443595
0.284733 0.284733 0.448783
0.291478 0.291478 0.453971
0.298238 0.298238 0.459174
0.304997 0.304997 0.464363
0.311757 0.311757 0.469566
0.318517 0.318517 0.474754
0.325261 0.325261 0.479942
0.332021 0.332021 0.485145
0.338781 0.338781 0.490333
0.345541 0.345541 0.495537
0.3523 0.3523 0.500725
0.359045 0.359045 0.505913
0.365805 0.365805 0.511116
0.372564 0.372564 0.516304
0.379324 0.379324 0.521508
0.386084 0.386084 0.526696
0.392828 0.392828 0.531884
0.399588 0.399588 0.537087
0.406348 0.406348 0.542275
0.413108 0.413108 0.547478
0.419867 0.419867 0.552666
0.426612 0.426612 0.557855
0.231449 0.231449 0.430823
0.238209 0.238209 0.436011
0.244953 0.244953 0.441199
0.251713 0.251713 0.446403
0.258473 0.258473 0.451591
0.265232 0.265232 0.456779
0.271992 0.271992 0.461982
0.278737 0.278737 0.46717
0.285496 0.285496 0.472374
0.292256 0.292256 0.477562
0.299016 0.299016 0.48275
0.305776 0.305776 0.487953
0.31252 0.31252 0.493141
0.31928 0.31928 0.498344
0.32604 0.32604 0.503532
0.332799 0.332799 0.508721
0.339559 0.339559 0.513924
0.346303 0.346303 0.519112
0.353063 0.353063 0.524315
0.359823 0.359823 0.529503
0.366583 0.366583 0.534691
0.373342 0.373342 0.539895
0.380087 0.380087 0.545083
0.386847 0.386847 0.550286
0.393606 0.393606 0.555474
0.400366 0.400366 0.560662
0.407126 0.407126 0.565866
0.41387 0.41387 0.571054
0.42063 0.42063 0.576257
0.42739 0.42739 0.581445
0.43415 0.43415 0.586633
0.440894 0.440894 0.591836
0.447654 0.447654 0.597025
0.252491 0.252491 0.469978
0.259251 0.259251 0.475181
0.265995 0.265995 0.480369
0.272755 0.272755 0.485557
0.279515 0.279515 0.490761
0.286275 0.286275 0.495949
0.293034 0.293034 0.501152
0.299779 0.299779 0.50634
0.306538 0.306538 0.511528
0.313298 0.313298 0.516732
0.320058 0.320058 0.52192
0.326818 0.326818 0.527123
0.333562 0.333562 0.532311
0.340322 0.340322 0.537499
0.347082 0.347082 0.542702
0.353841 0.353841 0.54789
0.360586 0.360586 0.553094
0.367346 0.367346 0.558282
0.374105 0.374105 0.56347
0.380865 0.380865 0.568673
0.387625 0.387625 0.573861
0.394369 0.394369 0.579065
0.401129 0.401129 0.584253
0.407889 0.407889 0.589441
0.414649 0.414649 0.594644
0.421408 0.421408 0.599832
0.428153 0.428153 0.605035
0.434913 0.434913 0.610224
0.441672 0.441672 0.615412
0.448432 0.448432 0.620615
0.455192 0.455192 0.625803
0.461936 0.461936 0.631006
0.468696 0.468696 0.636194
0.273533 0.273533 0.509148
0.280278 0.280278 0.514336
0.287037 0.287037 0.519539
0.293797 0.293797 0.524727
0.300557 0.300557 0.529931
0.307317 0.307317 0.535119
0.314061 0.314061 0.540307
0.320821 0.320821 0.54551
0.327581 0.327581 0.550698
0.33434 0.33434 0.555901
0.3411 0.3411 0.56109
0.347845 0.347845 0.566278
0.354604 0.354604 0.571481
0.361364 0.361364 0.576669
0.368124 0.368124 0.581872
0.374884 0.374884 0.58706
0.381628 0.381628 0.592248
0.388388 0.388388 0.597452
0.395148 0.395148 0.60264
0.401907 0.401907 0.607843
0.408667 0.408667 0.613031
0.415412 0.415412 0.618219
0.422171 0.422171 0.623423
0.428931 0.428931 0.628611
0.435691 0.435691 0.633814
0.442451 0.442451 0.639002
0.449195 0.449195 0.64419
0.455955 0.455955 0.649393
0.462715 0.462715 0.654582
0.469474 0.469474 0.659785
0.476234 0.476234 0.664973
0.482979 0.482979 0.670161
0.489738 0.489738 0.675364
0.294575 0.294575 0.548318
0.30132 0.30132 0.553506
0.30808 0.30808 0.558709
0.314839 0.314839 0.563897
0.321599 0.321599 0.569085
0.328359 0.328359 0.574289
0.335103 0.335103 0.579477
0.341863 0.341863 0.58468
0.348623 0.348623 0.589868
0.355383 0.355383 0.595056
0.362142 0.362142 0.600259
0.368887 0.368887 0.605447
0.375647 0.375647 0.610651
0.382406 0.382406 0.615839
0.389166 0.389166 0.621027
0.395926 0.395926 0.62623
0.40267 0.40267 0.631418
0.40943 0.40943 0.636622
0.41619 0.41619 0.64181
0.42295 0.42295 0.646998
0.429709 0.429709 0.652201
0.436454 0.436454 0.657389
0.443214 0.443214 0.662593
0.449973 0.449973 0.667781
0.456733 0.456733 0.672969
0.463493 0.463493 0.678172
0.470237 0.470237 0.68336
0.476997 0.476997 0.688563
0.483757 0.483757 0.693751
0.490517 0.490517 0.69894
0.497276 0.497276 0.704143
0.504021 0.504021 0.709331
0.510781 0.510781 0.714534
0.315618 0.315618 0.587488
0.322362 0.322362 0.592676
0.329122 0.329122 0.597864
0.335882 0.335882 0.603067
0.342641 0.342641 0.608255
0.349401 0.349401 0.613458
0.356146 0.356146 0.618647
0.362905 0.362905 0.623835
0.369665 0.369665 0.629038
0.376425 0.376425 0.634226
0.383185 0.383185 0.639429
0.389929 0.389929 0.644617
0.396689 0.396689 0.649805
0.403449 0.403449 0.655009
0.410208 0.410208 0.660197
0.416968 0.416968 0.6654
0.423713 0.423713 0.670588
0.430472 0.430472 0.675776
0.437232 0.437232 0.68098
0.443992 0.443992 0.686168
0.450752 0.450752 0.691371
0.457496 0.457496 0.696559
0.464256 0.464256 0.701747
0.471015 0.471015 0.70695
0.477775 0.477775 0.712139
0.484535 0.484535 0.717342
0.491279 0.491279 0.72253
0.498039 0.498039 0.727718
0.504799 0.504799 0.732921
0.511559 0.511559 0.738109
0.518318 0.518318 0.743313
0.525063 0.525063 0.748501
0.531823 0.531823 0.753689
0.33666 0.33666 0.626657
0.343404 0.343404 0.631846
0.350164 0.350164 0.637034
0.356924 0.356924 0.642237
0.363684 0.363684 0.647425
0.370443 0.370443 0.652613
0.377188 0.377188 0.657816
0.383948 0.383948 0.663005
0.390707 0.390707 0.668208
0.397467 0.397467 0.673396
0.404227 0.404227 0.678584
0.410971 0.410971 0.683787
0.417731 0.417731 0.688975
0.424491 0.424491 0.694179
0.43125 0.43125 0.699367
0.43801 0.43801 0.704555
0.444755 0.444755 0.709758
0.451514 0.451514 0.714946
0.458274 0.458274 0.72015
0.465034 0.465034 0.725338
0.471794 0.471794 0.730526
0.478538 0.478538 0.735729
0.485298 0.485298 0.740917
0.492058 0.492058 0.74612
0.498817 0.498817 0.751308
0.505577 0.505577 0.756497
0.512322 0.512322 0.7617
0.519081 0.519081 0.766888
0.525841 0.525841 0.772091
0.532601 0.532601 0.777279
0.539361 0.539361 0.782467
0.546105 0.546105 0.787671
0.552865 0.552865 0.792859
0.357702 0.357702 0.665812
0.364446 0.364446 0.671016
0.371206 0.371206 0.676204
0.377966 0.377966 0.681407
0.384726 0.384726 0.686595
0.391485 0.391485 0.691783
0.39823 0.39823 0.696986
0.40499 0.40499 0.702174
0.411749 0.411749 0.707362
0.418509 0.418509 0.712566
0.425269 0.425269 0.717754
0.432013 0.432013 0.722957
0.438773 0.438773 0.728145
0.445533 0.445533 0.733333
0.452293 0.452293 0.738537
0.459052 0.459052 0.743725
0.465797 0.465797 0.748928
0.472557 0.472557 0.754116
0.479316 0.479316 0.759304
0.486076 0.486076 0.764508
0.492836 0.492836 0.769696
0.49958 0.49958 0.774899
0.50634 0.50634 0.780087
0.5131 0.5131 0.785275
0.51986 0.51986 0.790478
0.526619 0.526619 0.795666
0.533364 0.533364 0.80087
0.540124 0.540124 0.806058
0.546883 0.546883 0.811246
0.553643 0.553643 0.816449
0.560403 0.560403 0.821637
0.567147 0.567147 0.826841
0.573907 0.573907 0.832029
0.378744 0.378744 0.704982
0.385489 0.385489 0.710185
0.392248 0.392248 0.715373
0.399008 0.399008 0.720562
0.405768 0.405768 0.725765
0.412528 0.412528 0.730953
0.419272 0.419272 0.736156
0.426032 0.426032 0.741344
0.432792 0.432792 0.746532
0.439551 0.439551 0.751736
0.446311 0.446311 0.756924
0.453056 0.453056 0.762112
0.459815 0.459815 0.767315
0.466575 0.466575 0.772503
0.473335 0.473335 0.777707
0.480079 0.480079 0.782895
0.486839 0.486839 0.788083
0.493599 0.493599 0.793286
0.500359 0.500359 0.798474
0.507118 0.507118 0.803677
0.513863 0.513863 0.808865
0.520623 0.520623 0.814054
0.527382 0.527382 0.819257
0.534142 0.534142 0.824445
0.540902 0.540902 0.829648
0.547646 0.547646 0.834836
0.554406 0.554406 0.840024
0.561166 0.561166 0.845228
0.567926 0.567926 0.850416
0.574685 0.574685 0.855619
0.58143 0.58143 0.860807
0.58819 0.58819 0.865995
0.594949 0.594949 0.871199
0.399786 0.399786 0.744152
0.406531 0.406531 0.74934
0.413291 0.413291 0.754543
0.42005 0.42005 0.759731
0.42681 0.42681 0.764935
0.433555 0.433555 0.770123
0.440314 0.440314 0.775311
0.447074 0.447074 0.780514
0.453834 0.453834 0.785702
0.460594 0.460594 0.790906
0.467338 0.467338 0.796094
0.474098 0.474098 0.801282
0.480858 0.480858 0.806485
0.487617 0.487617 0.811673
0.494377 0.494377 0.816861
0.501122 0.501122 0.822065
0.507881 0.507881 0.827253
0.514641 0.514641 0.832456
0.521401 0.521401 0.837644
0.528161 0.528161 0.842832
0.534905 0.534905 0.848035
0.541665 0.541665 0.853223
0.548424 0.548424 0.858427
0.555184 0.555184 0.863615
0.561944 0.561944 0.868803
0.568689 0.568689 0.874006
0.575448 0.575448 0.879194
0.582208 0.582208 0.884398
0.588968 0.588968 0.889586
0.595728 0.595728 0.894774
0.602472 0.602472 0.899977
0.609232 0.609232 0.905165
0.615991 0.615991 0.910369
0.420829 0.420829 0.783322
0.427573 0.427573 0.78851
0.434333 0.434333 0.793713
0.441093 0.441093 0.798901
0.447852 0.447852 0.804089
0.454597 0.454597 0.809293
0.461357 0.461357 0.814481
0.468116 0.468116 0.819684
0.474876 0.474876 0.824872
0.481636 0.481636 0.83006
0.48838 0.48838 0.835264
0.49514 0.49514 0.840452
0.5019 0.5019 0.845655
0.508659 0.508659 0.850843
0.515419 0.515419 0.856031
0.522164 0.522164 0.861234
0.528923 0.528923 0.866423
0.535683 0.535683 0.871626
0.542443 0.542443 0.876814
0.549203 0.549203 0.882002
0.555947 0.555947 0.887205
0.562707 0.562707 0.892393
0.569467 0.569467 0.897581
0.576226 0.576226 0.902785
0.582986 0.582986 0.907973
0.589731 0.589731 0.913176
0.59649 0.59649 0.918364
0.60325 0.60325 0.923552
0.61001 0.61001 0.928756
0.61677 0.61677 0.933944
0.623514 0.623514 0.939147
0.630274 0.630274 0.944335
0.637034 0.637034 0.949523
0.441871 0.441871 0.822492
0.448615 0.448615 0.82768
0.455375 0.455375 0.832868
0.462135 0.462135 0.838071
0.468894 0.468894 0.843259
0.475639 0.475639 0.848463
0.482399 0.482399 0.853651
0.489158 0.489158 0.858839
0.495918 0.495918 0.864042
0.502678 0.502678 0.86923
0.509422 0.509422 0.874434
0.516182 0.516182 0.879622
0.522942 0.522942 0.88481
0.529702 0.529702 0.890013
0.536461 0.536461 0.895201
0.543206 0.543206 0.900404
0.549966 0.549966 0.905592
0.556725 0.556725 0.91078
0.563485 0.563485 0.915984
0.570245 0.570245 0.921172
0.576989 0.576989 0.926375
0.583749 0.583749 0.931563
0.590509 0.590509 0.936751
0.597269 0.597269 0.941955
0.604028 0.604028 0.947143
0.610773 0.610773 0.952331
0.617533 0.617533 0.957534
0.624292 0.624292 0.962722
0.631052 0.631052 0.967926
0.637812 0.637812 0.973114
0.644556 0.644556 0.978302
0.651316 0.651316 0.983505
0.658076 0.658076 0.988693
0.462913 0.462913 0.861662
0.469657 0.469657 0.86685
0.476417 0.476417 0.872038
0.483177 0.483177 0.877241
0.489937 0.489937 0.882429
0.496681 0.496681 0.887617
0.503441 0.503441 0.892821
0.510201 0.510201 0.898009
0.51696 0.51696 0.903212
0.52372 0.52372 0.9084
0.530465 0.530465 0.913588
0.537224 0.537224 0.918791
0.543984 0.543984 0.92398
0.550744 0.550744 0.929183
0.557504 0.557504 0.934371
0.564248 0.564248 0.939559
0.571008 0.571008 0.944762
0.577768 0.577768 0.94995
0.584527 0.584527 0.955154
0.591287 0.591287 0.960342
0.598032 0.598032 0.96553
0.604791 0.604791 0.970733
0.611551 0.611551 0.975921
0.618311 0.618311 0.981125
0.625071 0.625071 0.986313
0.631815 0.631815 0.991501
0.638575 0.638575 0.996704
0.645335 0.645335 1
0.652094 0.652094 1
0.658854 0.658854 1
0.665599 0.665599 1
0.672358 0.672358 1
0.679118 0.679118 1
0.483955 0.483955 0.900816
0.4907 0.4907 0.90602
0.497459 0.497459 0.911208
0.504219 0.504219 0.916396
0.510979 0.510979 0.921599
0.517723 0.517723 0.926787
0.524483 0.524483 0.931991
0.531243 0.531243 0.937179
0.538003 0.538003 0.942367
0.544762 0.544762 0.94757
0.551507 0.551507 0.952758
0.558267 0.558267 0.957961
0.565026 0.565026 0.963149
0.571786 0.571786 0.968338
0.578546 0.578546 0.973541
0.58529 0.58529 0.978729
0.59205 0.59205 0.983932
0.59881 0.59881 0.98912
0.60557 0.60557 0.994308
0.612329 0.612329 0.999512
0.619074 0.619074 1
0.625834 0.625834 1
0.632593 0.632593 1
0.639353 0.639353 1
0.646113 0.646113 1
0.652857 0.652857 1
0.659617 0.659617 1
0.666377 0.666377 1
0.673136 0.673136 1
0.679896 0.679896 1
0.686641 0.686641 1
0.693401 0.693401 1
0.70016 0.70016 1
0.504997 0.504997 0.939986
0.511742 0.511742 0.945174
0.518502 0.518502 0.950378
0.525261 0.525261 0.955566
0.532021 0.532021 0.960769
0.538766 0.538766 0.965957
0.545525 0.545525 0.971145
0.552285 0.552285 0.976349
0.559045 0.559045 0.981537
0.565805 0.565805 0.98674
0.572549 0.572549 0.991928
0.579309 0.579309 0.997116
0.586069 0.586069 1
0.592828 0.592828 1
0.599588 0.599588 1
0.606332 0.606332 1
0.613092 0.613092 1
0.619852 0.619852 1
0.626612 0.626612 1
0.633356 0.633356 1
0.640116 0.640116 1
0.646876 0.646876 1
0.653635 0.653635 1
0.660395 0.660395 1
0.66714 0.66714 1
0.673899 0.673899 1
0.680659 0.680659 1
0.687419 0.687419 1
0.694179 0.694179 1
0.700923 0.700923 1
0.707683 0.707683 1
0.714443 0.714443 1
0.721202 0.721202 1
0.52604 0.52604 0.979156
0.532784 0.532784 0.984344
0.539544 0.539544 0.989548
0.546304 0.546304 0.994736
0.553048 0.553048 0.999924
0.559808 0.559808 1
0.566567 0.566567 1
0.573327 0.573327 1
0.580087 0.580087 1
0.586831 0.586831 1
0.593591 0.593591 1
0.600351 0.600351 1
0.607111 0.607111 1
0.61387 0.61387 1
0.620615 0.620615 1
0.627375 0.627375 1
0.634134 0.634134 1
0.640894 0.640894 1
0.647654 0.647654 1
0.654398 0.654398 1
0.661158 0.661158 1
0.667918 0.667918 1
0.674678 0.674678 1
0.681437 0.681437 1
0.688182 0.688182 1
0.694942 0.694942 1
0.701701 0.701701 1
0.708461 0.708461 1
0.715221 0.715221 1
0.721965 0.721965 1
0.728725 0.728725 1
0.735485 0.735485 1
0.742245 0.742245 1
0.547066 0.547066 1
0.553826 0.553826 1
0.560586 0.560586 1
0.567346 0.567346 1
0.57409 0.57409 1
0.58085 0.58085 1
0.58761 0.58761 1
0.594369 0.594369 1
0.601129 0.601129 1
0.607874 0.607874 1
0.614633 0.614633 1
0.621393 0.621393 1
0.628153 0.628153 1
0.634913 0.634913 1
0.641657 0.641657 1
0.648417 0.648417 1
0.655177 0.655177 1
0.661936 0.661936 1
0.668696 0.668696 1
0.675441 0.675441 1
0.6822 0.6822 1
0.68896 0.68896 1
0.69572 0.69572 1
0.70248 0.70248 1
0.709224 0.709224 1
0.715984 0.715984 1
0.722744 0.722744 1
0.729503 0.729503 1
0.736263 0.736263 1
0.743008 0.743008 1
0.749767 0.749767 1
0.756527 0.756527 1
0.763287 0.763287 1
0.568109 0.568109 1
0.574868 0.574868 1
0.581628 0.581628 1
0.588388 0.588388 1
0.595132 0.595132 1
0.601892 0.601892 1
0.608652 0.608652 1
0.615412 0.615412 1
0.622171 0.622171 1
