src/luts/mine/9.cube
TITLE "Generated by Resolve"
LUT_3D_SIZE 9
0 0 0
0.0270237 0.0270237 0.0207675
0.0540475 0.0540475 0.0415503
0.0810712 0.0810712 0.0623331
0.10811 0.10811 0.0831006
0.135134 0.135134 0.103883
0.162158 0.162158 0.124651
0.189181 0.189181 0.145434
0.216205 0.216205 0.166217
0.0841535 0.0841535 0.156649
0.111177 0.111177 0.177417
0.138201 0.138201 0.198199
0.16524 0.16524 0.218982
0.192264 0.192264 0.23975
0.219287 0.219287 0.260533
0.246311 0.246311 0.2813
0.273335 0.273335 0.302083
0.300374 0.300374 0.322866
0.168322 0.168322 0.313313
0.195346 0.195346 0.334096
0.22237 0.22237 0.354864
0.249393 0.249393 0.375647
0.276432 0.276432 0.396414
0.303456 0.303456 0.417197
0.33048 0.33048 0.43798
0.357504 0.357504 0.458747
0.384527 0.384527 0.47953
0.252491 0.252491 0.469978
0.279515 0.279515 0.490761
0.306538 0.306538 0.511528
0.333562 0.333562 0.532311
0.360586 0.360586 0.553094
0.387625 0.387625 0.573861
0.414649 0.414649 0.594644
0.441672 0.441672 0.615412
0.468696 0.468696 0.636194
0.33666 0.33666 0.626657
0.363684 0.363684 0.647425
0.390707 0.390707 0.668208
0.417731 0.417731 0.688975
0.444755 0.444755 0.709758
0.471794 0.471794 0.730526
0.498817 0.498817 0.751308
0.525841 0.525841 0.772091
0.552865 0.552865 0.792859
0.420829 0.420829 0.783322
0.447852 0.447852 0.804089
0.474876 0.474876 0.824872
0.5019 0.5019 0.845655
0.528923 0.528923 0.866423
0.555947 0.555947 0.887205
0.582986 0.582986 0.907973
0.61001 0.61001 0.928756
0.637034 0.637034 0.949523
0.504997 0.504997 0.939986
0.532021 0.532021 0.960769
0.559045 0.559045 0.981537
0.586069 0.586069 1
0.613092 0.613092 1
0.640116 0.640116 1
0.66714 0.66714 1
0.694179 0.694179 1
0.721202 0.721202 1
0.589151 0.589151 1
0.616175 0.616175 1
0.643214 0.643214 1
0.670237 0.670237 1
0.697261 0.697261 1
0.724285 0.724285 1
0.751308 0.751308 1
0.778347 0.778347 1
0.805371 0.805371 1
0.67332 0.67332 1
0.700343 0.700343 1
0.727367 0.727367 1
0.754406 0.754406 1
0.78143 0.78143 1
0.808454 0.808454 1
0.835477 0.835477 1
0.862501 0.862501 1
0.88954 0.88954 1
0.0108339 0.0108339 0
0.0378576 0.0378576 0.00660716
0.0648814 0.0648814 0.0273747
0.0919051 0.0919051 0.0481575
0.118929 0.118929 0.0689403
0.145953 0.145953 0.0897078
0.172992 0.172992 0.110491
0.200015 0.200015 0.131258
0.227039 0.227039 0.152041
0.0949874 0.0949874 0.142473
0.122011 0.122011 0.163256
0.149035 0.149035 0.184024
0.176059 0.176059 0.204807
0.203082 0.203082 0.225589
0.230121 0.230121 0.246357
0.257145 0.257145 0.26714
0.284169 0.284169 0.287907
0.311192 0.311192 0.30869
0.179156 0.179156 0.299153
0.20618 0.20618 0.319921
0.233204 0.233204 0.340703
0.260227 0.260227 0.361471
0.287251 0.287251 0.382254
0.314275 0.314275 0.403021
0.341314 0.341314 0.423804
0.368338 0.368338 0.444587
0.395361 0.395361 0.465354
0.263325 0.263325 0.455817
0.290349 0.290349 0.476585
0.317372 0.317372 0.497368
0.344396 0.344396 0.518151
0.37142 0.37142 0.538918
0.398444 0.398444 0.559701
0.425483 0.425483 0.580468
0.452506 0.452506 0.601251
0.47953 0.47953 0.622019
0.347478 0.347478 0.612482
0.374502 0.374502 0.633265
0.401541 0.401541 0.654032
0.428565 0.428565 0.674815
0.455589 0.455589 0.695583
0.482612 0.482612 0.716365
0.509636 0.509636 0.737148
0.536675 0.536675 0.757916
0.563699 0.563699 0.778698
0.431647 0.431647 0.769146
0.458671 0.458671 0.789929
0.48571 0.48571 0.810697
0.512734 0.512734 0.831479
0.539757 0.539757 0.852262
0.566781 0.566781 0.87303
0.593805 0.593805 0.893812
0.620829 0.620829 0.91458
0.647868 0.647868 0.935363
0.515816 0.515816 0.925826
0.54284 0.54284 0.946593
0.569863 0.569863 0.967376
0.596902 0.596902 0.988144
0.623926 0.623926 1
0.65095 0.65095 1
0.677974 0.677974 1
0.704997 0.704997 1
0.732036 0.732036 1
0.599985 0.599985 1
0.627008 0.627008 1
0.654032 0.654032 1
0.681056 0.681056 1
0.708095 0.708095 1
0.735119 0.735119 1
0.762142 0.762142 1
0.789166 0.789166 1
0.81619 0.81619 1
0.684153 0.684153 1
0.711177 0.711177 1
0.738201 0.738201 1
0.765225 0.765225 1
0.792264 0.792264 1
0.819287 0.819287 1
0.846311 0.846311 1
0.873335 0.873335 1
0.900359 0.900359 1
0.0216526 0.0216526 0
0.0486763 0.0486763 0
0.0757153 0.0757153 0.0132143
0.102739 0.102739 0.0339818
0.129763 0.129763 0.0547646
0.156786 0.156786 0.0755474
0.18381 0.18381 0.0963149
0.210849 0.210849 0.117098
0.237873 0.237873 0.137865
0.105821 0.105821 0.128313
0.132845 0.132845 0.149081
0.159869 0.159869 0.169863
0.186892 0.186892 0.190631
0.213916 0.213916 0.211414
0.24094 0.24094 0.232197
0.267979 0.267979 0.252964
0.295003 0.295003 0.273747
0.322026 0.322026 0.294514
0.189975 0.189975 0.284977
0.216999 0.216999 0.305745
0.244038 0.244038 0.326528
0.271061 0.271061 0.347311
0.298085 0.298085 0.368078
0.325109 0.325109 0.388861
0.352132 0.352132 0.409628
0.379171 0.379171 0.430411
0.406195 0.406195 0.451194
0.274144 0.274144 0.441642
0.301167 0.301167 0.462425
0.328206 0.328206 0.483192
0.35523 0.35523 0.503975
0.382254 0.382254 0.524742
0.409277 0.409277 0.545525
0.436301 0.436301 0.566308
0.463325 0.463325 0.587076
0.490364 0.490364 0.607858
0.358312 0.358312 0.598306
0.385336 0.385336 0.619089
0.41236 0.41236 0.639872
0.439399 0.439399 0.660639
0.466423 0.466423 0.681422
0.493446 0.493446 0.70219
0.52047 0.52047 0.722972
0.547494 0.547494 0.74374
0.574533 0.574533 0.764523
0.442481 0.442481 0.754986
0.469505 0.469505 0.775753
0.496529 0.496529 0.796536
0.523552 0.523552 0.817304
0.550591 0.550591 0.838087
0.577615 0.577615 0.858869
0.604639 0.604639 0.879637
0.631662 0.631662 0.90042
0.658686 0.658686 0.921187
0.52665 0.52665 0.91165
0.553674 0.553674 0.932418
0.580697 0.580697 0.953201
0.607721 0.607721 0.973983
0.63476 0.63476 0.994751
0.661784 0.661784 1
0.688807 0.688807 1
0.715831 0.715831 1
0.742855 0.742855 1
0.610819 0.610819 1
0.637842 0.637842 1
0.664866 0.664866 1
0.69189 0.69189 1
0.718914 0.718914 1
0.745953 0.745953 1
0.772976 0.772976 1
0.8 0.8 1
0.827024 0.827024 1
0.694987 0.694987 1
0.722011 0.722011 1
0.749035 0.749035 1
0.776059 0.776059 1
0.803082 0.803082 1
0.830106 0.830106 1
0.857145 0.857145 1
0.884169 0.884169 1
0.911192 0.911192 1
0.0324865 0.0324865 0
0.0595102 0.0595102 0
0.0865339 0.0865339 0
0.113573 0.113573 0.0198215
0.140597 0.140597 0.040589
0.16762 0.16762 0.0613718
0.194644 0.194644 0.0821546
0.221668 0.221668 0.102922
0.248707 0.248707 0.123705
0.11664 0.11664 0.114137
0.143664 0.143664 0.13492
0.170703 0.170703 0.155688
0.197726 0.197726 0.176471
0.22475 0.22475 0.197238
0.251774 0.251774 0.218021
0.278798 0.278798 0.238804
0.305837 0.305837 0.259571
0.33286 0.33286 0.280354
0.200809 0.200809 0.270802
0.227832 0.227832 0.291585
0.254856 0.254856 0.312352
0.281895 0.281895 0.333135
0.308919 0.308919 0.353918
0.335943 0.335943 0.374685
0.362966 0.362966 0.395468
0.38999 0.38999 0.416236
0.417029 0.417029 0.437018
0.284977 0.284977 0.427482
0.312001 0.312001 0.448249
0.339025 0.339025 0.469032
0.366049 0.366049 0.489799
0.393088 0.393088 0.510582
0.420111 0.420111 0.53135
0.447135 0.447135 0.552132
0.474159 0.474159 0.572915
0.501183 0.501183 0.593683
0.369146 0.369146 0.584146
0.39617 0.39617 0.604913
0.423194 0.423194 0.625696
0.450217 0.450217 0.646464
0.477256 0.477256 0.667247
0.50428 0.50428 0.688029
0.531304 0.531304 0.708797
0.558328 0.558328 0.72958
0.585351 0.585351 0.750347
0.453315 0.453315 0.74081
0.480339 0.480339 0.761593
0.507362 0.507362 0.782361
0.534386 0.534386 0.803143
0.56141 0.56141 0.823911
0.588449 0.588449 0.844694
0.615473 0.615473 0.865461
0.642496 0.642496 0.886244
0.66952 0.66952 0.907027
0.537484 0.537484 0.897475
0.564508 0.564508 0.918257
0.591531 0.591531 0.939025
0.618555 0.618555 0.959808
0.645579 0.645579 0.980591
0.672602 0.672602 1
0.699641 0.699641 1
0.726665 0.726665 1
0.753689 0.753689 1
0.621653 0.621653 1
0.648676 0.648676 1
0.6757 0.6757 1
0.702724 0.702724 1
0.729747 0.729747 1
0.756771 0.756771 1
0.78381 0.78381 1
0.810834 0.810834 1
0.837858 0.837858 1
0.705806 0.705806 1
0.73283 0.73283 1
0.759869 0.759869 1
0.786892 0.786892 1
0.813916 0.813916 1
0.84094 0.84094 1
0.867964 0.867964 1
0.895003 0.895003 1
0.922026 0.922026 1
0.0433204 0.0433204 0
0.0703441 0.0703441 0
0.0973678 0.0973678 0
0.124392 0.124392 0.00564584
0.151415 0.151415 0.0264286
0.178454 0.178454 0.0471962
0.205478 0.205478 0.0679789
0.232502 0.232502 0.0887617
0.259525 0.259525 0.109529
0.127474 0.127474 0.0999771
0.154498 0.154498 0.120745
0.181521 0.181521 0.141527
0.208545 0.208545 0.162295
0.235584 0.235584 0.183078
0.262608 0.262608 0.203845
0.289631 0.289631 0.224628
0.316655 0.316655 0.245396
0.343679 0.343679 0.266178
0.211643 0.211643 0.256641
0.238666 0.238666 0.277409
0.26569 0.26569 0.298192
0.292714 0.292714 0.318959
0.319753 0.319753 0.339742
0.346777 0.346777 0.360525
0.3738 0.3738 0.381292
0.400824 0.400824 0.402075
0.427848 0.427848 0.422843
0.295811 0.295811 0.413306
0.322835 0.322835 0.434073
0.349859 0.349859 0.454856
0.376883 0.376883 0.475639
0.403906 0.403906 0.496406
0.430945 0.430945 0.517189
0.457969 0.457969 0.537957
0.484993 0.484993 0.55874
0.512016 0.512016 0.579522
0.37998 0.37998 0.56997
0.407004 0.407004 0.590753
0.434028 0.434028 0.611521
0.461051 0.461051 0.632303
0.488075 0.488075 0.653071
0.515099 0.515099 0.673854
0.542138 0.542138 0.694636
0.569162 0.569162 0.715404
0.596185 0.596185 0.736187
0.464149 0.464149 0.726635
0.491173 0.491173 0.747417
0.518196 0.518196 0.768185
0.54522 0.54522 0.788968
0.572244 0.572244 0.80975
0.599268 0.599268 0.830518
0.626307 0.626307 0.851301
0.65333 0.65333 0.872068
0.680354 0.680354 0.892851
0.548302 0.548302 0.883314
0.575326 0.575326 0.904082
0.602365 0.602365 0.924865
0.629389 0.629389 0.945632
0.656413 0.656413 0.966415
0.683436 0.683436 0.987182
0.71046 0.71046 1
0.737499 0.737499 1
0.764523 0.764523 1
0.632471 0.632471 1
0.659495 0.659495 1
0.686534 0.686534 1
0.713558 0.713558 1
0.740581 0.740581 1
0.767605 0.767605 1
0.794629 0.794629 1
0.821653 0.821653 1
0.848692 0.848692 1
0.71664 0.71664 1
0.743664 0.743664 1
0.770687 0.770687 1
0.797726 0.797726 1
0.82475 0.82475 1
0.851774 0.851774 1
0.878798 0.878798 1
0.905821 0.905821 1
0.93286 0.93286 1
0.0541543 0.0541543 0
0.081178 0.081178 0
0.108202 0.108202 0
0.135225 0.135225 0
0.162249 0.162249 0.012253
0.189273 0.189273 0.0330358
0.216312 0.216312 0.0538033
0.243336 0.243336 0.0745861
0.270359 0.270359 0.0953536
0.138308 0.138308 0.0858015
0.165331 0.165331 0.106569
0.192355 0.192355 0.127352
0.219379 0.219379 0.148119
0.246403 0.246403 0.168902
0.273442 0.273442 0.189685
0.300465 0.300465 0.210452
0.327489 0.327489 0.231235
0.354513 0.354513 0.252003
0.222477 0.222477 0.242466
0.2495 0.2495 0.263249
0.276524 0.276524 0.284016
0.303548 0.303548 0.304799
0.330571 0.330571 0.325567
0.35761 0.35761 0.346349
0.384634 0.384634 0.367117
0.411658 0.411658 0.3879
0.438682 0.438682 0.408682
0.306645 0.306645 0.39913
0.333669 0.333669 0.419913
0.360693 0.360693 0.440681
0.387717 0.387717 0.461463
0.41474 0.41474 0.482246
0.441764 0.441764 0.503014
0.468803 0.468803 0.523796
0.495827 0.495827 0.544564
0.52285 0.52285 0.565347
0.390799 0.390799 0.55581
0.417823 0.417823 0.576577
0.444862 0.444862 0.59736
0.471885 0.471885 0.618128
0.498909 0.498909 0.638911
0.525933 0.525933 0.659678
0.552956 0.552956 0.680461
0.579995 0.579995 0.701244
0.607019 0.607019 0.722011
0.474968 0.474968 0.712474
0.501991 0.501991 0.733242
0.52903 0.52903 0.754025
0.556054 0.556054 0.774792
0.583078 0.583078 0.795575
0.610101 0.610101 0.816358
0.637125 0.637125 0.837125
0.664149 0.664149 0.857908
0.691188 0.691188 0.878676
0.559136 0.559136 0.869139
0.58616 0.58616 0.889906
0.613184 0.613184 0.910689
0.640223 0.640223 0.931472
0.667247 0.667247 0.952239
0.69427 0.69427 0.973022
0.721294 0.721294 0.99379
0.748318 0.748318 1
0.775357 0.775357 1
0.643305 0.643305 1
0.670329 0.670329 1
0.697353 0.697353 1
0.724376 0.724376 1
0.751415 0.751415 1
0.778439 0.778439 1
0.805463 0.805463 1
0.832486 0.832486 1
0.85951 0.85951 1
0.727474 0.727474 1
0.754498 0.754498 1
0.781521 0.781521 1
0.808545 0.808545 1
0.835584 0.835584 1
0.862608 0.862608 1
0.889632 0.889632 1
0.916655 0.916655 1
0.943679 0.943679 1
0.0649729 0.0649729 0
0.0919966 0.0919966 0
0.119036 0.119036 0
0.146059 0.146059 0
0.173083 0.173083 0
0.200107 0.200107 0.0188602
0.227131 0.227131 0.0396429
0.25417 0.25417 0.0604105
0.281193 0.281193 0.0811933
0.149142 0.149142 0.0716259
0.176165 0.176165 0.0924086
0.203189 0.203189 0.113176
0.230213 0.230213 0.133959
0.257237 0.257237 0.154726
0.28426 0.28426 0.175509
0.311299 0.311299 0.196292
0.338323 0.338323 0.21706
0.365347 0.365347 0.237842
0.23331 0.23331 0.22829
0.260319 0.260319 0.249073
0.287358 0.287358 0.269841
0.314382 0.314382 0.290623
0.341405 0.341405 0.311406
0.368429 0.368429 0.332174
0.395453 0.395453 0.352956
0.422492 0.422492 0.373724
0.449516 0.449516 0.394507
0.317464 0.317464 0.38497
0.344488 0.344488 0.405737
0.371527 0.371527 0.42652
0.39855 0.39855 0.447288
0.425574 0.425574 0.468071
0.452598 0.452598 0.488838
0.479622 0.479622 0.509621
0.506661 0.506661 0.530404
0.533684 0.533684 0.551171
0.401633 0.401633 0.541634
0.428656 0.428656 0.562402
0.45568 0.45568 0.583185
0.482719 0.482719 0.603967
0.509743 0.509743 0.624735
0.536767 0.536767 0.645518
0.56379 0.56379 0.666285
0.590814 0.590814 0.687068
0.617853 0.617853 0.707835
0.485801 0.485801 0.698299
0.512825 0.512825 0.719081
0.539849 0.539849 0.739849
0.566873 0.566873 0.760632
0.593912 0.593912 0.781399
0.620935 0.620935 0.802182
0.647959 0.647959 0.822965
0.674983 0.674983 0.843732
0.702007 0.702007 0.864515
0.56997 0.56997 0.854963
0.596994 0.596994 0.875746
0.624018 0.624018 0.896513
0.651041 0.651041 0.917296
0.67808 0.67808 0.938079
0.705104 0.705104 0.958846
0.732128 0.732128 0.979629
0.759152 0.759152 1
0.786175 0.786175 1
0.654139 0.654139 1
0.681163 0.681163 1
0.708186 0.708186 1
0.73521 0.73521 1
0.762234 0.762234 1
0.789273 0.789273 1
0.816297 0.816297 1
0.84332 0.84332 1
0.870344 0.870344 1
0.738308 0.738308 1
0.765332 0.765332 1
0.792355 0.792355 1
0.819379 0.819379 1
0.846403 0.846403 1
0.873426 0.873426 1
0.900465 0.900465 1
0.927489 0.927489 1
0.954513 0.954513 1
0.0758068 0.0758068 0
0.102831 0.102831 0
0.129854 0.129854 0
0.156893 0.156893 0
0.183917 0.183917 0
0.210941 0.210941 0.00468452
0.237964 0.237964 0.0254673
0.264988 0.264988 0.0462501
0.292027 0.292027 0.0670176
0.15996 0.15996 0.0574655
0.186984 0.186984 0.078233
0.214023 0.214023 0.0990158
0.241047 0.241047 0.119783
0.26807 0.26807 0.140566
0.295094 0.295094 0.161334
0.322118 0.322118 0.182116
0.349157 0.349157 0.202899
0.376181 0.376181 0.223667
0.244129 0.244129 0.21413
0.271153 0.271153 0.234897
0.298177 0.298177 0.25568
0.325216 0.325216 0.276448
0.352239 0.352239 0.29723
0.379263 0.379263 0.318013
0.406287 0.406287 0.338781
0.43331 0.43331 0.359564
0.460349 0.460349 0.380331
0.328298 0.328298 0.370794
0.355322 0.355322 0.391562
0.382345 0.382345 0.412345
0.409369 0.409369 0.433127
0.436408 0.436408 0.453895
0.463432 0.463432 0.474678
0.490455 0.490455 0.495445
0.517479 0.517479 0.516228
0.544503 0.544503 0.537011
0.412467 0.412467 0.527459
0.43949 0.43949 0.548241
0.466514 0.466514 0.569009
0.493538 0.493538 0.589792
0.520577 0.520577 0.610559
0.547601 0.547601 0.631342
0.574624 0.574624 0.652125
0.601648 0.601648 0.672892
0.628672 0.628672 0.693675
0.496635 0.496635 0.684123
0.523659 0.523659 0.704906
0.550683 0.550683 0.725689
0.577707 0.577707 0.746456
0.60473 0.60473 0.767239
0.631769 0.631769 0.788006
0.658793 0.658793 0.808789
0.685817 0.685817 0.829557
0.71284 0.71284 0.85034
0.580804 0.580804 0.840803
0.607828 0.607828 0.86157
0.634852 0.634852 0.882353
0.661875 0.661875 0.90312
0.688899 0.688899 0.923903
0.715923 0.715923 0.944686
0.742962 0.742962 0.965454
0.769985 0.769985 0.986236
0.797009 0.797009 1
0.664973 0.664973 0.997467
0.691997 0.691997 1
0.71902 0.71902 1
0.746044 0.746044 1
0.773068 0.773068 1
0.800092 0.800092 1
0.827131 0.827131 1
0.854154 0.854154 1
0.881178 0.881178 1
0.749126 0.749126 1
0.77615 0.77615 1
0.803189 0.803189 1
0.830213 0.830213 1
0.857237 0.857237 1
0.88426 0.88426 1
0.911284 0.911284 1
0.938323 0.938323 1
0.965347 0.965347 1
0.0866407 0.0866407 0
0.113664 0.113664 0
0.140688 0.140688 0
0.167712 0.167712 0
0.194751 0.194751 0
0.221775 0.221775 0
0.248798 0.248798 0.0112917
0.275822 0.275822 0.0320745
0.302846 0.302846 0.0528573
0.170794 0.170794 0.0432898
0.197818 0.197818 0.0640574
0.224842 0.224842 0.0848402
0.251881 0.251881 0.105623
0.278904 0.278904 0.12639
0.305928 0.305928 0.147173
0.332952 0.332952 0.167941
0.359976 0.359976 0.188724
0.386999 0.386999 0.209506
0.254963 0.254963 0.199954
0.281987 0.281987 0.220737
0.30901 0.30901 0.241505
0.336034 0.336034 0.262287
0.363073 0.363073 0.283055
0.390097 0.390097 0.303838
0.417121 0.417121 0.32462
0.444144 0.444144 0.345388
0.471168 0.471168 0.366171
0.339132 0.339132 0.356619
0.366155 0.366155 0.377401
0.393179 0.393179 0.398169
0.420203 0.420203 0.418952
0.447227 0.447227 0.439734
0.474266 0.474266 0.460502
0.501289 0.501289 0.481285
0.528313 0.528313 0.502052
0.555337 0.555337 0.522835
0.423301 0.423301 0.513298
0.450324 0.450324 0.534066
0.477348 0.477348 0.554849
0.504372 0.504372 0.575616
0.531395 0.531395 0.596399
0.558434 0.558434 0.617166
0.585458 0.585458 0.637949
0.612482 0.612482 0.658732
0.639506 0.639506 0.6795
0.507469 0.507469 0.669963
0.534493 0.534493 0.69073
0.561517 0.561517 0.711513
0.58854 0.58854 0.73228
0.615564 0.615564 0.753063
0.642588 0.642588 0.773846
0.669627 0.669627 0.794614
0.696651 0.696651 0.815396
0.723674 0.723674 0.836164
0.591638 0.591638 0.826627
0.618647 0.618647 0.84741
0.645685 0.645685 0.868177
0.672709 0.672709 0.88896
0.699733 0.699733 0.909728
0.726757 0.726757 0.93051
0.75378 0.75378 0.951278
0.780819 0.780819 0.972061
0.807843 0.807843 0.992844
0.675792 0.675792 0.983291
0.702815 0.702815 1
0.729854 0.729854 1
0.756878 0.756878 1
0.783902 0.783902 1
0.810925 0.810925 1
0.837949 0.837949 1
0.864988 0.864988 1
0.892012 0.892012 1
0.75996 0.75996 1
0.786984 0.786984 1
0.814008 0.814008 1
0.841047 0.841047 1
0.86807 0.86807 1
0.895094 0.895094 1
0.922118 0.922118 1
0.949142 0.949142 1
0.976181 0.976181 1
