src/luts/rounded/1.cube
TITLE "33x33x33 Adobe/IRIDAS cube 3D LUT exported with GrossGrade v0.2.2 (beta) 64 bit"
DOMAIN_MIN 0 0 0
DOMAIN_MAX 1 1 1
LUT_3D_SIZE 5
0.029602500 0.029831400 0.034836300
0.211841002 0.049881700 0.044235900
0.435294002 0.089829899 0.087586798
0.643670976 0.133623004 0.129931003
0.721598983 0.144731998 0.140809998
0.047440302 0.157915995 0.073945202
0.246676996 0.205463007 0.076020397
0.472342998 0.211124003 0.109667003
0.675669014 0.213703007 0.144410998
0.788753986 0.228518993 0.163545996
0.097062603 0.321630001 0.124025002
0.162631005 0.347265005 0.108384997
0.496849000 0.436605990 0.159792006
0.705332994 0.440710992 0.187380999
0.832638979 0.443655998 0.205782995
0.157931000 0.526040018 0.176866993
0.203204006 0.536843002 0.176027998
0.424582005 0.610894978 0.202213004
0.684306026 0.665965021 0.242069006
0.853833973 0.651208997 0.256381989
0.217089996 0.730602026 0.234011993
0.262836993 0.742504001 0.238224000
0.387930006 0.771907985 0.248508006
0.632990003 0.804120004 0.272709012
0.823880017 0.815258980 0.295475990
0.028229199 0.055878501 0.187319994
0.235293999 0.061203901 0.224186003
0.489737988 0.111359999 0.243747994
0.684046984 0.150378004 0.255039006
0.733943999 0.154559001 0.259205014
0.070099898 0.216906995 0.229922995
0.219821006 0.240360007 0.252337992
0.513664007 0.224566996 0.248080999
0.728770971 0.235415995 0.265614003
0.821210027 0.246264994 0.276782990
0.123796001 0.392614990 0.299214005
0.169512004 0.402518004 0.278737009
0.503455997 0.467200994 0.230945006
0.723124981 0.461952001 0.269885987
0.864286005 0.462776005 0.295720011
0.175494000 0.566720009 0.324986994
0.219577000 0.580071986 0.325215995
0.423453003 0.637232006 0.267673999
0.693415999 0.673304021 0.292881995
0.875348985 0.663478017 0.312855989
0.228504002 0.748134971 0.353964001
0.267628014 0.751827002 0.355138004
0.364279002 0.787334979 0.314548999
0.634622991 0.808697999 0.321415991
0.833599985 0.820859015 0.344549000
0.074631900 0.172045007 0.384451002
0.216129005 0.085175902 0.416799992
0.523338974 0.138246998 0.484656990
0.702189982 0.173663005 0.499381989
0.736324012 0.174823001 0.501335025
0.114656001 0.315999001 0.431677997
0.145953000 0.289020985 0.445852995
0.553795993 0.313603014 0.551964998
0.762310028 0.312047005 0.543954015
0.843609989 0.331761986 0.555199981
0.172702000 0.487830997 0.491798013
0.213382006 0.495490998 0.500786006
0.491524011 0.555108011 0.562020004
0.763927996 0.524085999 0.553520977
0.902418971 0.528145015 0.557321012
0.217517003 0.639276981 0.525536001
0.260821998 0.655451000 0.549157023
0.428977013 0.702174008 0.578957975
0.712825000 0.734447002 0.552604973
0.909040987 0.709957004 0.533592999
0.255955011 0.782100976 0.560402989
0.295780987 0.790188015 0.576897979
0.360861003 0.807599008 0.575218976
0.636407971 0.852734983 0.554452002
0.868559003 0.867689013 0.515770018
0.098008700 0.225895002 0.521018982
0.155688003 0.096086100 0.564293981
0.490882993 0.144044995 0.635279000
0.701183021 0.187762007 0.683421016
0.737652004 0.190111995 0.686122000
0.137483999 0.361775994 0.569222987
0.170993000 0.345021993 0.598306000
0.502952993 0.352284998 0.732569993
0.762202978 0.353017002 0.757396996
0.849897027 0.387899995 0.772641003
0.183443993 0.502358019 0.616250992
0.228579998 0.523307979 0.648980975
0.378652990 0.553704023 0.720928013
0.754620016 0.574014008 0.785290003
0.905272007 0.593789995 0.787625015
0.230625004 0.655314028 0.659830987
0.277256012 0.681056023 0.689020991
0.397832990 0.718699992 0.730158985
0.704096973 0.768795013 0.786816001
0.919386983 0.762753010 0.790951014
0.268649995 0.795009971 0.698710978
0.309850007 0.807232976 0.720699012
0.380452991 0.831067026 0.748089015
0.654489994 0.879239976 0.797802985
0.875181019 0.913999975 0.805966020
0.116486996 0.271122009 0.630320013
0.143998995 0.185076997 0.661661983
0.490974009 0.156191006 0.715496004
0.709087014 0.196902007 0.754696012
0.748592019 0.200152993 0.756053984
0.147860005 0.384023994 0.672297001
0.190706998 0.394033998 0.706476986
0.454748988 0.387335002 0.833752990
0.752865016 0.390219003 0.859052002
0.859494984 0.439016998 0.882306993
0.189531997 0.513190985 0.706843972
0.232380003 0.528541982 0.737652004
0.320378006 0.541207016 0.820661008
0.718715012 0.589380026 0.911696017
0.904767990 0.626794994 0.932722986
0.227892995 0.643411994 0.743618011
0.275105000 0.670404971 0.774685025
0.349934995 0.703700006 0.818432987
0.645762026 0.760769010 0.886900008
0.911329985 0.773540974 0.919019997
0.266133010 0.784222007 0.787045002
0.310018003 0.803997993 0.807843029
0.369908988 0.829235971 0.830564022
0.636774004 0.884123027 0.880720019
0.880064011 0.924085975 0.923094988
