src/luts/rounded/1.cube
TITLE "33x33x33 Adobe/IRIDAS cube 3D LUT exported with GrossGrade v0.2.2 (beta) 64 bit"
DOMAIN_MIN 0 0 0
DOMAIN_MAX 1 1 1
LUT_3D_SIZE 33
0.029602500 0.029831400 0.034836300
0.056794100 0.035492498 0.035889201
0.079987802 0.038819000 0.034103900
0.101869002 0.041718200 0.033890299
0.122758999 0.043854401 0.034546401
0.144427001 0.045548201 0.036072299
0.166629001 0.046967302 0.038254399
0.188997999 0.048371099 0.041031498
0.211841002 0.049881700 0.044235900
0.237369001 0.052231599 0.048325300
0.264102995 0.055512302 0.053025100
0.291599989 0.059906900 0.058258899
0.320134014 0.065415397 0.064026900
0.349797994 0.071580097 0.070115201
0.378912002 0.077790499 0.076112002
0.407674998 0.083939902 0.081986703
0.435294002 0.089829899 0.087586798
0.463232994 0.095796101 0.093400501
0.490837008 0.101671003 0.099183597
0.517921984 0.107469000 0.104860000
0.544471979 0.113146000 0.110413998
0.570321023 0.118593000 0.115723997
0.595331013 0.123765998 0.120714001
0.619699001 0.128756002 0.125413999
0.643670976 0.133623004 0.129931003
0.667047977 0.138322994 0.134324998
0.689143002 0.142747998 0.138429999
0.697413981 0.143770993 0.139513001
0.702754021 0.144076005 0.139879003
0.707515001 0.144227996 0.140168995
0.712215006 0.144381002 0.140397996
0.716929972 0.144548997 0.140626997
0.721598983 0.144731998 0.140809998
0.026871100 0.044983599 0.037293099
0.054398399 0.051087201 0.038773201
0.080170900 0.053788099 0.036347002
0.103334002 0.056198999 0.035843398
0.124636002 0.057679102 0.036163900
0.146059006 0.058579400 0.037354100
0.168353006 0.059266001 0.039383501
0.190906003 0.059906900 0.042099599
0.213259995 0.060486801 0.045120899
0.238102004 0.061921101 0.049012002
0.264697999 0.064484604 0.053711802
0.292575985 0.068055198 0.059021901
0.321034998 0.072510898 0.064637199
0.349629998 0.077515803 0.070267797
0.377234012 0.082780197 0.075639002
0.403966993 0.088242903 0.080766000
0.430182010 0.093827702 0.085832000
0.456901014 0.099565104 0.091187902
0.484427989 0.105425000 0.096940599
0.512749016 0.111482002 0.102891997
0.540520012 0.117417999 0.108704999
0.567071021 0.123048998 0.114183001
0.592401028 0.128343999 0.119295001
0.616693020 0.133332998 0.124055997
0.640177011 0.138093993 0.128556997
0.663127005 0.142718002 0.132890999
0.685648978 0.147265002 0.137071997
0.696161985 0.148866996 0.138597995
0.702739000 0.149507999 0.139192998
0.706934988 0.149553999 0.139284000
0.711528003 0.149706006 0.139405996
0.716152012 0.149858996 0.139559001
0.720759988 0.150011003 0.139680997
0.025726700 0.060502000 0.041519798
0.046204299 0.066285200 0.041550301
0.080247201 0.070298299 0.039551400
0.106325001 0.072968602 0.039612401
0.128405005 0.074403003 0.039765000
0.150027007 0.075440601 0.040436398
0.172625005 0.076112002 0.042038601
0.195865005 0.076478198 0.044571601
0.218630999 0.076371402 0.047623400
0.242908001 0.076691799 0.051346600
0.269291013 0.077866800 0.055924300
0.296970993 0.079697900 0.060975101
0.324986994 0.082673401 0.066208899
0.352483004 0.086442403 0.071320698
0.380026013 0.090898000 0.076478198
0.407507002 0.095735103 0.081666298
0.434500992 0.100800999 0.086869597
0.461798996 0.106110997 0.092271298
0.489432991 0.111803003 0.097795099
0.517036974 0.117678002 0.103349000
0.543801010 0.123429999 0.108811997
0.569696009 0.128922999 0.114152998
0.594826996 0.134173006 0.119295001
0.618722975 0.139131993 0.124071002
0.641825020 0.143847004 0.128556997
0.664363027 0.148394004 0.132844999
0.686457992 0.152818993 0.136979997
0.700663984 0.155305997 0.139376000
0.708720982 0.156297997 0.140291005
0.713007987 0.156389996 0.140337005
0.717494011 0.156512007 0.140414000
0.721949995 0.156618997 0.140475005
0.726374984 0.156725004 0.140505001
0.027374700 0.077424303 0.046845201
0.040863700 0.082276598 0.046570498
0.069214903 0.088136099 0.045090400
0.104082003 0.092805400 0.043411899
0.131151006 0.094865300 0.043656100
0.154253006 0.095841900 0.044617400
0.177065998 0.096208103 0.045990702
0.200717002 0.096177600 0.048218500
0.224399000 0.095796101 0.051178802
0.248676002 0.095216297 0.054673102
0.275577992 0.094972201 0.059082899
0.303364992 0.095399402 0.063859001
0.331364989 0.097123697 0.068818197
0.358190000 0.099610902 0.073578998
0.385762990 0.102845997 0.078675501
0.413260013 0.106508002 0.083894096
0.440284014 0.110430002 0.089097403
0.467460006 0.114762999 0.094422802
0.495582998 0.119768001 0.099992402
0.523856997 0.125154004 0.105668999
0.551217020 0.130570993 0.111130998
0.577539027 0.135942996 0.116396002
0.602945030 0.141252995 0.121416003
0.626963019 0.146348998 0.126101002
0.650018990 0.151186004 0.130494997
0.672572017 0.155809999 0.134812996
0.694010973 0.160052001 0.138933003
0.712321997 0.163531005 0.142397001
0.720668018 0.164599001 0.143404007
0.725017011 0.164691001 0.143435001
0.729014993 0.164706007 0.143373996
0.733150005 0.164736003 0.143373996
0.737223983 0.164720997 0.143327996
0.030502800 0.094071902 0.052292701
0.039673500 0.097612001 0.051636498
0.058442101 0.104387000 0.049042501
0.095307797 0.110857002 0.046341699
0.129488006 0.115189999 0.047501300
0.157426998 0.116655000 0.048920400
0.181841999 0.116976000 0.050370000
0.205798000 0.116792999 0.052445300
0.229922995 0.116669998 0.055405501
0.254260987 0.116152003 0.058793001
0.280719995 0.115831003 0.062882401
0.308109999 0.115557000 0.067231297
0.336019009 0.115617998 0.071732700
0.363272011 0.116503000 0.076447703
0.391043007 0.118226998 0.081574701
0.418601006 0.120454997 0.086732298
0.445517987 0.123186000 0.091813497
0.472602010 0.126451999 0.096986301
0.500434995 0.130282000 0.102357998
0.528527021 0.134890005 0.107850999
0.556038976 0.139634997 0.113237001
0.582741976 0.144427001 0.118441001
0.608300984 0.149171993 0.123338997
0.632943988 0.153979003 0.128022999
0.656611025 0.158693999 0.132464007
0.679637015 0.163271993 0.136858001
0.701595008 0.167575002 0.141114995
0.722911000 0.171801001 0.145556003
0.731670022 0.172930002 0.146777004
0.737040997 0.173251003 0.147127002
0.741313994 0.173311993 0.147189006
0.745678008 0.173388004 0.147294998
0.749889016 0.173388004 0.147311002
0.034393799 0.109957002 0.057618100
0.041199401 0.112214997 0.056641500
0.052872501 0.118959002 0.053635500
0.083176903 0.126375005 0.049362902
0.122164004 0.133272007 0.050614201
0.155931994 0.136767000 0.052811500
0.184833005 0.137682006 0.054764599
0.211444005 0.138003007 0.057129800
0.236315995 0.138216004 0.060181599
0.261204004 0.137880996 0.063523300
0.287723988 0.137850001 0.067490697
0.315465003 0.137651995 0.071763203
0.343358994 0.137575001 0.076234102
0.370779008 0.137636006 0.080826998
0.397558987 0.137925997 0.085511602
0.424750000 0.138871998 0.090409704
0.451422989 0.140383005 0.095277302
0.478080004 0.142335996 0.100190997
0.505271971 0.144731998 0.105226003
0.532981992 0.148043007 0.110445000
0.560800016 0.151887998 0.115723997
0.587854028 0.155977994 0.120820999
0.613641977 0.160219997 0.125627995
0.638375998 0.164445996 0.130174994
0.662057996 0.168704003 0.134553999
0.685205996 0.172900006 0.139009997
0.707545996 0.177035004 0.143496007
0.729488015 0.181505993 0.148408994
0.740826011 0.183184996 0.150378004
0.748103976 0.183841005 0.151246995
0.752407014 0.183718994 0.151324004
0.756802022 0.183626994 0.151415005
0.761134982 0.183520004 0.151492000
0.038452700 0.125521004 0.062912896
0.044129100 0.126696005 0.061814301
0.052872501 0.132203996 0.059388101
0.072022602 0.139788002 0.053238701
0.110994004 0.148882002 0.053513400
0.149477005 0.155474007 0.056351598
0.184297994 0.158663005 0.059311800
0.215121999 0.159624994 0.062134702
0.242344007 0.159944996 0.065262802
0.268101007 0.160203993 0.068665601
0.294835001 0.160478994 0.072541401
0.322515011 0.160448998 0.076691799
0.350163996 0.160219997 0.081010103
0.377279013 0.160052001 0.085435301
0.403524995 0.159990996 0.089845099
0.430869013 0.160081998 0.094560198
0.457221001 0.160647005 0.099183597
0.483619004 0.161486000 0.103822000
0.510322988 0.162844002 0.108567998
0.537392020 0.164706007 0.113420002
0.565178990 0.167407006 0.118501998
0.591959000 0.170488998 0.123415001
0.617639005 0.173677996 0.128084004
0.642648995 0.177127004 0.132707998
0.666849971 0.180666998 0.137345999
0.690165997 0.184404999 0.141847998
0.712825000 0.188448995 0.146456003
0.734600008 0.192706004 0.151155993
0.750271022 0.195712000 0.154299006
0.758418977 0.196596995 0.155413002
0.762889981 0.196490005 0.155520007
0.767314970 0.196367994 0.155626997
0.771831989 0.196291998 0.155779004
0.042847302 0.141526997 0.068345197
0.047974400 0.142152995 0.067109197
0.054764599 0.145677999 0.064484604
0.065033898 0.152025998 0.059235498
0.098237596 0.161928996 0.057221301
0.139513001 0.171831995 0.059693299
0.178714007 0.178439006 0.063599601
0.214282006 0.180895999 0.067017600
0.246325999 0.182451993 0.070618801
0.275074005 0.183535993 0.074265704
0.302358001 0.184253007 0.078126200
0.330282003 0.184680000 0.082215600
0.358099014 0.184817001 0.086472899
0.385214001 0.184893996 0.090806402
0.411581993 0.184847996 0.095170498
0.438499004 0.184695005 0.099671900
0.464529991 0.184741005 0.104051001
0.490500987 0.184984997 0.108446002
0.516547978 0.185350999 0.112870999
0.542916000 0.185901001 0.117371999
0.569832981 0.186922997 0.122071996
0.596017003 0.188356996 0.126710996
0.621958017 0.190326005 0.131502002
0.647288024 0.192798004 0.136248007
0.671625972 0.195559993 0.140780002
0.694941998 0.198734000 0.145173997
0.717402995 0.202213004 0.149553999
0.739131987 0.206134006 0.153979003
0.758617997 0.210224003 0.158052996
0.766795993 0.211215004 0.159167007
0.771969020 0.211337000 0.159472004
0.776394010 0.211215004 0.159564003
0.780834973 0.211078003 0.159669995
0.047440302 0.157915995 0.073945202
0.052170601 0.157946005 0.072541401
0.057801198 0.159548000 0.069901600
0.066041000 0.164842993 0.065095000
0.087113798 0.174456000 0.060807198
0.126847997 0.185672000 0.062516198
0.169389993 0.195879996 0.067124397
0.207889006 0.201998994 0.071534298
0.246676996 0.205463007 0.076020397
0.279606014 0.207385004 0.080018297
0.308887988 0.208620995 0.083985701
0.337696999 0.209674001 0.088105597
0.365758985 0.210375994 0.092317097
0.392767012 0.210758001 0.096513301
0.419485986 0.211184993 0.100907996
0.446204007 0.211291999 0.105347998
0.472342998 0.211124003 0.109667003
0.497626990 0.210727006 0.113831997
0.523415029 0.210269004 0.118089996
0.549493015 0.209827006 0.122362003
0.575616002 0.209612995 0.126772001
0.601328015 0.209704995 0.131166995
0.626688004 0.210529000 0.135637000
0.651544988 0.211825997 0.140077993
0.675669014 0.213703007 0.144410998
0.698863029 0.216068000 0.148623005
0.721157014 0.218875006 0.152758002
0.742884994 0.222308993 0.156969994
0.763850987 0.226687998 0.161302999
0.773311973 0.228153005 0.162722006
0.779842973 0.228716999 0.163362995
0.784268022 0.228611007 0.163439006
0.788753986 0.228518993 0.163545996
0.052231599 0.174701005 0.079591103
0.056656700 0.174197003 0.078233004
0.061554901 0.174364999 0.076005198
0.068650298 0.178896993 0.071122304
0.081193298 0.186755002 0.066422500
0.112184003 0.197497994 0.065857902
0.154939994 0.209415004 0.069565900
0.197817996 0.220035002 0.075227000
0.240528002 0.227954999 0.080979601
0.278111011 0.230639994 0.085328497
0.312000990 0.232714996 0.089616202
0.343755007 0.234638005 0.093949802
0.372839004 0.236240000 0.098283403
0.400153011 0.237399995 0.102509998
0.427206993 0.238224000 0.106858999
0.454185009 0.238682002 0.111284003
0.480475992 0.238940999 0.115662999
0.505591989 0.238803998 0.119843997
0.531364977 0.238239005 0.124071002
0.556832016 0.237385005 0.128236994
0.582238019 0.236347005 0.132326007
0.607401013 0.235278994 0.136370003
0.631815016 0.234989002 0.140443996
0.655802011 0.235232994 0.144518003
0.679437995 0.236178994 0.148577005
0.702570975 0.237568006 0.152575001
0.724681020 0.239414006 0.156389996
0.746074975 0.242466003 0.160372004
0.765881002 0.246159002 0.164217994
0.780269980 0.248692006 0.166780993
0.787091017 0.249240994 0.167467996
0.791562021 0.249134004 0.167575002
0.796047986 0.249103993 0.167680994
0.057099301 0.191637993 0.085038498
0.061386999 0.190920994 0.083970398
0.066102102 0.190798998 0.082429200
0.072342999 0.194186002 0.077805802
0.080552399 0.199846998 0.072678700
0.102022000 0.209598005 0.069855802
0.139939994 0.222262993 0.071961500
0.183734000 0.234194994 0.077622600
0.229587004 0.246188998 0.084580801
0.270924002 0.253697008 0.090302899
0.310474992 0.257084012 0.095124699
0.346684992 0.259831011 0.099824503
0.378224999 0.261875004 0.104249999
0.406500012 0.263478011 0.108461000
0.433890015 0.264865994 0.112749003
0.461082011 0.265949011 0.117188998
0.487648010 0.266681999 0.121629998
0.513161004 0.266864985 0.125917003
0.538491011 0.266483992 0.130068004
0.563668013 0.265614003 0.134127006
0.588478982 0.264438987 0.138047993
0.613076985 0.262912989 0.141817003
0.636804998 0.261891007 0.145556003
0.660121024 0.261233985 0.149294004
0.683252990 0.261280000 0.153062999
0.706049979 0.261967003 0.156847000
0.727793992 0.263020009 0.160448998
0.748881996 0.265446007 0.164232999
0.768750012 0.268420994 0.167895004
0.787181973 0.271488994 0.171327993
0.793088019 0.271824002 0.171831995
0.798062027 0.271885008 0.172076002
0.802518010 0.271701992 0.172183007
0.062348399 0.209491000 0.090531804
0.066666700 0.208927006 0.089982502
0.071457997 0.209110007 0.089051597
0.076951303 0.210941002 0.085404702
0.083802603 0.215060994 0.079575799
0.097535700 0.223574996 0.074982800
0.127152994 0.235477000 0.075181201
0.167925999 0.247639000 0.079972498
0.215412006 0.261447996 0.087251097
0.261981994 0.273822993 0.094667003
0.301595002 0.281147003 0.100221001
0.343023002 0.284610987 0.105302997
0.379568011 0.287281990 0.110048003
0.411092997 0.289723009 0.114487998
0.439581990 0.291676015 0.118776001
0.467292011 0.293354988 0.123200998
0.493965000 0.294254988 0.127504006
0.519890010 0.295002997 0.131837994
0.545342028 0.295139998 0.136019006
0.570245028 0.294620991 0.140063003
0.594964981 0.293567985 0.143968999
0.618631005 0.291936010 0.147554994
0.641946971 0.290425003 0.151079997
0.664775014 0.289386988 0.154650003
0.687236011 0.288762003 0.158206001
0.709468007 0.288823009 0.161836997
0.731043994 0.289189011 0.165346995
0.751949012 0.290486008 0.168901995
0.772060990 0.292881995 0.172488004
0.789623976 0.295567006 0.175677001
0.798886001 0.296498001 0.176973999
0.804440022 0.296436995 0.177370995
0.809002995 0.296101004 0.177493006
0.068390898 0.229328007 0.096681200
0.072800800 0.229067996 0.096559100
0.077454798 0.228962004 0.095872402
0.082490303 0.229708999 0.094102398
0.088914298 0.233280003 0.087174803
0.097444102 0.239795998 0.081406899
0.118914001 0.250111014 0.079743601
0.153613001 0.262042999 0.082993798
0.200488001 0.276706994 0.090119801
0.249271005 0.291294992 0.098100297
0.292804986 0.302937001 0.105118997
0.333653986 0.310261995 0.110826001
0.375966996 0.313663989 0.115938000
0.412649989 0.316426009 0.120653003
0.443502992 0.318958998 0.125031993
0.472479999 0.320957989 0.129411995
0.499794006 0.322789013 0.133775994
0.525840998 0.323980004 0.138017997
0.551307976 0.324696988 0.142214000
0.576577008 0.324681014 0.146334007
0.600977004 0.323659003 0.150117993
0.624337971 0.322210014 0.153658003
0.647288024 0.320775002 0.157106996
0.669641972 0.319126993 0.160418004
0.691568971 0.318287998 0.163836002
0.713222027 0.317678005 0.167254001
0.734524012 0.317281008 0.170580998
0.755244970 0.317647010 0.173938006
0.775295973 0.319936007 0.177539006
0.792308986 0.322041988 0.180499002
0.805814028 0.323751003 0.182696000
0.810284972 0.323186010 0.182788000
0.814846992 0.323155999 0.182986006
0.075211696 0.251163989 0.103380002
0.079591103 0.250827998 0.103257999
0.084214501 0.250660002 0.103044003
0.089021102 0.250858009 0.102480002
0.095017903 0.253619999 0.095384099
0.101563998 0.257328004 0.088990599
0.116503000 0.266589999 0.085664101
0.143481001 0.278492004 0.087205298
0.186267003 0.292896986 0.093598798
0.234775007 0.308095008 0.101457000
0.282155007 0.322210014 0.109300002
0.324407011 0.333317995 0.116060004
0.366766006 0.340443999 0.121843003
0.408544987 0.343908012 0.126909003
0.443351001 0.346105009 0.131243005
0.474997997 0.348408997 0.135591999
0.504096985 0.350499988 0.139895007
0.530663013 0.352560014 0.144198000
0.556451023 0.353657991 0.148286998
0.581902981 0.354025006 0.152300000
0.606256008 0.353735000 0.156054005
0.629602015 0.352544010 0.159532994
0.652171016 0.351063997 0.162844002
0.674205005 0.349934995 0.166154996
0.695918024 0.348623008 0.169375002
0.717189014 0.347844988 0.172671005
0.738231003 0.347447991 0.175966993
0.758862019 0.347539008 0.179262996
0.778698027 0.349492997 0.182742000
0.796872020 0.351431012 0.185855001
0.810361028 0.353002012 0.188036993
0.815396011 0.352620989 0.188265994
0.819944024 0.352560014 0.188464001
0.082581803 0.274556011 0.110642999
0.086854398 0.274022013 0.110384002
0.091554098 0.274006009 0.110201001
0.096391201 0.274311006 0.109376997
0.101990998 0.276111990 0.104630999
0.108002998 0.278827995 0.097688302
0.118409999 0.286579996 0.092713803
0.138368994 0.296665996 0.092469700
0.174121007 0.309742987 0.097657703
0.220294997 0.324925989 0.105074003
0.270024002 0.340535998 0.113312997
0.314716995 0.353933007 0.120760001
0.357656002 0.364782006 0.127535000
0.399343997 0.371755987 0.133211002
0.438834012 0.374440998 0.137742996
0.473654985 0.376576990 0.141984999
0.505989015 0.378957987 0.146394998
0.534051001 0.380789012 0.150515005
0.560707986 0.382283986 0.154559001
0.586282015 0.383260995 0.158526003
0.610620022 0.383397996 0.162157997
0.634118974 0.382696003 0.165591002
0.656473994 0.381765008 0.168871999
0.678278983 0.380423009 0.171984002
0.699778974 0.379308999 0.175113007
0.720957994 0.378484994 0.178316996
0.741527021 0.377889991 0.181445003
0.761807024 0.377997011 0.184649006
0.781688988 0.378957987 0.187914997
0.801021993 0.381476015 0.191332996
0.813229978 0.382849008 0.193256006
0.820156991 0.383215010 0.193987995
0.824612975 0.382802993 0.194124997
0.089768797 0.297841012 0.117478997
0.094071902 0.297398001 0.117188998
0.098786898 0.297383010 0.116930000
0.103609003 0.297612011 0.116288997
0.108873002 0.298557997 0.114366002
0.114762999 0.301137000 0.106919996
0.122881003 0.306919992 0.101090997
0.138125002 0.315632999 0.099412501
0.166292995 0.327840000 0.102617003
0.207552999 0.342442989 0.109269999
0.257007986 0.358662993 0.117432997
0.304233998 0.373448998 0.125306994
0.347860008 0.386130005 0.132478997
0.391333014 0.397130996 0.139376000
0.431051999 0.403264999 0.144578993
0.467902988 0.405371010 0.148653001
0.503455997 0.407599002 0.153047994
0.534507990 0.409536988 0.157197997
0.563118994 0.411368012 0.161273003
0.589699984 0.412542999 0.165163994
0.614435017 0.413152993 0.168795004
0.637888014 0.413152993 0.172168002
0.660059988 0.412328988 0.175218999
0.681635976 0.411368012 0.178179994
0.702799976 0.410268992 0.181108996
0.723673999 0.409186006 0.184070006
0.744059980 0.408697993 0.187121004
0.764003992 0.408452988 0.190111995
0.783688009 0.409033000 0.193210006
0.803081989 0.411536008 0.196596995
0.815792978 0.413076997 0.198626995
0.824307978 0.413596004 0.199680001
0.828823984 0.413457990 0.199924007
0.097062603 0.321630001 0.124025002
0.101305000 0.321079999 0.123628996
0.106064998 0.321126014 0.123338997
0.110918000 0.321354985 0.123079002
0.116121002 0.322163999 0.122835003
0.121873997 0.324436992 0.116013996
0.128664002 0.328359008 0.109957002
0.140459001 0.335714012 0.106812999
0.162631005 0.347265005 0.108384997
0.197771996 0.360677987 0.114076003
0.243641004 0.376547009 0.121660002
0.293141007 0.392446995 0.129809007
0.337529987 0.406042993 0.137147993
0.381581992 0.418738008 0.144396007
0.422964990 0.428793997 0.150820002
0.459753990 0.434318006 0.155580997
0.496849000 0.436605990 0.159792006
0.531288981 0.438849002 0.164095998
0.562249005 0.440573990 0.168138996
0.590722978 0.441886008 0.172030002
0.617029011 0.442618012 0.175661996
0.641076982 0.442694992 0.178942993
0.663263977 0.442481011 0.181933001
0.684549987 0.441671997 0.184664994
0.705332994 0.440710992 0.187380999
0.725826025 0.439689010 0.190127000
0.745922029 0.438804001 0.192889005
0.765591025 0.438102007 0.195620999
0.785076976 0.438636005 0.198596001
0.804440022 0.441199005 0.201938003
0.819119990 0.443060994 0.204348996
0.828091979 0.443670988 0.205509007
0.832638979 0.443655998 0.205782995
0.104341000 0.345616996 0.130190000
0.108644001 0.345266014 0.129839003
0.113466002 0.345418006 0.129685998
0.118378997 0.345739007 0.129702002
0.123567998 0.346455991 0.129823998
0.129168004 0.348286986 0.124971002
0.135286003 0.350896001 0.119020000
0.144593999 0.357167989 0.114777997
0.161639005 0.367345989 0.114716999
0.190906003 0.379323989 0.119234003
0.232212007 0.394598007 0.126222998
0.281666011 0.411215007 0.134400994
0.327001005 0.425527990 0.141817003
0.371069014 0.438804001 0.149081007
0.413717985 0.450996011 0.156100005
0.452567011 0.460303992 0.162081003
0.488059998 0.465599000 0.166720003
0.524574995 0.468207985 0.171068996
0.557778001 0.470283002 0.175218999
0.588678002 0.472175002 0.179294005
0.617043972 0.472770005 0.182895005
0.642709970 0.472952992 0.186175004
0.666194022 0.472434998 0.189043999
0.687160015 0.471946001 0.191637993
0.707713008 0.470939010 0.194110006
0.727871001 0.470007986 0.196612000
0.747615993 0.468863994 0.199054003
0.766873002 0.468024999 0.201555997
0.786130011 0.468436986 0.204348996
0.805127025 0.470358998 0.207415998
0.822843015 0.473060012 0.210467994
0.831417978 0.473746985 0.211550996
0.836315989 0.473854005 0.211916998
0.111666001 0.369940013 0.136308998
0.115923002 0.369542986 0.136201993
0.120820999 0.369818002 0.136201993
0.125872001 0.370427996 0.136308998
0.131090000 0.371176004 0.136399999
0.136537999 0.372456998 0.133928001
0.142518997 0.374852985 0.128465995
0.150103003 0.379934013 0.123429999
0.163179994 0.388098001 0.121798001
0.186785996 0.398795009 0.124894999
0.222720996 0.413123012 0.131166995
0.269154012 0.429679006 0.138979003
0.315679014 0.444891989 0.146577999
0.360006005 0.458701015 0.153825998
0.403631985 0.471610993 0.160982996
0.443549007 0.482672989 0.167421997
0.480354011 0.491600007 0.173189998
0.515953004 0.497413993 0.178149000
0.550637007 0.500052989 0.182375997
0.583397985 0.502448976 0.186587006
0.613519013 0.503807008 0.190417007
0.641381979 0.503989995 0.193774000
0.666758001 0.503655016 0.196765006
0.688914001 0.502510011 0.199160993
0.709743023 0.501456976 0.201464996
0.729824007 0.500267029 0.203676999
0.749217987 0.499123007 0.205890000
0.768092990 0.497902006 0.208072007
0.786998987 0.498008996 0.210620001
0.805844009 0.499457985 0.213442996
0.825055003 0.502463996 0.216723993
0.833875000 0.503380001 0.217884004
0.839901984 0.503867984 0.218509004
0.119462997 0.395850003 0.142992005
0.123765998 0.395529002 0.142915994
0.128648996 0.395711988 0.142901003
0.133761004 0.396414012 0.143022999
0.138963997 0.397040009 0.143130004
0.144273996 0.397864014 0.142747998
0.150163993 0.400014997 0.138017997
0.156863004 0.403600991 0.132799000
0.167178005 0.410100996 0.130082995
0.185335994 0.419532001 0.131211996
0.215000004 0.431739002 0.136294007
0.257587999 0.447867990 0.143632993
0.304311007 0.463782996 0.151338995
0.349034995 0.478172004 0.158601999
0.392675996 0.491402000 0.165666997
0.433645993 0.503075004 0.172197998
0.471946001 0.513725996 0.178499997
0.507377982 0.522285998 0.184192002
0.542840004 0.528496027 0.189364001
0.575814009 0.531548023 0.193606004
0.607186973 0.533410013 0.197558999
0.636682987 0.534859002 0.201404005
0.664088011 0.534554005 0.204531997
0.688440979 0.533043027 0.206911996
0.710246027 0.531548023 0.209049001
0.730952978 0.529976010 0.211078003
0.750652015 0.528510988 0.213062003
0.769115984 0.527108014 0.214984000
0.787594020 0.526650012 0.217181996
0.806226015 0.527580976 0.219744995
0.825344980 0.530785024 0.222994998
0.836103022 0.532096982 0.224491000
0.843397021 0.532876015 0.225360006
0.127230003 0.421790004 0.149691001
0.131532997 0.421454012 0.149615005
