src/luts/rounded/10.cube
TITLE "Generated by Resolve"
LUT_3D_SIZE 33
0 0 0
0.0204318 0 0
0.0413367 0 0
0.0639963 0 0
0.0904402 0 0
0.121935 0 0
0.158282 0 0
0.196841 0 0
0.234928 0 0
0.273243 0 0
0.312093 0 0
0.351186 0 0
0.390265 0 0
0.429053 0 0
0.467277 0 0
0.504677 0 0
0.540993 0 0
0.575952 0 0
0.609476 0 0
0.641642 0 0
0.672496 0 0
0.702129 0 0
0.730602 0 0
0.758053 0 0
0.784756 0 0
0.810895 0 0
0.836591 0 0
0.861997 0 0
0.887251 0 0
0.91249 0 0
0.937881 0 0
0.963561 0 0
0.98967 0 0
1.5259e-05 0.0205844 1.5259e-05
0.0205844 0.0205844 1.5259e-05
0.0413519 0.0205081 0
0.0639658 0.0199435 0
0.0904402 0.0183871 0
0.122042 0.0155337 0
0.158556 0.0114443 0
0.197391 0.0068513 0
0.235798 0.00254826 0
0.274525 0 0
0.313863 0 0
0.353521 0 0
0.393256 0 0
0.432807 0 0
0.471885 0 0
0.510185 0 0
0.547448 0 0
0.583368 0 0
0.617884 0 0
0.651041 0 0
0.682948 0 0
0.713619 0 0
0.743099 0 0
0.771481 0 0
0.798993 0 0
0.825803 0 0
0.852064 0 0
0.877897 0.00277714 0
0.903456 0.00766003 0
0.928878 0.0125734 0
0.95433 0.0174563 0
0.979934 0.0222171 0.00164797
1 0.0267643 0.00619516
0 0.0412146 0
0.0204166 0.0412757 0
0.0413214 0.0413214 0
0.0641489 0.0409705 0
0.090898 0.039704 0
0.122866 0.0372015 0
0.159823 0.0335546 0
0.199161 0.0294957 0
0.238163 0.0257725 0
0.277592 0.0222629 0
0.317723 0.0189059 0
0.358251 0.0157931 0
0.398917 0.0130007 0
0.439399 0.0106203 0
0.479438 0.00872816 0
0.518746 0.0074464 0
0.557031 0.00682078 0
0.594003 0.00695811 0
0.629557 0.0078584 0
0.663706 0.00946059 0
0.696498 0.0117189 0
0.727932 0.0145571 0
0.758053 0.0179446 0
0.786938 0.0217899 0
0.814847 0.0260014 0
0.841901 0.0304723 0
0.868299 0.0351263 0
0.894133 0.0398871 0
0.919585 0.0446479 0.00321965
0.944778 0.0493172 0.00788891
0.969955 0.0539406 0.0125124
0.995392 0.0585336 0.0171054
1 0.0630503 0.021622
0 0.0630045 0
0.0193332 0.0633707 0
0.0406348 0.0638132 0
0.0639353 0.0639353 0
0.0912337 0.0632029 0
0.123812 0.0613413 0
0.161517 0.0584115 0
0.201678 0.0551766 0
0.241581 0.0523537 0
0.281941 0.0497749 0
0.323018 0.0473793 0
0.364523 0.045243 0
0.406195 0.0434424 0
0.447715 0.0420996 0
0.488807 0.0412757 0
0.529137 0.041001 0
0.568383 0.0413367 0
0.606195 0.0423133 0
0.642451 0.0439307 0
0.677195 0.046128 0
0.710445 0.0488289 0
0.742229 0.052018 0
0.772564 0.0556191 0
0.801541 0.059556 0
0.829404 0.0637369 0
0.856321 0.0680552 0.00344854
0.882429 0.0724346 0.00782788
0.908034 0.0769513 0.0123445
0.933364 0.08159 0.0169985
0.958602 0.0863203 0.0217136
0.983902 0.0910658 0.0264591
1 0.0957809 0.0311742
1 0.10042 0.0358129
0 0.0875257 0
0.0164187 0.0884565 0
0.0383764 0.0895705 0
0.0624399 0.0904707 0
0.0905928 0.0905928 0
0.124086 0.0896315 0
0.162722 0.0876478 0
0.203845 0.0853742 0
0.244739 0.0835431 0
0.286122 0.0819867 0
0.328237 0.0806287 0
0.370809 0.07953 0
0.413474 0.0787518 0
0.455924 0.0783246 0
0.49781 0.0782788 0
0.538796 0.0786908 0
0.578576 0.0795605 0
0.616815 0.0809644 0
0.653376 0.0828717 0
0.688289 0.0852216 0
0.721584 0.0879835 0
0.753277 0.0910964 0
0.783398 0.0944839 0.0018616
0.8121 0.098146 0.00552377
0.839765 0.102129 0.00950637
0.866621 0.106371 0.0137484
0.892821 0.110857 0.0182345
0.918563 0.115496 0.0228733
0.944015 0.120256 0.0276341
0.969345 0.125093 0.0324712
0.994751 0.129931 0.0373083
1 0.134737 0.0421149
1 0.139452 0.0468299
0 0.116197 0
0.0115053 0.118013 0
0.0343938 0.120043 0
0.0594034 0.121874 0
0.0885176 0.122988 0
0.123018 0.123018 0
0.162676 0.122072 0
0.204852 0.120836 0
0.246784 0.120043 0
0.289143 0.119463 0
0.332143 0.118975 0
0.375448 0.118639 0
0.418738 0.118471 0
0.461677 0.118547 0
0.503944 0.118883 0
0.54519 0.119539 0
0.585092 0.120531 0
0.623331 0.121935 0
0.659754 0.12372 0
0.694423 0.125826 0
0.727459 0.128313 0.00123598
0.758999 0.131273 0.00419623
0.78912 0.134661 0.00758373
0.817945 0.138445 0.011368
0.845731 0.14255 0.0154726
0.872709 0.146914 0.0198367
0.899016 0.151492 0.0244144
0.924834 0.156237 0.02916
0.950378 0.161074 0.0339971
0.975784 0.165972 0.0388952
1 0.170871 0.0437934
1 0.175723 0.0486458
1 0.180453 0.0533761
0 0.149722 0
0.00538643 0.152514 0
0.0292973 0.15555 0
0.0553292 0.158434 0
0.0855116 0.160586 0
0.121035 0.161639 0
0.161639 0.161639 0
0.204639 0.161242 0
0.247272 0.161151 0
0.290211 0.161135 0
0.333654 0.161105 0
0.377295 0.161089 0
0.420783 0.161135 0
0.463813 0.161288 0
0.50602 0.161578 0
0.547097 0.162051 0
0.586725 0.162768 0
0.62472 0.163943 0
0.661067 0.165621 0
0.695781 0.167788 0.000106813
0.728954 0.170428 0.00273136
0.760616 0.173495 0.00581369
0.790845 0.177005 0.009308
0.81976 0.18088 0.0131991
0.847654 0.185077 0.01738
0.874693 0.189517 0.0218357
0.901061 0.194156 0.0264744
0.92694 0.198947 0.0312657
0.952514 0.20383 0.0361334
0.977935 0.208759 0.041062
1 0.213657 0.0459754
1 0.218509 0.0508278
1 0.223239 0.0555581
0 0.187442 0
0.000762951 0.191287 0
0.0256504 0.195331 0
0.0525978 0.1991 0
0.0835584 0.202045 0
0.119738 0.203754 0
0.160876 0.204288 0
0.204288 0.204288 0
0.247211 0.204486 0
0.290303 0.204639 0
0.333776 0.204639 0
0.377325 0.204532 0
0.420615 0.204364 0
0.46334 0.204227 0
0.505379 0.204334 0
0.546395 0.204761 0
0.58613 0.205585 0
0.624262 0.206897 0
0.660716 0.208698 0
0.695537 0.210956 0
0.728801 0.213687 0.00257877
0.760555 0.216846 0.00573739
0.79086 0.220417 0.009308
0.819837 0.224353 0.0132601
0.847761 0.228595 0.0175021
0.874846 0.233082 0.021973
0.901228 0.237736 0.0266423
0.927123 0.242542 0.0314336
0.952682 0.247425 0.0363165
0.978103 0.252323 0.0412299
1 0.257206 0.0461128
1 0.262028 0.0509194
1 0.266697 0.0556039
0 0.228229 0
0 0.232807 0
0.0250706 0.237461 0
0.0525063 0.241718 0
0.0838178 0.245014 0
0.120241 0.246983 0
0.161486 0.247608 0
0.204883 0.247608 0
0.247669 0.247669 0
0.290501 0.247562 0
0.333715 0.247303 0
0.377127 0.247059 0
0.420417 0.246891 0
0.463294 0.246891 0
0.50544 0.24712 0
0.546593 0.247669 0
0.586419 0.2486 0
0.624643 0.250004 0
0.661173 0.251881 0
0.696071 0.254215 0.000381476
0.729381 0.256977 0.00315862
0.761166 0.260182 0.00636301
0.791501 0.263783 0.00996414
0.820493 0.26775 0.0139162
0.848432 0.271992 0.0181735
0.875502 0.276463 0.0226444
0.901869 0.281102 0.0272831
0.927733 0.285878 0.0320592
0.953262 0.290715 0.0368963
0.978622 0.295567 0.0417487
1 0.300389 0.0465553
1 0.305119 0.0512856
1 0.309697 0.0558785
0 0.271061 0
0 0.275944 0
0.0254673 0.280797 0
0.0529641 0.28513 0
0.0842298 0.288365 0
0.12047 0.290135 0
0.161425 0.290501 0
0.204608 0.290272 0
0.247303 0.290242 0
0.290196 0.290196 0
0.333562 0.290074 0
0.377096 0.289952 0
0.420493 0.289906 0
0.463462 0.289998 0
0.505699 0.290318 0
0.546914 0.290929 0
0.586816 0.291936 0
0.625086 0.29337 0
0.661646 0.295293 0
0.696574 0.297642 0.000885023
0.7299 0.300435 0.00367742
0.761685 0.303639 0.00688182
0.792004 0.307225 0.0104677
0.820981 0.311162 0.0144045
0.84889 0.315373 0.018616
0.875898 0.319799 0.0230411
0.90222 0.324376 0.0276188
0.928008 0.329076 0.0323186
0.953445 0.333837 0.0370794
0.978714 0.338598 0.0418402
1 0.343297 0.04654
1 0.347906 0.0511482
1 0.352377 0.0556039
0 0.314611 0
0 0.319387 0
0.0252079 0.32401 0
0.05243 0.328069 0
0.0835126 0.331136 0
0.119707 0.332876 0
0.1608 0.333349 0
0.204105 0.333257 0
0.246921 0.333333 0
0.289921 0.33341 0
0.333379 0.333379 0
0.376989 0.333333 0
0.420462 0.333349 0
0.463478 0.333501 0
0.50576 0.333867 0
0.547021 0.334508 0
0.586923 0.335531 0
0.625208 0.33698 0
0.661768 0.338888 0
0.696681 0.341238 0.000991836
0.729976 0.343999 0.00376898
0.76173 0.347158 0.0069276
0.792004 0.350698 0.0104677
0.820905 0.354574 0.0143282
0.848737 0.358709 0.0184634
0.875669 0.363043 0.0228122
0.901884 0.367529 0.0272984
0.927565 0.372122 0.0318761
0.95288 0.376745 0.0364996
0.978012 0.381369 0.0411231
1 0.385931 0.0456855
1 0.390372 0.0501411
1 0.394659 0.0544137
0 0.357519 0
0 0.362173 0
0.0243534 0.366827 0
0.0517128 0.371008 0
0.0829328 0.374197 0
0.119249 0.376059 0
0.160418 0.376623 0
0.20383 0.376623 0
0.246708 0.376791 0
0.289784 0.376913 0
0.333288 0.376944 0
0.376944 0.376944 0
0.420447 0.376989 0
0.463478 0.377157 0
0.505776 0.377523 0
0.547021 0.378164 0
0.586908 0.379156 0
0.625162 0.380591 0
0.661677 0.382437 0
0.696529 0.384741 0.000839246
0.729747 0.387427 0.00354009
0.761425 0.390509 0.00662242
0.791608 0.393957 0.010071
0.820417 0.397726 0.0138399
0.848127 0.40174 0.0178531
0.874922 0.405951 0.0220645
0.900999 0.4103 0.0264134
0.926528 0.414725 0.0308385
0.951675 0.419196 0.0353094
0.976623 0.423636 0.0397498
1 0.428016 0.0441291
1 0.432258 0.0483711
1 0.436332 0.0524453
0 0.400458 0
0 0.405234 0
0.0240787 0.409995 0
0.0515297 0.414282 0
0.082826 0.417548 0
0.119203 0.419471 0
0.160449 0.420111 0
0.203906 0.420157 0
0.24683 0.420356 0
0.289921 0.420508 0
0.33344 0.420539 0
0.377081 0.420539 0
0.420569 0.420569 0
0.4636 0.420722 0
0.505852 0.421057 0
0.547036 0.421653 0
0.586877 0.422583 0
0.625055 0.423926 0
0.661494 0.425711 0
0.696239 0.427909 0.000564584
0.729366 0.430488 0.00314336
0.760922 0.433448 0.00610361
0.790951 0.436759 0.00941482
0.819608 0.440391 0.0130312
0.847166 0.444251 0.0168917
0.873793 0.44828 0.0209354
0.899687 0.452445 0.0251011
0.925017 0.456687 0.0293431
0.949966 0.460945 0.0336004
0.974701 0.465171 0.0378271
0.99942 0.469322 0.0419776
1 0.47332 0.0459754
1 0.477134 0.0497902
0 0.44358 0
0 0.448447 0
0.0244755 0.453269 0
0.0519875 0.457603 0
0.0833295 0.460929 0
0.119753 0.462882 0
0.161013 0.463539 0
0.204471 0.463584 0
0.247379 0.463783 0
0.290455 0.46392 0
0.333944 0.463935 0
0.377554 0.46389 0
0.420996 0.463874 0
0.463951 0.463951 0
0.506127 0.464195 0
0.547234 0.464714 0
0.586954 0.465537 0
0.625025 0.466773 0
0.661341 0.468437 0
0.695949 0.470497 0.000274662
0.728923 0.472923 0.00270085
0.760311 0.475731 0.00550851
0.790188 0.478859 0.00865187
0.818662 0.482307 0.0120851
0.846021 0.485969 0.0157473
0.872435 0.489799 0.0195773
0.898116 0.493736 0.0235142
0.923201 0.497749 0.0275273
0.947906 0.501747 0.0315251
0.972381 0.505714 0.0355077
0.996811 0.50959 0.0393683
1 0.513313 0.0430915
1 0.516838 0.0466163
0 0.486656 0
0 0.491569 0
0.0256962 0.496406 0
0.0532235 0.500771 0
0.0845808 0.504097 0
0.120974 0.506035 0
0.162219 0.506676 0
0.205646 0.506691 0
0.248524 0.506844 0
0.291539 0.50692 0
0.334966 0.506859 0
0.378485 0.506737 0
0.421836 0.50663 0
0.464683 0.5066 0
0.506737 0.506737 0
0.547707 0.507118 0
0.587304 0.507805 0
0.625208 0.508888 0
0.661357 0.510369 0
0.695796 0.512245 0.000106813
0.728573 0.514504 0.00236515
0.759762 0.517098 0.00495918
0.789425 0.520027 0.00787366
0.81767 0.523232 0.0110933
0.844785 0.526665 0.0145113
0.870954 0.530236 0.0180972
0.896361 0.533913 0.0217746
0.921187 0.537652 0.0254978
0.945602 0.541375 0.0292363
0.969787 0.545037 0.0328985
0.993912 0.548608 0.0364691
1 0.551995 0.0398566
1 0.555184 0.0430457
0 0.529442 0
0.00218204 0.534356 0
0.0278782 0.539178 0
0.055375 0.543511 0
0.0866865 0.546807 0
0.123049 0.548699 0
0.164218 0.549264 0
0.207584 0.549218 0
0.250355 0.549279 0
0.293278 0.549264 0
0.336599 0.549096 0
0.379995 0.548852 0
0.423209 0.548608 0
0.465904 0.548424 0
0.50782 0.548409 0
0.548623 0.548623 0
0.588022 0.549126 0
0.625742 0.550011 0
0.661677 0.551293 0
0.695888 0.552956 0.000213626
0.72845 0.554971 0.00222782
0.759396 0.557321 0.00457771
0.788785 0.559991 0.00724804
0.81677 0.562936 0.010193
0.84361 0.566079 0.0133364
0.86949 0.569375 0.0166323
0.894591 0.572747 0.0200046
0.919097 0.57615 0.0234226
0.943191 0.579553 0.0268101
0.967025 0.582895 0.0301518
0.990814 0.586114 0.0333715
1 0.589181 0.0364385
1 0.592035 0.039292
0 0.57171 0
0.00549325 0.576562 0
0.0311284 0.581338 0
0.0585794 0.585611 0
0.0897993 0.588815 0
0.12607 0.590631 0
0.167147 0.591089 0
0.210391 0.590921 0
0.25304 0.59086 0
0.295827 0.590707 0
0.338979 0.590387 0
0.382223 0.589975 0
0.425269 0.589548 0
0.467781 0.589197 0
0.509483 0.588983 0
0.550072 0.588968 0
0.589258 0.589258 0
0.626734 0.589914 0
0.662425 0.590951 0
0.696391 0.59234 0.000701915
0.728664 0.594095 0.0024567
0.759335 0.596155 0.00451667
0.788434 0.598535 0.00689708
0.816114 0.601175 0.00953689
0.842618 0.603998 0.0123598
0.868177 0.606943 0.0153048
0.892943 0.609979 0.0183413
0.917113 0.613062 0.0214237
0.940856 0.616129 0.0244907
0.96437 0.619135 0.0274968
0.987839 0.622034 0.030396
1 0.624765 0.0331273
1 0.627314 0.0356756
0 0.613184 0
0.0100557 0.61796 0
0.0355993 0.622644 0
0.0629282 0.626795 0
0.0940414 0.629892 0.00141909
0.130175 0.631571 0.00309758
0.171115 0.631891 0.00341802
0.214191 0.631571 0.00309758
0.256687 0.631342 0.0028687
0.29929 0.631006 0.002533
0.34226 0.630488 0.00202945
0.385306 0.629877 0.00141909
0.428122 0.629252 0.00077821
0.470405 0.628656 0.000183108
0.511864 0.628199 0
0.552209 0.627939 0
0.591134 0.627955 0
0.628336 0.628336 0
0.663737 0.629084 0.000610361
0.697398 0.630182 0.00172427
0.729366 0.631617 0.00314336
0.759701 0.633356 0.00489815
0.788464 0.635401 0.0069276
0.815808 0.637705 0.00923171
0.841993 0.640192 0.0117189
0.867201 0.642817 0.0143435
0.891646 0.645518 0.0170596
0.915496 0.64828 0.0198062
0.938918 0.651011 0.0225528
0.962112 0.653696 0.0252384
0.98526 0.656275 0.0278172
1 0.658701 0.0302281
1 0.660929 0.0324559
0 0.653712 0
0.0158083 0.658351 0
0.0412146 0.662913 0
0.0683909 0.666926 0.0037995
0.0993515 0.669856 0.00672923
0.135317 0.671366 0.00823987
0.176059 0.671504 0.0083772
0.218952 0.670985 0.0078584
0.261234 0.670542 0.00741588
0.303624 0.669993 0.00686656
0.346365 0.669245 0.00611887
0.389166 0.668391 0.00526436
0.431724 0.667491 0.00437934
0.473747 0.666651 0.00352483
0.514931 0.665904 0.00277714
0.554971 0.665354 0.00222782
0.593591 0.66508 0.00195315
0.630472 0.665125 0.00199893
0.665537 0.665537 0.00242618
0.698863 0.666316 0.00318914
0.730495 0.667399 0.00428779
0.760494 0.668818 0.00569162
0.788937 0.670527 0.00740063
0.815946 0.672496 0.00936904
0.84181 0.674662 0.0115358
0.866697 0.676966 0.0138399
0.890822 0.679347 0.0162356
0.914351 0.681788 0.0186618
0.937453 0.684215 0.021088
0.960342 0.68658 0.0234684
0.983169 0.688853 0.0257267
1 0.690974 0.0278477
1 0.692897 0.0297704
0 0.693172 0
0.0225681 0.697673 0.00198367
0.0477913 0.702037 0.00636301
0.0747845 0.705867 0.010193
0.105547 0.708598 0.0129244
0.141283 0.70988 0.0142061
0.181811 0.709804 0.0141299
0.224475 0.709041 0.0133669
0.266499 0.708354 0.0126802
0.308629 0.707546 0.0118715
0.351095 0.706538 0.0108492
0.393606 0.705394 0.00972
0.435874 0.704204 0.00852979
0.477577 0.703044 0.00735485
0.518441 0.701976 0.00630198
0.55816 0.701091 0.00541695
0.596429 0.700481 0.00479133
0.63299 0.700191 0.00451667
0.667735 0.700282 0.00460822
0.700725 0.700725 0.00503548
0.732021 0.701488 0.00581369
0.7617 0.702571 0.00689708
0.789822 0.70396 0.00828565
0.81651 0.705608 0.00993362
0.842054 0.707454 0.01178
0.866636 0.709453 0.0137636
0.89044 0.711528 0.0158541
0.913649 0.713649 0.0179751
0.936461 0.71577 0.0200961
0.959045 0.717845 0.0221561
0.981567 0.719814 0.0241245
1 0.72163 0.0259556
1 0.723247 0.0275731
0.0052491 0.731472 0.0052491
0.0301213 0.735759 0.00953689
0.0551308 0.73991 0.0137026
0.0818952 0.743511 0.0173037
0.112413 0.745998 0.019791
0.147906 0.747036 0.0208286
0.188174 0.7467 0.0204776
0.230549 0.745663 0.01944
0.272297 0.744686 0.0184787
0.314122 0.743572 0.0173495
0.356268 0.742245 0.016022
0.398444 0.740764 0.0145571
0.440375 0.739239 0.0130312
0.481743 0.737743 0.0115358
0.522271 0.736355 0.010132
0.561654 0.735134 0.00892653
0.599603 0.734188 0.00796521
0.635843 0.733577 0.00737011
0.670253 0.733349 0.00712596
0.702922 0.733455 0.00724804
0.733913 0.733913 0.00769055
0.763272 0.734691 0.00846876
0.791089 0.735759 0.00953689
0.817456 0.737102 0.0108949
0.842695 0.738643 0.0124208
0.866972 0.740322 0.0141146
0.890471 0.742107 0.0158846
0.91339 0.743923 0.0177157
0.935897 0.745739 0.0195315
0.958175 0.747524 0.0213016
0.980423 0.749187 0.0229801
1 0.750729 0.024506
1 0.752056 0.0258488
0.0136721 0.768475 0.0136721
0.0382849 0.772519 0.0177005
0.063035 0.776425 0.0216068
0.0895399 0.779751 0.0249332
0.119768 0.781949 0.0271458
0.154971 0.782696 0.0278935
0.194934 0.78204 0.0272374
0.236988 0.780697 0.0258793
0.278401 0.779385 0.0245823
0.31989 0.777935 0.0231327
0.3617 0.776272 0.0214694
0.403555 0.774472 0.0196689
0.445151 0.77261 0.0178073
0.486198 0.770794 0.0159762
0.526406 0.76907 0.0142519
0.565454 0.767529 0.012726
0.603098 0.766262 0.0114595
0.639002 0.765347 0.0105287
0.673106 0.764782 0.0099794
0.705455 0.764599 0.00978103
0.736141 0.764736 0.00991836
0.765194 0.765194 0.0103914
0.792706 0.765972 0.0111543
0.818769 0.76701 0.0122072
0.843702 0.768246 0.0134432
0.867689 0.769635 0.0148318
0.890898 0.771115 0.0163119
0.913527 0.772656 0.0178378
0.935744 0.774182 0.019379
0.957748 0.775677 0.0208591
0.97969 0.777066 0.0222477
1 0.778317 0.0234989
1 0.77937 0.024567
0.0225376 0.804074 0.0225376
0.0468757 0.807843 0.0262913
0.0713207 0.811444 0.0298924
0.0975052 0.81445 0.0329137
0.127413 0.816342 0.0347906
0.162295 0.816754 0.0352178
0.201907 0.815763 0.0342107
0.243626 0.814069 0.0325322
0.284718 0.812436 0.0308995
0.325872 0.810651 0.0291142
0.367361 0.808667 0.0271153
0.408896 0.806546 0.0249943
0.450172 0.804364 0.0228275
0.490898 0.802213 0.020676
0.530785 0.800183 0.0186313
0.569528 0.798337 0.0167849
0.606851 0.79675 0.0152132
0.642451 0.795529 0.0139773
0.676249 0.794659 0.0131228
0.708309 0.794171 0.0126192
0.738674 0.794003 0.0124666
0.767437 0.794171 0.0126192
0.794644 0.794644 0.0131075
0.820417 0.795392 0.0138552
0.84506 0.796338 0.0148013
0.868757 0.797436 0.0158999
0.891691 0.798627 0.0170901
0.914031 0.799878 0.0183413
0.935973 0.801129 0.0195926
0.957687 0.80235 0.020798
0.97937 0.803464 0.0219272
1 0.80444 0.0229038
1 0.805234 0.0236973
0.0316167 0.838193 0.0316167
0.0556191 0.841611 0.0350347
0.0797436 0.844892 0.0383154
0.105592 0.847562 0.0409857
0.135164 0.849119 0.0425422
0.169711 0.849195 0.0426184
0.208988 0.847883 0.0413062
0.250385 0.845869 0.039292
0.291157 0.8439 0.0373236
0.331991 0.841794 0.0352331
0.373159 0.83949 0.0329137
0.414374 0.837049 0.0304723
0.455329 0.834562 0.027985
0.49575 0.832105 0.0255283
0.535332 0.829755 0.0231937
0.57377 0.827604 0.0210269
0.610788 0.825727 0.0191501
0.646097 0.824201 0.0176242
0.679591 0.823041 0.0164645
0.711345 0.822248 0.015671
0.741436 0.82179 0.0152285
0.769909 0.821668 0.0150912
0.796826 0.821851 0.0152895
0.822324 0.822324 0.0157473
0.846677 0.822995 0.0164187
0.8701 0.823804 0.0172274
0.892744 0.82472 0.0181582
0.914809 0.825696 0.0191196
0.936477 0.826688 0.0201114
0.957946 0.827634 0.0210727
0.979385 0.828519 0.0219425
1 0.829282 0.0227054
1 0.829862 0.0232853
0.040528 0.870787 0.040528
0.0641947 0.873884 0.0436255
0.0879835 0.876829 0.0465553
0.113512 0.879179 0.0489052
0.142763 0.8804 0.0501411
0.176974 0.880171 0.049897
0.215946 0.878523 0.0482643
0.257023 0.876204 0.0459297
0.297475 0.87393 0.0436561
0.338003 0.871504 0.0412451
0.378866 0.868894 0.0386206
0.419776 0.866148 0.035874
0.460426 0.863355 0.0330816
0.500542 0.860594 0.0303197
0.539818 0.857939 0.0276799
0.577966 0.855497 0.0252232
0.614694 0.853315 0.0230564
0.649699 0.851499 0.0212253
0.682918 0.85005 0.019791
0.714382 0.848981 0.0187076
0.744183 0.848234 0.0179751
0.772381 0.847837 0.0175631
0.799008 0.847745 0.0174716
0.824231 0.847929 0.0176699
0.848325 0.848325 0.0180514
0.871473 0.848875 0.018616
0.893874 0.849546 0.0192874
0.915709 0.850294 0.0200351
0.937163 0.851072 0.020798
0.958419 0.85182 0.0215457
0.979675 0.852491 0.0222324
1 0.853056 0.022797
1 0.853468 0.0231937
0.0491188 0.901976 0.0491188
0.0724498 0.904753 0.0518807
0.0959335 0.907362 0.0545052
0.121141 0.909407 0.0565347
0.150072 0.910307 0.0574502
0.183978 0.909758 0.0569009
0.222629 0.907805 0.0549477
0.263401 0.905165 0.0523079
0.303548 0.902586 0.0497292
0.343771 0.89987 0.047013
0.384329 0.896956 0.0440833
0.424933 0.893904 0.0410468
0.465309 0.890822 0.0379492
0.505119 0.88777 0.0349126
0.544106 0.88484 0.0319677
0.581979 0.882094 0.0292363
0.618418 0.879637 0.0267796
0.653132 0.877531 0.0246738
0.686061 0.875807 0.0229343
0.717266 0.874449 0.0215763
0.746792 0.873442 0.0205692
0.774701 0.872755 0.0198978
0.801083 0.872404 0.0195468
0.826062 0.872358 0.0194858
0.849928 0.872526 0.0196689
0.872862 0.872862 0.0200046
0.895064 0.873335 0.0204776
0.916701 0.873884 0.0210269
0.937972 0.874464 0.0216068
0.959045 0.875029 0.0221714
0.980117 0.875532 0.0226749
1 0.875944 0.0230716
1 0.876173 0.0233158
0.0572519 0.931838 0.0572519
0.0802777 0.934295 0.0597086
0.103441 0.936599 0.0620127
0.128328 0.938323 0.0637369
0.156954 0.938918 0.064332
0.190555 0.938064 0.0634775
0.228916 0.935805 0.0612192
0.269383 0.932876 0.0582895
0.309224 0.929992 0.0554055
0.349157 0.926986 0.0523995
0.389425 0.923781 0.0491798
0.42974 0.920439 0.0458534
0.469825 0.917067 0.0424811
0.509361 0.913725 0.0391394
0.548058 0.910521 0.0359197
0.585641 0.9075 0.0328985
0.621805 0.904753 0.0301671
0.65626 0.902388 0.0277867
0.688914 0.900389 0.025803
0.71986 0.898787 0.0241855
0.749157 0.897536 0.0229343
0.776852 0.896635 0.0220493
0.803021 0.896086 0.0214847
0.827802 0.895827 0.0212253
0.851469 0.895796 0.02121
0.87422 0.895949 0.0213626
0.896239 0.896239 0.0216526
0.917708 0.89662 0.022034
0.938811 0.897032 0.022446
0.959731 0.897444 0.022858
0.980652 0.89781 0.023209
1 0.898054 0.0234684
1 0.898177 0.0235752
0.0647746 0.960464 0.0647746
0.0875105 0.962615 0.0669261
0.110369 0.964614 0.0689403
0.134951 0.966033 0.0703593
0.163287 0.966339 0.0706645
0.196582 0.965194 0.0695048
0.234653 0.962646 0.0669566
0.27483 0.959411 0.0637369
0.314382 0.956252 0.0605631
