src/luts/rounded/10.cube
TITLE "Generated by Resolve"
LUT_3D_SIZE 5
0 0 0
0.234928 0 0
0.540993 0 0
0.784756 0 0
0.98967 0 0
0 0.228229 0
0.247669 0.247669 0
0.586419 0.2486 0
0.848432 0.271992 0.0181735
1 0.309697 0.0558785
0 0.57171 0
0.25304 0.59086 0
0.589258 0.589258 0
0.842618 0.603998 0.0123598
1 0.627314 0.0356756
0.040528 0.870787 0.040528
0.297475 0.87393 0.0436561
0.614694 0.853315 0.0230564
0.848325 0.848325 0.0180514
1 0.853468 0.0231937
0.0888533 1 0.0888533
0.328557 1 0.0747387
0.631617 1 0.0399786
0.854932 1 0.0246738
1 1 0.0235599
0 0 0.247395
0.229084 0 0.229084
0.539513 0 0.201694
0.789639 0 0.213199
0.996384 0 0.250538
0 0.234531 0.234531
0.253819 0.253819 0.253819
0.593194 0.255375 0.255375
0.855283 0.278843 0.278843
1 0.315999 0.315999
0 0.578424 0.240604
0.258976 0.596796 0.258976
0.59379 0.59379 0.25597
0.845136 0.606516 0.268696
1 0.627741 0.289921
0.0422675 0.872541 0.296086
0.297185 0.873625 0.297185
0.612497 0.851118 0.274678
0.844404 0.844404 0.267948
1 0.848325 0.271885
0.0844434 1 0.338262
0.323079 1 0.323079
0.625452 1 0.287633
0.848463 1 0.272023
1 1 0.270985
0 0 0.572686
0.218189 0 0.555993
0.534112 0 0.534112
0.789807 0 0.551186
0.996475 0 0.588464
0 0.235309 0.573114
0.254139 0.254139 0.591959
0.594003 0.256184 0.594003
0.85594 0.2795 0.617319
1 0.315892 0.653712
0 0.578882 0.578882
0.258442 0.596262 0.596262
0.591638 0.591638 0.591638
0.840879 0.602243 0.602243
1 0.621439 0.621439
0.0372473 0.867521 0.628885
0.290166 0.866606 0.627985
0.603616 0.842237 0.603616
0.833967 0.833967 0.595331
1 0.836805 0.598169
0.0735637 1 0.665202
0.311254 1 0.649073
0.613077 1 0.613077
0.835904 1 0.597284
1 1 0.59646
0 0 0.806058
0.21593 0 0.792386
0.538155 0 0.776791
0.797742 0 0.797742
1 0.00428779 0.834562
0 0.243061 0.819501
0.26186 0.26186 0.8383
0.601984 0.264179 0.84062
0.863584 0.287144 0.863584
1 0.32256 0.899001
0 0.586236 0.824857
0.264591 0.602411 0.841047
0.595956 0.595956 0.834577
0.843061 0.60444 0.843061
1 0.621622 0.860258
0.0386969 0.868955 0.868955
0.289662 0.866102 0.866102
0.601297 0.839918 0.839918
0.830274 0.830274 0.830274
1 0.832151 0.832151
0.0694743 1 0.899748
0.306355 1 0.882795
0.607752 1 0.846387
0.830549 0.999939 0.830549
0.999466 0.999466 0.830076
0 0 0.975753
0.220661 0 0.966506
0.549233 0 0.957259
0.810513 0 0.979919
1 0.0169985 1
0.00148013 0.255299 1
0.274739 0.274739 1
0.614923 0.277119 1
0.875959 0.299519 1
1 0.333745 1
0.00660716 0.598245 1
0.275196 0.613016 1
0.604532 0.604532 1
0.849561 0.610925 1
1 0.626169 1
0.0444495 0.874723 1
0.293523 0.869963 1
0.603433 0.842069 1
0.831205 0.831205 1
1 0.832273 1
0.0700694 1 1
0.306279 1 1
0.60737 1 1
0.830259 0.999649 0.999649
0.999664 0.999664 0.999664
