src/luts/rounded/10.cube
TITLE "Generated by Resolve"
LUT_3D_SIZE 9
0 0 0
0.0904402 0 0
0.234928 0 0
0.390265 0 0
0.540993 0 0
0.672496 0 0
0.784756 0 0
0.887251 0 0
0.98967 0 0
0 0.0875257 0
0.0905928 0.0905928 0
0.244739 0.0835431 0
0.413474 0.0787518 0
0.578576 0.0795605 0
0.721584 0.0879835 0
0.839765 0.102129 0.00950637
0.944015 0.120256 0.0276341
1 0.139452 0.0468299
0 0.228229 0
0.0838178 0.245014 0
0.247669 0.247669 0
0.420417 0.246891 0
0.586419 0.2486 0
0.729381 0.256977 0.00315862
0.848432 0.271992 0.0181735
0.953262 0.290715 0.0368963
1 0.309697 0.0558785
0 0.400458 0
0.082826 0.417548 0
0.24683 0.420356 0
0.420569 0.420569 0
0.586877 0.422583 0
0.729366 0.430488 0.00314336
0.847166 0.444251 0.0168917
0.949966 0.460945 0.0336004
1 0.477134 0.0497902
0 0.57171 0
0.0897993 0.588815 0
0.25304 0.59086 0
0.425269 0.589548 0
0.589258 0.589258 0
0.728664 0.594095 0.0024567
0.842618 0.603998 0.0123598
0.940856 0.616129 0.0244907
1 0.627314 0.0356756
0.0052491 0.731472 0.0052491
0.112413 0.745998 0.019791
0.272297 0.744686 0.0184787
0.440375 0.739239 0.0130312
0.599603 0.734188 0.00796521
0.733913 0.733913 0.00769055
0.842695 0.738643 0.0124208
0.935897 0.745739 0.0195315
1 0.752056 0.0258488
0.040528 0.870787 0.040528
0.142763 0.8804 0.0501411
0.297475 0.87393 0.0436561
0.460426 0.863355 0.0330816
0.614694 0.853315 0.0230564
0.744183 0.848234 0.0179751
0.848325 0.848325 0.0180514
0.937163 0.851072 0.020798
1 0.853468 0.0231937
0.0715801 0.987961 0.0715801
0.168902 0.99266 0.0762798
0.318883 0.98143 0.0650645
0.477272 0.966293 0.0499123
0.627314 0.952041 0.0356756
0.753079 0.943236 0.0268559
0.854047 0.940154 0.0237888
0.940291 0.940291 0.0239261
1 0.940566 0.0242008
0.0888533 1 0.0888533
0.182116 1 0.0894942
0.328557 1 0.0747387
0.484001 1 0.0566567
0.631617 1 0.0399786
0.755428 1 0.029221
0.854932 1 0.0246738
0.940169 1 0.0238041
1 1 0.0235599
0 0 0.091783
0.0896773 0 0.0896773
0.234379 0 0.0731823
0.390448 0 0.0557259
0.542473 0 0.0434577
0.675547 0 0.0419623
0.789456 0 0.0518196
0.892943 0 0.0691997
0.99556 0 0.0885176
0 0.0881056 0.0881056
0.0926223 0.0926223 0.0926223
0.248402 0.0872053 0.0872053
0.418631 0.0839094 0.0839094
0.584436 0.08542 0.08542
0.727337 0.0937514 0.0937514
0.845396 0.107744 0.107744
0.949813 0.12607 0.12607
1 0.145342 0.145342
0 0.233738 0.0725414
0.0897383 0.25095 0.0897383
0.253208 0.253208 0.0920119
0.426123 0.252598 0.0913863
0.592264 0.254444 0.0932479
0.735302 0.262898 0.101701
0.854353 0.277897 0.116701
0.959075 0.296529 0.135332
1 0.315358 0.154162
0 0.40621 0.0714885
0.088716 0.423438 0.088716
0.25275 0.426276 0.0915541
0.426459 0.426459 0.0917372
0.592645 0.428351 0.0936294
0.734936 0.436072 0.10135
0.852476 0.449561 0.114839
0.954925 0.465904 0.131182
1 0.481666 0.146944
0 0.577554 0.0785382
0.0955062 0.594522 0.0955062
0.258534 0.596353 0.0973373
0.430457 0.594751 0.0957351
0.594064 0.594064 0.0950484
0.733028 0.598444 0.0994278
0.846448 0.607813 0.108797
0.944152 0.619425 0.120409
1 0.630091 0.131075
0.0103151 0.736538 0.102937
0.117067 0.750652 0.117067
0.276463 0.748852 0.115267
0.444007 0.742885 0.109285
0.602716 0.737285 0.1037
0.736507 0.736507 0.102907
0.844785 0.740734 0.107149
0.93753 0.747372 0.113771
1 0.753231 0.119631
0.0439612 0.874235 0.136584
0.145678 0.883314 0.145678
0.299886 0.876341 0.138689
0.462348 0.865278 0.127626
0.616144 0.85478 0.117128
0.74519 0.849241 0.111589
0.84889 0.84889 0.111254
0.937407 0.851301 0.113664
1 0.853407 0.11577
0.0733349 0.9897 0.165957
0.170199 0.993942 0.170199
0.319722 0.982269 0.158511
0.477714 0.966735 0.142992
0.627436 0.952178 0.12842
0.752941 0.943084 0.119341
0.853697 0.939788 0.116045
0.939757 0.939757 0.116014
1 0.939895 0.116152
0.0891737 1 0.181796
0.182147 1 0.182147
0.328328 1 0.167132
0.483574 1 0.148852
0.631037 1 0.132021
0.754742 1 0.121141
0.854185 1 0.116533
0.939406 1 0.115663
1 1 0.11545
0 0 0.247395
0.0839857 0 0.245182
0.229084 0 0.229084
0.386053 0 0.212528
0.539513 0 0.201694
0.67422 0 0.201831
0.789639 0 0.213199
0.893843 0 0.231296
0.996384 0 0.250538
0 0.0841993 0.245396
0.0902419 0.0902419 0.251438
0.247715 0.0865034 0.247715
0.419165 0.0844434 0.24564
0.585412 0.0863966 0.247593
0.727947 0.0943618 0.255558
0.846128 0.108492 0.269688
0.950713 0.126955 0.288151
1 0.146319 0.307515
0 0.234531 0.234531
0.0906691 0.251865 0.251865
0.253819 0.253819 0.253819
0.426932 0.253407 0.253407
0.593194 0.255375 0.255375
0.736263 0.263874 0.263874
0.855283 0.278843 0.278843
0.959915 0.297353 0.297353
1 0.315999 0.315999
0 0.40708 0.233555
0.089662 0.424384 0.250858
0.253712 0.427237 0.253712
0.427375 0.427375 0.253849
0.593408 0.429114 0.255589
0.735485 0.436606 0.263081
0.85272 0.449805 0.27628
0.954803 0.465782 0.292256
1 0.481102 0.307576
0 0.578424 0.240604
0.0962081 0.595224 0.257404
0.258976 0.596796 0.258976
0.430579 0.594873 0.257053
0.59379 0.59379 0.25597
0.732265 0.597681 0.259876
0.845136 0.606516 0.268696
0.942321 0.617594 0.279774
1 0.627741 0.289921
0.0102998 0.736522 0.264118
0.116625 0.75021 0.277821
0.275502 0.74789 0.275502
0.442512 0.741375 0.268986
0.600687 0.735271 0.262882
0.733974 0.733974 0.261585
0.841779 0.737728 0.265339
0.934035 0.743877 0.271489
1 0.749279 0.27689
0.0422675 0.872541 0.296086
0.143465 0.881117 0.304662
0.297185 0.873625 0.297185
0.459159 0.862089 0.285634
0.612497 0.851118 0.274678
0.741085 0.845136 0.268696
0.844404 0.844404 0.267948
0.932586 0.846494 0.270039
1 0.848325 0.271885
0.0699779 0.986343 0.323796
0.166384 0.990127 0.327581
0.31545 0.978012 0.31545
0.473091 0.962112 0.299565
0.622522 0.94725 0.284703
0.747753 0.937911 0.275364
0.84831 0.934417 0.27187
0.934218 0.934218 0.271672
1 0.934249 0.271702
0.0844434 1 0.338262
0.177127 1 0.338323
0.323079 1 0.323079
0.478126 1 0.304601
0.625452 1 0.287633
0.749065 1 0.276661
0.848463 1 0.272023
0.9337 1 0.271153
1 1 0.270985
0 0 0.414328
0.0774701 0 0.412192
0.223148 0 0.396674
0.381216 0 0.381216
0.536202 0 0.371908
0.672587 0 0.373724
0.789273 0 0.386343
0.893919 0 0.404898
0.996109 0 0.423804
0 0.0798962 0.414618
0.0875257 0.0875257 0.422248
0.246632 0.0854353 0.420157
0.419059 0.0843214 0.419059
0.585458 0.0864424 0.421164
0.727657 0.0940719 0.428794
0.846052 0.1084 0.443137
0.950744 0.126986 0.461723
1 0.146395 0.481117
0 0.234562 0.408087
0.0905623 0.251774 0.425284
0.25362 0.25362 0.427146
0.426886 0.253361 0.426886
0.593256 0.255436 0.428962
0.736355 0.263951 0.437476
0.855299 0.278859 0.452384
0.959792 0.29723 0.470756
1 0.315663 0.489189
0 0.40708 0.40708
0.0897383 0.42446 0.42446
0.253788 0.427314 0.427314
0.427344 0.427344 0.427344
0.59321 0.428931 0.428931
0.735042 0.436179 0.436179
0.851972 0.449042 0.449042
0.953643 0.464622 0.464622
1 0.479454 0.479454
0 0.578347 0.414054
0.0959335 0.594949 0.430655
0.258442 0.596246 0.431968
0.429679 0.593973 0.429679
0.592462 0.592462 0.428168
0.730419 0.59585 0.431556
0.842771 0.604135 0.439841
0.939422 0.614694 0.450401
1 0.624338 0.460044
0.00926223 0.73547 0.436606
0.115114 0.748699 0.449836
0.273457 0.745861 0.446983
0.439933 0.738811 0.439933
0.597604 0.732189 0.433326
0.730404 0.730404 0.431525
0.837705 0.733654 0.434791
0.929503 0.739345 0.440482
1 0.744305 0.445441
0.0395056 0.86978 0.466865
0.1402 0.877852 0.474922
0.293416 0.869871 0.466941
0.454932 0.857847 0.454932
0.607797 0.846433 0.443503
0.735943 0.839994 0.437079
0.838895 0.838895 0.435981
0.926787 0.840681 0.437766
1 0.842268 0.439353
0.065568 0.981949 0.492912
0.161517 0.98526 0.496239
0.31017 0.972717 0.483696
0.467475 0.956497 0.467475
0.616617 0.941344 0.452323
0.741619 0.931777 0.442756
0.841978 0.928084 0.439063
0.927749 0.927749 0.438727
1 0.927687 0.438666
0.078706 1 0.506065
0.17113 1 0.505867
0.316854 1 0.490379
0.471748 1 0.471748
0.618936 1 0.454658
0.742473 1 0.44361
0.841856 1 0.438926
0.927108 1 0.438087
1 1 0.437995
0 0 0.572686
0.0717784 0 0.570794
0.218189 0 0.555993
0.377554 0 0.541848
0.534112 0 0.534112
0.672145 0 0.537575
0.789807 0 0.551186
0.894636 0 0.569909
0.996475 0 0.588464
0 0.0767834 0.575799
0.0860456 0.0860456 0.585061
0.246632 0.0854353 0.584451
0.419745 0.0850233 0.584039
0.586038 0.0870222 0.586038
0.728115 0.0945144 0.59353
0.846677 0.109026 0.608042
0.951476 0.127718 0.626734
1 0.147143 0.646159
0 0.235309 0.573114
0.0909285 0.252125 0.589944
0.254139 0.254139 0.591959
0.427573 0.254047 0.591867
0.594003 0.256184 0.594003
0.737087 0.264683 0.602502
0.85594 0.2795 0.617319
0.960266 0.297719 0.635538
1 0.315892 0.653712
0 0.407797 0.572091
0.090486 0.425208 0.589502
0.25449 0.428016 0.592309
0.427939 0.427939 0.592233
0.593622 0.429328 0.593622
0.73518 0.436316 0.600595
0.851743 0.448829 0.613108
0.952987 0.463966 0.62826
1 0.478294 0.642588
0 0.578882 0.578882
0.0962539 0.59527 0.59527
0.258442 0.596262 0.596262
0.429313 0.593606 0.593606
0.591638 0.591638 0.591638
0.729061 0.594491 0.594491
0.840879 0.602243 0.602243
0.937011 0.612284 0.612284
1 0.621439 0.621439
0.00872816 0.734951 0.600366
0.114107 0.747692 0.613123
0.271916 0.744305 0.609735
0.437858 0.736721 0.602152
0.595026 0.729595 0.595026
0.727321 0.727321 0.592737
0.83415 0.730098 0.595529
0.92549 0.735332 0.600763
1 0.739834 0.605264
0.0372473 0.867521 0.628885
0.137423 0.875074 0.636439
0.290166 0.866606 0.627985
0.451209 0.854124 0.615488
0.603616 0.842237 0.603616
0.731334 0.835386 0.596765
0.833967 0.833967 0.595331
0.921553 0.835462 0.596826
1 0.836805 0.598169
0.061677 0.978042 0.653315
0.157168 0.980926 0.656184
0.30544 0.967987 0.643259
0.462425 0.951446 0.626719
0.611292 0.936034 0.611292
0.73608 0.926238 0.601495
0.836271 0.922377 0.597635
0.92192 0.92192 0.597177
1 0.921782 0.59704
0.0735637 1 0.665202
0.165728 1 0.664744
0.311254 1 0.649073
0.46598 1 0.630274
0.613077 1 0.613077
0.736553 1 0.601968
0.835904 1 0.597284
0.921202 1 0.596475
1 1 0.59646
0 0 0.703502
0.0684062 0 0.702007
0.215732 0 0.688121
0.376547 0 0.67541
0.534737 0 0.669322
0.674281 0 0.674281
0.792645 0 0.688594
0.897383 0 0.707225
0.999084 0 0.725643
0 0.0763561 0.709941
0.0872969 0.0872969 0.720897
0.249119 0.0879072 0.721508
0.422644 0.0879072 0.721508
0.588556 0.0895399 0.723125
0.730785 0.0972 0.730785
0.8495 0.111849 0.745449
0.95436 0.130602 0.764202
1 0.150027 0.783612
0 0.238148 0.710536
0.0934615 0.254673 0.727062
0.25687 0.25687 0.729274
0.430426 0.256901 0.72929
0.596887 0.259083 0.731472
0.73994 0.267552 0.73994
0.858701 0.282246 0.754635
0.962829 0.300282 0.772671
1 0.318181 0.79057
0 0.410666 0.709545
0.0933852 0.428107 0.72697
0.257328 0.430854 0.729717
0.430625 0.430625 0.729488
0.596078 0.431785 0.730663
0.737346 0.438468 0.737346
0.853529 0.450614 0.749477
0.95433 0.465309 0.764172
1 0.479103 0.777966
0 0.581491 0.716075
0.0986038 0.59762 0.732204
0.260487 0.598306 0.732876
0.430945 0.595239 0.729809
0.592782 0.592782 0.727367
0.729671 0.595087 0.729671
0.840955 0.602319 0.736904
0.936584 0.611856 0.746426
1 0.620508 0.755093
0.010193 0.736416 0.736416
0.115053 0.748638 0.748638
0.272328 0.744717 0.744717
0.437751 0.736614 0.736614
0.594415 0.728985 0.728985
0.726223 0.726223 0.726223
0.832578 0.728527 0.728527
0.923461 0.733303 0.733303
1 0.737392 0.737392
0.0369573 0.867216 0.763165
0.136645 0.874281 0.77023
0.288884 0.865339 0.761288
0.449454 0.852384 0.748333
0.601419 0.840055 0.736004
0.728756 0.832807 0.728756
0.831052 0.831052 0.727001
0.918395 0.832288 0.728237
1 0.833402 0.729351
0.0597696 0.976135 0.785992
0.154833 0.978576 0.788418
0.302739 0.965286 0.775128
0.459419 0.94844 0.758282
0.608042 0.932769 0.742626
0.732616 0.922774 0.732616
0.832654 0.918761 0.728603
0.918181 0.918181 0.728038
1 0.917998 0.72784
0.0704509 1 0.796674
0.162387 1 0.795987
0.307729 1 0.780118
0.462318 1 0.761181
0.609323 1 0.743893
0.732754 1 0.732754
0.83212 1 0.728069
0.917464 1 0.727321
1 1 0.727413
0 0 0.806058
0.0675059 0 0.805142
0.21593 0 0.792386
0.378271 0 0.781201
0.538155 0 0.776791
0.678935 0 0.782986
0.797742 0 0.797742
0.902113 0 0.816007
1 0.00428779 0.834562
0 0.0786755 0.816327
0.091249 0.091249 0.828901
0.254017 0.0928206 0.830472
0.427695 0.0929732 0.83061
0.593286 0.0942702 0.831922
0.735714 0.102129 0.839765
0.854551 0.116899 0.854551
0.959457 0.135714 0.87335
1 0.155093 0.892729
0 0.243061 0.819501
0.0982834 0.25948 0.835935
0.26186 0.26186 0.8383
0.435492 0.261967 0.838422
0.601984 0.264179 0.84062
0.744976 0.272587 0.849027
0.863584 0.287144 0.863584
0.967498 0.304952 0.881392
1 0.32256 0.899001
0 0.415763 0.818692
0.0984665 0.433188 0.836103
0.262303 0.435828 0.838758
0.435447 0.435447 0.838361
0.600656 0.436362 0.839292
0.741588 0.442725 0.84564
0.857389 0.454459 0.857389
0.957687 0.468666 0.871595
1 0.481926 0.88484
0 0.586236 0.824857
0.103075 0.60209 0.840726
0.264591 0.602411 0.841047
0.434623 0.598917 0.837537
0.595956 0.595956 0.834577
0.732296 0.597726 0.836347
0.843061 0.60444 0.843061
0.938186 0.613458 0.852094
1 0.621622 0.860258
0.0137026 0.73991 0.843976
0.118029 0.751614 0.855665
0.274769 0.747158 0.851209
0.439673 0.738552 0.842603
0.595834 0.730404 0.834455
0.727153 0.727153 0.831205
0.833051 0.729 0.833051
0.923491 0.733333 0.837385
1 0.737011 0.841062
0.0386969 0.868955 0.868955
0.137881 0.875532 0.875532
0.289662 0.866102 0.866102
0.449775 0.852689 0.852689
0.601297 0.839918 0.839918
0.728267 0.832319 0.832319
0.830274 0.830274 0.830274
0.917342 0.831235 0.831235
1 0.832151 0.832151
0.0599222 0.976287 0.890181
0.154543 0.978302 0.892195
0.302129 0.964675 0.878584
0.458534 0.947555 0.861448
0.606912 0.931655 0.845548
0.731304 0.921462 0.835355
0.831189 0.917296 0.831189
0.91664 0.91664 0.830533
0.999695 0.916411 0.830304
0.0694743 1 0.899748
0.161196 1 0.898833
0.306355 1 0.882795
0.460822 1 0.863737
0.607752 1 0.846387
0.731167 1 0.835218
0.830549 0.999939 0.830549
0.915969 0.999252 0.829862
0.999466 0.999466 0.830076
0 0 0.892119
0.0682078 0 0.891951
0.217945 0 0.880491
0.381857 0 0.870878
0.543389 0 0.868116
0.68513 0 0.875288
0.804089 0 0.890196
0.908141 0 0.908141
1 0.0105135 0.926879
0 0.082887 0.90663
0.0969253 0.0969253 0.920684
0.260365 0.0991684 0.922911
0.433906 0.0991836 0.922927
0.59939 0.100374 0.924117
0.742 0.1084 0.932143
0.860929 0.123278 0.947036
0.96585 0.142107 0.96585
1 0.16141 0.985168
0 0.249058 0.911604
0.104463 0.26566 0.928206
0.268177 0.268177 0.930739
0.441886 0.26836 0.930907
0.608362 0.270542 0.933104
0.751263 0.278874 0.941421
0.869703 0.293263 0.95581
0.973373 0.310826 0.973373
1 0.328115 0.990662
0 0.422156 0.911177
0.104814 0.439536 0.928557
0.268544 0.442069 0.93109
0.441489 0.441489 0.93051
0.606424 0.442145 0.931167
0.747005 0.448142 0.937163
0.862364 0.459449 0.94847
0.962173 0.473152 0.962173
1 0.485863 0.974884
0.000549325 0.592187 0.916915
0.108721 0.607736 0.932479
0.269871 0.607675 0.932418
0.439429 0.603723 0.928466
0.600229 0.600229 0.924971
0.736049 0.601465 0.926207
0.846296 0.60766 0.932387
0.940917 0.61619 0.940917
1 0.62388 0.948608
0.0183261 0.744549 0.934691
0.122103 0.755703 0.945846
0.278309 0.750713 0.940871
0.442725 0.741588 0.931746
0.598383 0.732967 0.92311
0.729229 0.729229 0.919387
0.834669 0.730617 0.920775
0.924666 0.734508 0.924666
1 0.737835 0.927993
0.0415503 0.871824 0.957931
0.140261 0.877913 0.964004
0.291569 0.868009 0.954116
0.451225 0.854139 0.940246
0.602319 0.840955 0.927062
0.728969 0.833021 0.919112
0.830686 0.830686 0.916777
0.91751 0.831418 0.91751
1 0.832135 0.918242
0.0612039 0.977584 0.977584
0.155459 0.979202 0.979202
0.302724 0.96527 0.96527
0.458854 0.947875 0.947875
0.607019 0.931746 0.931746
0.731228 0.921386 0.921386
0.831006 0.917098 0.917098
0.916365 0.916365 0.916365
0.99939 0.916106 0.916106
0.0697032 1 0.986084
0.161227 1 0.98497
0.306233 1 0.96878
0.460594 1 0.949615
0.607462 1 0.932189
0.730861 1 0.921019
0.830289 0.99968 0.916396
0.915801 0.999084 0.915801
0.999435 0.999435 0.916152
0 0 0.975753
0.0694743 0 0.976501
0.220661 0 0.966506
0.386221 0 0.958541
0.549233 0 0.957259
0.691661 0 0.965103
0.810513 0 0.979919
0.914443 0 0.997726
1 0.0169985 1
0 0.0878767 0.994919
0.10312 0.10312 1
0.266957 0.10576 1
0.440116 0.105394 1
0.605768 0.106752 1
0.748516 0.114931 1
0.867521 0.12987 1
0.972427 0.148684 1
1 0.16791 1
0.00148013 0.255299 1
0.110903 0.272099 1
0.274739 0.274739 1
0.448493 0.274968 1
0.614923 0.277119 1
0.757717 0.285313 1
0.875959 0.299519 1
0.979355 0.316808 1
1 0.333745 1
0.00140383 0.428763 1
0.111345 0.446067 1
0.274937 0.448463 1
0.447654 0.447654 1
0.612284 0.44799 1
0.752499 0.45362 1
0.867399 0.464469 1
0.966659 0.477638 1
1 0.489815 1
0.00660716 0.598245 1
0.114458 0.613474 1
0.275196 0.613016 1
0.444282 0.608576 1
0.604532 0.604532 1
0.739818 0.605234 1
0.849561 0.610925 1
0.943694 0.618952 1
1 0.626169 1
0.0229648 0.749187 1
0.126207 0.759808 1
0.28191 0.754299 1
0.445808 0.744671 1
0.600977 0.735561 1
0.73135 0.73135 1
0.836347 0.732296 1
0.925902 0.735744 1
1 0.738735 1
0.0444495 0.874723 1
0.142687 0.880323 1
0.293523 0.869963 1
0.452735 0.85565 1
0.603433 0.842069 1
0.729763 0.833814 1
0.831205 0.831205 1
0.91783 0.831724 1
1 0.832273 1
0.062562 0.978927 1
0.156451 0.980194 1
0.30341 0.965957 1
0.459297 0.948318 1
0.607248 0.931991 1
0.731319 0.921477 1
0.830976 0.917082 1
0.916289 0.916289 0.999573
0.999298 0.916014 0.999298
0.0700694 1 1
0.161395 1 1
0.306279 1 1
0.460548 1 1
0.60737 1 1
0.730785 1 1
0.830259 0.999649 0.999649
0.915862 0.999161 0.999161
0.999664 0.999664 0.999664
