src/luts/rounded/11.cube
TITLE "Generated by Resolve"
LUT_3D_SIZE 33
0 0.00869764 0.0711986
0 0.00793469 0.0705882
0 0.00793469 0.070573
0 0.0078584 0.0705119
0 0.00691234 0.0697337
0 0.00518807 0.0679942
0.0392615 0.00199893 0.0652018
0.115023 0 0.0614786
0.192721 0 0.0577859
0.263844 0 0.0539254
0.329854 0 0.0500038
0.388785 0 0.046067
0.434165 0 0.042237
0.479271 0 0.0386511
0.523568 0 0.0354925
0.566552 0 0.0328832
0.607477 0 0.030808
0.646372 0 0.0294499
0.68333 0 0.0287785
0.718456 0 0.0287938
0.752102 0 0.0296788
0.784131 0 0.0309453
0.815183 0 0.0327001
0.845655 0 0.0348974
0.875898 0 0.0374304
0.906432 0 0.0403601
0.937392 0 0.0434577
0.969192 0 0.0464942
1 0 0.049836
1 0 0.0533303
1 0 0.0569314
1 0 0.0604562
1 0.0010071 0.0643168
0 0.0126497 0.0859541
0 0.0299992 0.0708782
0 0.0300298 0.0708934
0 0.0297856 0.0706798
0 0.0289769 0.0700084
0 0.0271611 0.0684825
0.0282597 0.0241245 0.0659342
0.103761 0.0201114 0.0625772
0.182406 0.0154574 0.0586557
0.254398 0.0109712 0.0552987
0.321462 0.00662242 0.0516518
0.383246 0.00277714 0.0480354
0.429084 0 0.0445563
0.47509 0 0.041474
0.520043 0 0.0386816
0.563729 0 0.0364385
0.605661 0 0.0348363
0.645594 0 0.0339666
0.68368 0 0.0338598
0.720043 0 0.0345464
0.754437 0 0.0357519
0.787411 0 0.037583
0.819379 0 0.0399329
0.850721 0 0.04271
0.88191 0.000335698 0.0459754
0.9131 0.00448615 0.0494392
0.944457 0.00816358 0.0529335
0.976761 0.0122835 0.0563821
1 0.0166629 0.0596628
1 0.0211643 0.0634318
1 0.0259861 0.0674754
1 0.0306706 0.0714122
1 0.0352941 0.075288
0 0.0174411 0.101747
0 0.034699 0.086305
0 0.051957 0.0710155
0 0.0518349 0.0709087
0 0.0512703 0.0704509
0 0.049836 0.0692454
0.0188754 0.0474098 0.0672007
0.0933242 0.0436866 0.0640726
0.172885 0.0394141 0.0604868
0.246372 0.0352789 0.0574197
0.314565 0.0314183 0.0541848
0.377737 0.0276341 0.0510109
0.425681 0.0242466 0.0481575
0.47216 0.0210422 0.0454566
0.517968 0.0183261 0.043183
0.562631 0.0162661 0.0414588
0.605615 0.0149691 0.0403601
0.646677 0.0146029 0.0400549
0.686 0.0152438 0.040589
0.723201 0.0165408 0.0416724
0.758663 0.0186465 0.0434424
0.792599 0.0215 0.0458381
0.825437 0.0249332 0.0487068
0.857816 0.0291295 0.0522316
0.889433 0.0333562 0.0557717
0.920928 0.0377966 0.0590982
0.952605 0.0423285 0.0628824
0.984833 0.0468147 0.0666514
1 0.0514839 0.070573
1 0.0562753 0.0745861
1 0.0608835 0.0784466
1 0.0654765 0.0822919
1 0.0699931 0.0860914
0 0.0220798 0.118318
0 0.039292 0.101976
0 0.0565957 0.0862898
0 0.0746929 0.0707866
0 0.0745251 0.0706493
0 0.0737774 0.0699931
0.00926223 0.0717632 0.0682994
0.0833753 0.0686503 0.0656901
0.163699 0.0649424 0.0625772
0.239002 0.061326 0.0595407
0.309056 0.05832 0.0573892
0.373617 0.0552224 0.0547951
0.422873 0.0523232 0.0523537
0.470146 0.0497902 0.0502174
0.516854 0.0477302 0.0484932
0.562478 0.0463111 0.047303
0.606897 0.0459297 0.046952
0.648981 0.0461585 0.0471504
0.689113 0.0472572 0.0480659
0.727337 0.0491646 0.0496681
0.763729 0.0518196 0.0518807
0.79852 0.0552071 0.0547189
0.832273 0.0593271 0.057969
0.864866 0.0635843 0.0613107
0.896864 0.0680858 0.065095
0.928603 0.072755 0.0690166
0.960403 0.0774395 0.0729381
0.992737 0.0821698 0.0768902
1 0.0868544 0.0808118
1 0.0913863 0.0846113
1 0.0958419 0.0883497
1 0.100175 0.0919814
1 0.104494 0.095613
0 0.026566 0.136263
0 0.0438697 0.118486
0 0.0612955 0.101854
0 0.0798352 0.0861219
0 0.0996567 0.0703136
0 0.0993668 0.0700542
0 0.0981003 0.068986
0.0730449 0.0957809 0.0670329
0.154147 0.0928054 0.0645304
0.231968 0.0900435 0.0621653
0.30312 0.0875715 0.06009
0.3691 0.0851759 0.0580606
0.420142 0.0829938 0.0566262
0.468238 0.0811627 0.0550851
0.515831 0.0798047 0.0539254
0.562829 0.0793469 0.0534981
0.607919 0.0793317 0.0534829
0.651011 0.0801251 0.054139
0.692042 0.0816968 0.0554513
0.73109 0.0840009 0.0573892
0.768261 0.0870527 0.0595102
0.803845 0.0909285 0.0627298
0.837781 0.0949874 0.0661326
0.87068 0.099382 0.06981
0.902861 0.103975 0.0736553
0.93463 0.108644 0.0775769
0.966659 0.113634 0.0817121
0.998642 0.118105 0.0854658
1 0.122347 0.0890211
1 0.12665 0.0926375
1 0.130999 0.0962844
1 0.1355 0.100038
1 0.140139 0.103899
0 0.030869 0.156207
0 0.0483406 0.1364
0 0.0661173 0.118379
0 0.084947 0.101656
0 0.105348 0.0855268
0 0.127565 0.0692454
0 0.127169 0.0688945
0.0614328 0.125719 0.0676738
0.143679 0.123796 0.0659648
0.223194 0.121538 0.0640574
0.296056 0.119753 0.0625467
0.363607 0.11812 0.0611582
0.416709 0.11667 0.0599374
0.465919 0.115785 0.0591287
0.514427 0.115114 0.0585489
0.561868 0.114931 0.0583658
0.607797 0.115343 0.0587167
0.651667 0.116487 0.0596628
0.693401 0.118349 0.0612039
0.733394 0.121187 0.063508
0.771008 0.1243 0.0661173
0.806714 0.127947 0.0691691
0.840879 0.132006 0.0725567
0.873884 0.136309 0.076173
0.90605 0.14078 0.0799268
0.937942 0.145586 0.0838788
0.96939 0.149981 0.0875715
1 0.154314 0.0912032
1 0.158541 0.0947585
1 0.162936 0.0984512
1 0.167468 0.102235
1 0.172168 0.106142
1 0.176654 0.109911
0 0.0350347 0.178393
0 0.0528267 0.156466
0 0.0707713 0.136217
0 0.0899977 0.117952
0 0.11107 0.100969
0 0.134234 0.0845808
0 0.15938 0.0679789
0.0486915 0.158968 0.0675669
0.1308 0.157626 0.0664225
0.212696 0.15613 0.0651408
0.287526 0.155047 0.0642252
0.356741 0.154131 0.063447
0.412451 0.153552 0.0628672
0.462043 0.153033 0.0623941
0.511086 0.152743 0.0621347
0.559136 0.152865 0.0622263
0.605646 0.153521 0.0627604
0.650095 0.154803 0.0638132
0.692653 0.157046 0.0655985
0.732708 0.159533 0.0676738
0.770626 0.162554 0.0702068
0.806516 0.166033 0.0731212
0.840742 0.169863 0.0763409
0.873671 0.173907 0.0797284
0.905974 0.178485 0.0834669
0.937575 0.182879 0.0871595
0.9691 0.18735 0.0909285
1 0.191806 0.094667
1 0.196094 0.0982834
1 0.2009 0.102235
1 0.205371 0.106004
1 0.209827 0.109789
1 0.214313 0.113573
0 0.0390478 0.202945
0 0.0569772 0.178531
0 0.0753185 0.156024
0 0.0950179 0.135622
0 0.116793 0.117174
0 0.141024 0.100175
0 0.167239 0.0835431
0.0340734 0.194995 0.0666056
0.116335 0.194491 0.0661631
0.200504 0.193683 0.0654459
0.277256 0.193133 0.0649729
0.348486 0.193072 0.0647898
0.406439 0.192676 0.0644388
0.456321 0.192386 0.0641794
0.505745 0.192325 0.0641184
0.554162 0.192554 0.0643015
0.601297 0.193469 0.0649882
0.646204 0.194766 0.0660258
0.688701 0.196521 0.0674907
0.728939 0.198779 0.0693828
0.766979 0.201495 0.0716716
0.80293 0.204669 0.0743267
0.837491 0.208637 0.0775769
0.870634 0.21268 0.0809644
0.902907 0.216968 0.084596
0.934661 0.221439 0.0883497
0.966247 0.225956 0.0921645
0.998032 0.230457 0.0959793
1 0.235142 0.0998093
1 0.239628 0.103593
1 0.244099 0.107378
1 0.248569 0.111147
1 0.25301 0.114916
0 0.042771 0.229114
0 0.0609445 0.202838
0 0.0797131 0.177966
0 0.0999771 0.155276
0 0.122683 0.13492
0 0.147768 0.116533
0 0.17496 0.0992447
0.0125734 0.203769 0.0824445
0.101701 0.23357 0.0657511
0.187747 0.233356 0.065507
0.266468 0.233326 0.0653849
0.338445 0.233234 0.0652934
0.399298 0.233051 0.0651408
0.449332 0.232883 0.0649729
0.498909 0.232807 0.0649119
0.547707 0.233188 0.0651408
0.594873 0.233799 0.0656138
0.639841 0.234714 0.0663767
0.682445 0.236118 0.0675669
0.722866 0.238117 0.0692454
0.761212 0.240726 0.0714427
0.797803 0.244236 0.0742962
0.832486 0.247974 0.077409
0.865873 0.252033 0.080827
0.898314 0.256336 0.0844739
0.93019 0.260838 0.0882582
0.961837 0.265415 0.0921187
0.993805 0.270314 0.0961318
1 0.274693 0.0998398
1 0.279057 0.103548
1 0.283482 0.107301
1 0.287907 0.11104
1 0.292622 0.114946
0 0.0464027 0.256397
0 0.0647593 0.228885
0 0.0839704 0.202152
0 0.104982 0.177172
0 0.128252 0.154421
0 0.154284 0.134127
0 0.182559 0.115694
0 0.212421 0.098497
0.0788891 0.243122 0.0819715
0.175402 0.27422 0.0658274
0.255116 0.274083 0.0657054
0.328038 0.274083 0.0657054
0.391791 0.273915 0.0655528
0.441764 0.27364 0.0653239
0.491615 0.273716 0.0652628
0.540124 0.273579 0.065156
0.587213 0.273777 0.0653391
0.632471 0.274525 0.06598
0.675517 0.275929 0.0671702
0.716548 0.278141 0.0689555
0.755428 0.280888 0.0712291
0.792172 0.284047 0.0738994
0.827115 0.287709 0.076997
0.860731 0.291737 0.0803998
0.893324 0.296025 0.0840314
0.92546 0.300786 0.087953
0.957137 0.305379 0.0918288
0.988815 0.30988 0.0956436
1 0.31426 0.0993515
1 0.318517 0.102983
1 0.32285 0.106676
1 0.327504 0.110506
1 0.331762 0.114153
0 0.0500038 0.285206
0 0.0686809 0.256214
0 0.0882582 0.228229
0 0.109621 0.201083
0 0.133669 0.176013
0 0.160632 0.153597
0 0.190036 0.133471
0 0.221241 0.11548
0.0566262 0.252659 0.098497
0.152438 0.283833 0.0822156
0.244388 0.314672 0.0664988
0.317952 0.314549 0.0664073
0.384848 0.31426 0.0661326
0.43447 0.313954 0.0658122
0.483955 0.313558 0.0654917
0.532677 0.31342 0.0653849
0.580118 0.313634 0.0655985
0.625788 0.314382 0.0662394
0.669429 0.315923 0.0674907
0.710826 0.318044 0.0692454
0.749966 0.320592 0.0714122
0.78706 0.323674 0.0740215
0.822278 0.32726 0.0770581
0.856077 0.331212 0.080415
0.888975 0.335714 0.0841382
0.921035 0.3402 0.0879072
0.952636 0.344656 0.0916915
0.984192 0.349081 0.0954604
1 0.353384 0.0991226
1 0.357534 0.102647
1 0.362097 0.106432
1 0.366247 0.109972
1 0.370336 0.113481
0 0.0537881 0.313832
0 0.0724193 0.284794
0 0.0923323 0.255039
0 0.114229 0.226734
0 0.138964 0.199771
0 0.166812 0.175128
0 0.197513 0.153277
0 0.229496 0.133623
0.0343481 0.261753 0.115709
0.128695 0.293294 0.0989242
0.223133 0.324086 0.082826
0.306691 0.354665 0.0664988
0.375174 0.354528 0.0663157
0.426566 0.354101 0.06598
0.476188 0.35375 0.0657206
0.525154 0.353628 0.0656596
0.572915 0.353841 0.0658732
0.619272 0.354864 0.0666361
0.663111 0.35613 0.0677348
0.704738 0.357992 0.0693523
0.744213 0.360433 0.0714275
0.781643 0.363424 0.0739757
0.817212 0.367056 0.076997
0.851301 0.371069 0.080354
0.884092 0.375189 0.0838483
0.916106 0.379477 0.0874952
0.947662 0.383825 0.0911879
0.979095 0.388159 0.0948653
1 0.392615 0.098558
1 0.396689 0.102022
1 0.400763 0.105501
1 0.404761 0.108919
1 0.408667 0.112276
0 0.0574197 0.342733
0 0.0762188 0.312886
0 0.0964218 0.283314
0 0.118807 0.253239
0 0.144411 0.225483
0 0.173068 0.199008
0 0.20444 0.17496
0 0.237415 0.153628
0.0124666 0.270527 0.134264
0.104829 0.30251 0.116457
0.201572 0.333715 0.0995804
0.286931 0.364157 0.0827344
0.364553 0.395071 0.0663462
0.418494 0.39469 0.0660716
0.468238 0.394369 0.0658427
0.517418 0.394278 0.0657969
0.565682 0.394705 0.0661021
0.612024 0.3953 0.0666514
0.656245 0.39646 0.0676738
0.698192 0.398184 0.0691691
0.737972 0.400458 0.0711376
0.775784 0.403433 0.0736095
0.811627 0.406958 0.0765393
0.845716 0.410651 0.0796826
0.878569 0.414603 0.0830549
0.910567 0.418708 0.0865644
0.942031 0.422919 0.090135
0.973449 0.427314 0.0938125
1 0.431479 0.0973373
1 0.435248 0.100587
1 0.439078 0.103899
1 0.442832 0.107149
1 0.446494 0.110338
0 0.0610056 0.373007
0 0.0800336 0.341466
0 0.100587 0.31107
0 0.123598 0.281422
0 0.149584 0.251728
0 0.178882 0.224338
0 0.211093 0.198764
0 0.244984 0.175616
0 0.278874 0.154635
0.0818341 0.311742 0.135515
0.178622 0.342794 0.11696
0.266194 0.373266 0.0991226
0.345739 0.404334 0.0824445
0.410361 0.435523 0.0661936
0.460212 0.435218 0.06598
0.509758 0.435309 0.0660105
0.557916 0.435355 0.0661326
0.604517 0.435782 0.0665599
0.649058 0.436774 0.0674601
0.691325 0.438315 0.0688182
0.731655 0.440742 0.0708019
0.769558 0.443336 0.0730449
0.805463 0.446418 0.0757
0.839658 0.449882 0.0786755
0.872572 0.453635 0.0818952
0.904601 0.457664 0.0853132
0.93608 0.461845 0.088838
0.967163 0.465797 0.0922408
0.998306 0.469612 0.095552
1 0.473152 0.0986191
1 0.476722 0.101747
1 0.480385 0.104875
1 0.483894 0.107912
0 0.0645609 0.405463
0 0.0838331 0.371344
0 0.104982 0.339498
0 0.128313 0.308919
0 0.154711 0.279362
0 0.184588 0.25037
0 0.217472 0.224201
0 0.252445 0.199893
0 0.287129 0.177218
0.0581826 0.320241 0.156146
0.154314 0.351583 0.135637
0.244526 0.382162 0.116304
0.326116 0.413413 0.0988174
0.396521 0.444968 0.082414
0.452461 0.476112 0.066331
0.501762 0.475807 0.0661479
0.550072 0.475715 0.0661784
0.596872 0.475975 0.0664836
0.641703 0.476738 0.067216
0.684489 0.478355 0.0685435
0.724773 0.480201 0.0701762
0.762921 0.482536 0.0722362
0.798993 0.485344 0.0746777
0.833265 0.488533 0.0774548
0.866255 0.492103 0.0805219
0.898314 0.49601 0.0838026
0.929519 0.499718 0.0870375
0.960357 0.503395 0.0902419
0.991211 0.506966 0.0933547
1 0.510307 0.0963149
1 0.51368 0.0992294
1 0.517006 0.102113
1 0.520043 0.104829
0 0.0681926 0.438437
0 0.0878004 0.403601
0 0.109163 0.368902
0 0.133013 0.336751
0 0.15996 0.306584
0 0.190234 0.277867
0 0.223896 0.250507
0 0.259297 0.225574
0 0.29456 0.201617
0.0345769 0.328298 0.178683
0.128557 0.359991 0.1561
0.221637 0.390845 0.134813
0.306111 0.422568 0.116091
0.382116 0.45388 0.0987259
0.438132 0.484962 0.0823377
0.493843 0.515846 0.0664683
0.542229 0.515572 0.0663462
0.589197 0.515633 0.0665141
0.634546 0.516442 0.0671855
0.677272 0.517464 0.0681468
0.717754 0.51899 0.0695506
0.756085 0.521019 0.0713664
0.792325 0.523522 0.073579
0.826902 0.526741 0.0762951
0.8598 0.5299 0.0790723
0.891585 0.533242 0.0819867
0.922637 0.53666 0.0849928
0.953262 0.540063 0.0879988
0.983841 0.54342 0.0909285
1 0.546715 0.0937667
1 0.549538 0.0963302
1 0.552392 0.0988937
1 0.555093 0.10135
0 0.071809 0.471015
0 0.0915999 0.435966
0 0.113329 0.400275
0 0.137682 0.365713
0 0.165194 0.334112
0 0.196216 0.305211
0 0.229999 0.278126
0 0.265751 0.251881
0 0.301518 0.227512
0.0110781 0.335866 0.203143
0.102708 0.368246 0.178622
0.198138 0.399542 0.155352
0.284672 0.431037 0.134463
0.363058 0.46247 0.11577
0.423545 0.493568 0.098558
0.479469 0.524315 0.0823682
0.534829 0.555047 0.0669108
0.581903 0.554849 0.066865
0.627115 0.555047 0.0671702
0.670054 0.555764 0.0678874
0.710735 0.556954 0.0690318
0.749203 0.558633 0.070573
0.785809 0.56109 0.0726635
0.820203 0.563638 0.0749371
0.853071 0.566476 0.0774395
0.884764 0.569467 0.0801099
0.915602 0.572534 0.0828412
0.945998 0.575647 0.0856031
0.976349 0.578866 0.0883955
1 0.581613 0.0908675
1 0.58407 0.0931258
1 0.586511 0.0953994
1 0.588846 0.0975662
0 0.075349 0.502892
0 0.0953841 0.467948
0 0.117479 0.432227
0 0.142443 0.396658
0 0.170611 0.362966
0 0.201831 0.332586
0 0.235935 0.305211
0 0.271962 0.279606
0 0.30808 0.254108
0 0.34313 0.229145
0.0767529 0.375906 0.203052
0.172976 0.407553 0.177646
0.262242 0.439124 0.154574
0.342885 0.470726 0.134035
0.408637 0.501869 0.11548
0.465049 0.532815 0.0986038
0.520516 0.563058 0.0826734
0.574487 0.592844 0.0673686
0.619806 0.592691 0.0673991
0.662928 0.593042 0.0678416
0.703761 0.593881 0.0686961
0.742626 0.595499 0.0700999
0.77908 0.597238 0.0717021
0.813504 0.599374 0.0736553
0.846326 0.601816 0.0758679
0.877882 0.604456 0.078233
0.908736 0.607477 0.0808423
0.938781 0.610147 0.0832685
0.968582 0.612741 0.0856336
0.998505 0.615137 0.0878462
1 0.617243 0.0898146
1 0.619364 0.0917983
1 0.621561 0.0937972
0 0.0788891 0.534005
0 0.0991684 0.499336
0 0.121721 0.46389
0 0.147204 0.428443
0 0.175708 0.393317
0 0.207248 0.360967
0 0.241688 0.33254
0 0.277943 0.306813
0 0.314656 0.282322
0 0.349889 0.255833
0.05066 0.383017 0.228809
0.145998 0.415122 0.201877
0.238392 0.446845 0.176593
0.321843 0.478782 0.154116
0.393729 0.51014 0.133761
0.450019 0.540749 0.115404
0.505776 0.570794 0.0986191
0.560265 0.60029 0.0829786
0.612757 0.629221 0.0680095
0.656245 0.629404 0.0682383
0.69723 0.629877 0.0687877
0.735927 0.630777 0.0697032
0.772473 0.632105 0.0709697
0.806928 0.633829 0.0725719
0.839658 0.635828 0.0744335
0.871275 0.638331 0.0766155
0.901686 0.64065 0.0787213
0.931456 0.642969 0.0808576
0.960906 0.645197 0.0829175
0.990372 0.647242 0.0848554
1 0.648997 0.0865339
1 0.651011 0.088365
1 0.652628 0.0899519
0 0.0824598 0.564233
0 0.103166 0.530251
0 0.125978 0.495033
0 0.151781 0.459632
0 0.180697 0.424674
0 0.212634 0.391089
0 0.247379 0.361028
0 0.284001 0.334524
0 0.320577 0.30959
0 0.35613 0.28368
0.0248722 0.389746 0.25536
0.117769 0.422263 0.227588
0.213321 0.454307 0.200687
0.299489 0.486305 0.175952
0.376959 0.517678 0.153521
0.434546 0.548302 0.133288
0.490593 0.57821 0.11519
0.545586 0.607446 0.0987106
0.599008 0.63624 0.0835279
0.649683 0.664256 0.0689555
0.690715 0.66424 0.0691081
0.729458 0.664668 0.0696269
0.766049 0.665537 0.0705119
0.800534 0.666804 0.0717479
0.833417 0.66865 0.0733959
0.864668 0.670436 0.0750591
0.894865 0.672328 0.0768292
0.924361 0.674281 0.078645
0.953475 0.676173 0.0804303
0.982727 0.678157 0.0822309
1 0.679652 0.0836805
1 0.680949 0.085008
1 0.682246 0.0863203
0 0.0861982 0.59353
0 0.106966 0.559976
0 0.130114 0.525277
0 0.156283 0.490257
0 0.18558 0.45565
0 0.217914 0.422446
0 0.253025 0.391318
0 0.289433 0.362982
0 0.326177 0.33695
0 0.362005 0.310857
0 0.396063 0.283177
0.0900893 0.429328 0.254307
0.186923 0.461357 0.226307
0.2757 0.493187 0.199557
0.355795 0.524712 0.175021
0.418616 0.555428 0.152789
0.475151 0.585443 0.132921
0.530755 0.614618 0.115206
0.584573 0.642847 0.0990616
0.636011 0.670344 0.0841077
0.684321 0.697154 0.069688
0.72314 0.697108 0.0698253
0.75993 0.697673 0.0704051
0.794522 0.698543 0.0712902
0.827131 0.699702 0.0724193
0.858289 0.701076 0.0737469
0.888304 0.702602 0.0751812
0.91754 0.704158 0.0766766
0.946487 0.705913 0.0782788
0.975189 0.707362 0.0796826
1 0.708568 0.0809033
1 0.709514 0.0819104
1 0.710475 0.082948
0 0.0897841 0.621286
0 0.110765 0.588571
0 0.134218 0.554604
0 0.160754 0.52018
0 0.190631 0.486366
0 0.223178 0.45359
0 0.258137 0.422461
0 0.294575 0.393118
0 0.331441 0.365286
0 0.367559 0.338094
0 0.402304 0.310643
0.0622263 0.43566 0.282139
0.158892 0.467918 0.252552
0.250568 0.499672 0.22472
0.333227 0.531289 0.198322
0.402319 0.562188 0.17406
0.459174 0.592218 0.152178
0.515084 0.621134 0.132555
0.569543 0.649104 0.115114
0.621744 0.676219 0.099321
0.670924 0.702556 0.0845655
0.717021 0.728267 0.0703136
0.753811 0.728298 0.0704662
0.788373 0.728618 0.0708934
0.820981 0.729305 0.0716411
0.852049 0.730282 0.0726177
0.881941 0.731426 0.0737316
0.911131 0.732876 0.0750744
0.939605 0.734066 0.0762493
0.96791 0.735164 0.077348
0.996353 0.73608 0.0783093
1 0.736721 0.0790417
1 0.737575 0.0799268
0 0.0933852 0.647684
0 0.114549 0.6159
0 0.138277 0.582818
0 0.165377 0.549432
0 0.195285 0.516121
0 0.228046 0.48397
0 0.263081 0.453315
0 0.299413 0.42414
0 0.336385 0.395254
0 0.372885 0.36643
0 0.407843 0.337789
0.0347295 0.441611 0.309407
0.129091 0.474067 0.280232
0.22385 0.505806 0.250568
0.309773 0.537682 0.223407
0.386007 0.568521 0.197131
0.442481 0.598367 0.172992
0.498817 0.627207 0.151324
0.553903 0.655024 0.132113
0.607019 0.681926 0.115084
0.657237 0.707973 0.0995956
0.704005 0.733059 0.084947
0.747631 0.757427 0.070634
0.7823 0.757321 0.0706951
0.814939 0.757595 0.0710613
0.846052 0.758267 0.0717632
0.875883 0.759121 0.0726024
0.904707 0.759991 0.0734875
0.932937 0.760861 0.0743725
0.960891 0.761639 0.0751965
0.988891 0.762264 0.0758984
1 0.762768 0.0764477
1 0.76318 0.0769818
0 0.0970016 0.672709
0 0.118502 0.642054
0 0.14255 0.610025
0 0.16965 0.577371
0 0.199786 0.544961
0 0.232715 0.513649
0 0.267796 0.483635
0 0.304356 0.4551
0 0.341192 0.426154
0 0.377508 0.396078
0 0.412924 0.365805
0.00787366 0.447166 0.336522
0.0989853 0.479912 0.3075
0.196246 0.511894 0.278187
0.28455 0.543313 0.248829
0.364187 0.574197 0.221607
0.425269 0.604059 0.195514
0.481941 0.632837 0.17171
0.537682 0.660578 0.150484
0.591669 0.687343 0.131746
0.642664 0.712902 0.1149
0.690318 0.737575 0.0994888
0.734768 0.761486 0.0849317
0.776211 0.784695 0.070634
0.809064 0.784665 0.0707103
0.840146 0.784939 0.0710613
0.86978 0.78529 0.0714885
0.898421 0.785794 0.0720378
0.926421 0.786343 0.0726329
0.954055 0.786847 0.0731975
0.981842 0.787411 0.0737774
1 0.787533 0.0740368
1 0.787503 0.0741741
0 0.100694 0.696574
0 0.122271 0.666712
0 0.146532 0.63566
0 0.173831 0.60412
0 0.204105 0.572763
0 0.23714 0.542428
0 0.272557 0.513542
0 0.308736 0.485161
0 0.345418 0.456306
0 0.381704 0.426291
0 0.417472 0.3953
0 0.452186 0.364446
0.0699626 0.485649 0.334752
0.166918 0.517388 0.305272
0.257969 0.548531 0.275731
0.3402 0.579385 0.246677
0.407538 0.609262 0.219562
0.464805 0.63827 0.193957
0.520928 0.665812 0.170504
0.575387 0.692195 0.149569
0.627314 0.717479 0.130968
0.67599 0.741833 0.114366
0.721416 0.765408 0.0991531
0.763836 0.788342 0.0847944
0.803143 0.810437 0.0704814
0.834165 0.810224 0.0703899
0.863767 0.810239 0.0705119
0.892287 0.810391 0.0707408
0.920119 0.810697 0.0710918
0.94754 0.810987 0.0714427
0.974792 0.811109 0.0716411
1 0.811002 0.0716716
1 0.810681 0.071519
0 0.104265 0.719081
0 0.125933 0.690044
0 0.150408 0.659968
0 0.17789 0.629541
0 0.208484 0.599603
0 0.241672 0.570474
0 0.276707 0.542245
0 0.312734 0.514366
0 0.34931 0.485847
0 0.38555 0.456046
0 0.421836 0.425666
0 0.456962 0.39408
0.0406806 0.490562 0.362539
0.135729 0.52256 0.332067
0.229816 0.553521 0.302525
0.314763 0.584176 0.273182
0.38967 0.614237 0.24445
0.446723 0.642939 0.217487
0.503288 0.67042 0.191974
0.558404 0.696666 0.168872
0.61117 0.721706 0.148196
0.660929 0.745785 0.129931
0.7075 0.769162 0.113695
0.750652 0.791577 0.0986191
0.790784 0.813275 0.0841993
0.828061 0.834348 0.0697337
0.857649 0.833997 0.0695201
0.886168 0.83389 0.0695048
0.913863 0.833906 0.0695964
0.940932 0.833814 0.0695811
0.967834 0.833646 0.0695201
0.994858 0.83331 0.0696422
1 0.832746 0.0692607
0 0.107729 0.740337
0 0.129549 0.712139
0 0.154162 0.683009
0 0.181949 0.653788
0 0.212543 0.624994
0 0.24567 0.59707
0 0.280598 0.569924
0 0.316487 0.542718
0 0.352865 0.514595
0 0.389273 0.48539
0 0.425467 0.455207
0 0.460914 0.424063
0.0118715 0.494926 0.391669
0.103593 0.52723 0.359548
0.200183 0.558206 0.328923
0.288518 0.588861 0.29987
0.367727 0.618555 0.270512
0.428077 0.647135 0.241703
0.484947 0.674525 0.214893
0.540658 0.700694 0.18967
0.594522 0.725795 0.167041
0.645258 0.749569 0.146654
0.692638 0.772457 0.12871
0.736782 0.794553 0.112612
0.777829 0.81593 0.097673
0.815885 0.836667 0.0832227
0.851499 0.856886 0.068574
0.87985 0.856336 0.0683909
0.907332 0.855955 0.0681926
0.934218 0.855604 0.0679637
0.960845 0.855207 0.067689
0.987579 0.854734 0.0673686
1 0.854139 0.0669261
0 0.111086 0.760403
0 0.133043 0.733043
0 0.158053 0.705013
0 0.185748 0.676722
0 0.216281 0.649012
0 0.249393 0.622324
0 0.284199 0.596414
0 0.32018 0.570245
0 0.356451 0.542809
