src/luts/rounded/11.cube
TITLE "Generated by Resolve"
LUT_3D_SIZE 9
0 0.00869764 0.0711986
0 0.00691234 0.0697337
0.192721 0 0.0577859
0.434165 0 0.042237
0.607477 0 0.030808
0.752102 0 0.0296788
0.875898 0 0.0374304
1 0 0.049836
1 0.0010071 0.0643168
0 0.026566 0.136263
0 0.0996567 0.0703136
0.154147 0.0928054 0.0645304
0.420142 0.0829938 0.0566262
0.607919 0.0793317 0.0534829
0.768261 0.0870527 0.0595102
0.902861 0.103975 0.0736553
1 0.122347 0.0890211
1 0.140139 0.103899
0 0.042771 0.229114
0 0.122683 0.13492
0.101701 0.23357 0.0657511
0.399298 0.233051 0.0651408
0.594873 0.233799 0.0656138
0.761212 0.240726 0.0714427
0.898314 0.256336 0.0844739
1 0.274693 0.0998398
1 0.292622 0.114946
0 0.0574197 0.342733
0 0.144411 0.225483
0.0124666 0.270527 0.134264
0.364553 0.395071 0.0663462
0.565682 0.394705 0.0661021
0.737972 0.400458 0.0711376
0.878569 0.414603 0.0830549
1 0.431479 0.0973373
1 0.446494 0.110338
0 0.071809 0.471015
0 0.165194 0.334112
0 0.301518 0.227512
0.284672 0.431037 0.134463
0.534829 0.555047 0.0669108
0.710735 0.556954 0.0690318
0.853071 0.566476 0.0774395
0.976349 0.578866 0.0883955
1 0.588846 0.0975662
0 0.0861982 0.59353
0 0.18558 0.45565
0 0.326177 0.33695
0.186923 0.461357 0.226307
0.475151 0.585443 0.132921
0.684321 0.697154 0.069688
0.827131 0.699702 0.0724193
0.946487 0.705913 0.0782788
1 0.710475 0.082948
0 0.100694 0.696574
0 0.204105 0.572763
0 0.345418 0.456306
0.0699626 0.485649 0.334752
0.407538 0.609262 0.219562
0.627314 0.717479 0.130968
0.803143 0.810437 0.0704814
0.920119 0.810697 0.0710918
1 0.810681 0.071519
0 0.114412 0.779431
0 0.219806 0.671809
0 0.35935 0.56965
0 0.50219 0.451072
0.315145 0.626001 0.32221
0.558114 0.732204 0.20856
0.749966 0.82063 0.125246
0.89366 0.897551 0.0644694
0.999161 0.894194 0.0617533
0 0.125917 0.847547
0 0.231159 0.751431
0 0.367788 0.665064
0 0.508995 0.559213
0.18938 0.636225 0.43122
0.476326 0.740459 0.302632
0.683604 0.826123 0.189868
0.841566 0.899733 0.112856
0.965469 0.967102 0.0491951
0 0.00817884 0.10103
0 0.00723278 0.148348
0.142931 0 0.138125
0.405112 0 0.122835
0.582452 0 0.110994
0.73286 0 0.10901
0.859922 0 0.116869
0.98497 0 0.129793
1 0.0031281 0.144884
0 0.0983597 0.147723
0 0.100404 0.149447
0.157687 0.0947433 0.144701
0.423438 0.0861677 0.13753
0.612375 0.0836652 0.135454
0.773297 0.0920119 0.142458
0.908034 0.109087 0.156802
1 0.127123 0.171939
1 0.144823 0.186786
0 0.117266 0.243305
0 0.120928 0.246418
0.110384 0.238407 0.148562
0.404501 0.238163 0.148257
0.599802 0.238651 0.148592
0.76614 0.245609 0.154421
0.903334 0.261295 0.167544
1 0.279606 0.182879
1 0.297017 0.197589
0 0.136629 0.355459
0 0.141604 0.360098
0.0158999 0.272465 0.24918
0.371054 0.400015 0.149371
0.570367 0.399374 0.148959
0.742855 0.405295 0.153964
0.883284 0.419196 0.165621
1 0.435737 0.179522
1 0.450355 0.191989
0 0.156863 0.481132
0 0.162982 0.487327
0 0.301793 0.365316
0.287266 0.432776 0.248737
0.538872 0.559121 0.148928
0.714778 0.560922 0.150683
0.856764 0.56994 0.15848
0.979568 0.581796 0.168719
1 0.59118 0.177066
0 0.177371 0.598245
0 0.184237 0.605386
0 0.325978 0.492607
0.186542 0.461158 0.363378
0.475944 0.586313 0.244511
0.686824 0.699718 0.149142
0.829267 0.70164 0.151003
0.948013 0.707088 0.155856
1 0.711345 0.159808
0 0.197009 0.695811
0 0.204211 0.703822
0 0.345129 0.60824
0.0686046 0.484825 0.489586
0.406149 0.608057 0.354345
0.626535 0.716945 0.237095
0.803708 0.811048 0.146319
0.920272 0.810681 0.145983
1 0.8103 0.145724
0 0.214603 0.774777
0 0.221118 0.783001
0 0.359701 0.703807
0 0.50106 0.604013
0.312047 0.624094 0.473899
0.554589 0.729198 0.339147
0.747692 0.818662 0.22295
0.892683 0.896635 0.136904
0.997925 0.892989 0.133639
0 0.227985 0.840497
0 0.23299 0.848264
0 0.368856 0.779934
0 0.508186 0.696757
0.184817 0.63386 0.585077
0.471733 0.736721 0.448615
0.678065 0.821363 0.313649
0.838621 0.897032 0.199573
0.963531 0.965225 0.119585
0 0.00807202 0.134569
0 0.00607309 0.192142
0.085481 0 0.256031
0.369619 0 0.241016
0.553033 0 0.229206
0.709438 0 0.226429
0.84033 0 0.23415
0.965484 0 0.247532
1 0.00175479 0.263142
0 0.0975357 0.191913
0 0.099855 0.193912
0.102159 0.0951553 0.26421
0.392203 0.0872358 0.257404
0.584405 0.0843977 0.255085
0.751156 0.0915236 0.261372
0.889006 0.107744 0.275731
1 0.125719 0.291554
1 0.143282 0.306935
0 0.221271 0.253239
0 0.233722 0.264088
0.113069 0.239902 0.269505
0.406134 0.23978 0.269383
0.60087 0.239704 0.269322
0.767529 0.246998 0.275685
0.904814 0.262745 0.289433
1 0.280934 0.305333
1 0.298238 0.320607
0 0.248264 0.367239
0 0.262089 0.380453
0.0166781 0.272908 0.391302
0.3729 0.401419 0.27042
0.571694 0.400702 0.26981
0.744152 0.406546 0.274861
0.884413 0.420188 0.286625
1 0.436179 0.300435
1 0.450568 0.312947
0 0.274586 0.495949
0 0.288563 0.510109
0 0.301961 0.523674
0.287434 0.432883 0.390448
0.539635 0.559915 0.268589
0.715236 0.561288 0.269734
0.856855 0.569787 0.276997
0.978988 0.580774 0.286381
1 0.589883 0.294179
0 0.299657 0.613931
0 0.313054 0.627695
0 0.326452 0.641489
0.185626 0.460639 0.521096
0.475029 0.585504 0.384237
0.685756 0.698695 0.264836
0.827832 0.700038 0.265446
0.946227 0.704967 0.269062
1 0.708782 0.271672
0 0.322728 0.711421
0 0.33489 0.724483
0 0.346517 0.737102
0.0679332 0.484398 0.639155
0.404501 0.606577 0.510475
0.623468 0.714107 0.373144
0.800931 0.808331 0.255406
0.917311 0.807568 0.253101
1 0.806867 0.250828
0 0.342107 0.789639
0 0.352483 0.801846
0 0.361807 0.813169
0 0.501427 0.735317
0.309392 0.622522 0.624613
0.550652 0.72578 0.491386
0.742458 0.813779 0.353689
0.889036 0.89305 0.236805
0.994171 0.889265 0.231128
0 0.355856 0.854719
0 0.364065 0.865812
0 0.371145 0.876036
0 0.509255 0.80943
0.182437 0.632837 0.719905
0.467262 0.73312 0.599847
0.671962 0.816068 0.459342
0.832273 0.890959 0.323873
0.959838 0.961608 0.207858
0 0.00727855 0.175235
0 0.00457771 0.243061
0.0821698 0 0.312001
0.323674 0 0.379797
0.521813 0 0.366049
0.68426 0 0.362005
0.819471 0 0.370443
0.945098 0 0.386496
1 0 0.404746
0 0.0960555 0.243412
0 0.0986191 0.245624
0.100801 0.094316 0.321248
0.353002 0.0872969 0.400778
0.55433 0.084123 0.39762
0.727123 0.0902266 0.403983
0.86865 0.105409 0.419516
0.99585 0.123262 0.437751
1 0.14078 0.455497
0 0.221073 0.310582
0 0.23389 0.321935
0.11368 0.240238 0.327596
0.372244 0.240467 0.415213
0.570977 0.239551 0.414298
0.743343 0.245518 0.420325
0.884337 0.260243 0.435233
1 0.278264 0.453468
1 0.295445 0.470878
0 0.381567 0.395834
0 0.396155 0.410452
0.116716 0.40238 0.416663
0.373312 0.40174 0.416037
0.571984 0.400992 0.41529
0.74432 0.406653 0.420966
0.884367 0.420005 0.434333
1 0.435492 0.449851
1 0.449516 0.46389
0 0.408881 0.524681
0 0.423239 0.539055
0.0164492 0.433448 0.549325
0.287327 0.432822 0.548775
0.539147 0.559442 0.413108
0.714412 0.560372 0.413977
0.855604 0.568276 0.421805
0.977203 0.578653 0.43209
1 0.587137 0.440482
0 0.43444 0.639292
0 0.447715 0.652857
0 0.46009 0.665553
0.186557 0.461234 0.66717
0.474006 0.584573 0.542031
0.683223 0.696193 0.406546
0.824781 0.696742 0.406394
0.942824 0.701228 0.410086
1 0.704494 0.412528
0 0.457435 0.733318
0 0.469352 0.746105
0 0.481315 0.75906
0.0709392 0.486061 0.765042
0.403616 0.60589 0.657237
0.620157 0.71107 0.528557
0.796109 0.803571 0.392706
0.912383 0.802472 0.389624
1 0.801373 0.386343
0 0.476417 0.809125
0 0.486595 0.821073
0 0.496208 0.832761
0 0.503761 0.842557
0.309087 0.622568 0.752605
0.547143 0.72285 0.638651
0.737102 0.808743 0.505486
0.882948 0.887022 0.368704
0.987854 0.882979 0.361563
0 0.489509 0.873167
0 0.49752 0.883925
0 0.504601 0.894194
0 0.511574 0.904524
0.182879 0.633539 0.829999
0.464134 0.730892 0.730983
0.666163 0.811048 0.607767
0.825528 0.884474 0.469688
0.952972 0.954803 0.332845
0 0.00572213 0.224216
0 0.00251774 0.298894
0.0788586 0 0.370535
0.32137 0 0.44538
0.489784 0 0.520745
0.658442 0 0.515816
0.798505 0 0.524239
0.92488 0 0.540841
1 0 0.559487
0 0.0942092 0.299382
0 0.0973068 0.302235
0.0995041 0.0935378 0.381674
0.352743 0.0870222 0.467872
0.524086 0.0844587 0.55494
0.702403 0.0893111 0.559976
0.848096 0.103288 0.574258
0.975525 0.120562 0.591806
1 0.13843 0.609964
0 0.220645 0.370398
0 0.234058 0.383337
0.114214 0.240528 0.389899
0.372564 0.240711 0.48275
0.540688 0.239872 0.571466
0.718441 0.244434 0.576074
0.863661 0.257954 0.589792
0.991577 0.275502 0.607599
1 0.29276 0.625132
0 0.381598 0.463172
0 0.396277 0.477852
0.116899 0.402487 0.484077
0.373022 0.401541 0.483131
0.541558 0.40119 0.572412
0.719127 0.405234 0.576532
0.863294 0.417227 0.588602
0.989029 0.432288 0.6038
1 0.446052 0.6177
0 0.544091 0.554803
0 0.558816 0.569543
0.119417 0.564477 0.575219
0.372763 0.562066 0.572854
0.538674 0.558984 0.569802
0.713558 0.559411 0.570275
0.854276 0.566644 0.577569
0.975357 0.576455 0.587442
1 0.584314 0.595376
0 0.56939 0.667933
0 0.583062 0.681834
0.0177157 0.592126 0.691157
0.283803 0.58938 0.688777
0.473991 0.584649 0.684443
0.680598 0.693629 0.561578
0.821698 0.693431 0.560845
0.939345 0.697398 0.564233
1 0.700084 0.566278
0 0.591714 0.760418
0 0.603601 0.773022
0 0.613962 0.784253
0.177874 0.613352 0.784619
0.404501 0.606973 0.779309
0.617731 0.708888 0.671077
0.791363 0.798901 0.546136
0.907317 0.797223 0.542641
1 0.795697 0.539132
0 0.609659 0.835431
0 0.619638 0.846799
0 0.628702 0.857572
0.0563821 0.631952 0.862608
0.311269 0.624338 0.857023
0.545159 0.721477 0.762341
0.732357 0.804349 0.649195
0.876661 0.880781 0.520073
0.981338 0.876463 0.512154
0 0.621607 0.899535
0 0.629435 0.909483
0 0.636042 0.918547
0 0.641169 0.926345
0.185229 0.635401 0.923568
0.46244 0.730175 0.837537
0.661768 0.807477 0.735286
0.819059 0.878309 0.615656
0.945708 0.947616 0.479042
0 0.00408942 0.278569
0 0.000534066 0.355962
0.0755322 0 0.435492
0.319188 0 0.509575
0.489128 0 0.581094
0.633295 0 0.652277
0.778622 0 0.659907
0.906477 0 0.676371
1 0 0.695186
0 0.0926223 0.356832
0 0.0961318 0.360281
0.0982834 0.0927749 0.448463
0.352361 0.0867628 0.533288
0.524773 0.0850843 0.61651
0.678264 0.0900893 0.697154
0.82855 0.102708 0.709987
0.957107 0.119615 0.727169
1 0.13753 0.745373
0 0.220523 0.43714
0 0.234226 0.451041
0.114702 0.240787 0.457694
0.372549 0.240696 0.548424
0.541253 0.240436 0.632898
0.694118 0.245014 0.712993
0.84387 0.257008 0.725231
0.973068 0.274357 0.742931
1 0.291478 0.760449
0 0.381872 0.529091
0 0.396475 0.543709
0.117266 0.402701 0.54995
0.37322 0.401694 0.548974
0.54197 0.401602 0.633768
0.694469 0.405509 0.713466
0.843 0.415641 0.723964
0.969985 0.430426 0.739101
1 0.443946 0.753063
0 0.544533 0.616159
0 0.559152 0.630823
0.119768 0.564691 0.636469
0.372778 0.562112 0.634012
0.538491 0.558831 0.630869
0.687999 0.558923 0.707347
0.833143 0.564309 0.713237
0.955474 0.573571 0.723018
1 0.581155 0.731182
0 0.698711 0.705348
0 0.710536 0.717205
0.130144 0.712734 0.719463
0.374594 0.706386 0.713176
0.534829 0.698344 0.705196
0.679118 0.692195 0.699123
0.819821 0.691341 0.69836
0.936996 0.694697 0.701808
1 0.696788 0.704036
0 0.719127 0.796582
0 0.72932 0.807157
0.0273289 0.734707 0.813016
0.282353 0.728084 0.806897
0.466926 0.718395 0.797787
0.616999 0.708446 0.788495
0.787655 0.795254 0.684398
0.903273 0.792996 0.681224
1 0.790997 0.678203
0 0.735302 0.871107
0 0.743343 0.879988
0 0.749737 0.887388
0.168826 0.745937 0.884688
0.392706 0.734691 0.874647
0.544839 0.721752 0.863157
0.729351 0.801694 0.768902
0.871168 0.875349 0.6607
0.975479 0.870619 0.653468
0 0.745785 0.935485
0 0.751736 0.942702
0 0.756603 0.949035
0.0411383 0.756893 0.950942
0.28484 0.745342 0.941222
0.462058 0.730724 0.92874
0.659068 0.805646 0.838788
0.81413 0.873671 0.740108
0.938888 0.940856 0.623331
0 0.00205997 0.3346
0 0 0.419638
0.0724041 0 0.500237
0.317388 0 0.570916
0.488914 0 0.636835
0.634089 0 0.702129
0.760266 0 0.770214
0.890196 0 0.786465
1 0 0.805341
0 0.0910201 0.421057
0 0.0949264 0.425223
0.0972763 0.0921645 0.514382
0.352544 0.0868696 0.595956
0.525841 0.0860761 0.673426
0.679896 0.0916762 0.747753
0.810285 0.104021 0.820188
0.940719 0.120592 0.837018
1 0.138567 0.855283
0 0.220523 0.503609
0 0.234485 0.517769
0.115221 0.241077 0.524453
0.373251 0.24123 0.611414
0.542184 0.241352 0.689632
0.695552 0.246418 0.763394
0.825589 0.258259 0.835523
0.956558 0.275105 0.852796
1 0.292134 0.870344
0 0.38233 0.592004
0 0.396933 0.606622
0.117647 0.402899 0.61265
0.373663 0.402045 0.611856
0.542702 0.402319 0.690471
0.695598 0.406561 0.763745
0.824308 0.416495 0.834379
0.952941 0.430503 0.848997
1 0.443748 0.863005
0 0.545342 0.672877
0 0.559808 0.68748
0.120073 0.564904 0.692775
0.373159 0.562448 0.690547
0.538582 0.558953 0.687327
0.688243 0.55906 0.757198
0.813489 0.564248 0.823865
0.937514 0.572595 0.833188
1 0.579858 0.841611
0 0.699428 0.755383
0 0.711009 0.767132
0.130343 0.712993 0.76936
0.374319 0.706401 0.762997
0.534325 0.698054 0.75494
0.678203 0.691341 0.748577
0.798825 0.690288 0.80972
0.917983 0.692683 0.81294
1 0.69453 0.815702
0 0.832959 0.836606
0 0.839551 0.843244
0.142535 0.837186 0.84094
0.374807 0.825559 0.829389
0.528908 0.812253 0.816129
0.668879 0.800366 0.804349
0.785733 0.793378 0.797452
0.901045 0.79057 0.794766
1 0.787961 0.792279
0 0.847089 0.910094
0 0.851682 0.915007
0.0358587 0.852872 0.916579
0.275364 0.841917 0.906035
0.455726 0.827344 0.891951
0.60116 0.812131 0.877317
0.727916 0.800626 0.866438
0.867491 0.871748 0.777081
0.971374 0.866514 0.770871
0 0.856229 0.974533
0 0.858885 0.977691
0 0.860609 0.979965
0.150317 0.853895 0.973938
0.372503 0.838178 0.959014
0.521126 0.820813 0.942596
0.657389 0.804837 0.927687
0.810941 0.870802 0.841016
0.933684 0.935729 0.745739
0 1.5259e-05 0.395727
0 0 0.484764
0.0696422 0 0.562631
0.315984 0 0.627894
0.489128 0 0.687922
0.635294 0 0.747692
0.761959 0 0.811444
0.875227 0 0.879561
1 1.5259e-05 0.898497
0 0.0895094 0.486671
0 0.0938277 0.491218
0.0967269 0.0917983 0.577951
0.353429 0.0874342 0.654398
0.527306 0.0874647 0.725658
0.681865 0.0935988 0.794003
0.812238 0.105928 0.861646
0.925612 0.12285 0.929931
1 0.140871 0.948226
0 0.220752 0.567712
0 0.234943 0.582086
0.11603 0.24152 0.588739
0.374334 0.242054 0.669993
0.543465 0.242618 0.741695
0.697292 0.248127 0.809461
0.827619 0.260212 0.877104
0.941283 0.277134 0.945632
1 0.294041 0.963165
0 0.383062 0.650507
0 0.397696 0.665156
0.118761 0.40354 0.671107
0.374548 0.402716 0.67039
0.543755 0.403372 0.742504
0.69688 0.407752 0.809583
0.82594 0.41796 0.8757
0.937118 0.431861 0.941619
1 0.444862 0.95555
0 0.546471 0.72491
0 0.560769 0.739422
0.121553 0.565759 0.744732
0.373938 0.563104 0.742412
0.538964 0.559365 0.739101
0.688869 0.559579 0.802823
0.814359 0.564858 0.864744
0.920821 0.572961 0.925566
1 0.579797 0.933928
0 0.700435 0.801099
0 0.711589 0.812573
0.130968 0.713527 0.814923
0.37435 0.706661 0.808469
0.534066 0.698039 0.800366
0.677806 0.691005 0.793973
0.798703 0.689967 0.850156
0.900236 0.692103 0.905394
1 0.693462 0.908217
0 0.833402 0.877119
0 0.839475 0.883391
0.14168 0.837171 0.881315
0.373724 0.82533 0.869734
0.527642 0.811658 0.856367
0.667689 0.799588 0.844648
0.784527 0.792264 0.837705
0.882139 0.789197 0.887892
0.989013 0.786465 0.886015
0 0.94287 0.944656
0 0.944106 0.945953
0.141848 0.938384 0.940276
0.365316 0.922408 0.924376
0.515877 0.904662 0.906706
0.65359 0.888334 0.890455
0.769528 0.876799 0.879026
0.865385 0.869703 0.872023
0.969009 0.864134 0.866575
0 0.951064 1
0 0.950607 1
0.0305791 0.948104 1
0.25301 0.934356 0.992447
0.435096 0.915648 0.973922
0.577173 0.896437 0.954955
0.703899 0.880262 0.939086
0.808606 0.868818 0.928023
0.930266 0.932387 0.845045
0 0 0.461128
0 0 0.548074
0.0670787 0 0.621027
0.315465 0 0.680293
0.489754 0 0.734615
0.63682 0 0.789807
0.764172 0 0.851072
0.87776 0 0.918364
0.988785 0.00271611 0.988693
0 0.0881971 0.550484
0 0.0929274 0.555444
0.0961929 0.0915236 0.6374
0.354849 0.088426 0.70811
0.529107 0.0892042 0.773449
0.684077 0.0957656 0.836774
0.814466 0.108141 0.901274
0.927962 0.12517 0.968551
1 0.143374 1
0 0.221332 0.627985
0 0.235721 0.642527
0.117082 0.242115 0.649012
0.375814 0.243183 0.723781
0.545083 0.244221 0.789334
0.699016 0.249744 0.85185
0.829816 0.262318 0.916732
0.943465 0.279164 0.9841
1 0.296117 1
0 0.384176 0.704265
0 0.398795 0.718929
0.120684 0.404623 0.72491
0.375845 0.403738 0.724178
0.545129 0.404746 0.790097
0.69836 0.40914 0.851911
0.82768 0.419501 0.914992
0.938781 0.433234 0.979568
1 0.446204 1
0 0.54789 0.772503
0 0.561975 0.786892
0.123568 0.566918 0.792264
0.375128 0.56405 0.789883
0.539635 0.560067 0.78648
0.689708 0.560311 0.844877
0.81532 0.565515 0.903487
0.921706 0.573404 0.962783
1 0.580163 1
0 0.70164 0.843259
0 0.712428 0.85452
0.132021 0.714305 0.856901
0.37464 0.707134 0.850324
0.533883 0.698131 0.842039
0.677607 0.690883 0.835615
0.798703 0.689754 0.888334
0.900236 0.691707 0.941833
0.994171 0.693126 0.995056
0 0.833936 0.915465
0 0.83975 0.921599
0.141009 0.837278 0.919478
0.372732 0.825208 0.90779
0.526543 0.811261 0.894331
0.666621 0.798947 0.882551
0.78349 0.791302 0.875517
0.881163 0.788006 0.923629
0.970443 0.785351 0.971954
0 0.942535 0.980728
0 0.943633 0.981933
0.139467 0.937835 0.976257
0.363012 0.921721 0.960266
0.513863 0.903792 0.942519
0.651576 0.887221 0.926146
0.767666 0.87538 0.914549
0.863493 0.867903 0.907347
0.949859 0.862455 0.952178
0 1 1
0 1 1
0.117571 1 1
0.337591 1 1
0.491066 0.983398 0.984161
0.628031 0.963699 0.964553
0.745754 0.948409 0.949371
0.842741 0.937881 0.938949
0.927871 0.930083 0.931258
