src/luts/rounded/11.cube
TITLE "Generated by Resolve"
LUT_3D_SIZE 5
0 0.00869764 0.0711986
0.192721 0 0.0577859
0.607477 0 0.030808
0.875898 0 0.0374304
1 0.0010071 0.0643168
0 0.042771 0.229114
0.101701 0.23357 0.0657511
0.594873 0.233799 0.0656138
0.898314 0.256336 0.0844739
1 0.292622 0.114946
0 0.071809 0.471015
0 0.301518 0.227512
0.534829 0.555047 0.0669108
0.853071 0.566476 0.0774395
1 0.588846 0.0975662
0 0.100694 0.696574
0 0.345418 0.456306
0.407538 0.609262 0.219562
0.803143 0.810437 0.0704814
1 0.810681 0.071519
0 0.125917 0.847547
0 0.367788 0.665064
0.18938 0.636225 0.43122
0.683604 0.826123 0.189868
0.965469 0.967102 0.0491951
0 0.00807202 0.134569
0.085481 0 0.256031
0.553033 0 0.229206
0.84033 0 0.23415
1 0.00175479 0.263142
0 0.221271 0.253239
0.113069 0.239902 0.269505
0.60087 0.239704 0.269322
0.904814 0.262745 0.289433
1 0.298238 0.320607
0 0.274586 0.495949
0 0.301961 0.523674
0.539635 0.559915 0.268589
0.856855 0.569787 0.276997
1 0.589883 0.294179
0 0.322728 0.711421
0 0.346517 0.737102
0.404501 0.606577 0.510475
0.800931 0.808331 0.255406
1 0.806867 0.250828
0 0.355856 0.854719
0 0.371145 0.876036
0.182437 0.632837 0.719905
0.671962 0.816068 0.459342
0.959838 0.961608 0.207858
0 0.00572213 0.224216
0.0788586 0 0.370535
0.489784 0 0.520745
0.798505 0 0.524239
1 0 0.559487
0 0.220645 0.370398
0.114214 0.240528 0.389899
0.540688 0.239872 0.571466
0.863661 0.257954 0.589792
1 0.29276 0.625132
0 0.544091 0.554803
0.119417 0.564477 0.575219
0.538674 0.558984 0.569802
0.854276 0.566644 0.577569
1 0.584314 0.595376
0 0.591714 0.760418
0 0.613962 0.784253
0.404501 0.606973 0.779309
0.791363 0.798901 0.546136
1 0.795697 0.539132
0 0.621607 0.899535
0 0.636042 0.918547
0.185229 0.635401 0.923568
0.661768 0.807477 0.735286
0.945708 0.947616 0.479042
0 0.00205997 0.3346
0.0724041 0 0.500237
0.488914 0 0.636835
0.760266 0 0.770214
1 0 0.805341
0 0.220523 0.503609
0.115221 0.241077 0.524453
0.542184 0.241352 0.689632
0.825589 0.258259 0.835523
1 0.292134 0.870344
0 0.545342 0.672877
0.120073 0.564904 0.692775
0.538582 0.558953 0.687327
0.813489 0.564248 0.823865
1 0.579858 0.841611
0 0.832959 0.836606
0.142535 0.837186 0.84094
0.528908 0.812253 0.816129
0.785733 0.793378 0.797452
1 0.787961 0.792279
0 0.856229 0.974533
0 0.860609 0.979965
0.372503 0.838178 0.959014
0.657389 0.804837 0.927687
0.933684 0.935729 0.745739
0 0 0.461128
0.0670787 0 0.621027
0.489754 0 0.734615
0.764172 0 0.851072
0.988785 0.00271611 0.988693
0 0.221332 0.627985
0.117082 0.242115 0.649012
0.545083 0.244221 0.789334
0.829816 0.262318 0.916732
1 0.296117 1
0 0.54789 0.772503
0.123568 0.566918 0.792264
0.539635 0.560067 0.78648
0.81532 0.565515 0.903487
1 0.580163 1
0 0.833936 0.915465
0.141009 0.837278 0.919478
0.526543 0.811261 0.894331
0.78349 0.791302 0.875517
0.970443 0.785351 0.971954
0 1 1
0.117571 1 1
0.491066 0.983398 0.984161
0.745754 0.948409 0.949371
0.927871 0.930083 0.931258
