src/luts/rounded/12.cube
TITLE "Generated by Resolve"
LUT_3D_SIZE 33
0 0 0
0.00663767 0.00663767 0.00663767
0.0132906 0.0132906 0.0132906
0.0199283 0.0199283 0.0199283
0.026566 0.026566 0.026566
0.0332189 0.0332189 0.0332189
0.0398566 0.0398566 0.0398566
0.0465095 0.0465095 0.0465095
0.0531472 0.0531472 0.0531472
0.0597848 0.0597848 0.0597848
0.0664378 0.0664378 0.0664378
0.0730755 0.0730755 0.0730755
0.0797284 0.0797284 0.0797284
0.0863661 0.0863661 0.0863661
0.0930037 0.0930037 0.0930037
0.0996567 0.0996567 0.0996567
0.106294 0.106294 0.106294
0.112947 0.112947 0.112947
0.119585 0.119585 0.119585
0.126223 0.126223 0.126223
0.132876 0.132876 0.132876
0.139513 0.139513 0.139513
0.146166 0.146166 0.146166
0.152804 0.152804 0.152804
0.159457 0.159457 0.159457
0.166094 0.166094 0.166094
0.172732 0.172732 0.172732
0.179385 0.179385 0.179385
0.186023 0.186023 0.186023
0.192676 0.192676 0.192676
0.199313 0.199313 0.199313
0.205951 0.205951 0.205951
0.212604 0.212604 0.212604
0.0223392 0.0223392 0.0223392
0.0289769 0.0289769 0.0289769
0.0356298 0.0356298 0.0356298
0.0422675 0.0422675 0.0422675
0.0489052 0.0489052 0.0489052
0.0555581 0.0555581 0.0555581
0.0621958 0.0621958 0.0621958
0.0688487 0.0688487 0.0688487
0.0754864 0.0754864 0.0754864
0.0821241 0.0821241 0.0821241
0.088777 0.088777 0.088777
0.0954147 0.0954147 0.0954147
0.102068 0.102068 0.102068
0.108705 0.108705 0.108705
0.115343 0.115343 0.115343
0.121996 0.121996 0.121996
0.128634 0.128634 0.128634
0.135286 0.135286 0.135286
0.141924 0.141924 0.141924
0.148562 0.148562 0.148562
0.155215 0.155215 0.155215
0.161852 0.161852 0.161852
0.168505 0.168505 0.168505
0.175143 0.175143 0.175143
0.181796 0.181796 0.181796
0.188434 0.188434 0.188434
0.195071 0.195071 0.195071
0.201724 0.201724 0.201724
0.208362 0.208362 0.208362
0.215015 0.215015 0.215015
0.221653 0.221653 0.221653
0.22829 0.22829 0.22829
0.234943 0.234943 0.234943
0.0446937 0.0446937 0.0446937
0.0513313 0.0513313 0.0513313
0.057969 0.057969 0.057969
0.064622 0.064622 0.064622
0.0712596 0.0712596 0.0712596
0.0779126 0.0779126 0.0779126
0.0845502 0.0845502 0.0845502
0.0911879 0.0911879 0.0911879
0.0978408 0.0978408 0.0978408
0.104479 0.104479 0.104479
0.111131 0.111131 0.111131
0.117769 0.117769 0.117769
0.124407 0.124407 0.124407
0.13106 0.13106 0.13106
0.137697 0.137697 0.137697
0.14435 0.14435 0.14435
0.150988 0.150988 0.150988
0.157626 0.157626 0.157626
0.164279 0.164279 0.164279
0.170916 0.170916 0.170916
0.177569 0.177569 0.177569
0.184207 0.184207 0.184207
0.190845 0.190845 0.190845
0.197498 0.197498 0.197498
0.204135 0.204135 0.204135
0.210788 0.210788 0.210788
0.217426 0.217426 0.217426
0.224063 0.224063 0.224063
0.230716 0.230716 0.230716
0.237354 0.237354 0.237354
0.244007 0.244007 0.244007
0.250645 0.250645 0.250645
0.257282 0.257282 0.257282
0.0670329 0.0670329 0.0670329
0.0736858 0.0736858 0.0736858
0.0803235 0.0803235 0.0803235
0.0869612 0.0869612 0.0869612
0.0936141 0.0936141 0.0936141
0.100252 0.100252 0.100252
0.106905 0.106905 0.106905
0.113542 0.113542 0.113542
0.12018 0.12018 0.12018
0.126833 0.126833 0.126833
0.133471 0.133471 0.133471
0.140124 0.140124 0.140124
0.146761 0.146761 0.146761
0.153414 0.153414 0.153414
0.160052 0.160052 0.160052
0.16669 0.16669 0.16669
0.173342 0.173342 0.173342
0.17998 0.17998 0.17998
0.186633 0.186633 0.186633
0.193271 0.193271 0.193271
0.199908 0.199908 0.199908
0.206561 0.206561 0.206561
0.213199 0.213199 0.213199
0.219852 0.219852 0.219852
0.22649 0.22649 0.22649
0.233127 0.233127 0.233127
0.23978 0.23978 0.23978
0.246418 0.246418 0.246418
0.253071 0.253071 0.253071
0.259709 0.259709 0.259709
0.266346 0.266346 0.266346
0.272999 0.272999 0.272999
0.279637 0.279637 0.279637
0.0893873 0.0893873 0.0893873
0.096025 0.096025 0.096025
0.102678 0.102678 0.102678
0.109316 0.109316 0.109316
0.115969 0.115969 0.115969
0.122606 0.122606 0.122606
0.129244 0.129244 0.129244
0.135897 0.135897 0.135897
0.142535 0.142535 0.142535
0.149187 0.149187 0.149187
0.155825 0.155825 0.155825
0.162463 0.162463 0.162463
0.169116 0.169116 0.169116
0.175753 0.175753 0.175753
0.182406 0.182406 0.182406
0.189044 0.189044 0.189044
0.195682 0.195682 0.195682
0.202335 0.202335 0.202335
0.208972 0.208972 0.208972
0.215625 0.215625 0.215625
0.222263 0.222263 0.222263
0.228901 0.228901 0.228901
0.235554 0.235554 0.235554
0.242191 0.242191 0.242191
0.248844 0.248844 0.248844
0.255482 0.255482 0.255482
0.262135 0.262135 0.262135
0.268772 0.268772 0.268772
0.27541 0.27541 0.27541
0.282063 0.282063 0.282063
0.288701 0.288701 0.288701
0.295354 0.295354 0.295354
0.301991 0.301991 0.301991
0.111742 0.111742 0.111742
0.118379 0.118379 0.118379
0.125032 0.125032 0.125032
0.13167 0.13167 0.13167
0.138308 0.138308 0.138308
0.144961 0.144961 0.144961
0.151598 0.151598 0.151598
0.158251 0.158251 0.158251
0.164889 0.164889 0.164889
0.171527 0.171527 0.171527
0.17818 0.17818 0.17818
0.184817 0.184817 0.184817
0.19147 0.19147 0.19147
0.198108 0.198108 0.198108
0.204746 0.204746 0.204746
0.211398 0.211398 0.211398
0.218036 0.218036 0.218036
0.224689 0.224689 0.224689
0.231327 0.231327 0.231327
0.237964 0.237964 0.237964
0.244617 0.244617 0.244617
0.251255 0.251255 0.251255
0.257908 0.257908 0.257908
0.264546 0.264546 0.264546
0.271183 0.271183 0.271183
0.277836 0.277836 0.277836
0.284474 0.284474 0.284474
0.291127 0.291127 0.291127
0.297765 0.297765 0.297765
0.304402 0.304402 0.304402
0.311055 0.311055 0.311055
0.317693 0.317693 0.317693
0.324346 0.324346 0.324346
0.134096 0.134096 0.134096
0.140734 0.140734 0.140734
0.147372 0.147372 0.147372
0.154025 0.154025 0.154025
0.160662 0.160662 0.160662
0.1673 0.1673 0.1673
0.173953 0.173953 0.173953
0.180591 0.180591 0.180591
0.187243 0.187243 0.187243
0.193881 0.193881 0.193881
0.200519 0.200519 0.200519
0.207172 0.207172 0.207172
0.213809 0.213809 0.213809
0.220462 0.220462 0.220462
0.2271 0.2271 0.2271
0.233753 0.233753 0.233753
0.240391 0.240391 0.240391
0.247028 0.247028 0.247028
0.253681 0.253681 0.253681
0.260319 0.260319 0.260319
0.266972 0.266972 0.266972
0.27361 0.27361 0.27361
0.280247 0.280247 0.280247
0.2869 0.2869 0.2869
0.293538 0.293538 0.293538
0.300191 0.300191 0.300191
0.306828 0.306828 0.306828
0.313466 0.313466 0.313466
0.320119 0.320119 0.320119
0.326757 0.326757 0.326757
0.33341 0.33341 0.33341
0.340047 0.340047 0.340047
0.346685 0.346685 0.346685
0.156435 0.156435 0.156435
0.163088 0.163088 0.163088
0.169726 0.169726 0.169726
0.176364 0.176364 0.176364
0.183017 0.183017 0.183017
0.189654 0.189654 0.189654
0.196307 0.196307 0.196307
0.202945 0.202945 0.202945
0.209583 0.209583 0.209583
0.216236 0.216236 0.216236
0.222873 0.222873 0.222873
0.229526 0.229526 0.229526
0.236164 0.236164 0.236164
0.242802 0.242802 0.242802
0.249454 0.249454 0.249454
0.256092 0.256092 0.256092
0.262745 0.262745 0.262745
0.269383 0.269383 0.269383
0.27602 0.27602 0.27602
0.282673 0.282673 0.282673
0.289311 0.289311 0.289311
0.295964 0.295964 0.295964
0.302602 0.302602 0.302602
0.309239 0.309239 0.309239
0.315892 0.315892 0.315892
0.32253 0.32253 0.32253
0.329183 0.329183 0.329183
0.335821 0.335821 0.335821
0.342473 0.342473 0.342473
0.349111 0.349111 0.349111
0.355749 0.355749 0.355749
0.362402 0.362402 0.362402
0.369039 0.369039 0.369039
0.17879 0.17879 0.17879
0.185428 0.185428 0.185428
0.192081 0.192081 0.192081
0.198718 0.198718 0.198718
0.205371 0.205371 0.205371
0.212009 0.212009 0.212009
0.218647 0.218647 0.218647
0.225299 0.225299 0.225299
0.231937 0.231937 0.231937
0.23859 0.23859 0.23859
0.245228 0.245228 0.245228
0.251865 0.251865 0.251865
0.258518 0.258518 0.258518
0.265156 0.265156 0.265156
0.271809 0.271809 0.271809
0.278447 0.278447 0.278447
0.285084 0.285084 0.285084
0.291737 0.291737 0.291737
0.298375 0.298375 0.298375
0.305028 0.305028 0.305028
0.311666 0.311666 0.311666
0.318303 0.318303 0.318303
0.324956 0.324956 0.324956
0.331594 0.331594 0.331594
0.338247 0.338247 0.338247
0.344884 0.344884 0.344884
0.351522 0.351522 0.351522
0.358175 0.358175 0.358175
0.364813 0.364813 0.364813
0.371466 0.371466 0.371466
0.378103 0.378103 0.378103
0.384741 0.384741 0.384741
0.391394 0.391394 0.391394
0.201144 0.201144 0.201144
0.207782 0.207782 0.207782
0.21442 0.21442 0.21442
0.221073 0.221073 0.221073
0.22771 0.22771 0.22771
0.234363 0.234363 0.234363
0.241001 0.241001 0.241001
0.247639 0.247639 0.247639
0.254292 0.254292 0.254292
0.260929 0.260929 0.260929
0.267582 0.267582 0.267582
0.27422 0.27422 0.27422
0.280858 0.280858 0.280858
0.28751 0.28751 0.28751
0.294148 0.294148 0.294148
0.300801 0.300801 0.300801
0.307439 0.307439 0.307439
0.314092 0.314092 0.314092
0.320729 0.320729 0.320729
0.327367 0.327367 0.327367
0.33402 0.33402 0.33402
0.340658 0.340658 0.340658
0.347311 0.347311 0.347311
0.353948 0.353948 0.353948
0.360586 0.360586 0.360586
0.367239 0.367239 0.367239
0.373877 0.373877 0.373877
0.380529 0.380529 0.380529
0.387167 0.387167 0.387167
0.393805 0.393805 0.393805
0.400458 0.400458 0.400458
0.407095 0.407095 0.407095
0.413748 0.413748 0.413748
0.223499 0.223499 0.223499
0.230137 0.230137 0.230137
0.236774 0.236774 0.236774
0.243427 0.243427 0.243427
0.250065 0.250065 0.250065
0.256703 0.256703 0.256703
0.263355 0.263355 0.263355
0.269993 0.269993 0.269993
0.276646 0.276646 0.276646
0.283284 0.283284 0.283284
0.289921 0.289921 0.289921
0.296574 0.296574 0.296574
0.303212 0.303212 0.303212
0.309865 0.309865 0.309865
0.316503 0.316503 0.316503
0.32314 0.32314 0.32314
0.329793 0.329793 0.329793
0.336431 0.336431 0.336431
0.343084 0.343084 0.343084
0.349722 0.349722 0.349722
0.356359 0.356359 0.356359
0.363012 0.363012 0.363012
0.36965 0.36965 0.36965
0.376303 0.376303 0.376303
0.38294 0.38294 0.38294
0.389578 0.389578 0.389578
0.396231 0.396231 0.396231
0.402869 0.402869 0.402869
0.409522 0.409522 0.409522
0.416159 0.416159 0.416159
0.422812 0.422812 0.422812
0.42945 0.42945 0.42945
0.436088 0.436088 0.436088
0.245838 0.245838 0.245838
0.252491 0.252491 0.252491
0.259129 0.259129 0.259129
0.265766 0.265766 0.265766
0.272419 0.272419 0.272419
0.279057 0.279057 0.279057
0.28571 0.28571 0.28571
0.292348 0.292348 0.292348
0.298985 0.298985 0.298985
0.305638 0.305638 0.305638
0.312276 0.312276 0.312276
0.318929 0.318929 0.318929
0.325567 0.325567 0.325567
0.332204 0.332204 0.332204
0.338857 0.338857 0.338857
0.345495 0.345495 0.345495
0.352148 0.352148 0.352148
0.358785 0.358785 0.358785
0.365423 0.365423 0.365423
0.372076 0.372076 0.372076
0.378714 0.378714 0.378714
0.385367 0.385367 0.385367
0.392004 0.392004 0.392004
0.398642 0.398642 0.398642
0.405295 0.405295 0.405295
0.411933 0.411933 0.411933
0.418585 0.418585 0.418585
0.425223 0.425223 0.425223
0.431861 0.431861 0.431861
0.438514 0.438514 0.438514
0.445151 0.445151 0.445151
0.451804 0.451804 0.451804
0.458442 0.458442 0.458442
0.268193 0.268193 0.268193
0.27483 0.27483 0.27483
0.281483 0.281483 0.281483
0.288121 0.288121 0.288121
0.294759 0.294759 0.294759
0.301411 0.301411 0.301411
0.308049 0.308049 0.308049
0.314702 0.314702 0.314702
0.32134 0.32134 0.32134
0.327977 0.327977 0.327977
0.33463 0.33463 0.33463
0.341268 0.341268 0.341268
0.347921 0.347921 0.347921
0.354559 0.354559 0.354559
0.361196 0.361196 0.361196
0.367849 0.367849 0.367849
0.374487 0.374487 0.374487
0.38114 0.38114 0.38114
0.387778 0.387778 0.387778
0.39443 0.39443 0.39443
0.401068 0.401068 0.401068
0.407706 0.407706 0.407706
0.414359 0.414359 0.414359
0.420996 0.420996 0.420996
0.427649 0.427649 0.427649
0.434287 0.434287 0.434287
0.440925 0.440925 0.440925
0.447578 0.447578 0.447578
0.454215 0.454215 0.454215
0.460868 0.460868 0.460868
0.467506 0.467506 0.467506
0.474144 0.474144 0.474144
0.480797 0.480797 0.480797
0.290547 0.290547 0.290547
0.297185 0.297185 0.297185
0.303822 0.303822 0.303822
0.310475 0.310475 0.310475
0.317113 0.317113 0.317113
0.323766 0.323766 0.323766
0.330404 0.330404 0.330404
0.337041 0.337041 0.337041
0.343694 0.343694 0.343694
0.350332 0.350332 0.350332
0.356985 0.356985 0.356985
0.363622 0.363622 0.363622
0.37026 0.37026 0.37026
0.376913 0.376913 0.376913
0.383551 0.383551 0.383551
0.390204 0.390204 0.390204
0.396841 0.396841 0.396841
0.403479 0.403479 0.403479
0.410132 0.410132 0.410132
0.41677 0.41677 0.41677
0.423423 0.423423 0.423423
0.43006 0.43006 0.43006
0.436698 0.436698 0.436698
0.443351 0.443351 0.443351
0.449989 0.449989 0.449989
0.456641 0.456641 0.456641
0.463279 0.463279 0.463279
0.469917 0.469917 0.469917
0.47657 0.47657 0.47657
0.483207 0.483207 0.483207
0.48986 0.48986 0.48986
0.496498 0.496498 0.496498
0.503151 0.503151 0.503151
0.312901 0.312901 0.312901
0.319539 0.319539 0.319539
0.326177 0.326177 0.326177
0.33283 0.33283 0.33283
0.339467 0.339467 0.339467
0.346105 0.346105 0.346105
0.352758 0.352758 0.352758
0.359396 0.359396 0.359396
0.366049 0.366049 0.366049
0.372686 0.372686 0.372686
0.379324 0.379324 0.379324
0.385977 0.385977 0.385977
0.392615 0.392615 0.392615
0.399268 0.399268 0.399268
0.405905 0.405905 0.405905
0.412543 0.412543 0.412543
0.419196 0.419196 0.419196
0.425834 0.425834 0.425834
0.432486 0.432486 0.432486
0.439124 0.439124 0.439124
0.445762 0.445762 0.445762
0.452415 0.452415 0.452415
0.459052 0.459052 0.459052
0.465705 0.465705 0.465705
0.472343 0.472343 0.472343
0.478981 0.478981 0.478981
0.485634 0.485634 0.485634
0.492271 0.492271 0.492271
0.498924 0.498924 0.498924
0.505562 0.505562 0.505562
0.5122 0.5122 0.5122
0.518853 0.518853 0.518853
0.52549 0.52549 0.52549
0.335241 0.335241 0.335241
0.341878 0.341878 0.341878
0.348531 0.348531 0.348531
0.355169 0.355169 0.355169
0.361822 0.361822 0.361822
0.36846 0.36846 0.36846
0.375097 0.375097 0.375097
0.38175 0.38175 0.38175
0.388388 0.388388 0.388388
0.395041 0.395041 0.395041
0.401679 0.401679 0.401679
0.408316 0.408316 0.408316
0.414969 0.414969 0.414969
0.421607 0.421607 0.421607
0.42826 0.42826 0.42826
0.434897 0.434897 0.434897
0.441535 0.441535 0.441535
0.448188 0.448188 0.448188
0.454826 0.454826 0.454826
0.461479 0.461479 0.461479
0.468116 0.468116 0.468116
0.474769 0.474769 0.474769
0.481407 0.481407 0.481407
0.488045 0.488045 0.488045
0.494697 0.494697 0.494697
0.501335 0.501335 0.501335
0.507988 0.507988 0.507988
0.514626 0.514626 0.514626
0.521263 0.521263 0.521263
0.527916 0.527916 0.527916
0.534554 0.534554 0.534554
0.541207 0.541207 0.541207
0.547845 0.547845 0.547845
0.357595 0.357595 0.357595
0.364233 0.364233 0.364233
0.370886 0.370886 0.370886
0.377523 0.377523 0.377523
0.384161 0.384161 0.384161
0.390814 0.390814 0.390814
0.397452 0.397452 0.397452
0.404105 0.404105 0.404105
0.410742 0.410742 0.410742
0.41738 0.41738 0.41738
0.424033 0.424033 0.424033
0.430671 0.430671 0.430671
0.437324 0.437324 0.437324
0.443961 0.443961 0.443961
0.450599 0.450599 0.450599
0.457252 0.457252 0.457252
0.46389 0.46389 0.46389
0.470542 0.470542 0.470542
0.47718 0.47718 0.47718
0.483818 0.483818 0.483818
0.490471 0.490471 0.490471
0.497108 0.497108 0.497108
0.503761 0.503761 0.503761
0.510399 0.510399 0.510399
0.517037 0.517037 0.517037
0.52369 0.52369 0.52369
0.530327 0.530327 0.530327
0.53698 0.53698 0.53698
0.543618 0.543618 0.543618
0.550256 0.550256 0.550256
0.556909 0.556909 0.556909
0.563546 0.563546 0.563546
0.570199 0.570199 0.570199
0.37995 0.37995 0.37995
0.386587 0.386587 0.386587
0.393225 0.393225 0.393225
0.399878 0.399878 0.399878
0.406516 0.406516 0.406516
0.413153 0.413153 0.413153
0.419806 0.419806 0.419806
0.426444 0.426444 0.426444
0.433097 0.433097 0.433097
0.439734 0.439734 0.439734
0.446387 0.446387 0.446387
0.453025 0.453025 0.453025
0.459663 0.459663 0.459663
0.466316 0.466316 0.466316
0.472953 0.472953 0.472953
0.479606 0.479606 0.479606
0.486244 0.486244 0.486244
0.492882 0.492882 0.492882
0.499535 0.499535 0.499535
0.506172 0.506172 0.506172
0.512825 0.512825 0.512825
0.519463 0.519463 0.519463
0.526101 0.526101 0.526101
0.532753 0.532753 0.532753
0.539391 0.539391 0.539391
0.546044 0.546044 0.546044
0.552682 0.552682 0.552682
0.559319 0.559319 0.559319
0.565972 0.565972 0.565972
0.57261 0.57261 0.57261
0.579263 0.579263 0.579263
0.585901 0.585901 0.585901
0.592538 0.592538 0.592538
0.402289 0.402289 0.402289
0.408942 0.408942 0.408942
0.415579 0.415579 0.415579
0.422217 0.422217 0.422217
0.42887 0.42887 0.42887
0.435508 0.435508 0.435508
0.442161 0.442161 0.442161
0.448798 0.448798 0.448798
0.455436 0.455436 0.455436
0.462089 0.462089 0.462089
0.468727 0.468727 0.468727
0.47538 0.47538 0.47538
0.482017 0.482017 0.482017
0.488655 0.488655 0.488655
0.495308 0.495308 0.495308
0.501945 0.501945 0.501945
0.508598 0.508598 0.508598
0.515236 0.515236 0.515236
0.521874 0.521874 0.521874
0.528527 0.528527 0.528527
0.535164 0.535164 0.535164
0.541817 0.541817 0.541817
0.548455 0.548455 0.548455
0.555108 0.555108 0.555108
0.561746 0.561746 0.561746
0.568383 0.568383 0.568383
0.575036 0.575036 0.575036
0.581674 0.581674 0.581674
0.588327 0.588327 0.588327
0.594965 0.594965 0.594965
0.601602 0.601602 0.601602
0.608255 0.608255 0.608255
0.614893 0.614893 0.614893
0.424643 0.424643 0.424643
0.431281 0.431281 0.431281
0.437934 0.437934 0.437934
0.444572 0.444572 0.444572
0.451225 0.451225 0.451225
0.457862 0.457862 0.457862
0.4645 0.4645 0.4645
0.471153 0.471153 0.471153
0.477791 0.477791 0.477791
0.484443 0.484443 0.484443
0.491081 0.491081 0.491081
0.497719 0.497719 0.497719
0.504372 0.504372 0.504372
0.511009 0.511009 0.511009
0.517662 0.517662 0.517662
0.5243 0.5243 0.5243
0.530938 0.530938 0.530938
0.537591 0.537591 0.537591
0.544228 0.544228 0.544228
0.550881 0.550881 0.550881
0.557519 0.557519 0.557519
0.564157 0.564157 0.564157
0.570809 0.570809 0.570809
0.577447 0.577447 0.577447
0.5841 0.5841 0.5841
0.590738 0.590738 0.590738
0.597375 0.597375 0.597375
0.604028 0.604028 0.604028
0.610666 0.610666 0.610666
0.617319 0.617319 0.617319
0.623957 0.623957 0.623957
0.630594 0.630594 0.630594
0.637247 0.637247 0.637247
0.446998 0.446998 0.446998
0.453635 0.453635 0.453635
0.460273 0.460273 0.460273
0.466926 0.466926 0.466926
0.473564 0.473564 0.473564
0.480217 0.480217 0.480217
0.486854 0.486854 0.486854
0.493492 0.493492 0.493492
0.500145 0.500145 0.500145
0.506783 0.506783 0.506783
0.513436 0.513436 0.513436
0.520073 0.520073 0.520073
0.526726 0.526726 0.526726
0.533364 0.533364 0.533364
0.540002 0.540002 0.540002
0.546654 0.546654 0.546654
0.553292 0.553292 0.553292
0.559945 0.559945 0.559945
0.566583 0.566583 0.566583
0.57322 0.57322 0.57322
0.579873 0.579873 0.579873
0.586511 0.586511 0.586511
0.593164 0.593164 0.593164
0.599802 0.599802 0.599802
0.606439 0.606439 0.606439
0.613092 0.613092 0.613092
0.61973 0.61973 0.61973
0.626383 0.626383 0.626383
0.633021 0.633021 0.633021
0.639658 0.639658 0.639658
0.646311 0.646311 0.646311
0.652949 0.652949 0.652949
0.659602 0.659602 0.659602
0.469352 0.469352 0.469352
0.47599 0.47599 0.47599
0.482628 0.482628 0.482628
0.489281 0.489281 0.489281
0.495918 0.495918 0.495918
0.502556 0.502556 0.502556
0.509209 0.509209 0.509209
0.515846 0.515846 0.515846
0.522499 0.522499 0.522499
0.529137 0.529137 0.529137
0.535775 0.535775 0.535775
0.542428 0.542428 0.542428
0.549065 0.549065 0.549065
0.555718 0.555718 0.555718
0.562356 0.562356 0.562356
0.568994 0.568994 0.568994
0.575647 0.575647 0.575647
0.582284 0.582284 0.582284
0.588937 0.588937 0.588937
0.595575 0.595575 0.595575
0.602213 0.602213 0.602213
0.608865 0.608865 0.608865
0.615503 0.615503 0.615503
0.622156 0.622156 0.622156
0.628794 0.628794 0.628794
0.635447 0.635447 0.635447
0.642084 0.642084 0.642084
0.648722 0.648722 0.648722
0.655375 0.655375 0.655375
0.662013 0.662013 0.662013
0.668666 0.668666 0.668666
0.675303 0.675303 0.675303
0.681941 0.681941 0.681941
0.491691 0.491691 0.491691
0.498344 0.498344 0.498344
0.504982 0.504982 0.504982
0.51162 0.51162 0.51162
0.518273 0.518273 0.518273
0.52491 0.52491 0.52491
0.531563 0.531563 0.531563
0.538201 0.538201 0.538201
0.544839 0.544839 0.544839
0.551492 0.551492 0.551492
0.558129 0.558129 0.558129
0.564782 0.564782 0.564782
0.57142 0.57142 0.57142
0.578058 0.578058 0.578058
0.58471 0.58471 0.58471
0.591348 0.591348 0.591348
0.598001 0.598001 0.598001
0.604639 0.604639 0.604639
0.611276 0.611276 0.611276
0.617929 0.617929 0.617929
0.624567 0.624567 0.624567
0.63122 0.63122 0.63122
0.637858 0.637858 0.637858
0.644495 0.644495 0.644495
0.651148 0.651148 0.651148
0.657786 0.657786 0.657786
0.664439 0.664439 0.664439
0.671077 0.671077 0.671077
0.677714 0.677714 0.677714
0.684367 0.684367 0.684367
0.691005 0.691005 0.691005
0.697658 0.697658 0.697658
0.704295 0.704295 0.704295
0.514046 0.514046 0.514046
0.520684 0.520684 0.520684
0.527337 0.527337 0.527337
0.533974 0.533974 0.533974
0.540612 0.540612 0.540612
0.547265 0.547265 0.547265
0.553903 0.553903 0.553903
0.560555 0.560555 0.560555
0.567193 0.567193 0.567193
0.573831 0.573831 0.573831
0.580484 0.580484 0.580484
0.587121 0.587121 0.587121
0.593774 0.593774 0.593774
0.600412 0.600412 0.600412
0.607065 0.607065 0.607065
0.613703 0.613703 0.613703
0.62034 0.62034 0.62034
0.626993 0.626993 0.626993
0.633631 0.633631 0.633631
0.640284 0.640284 0.640284
0.646922 0.646922 0.646922
0.653559 0.653559 0.653559
0.660212 0.660212 0.660212
0.66685 0.66685 0.66685
0.673503 0.673503 0.673503
0.68014 0.68014 0.68014
0.686778 0.686778 0.686778
0.693431 0.693431 0.693431
0.700069 0.700069 0.700069
0.706722 0.706722 0.706722
0.713359 0.713359 0.713359
0.719997 0.719997 0.719997
0.72665 0.72665 0.72665
0.5364 0.5364 0.5364
0.543038 0.543038 0.543038
0.549676 0.549676 0.549676
0.556329 0.556329 0.556329
0.562966 0.562966 0.562966
0.569619 0.569619 0.569619
0.576257 0.576257 0.576257
0.582895 0.582895 0.582895
0.589548 0.589548 0.589548
0.596185 0.596185 0.596185
0.602838 0.602838 0.602838
0.609476 0.609476 0.609476
0.616114 0.616114 0.616114
0.622766 0.622766 0.622766
0.629404 0.629404 0.629404
0.636057 0.636057 0.636057
0.642695 0.642695 0.642695
0.649332 0.649332 0.649332
0.655985 0.655985 0.655985
0.662623 0.662623 0.662623
0.669276 0.669276 0.669276
0.675914 0.675914 0.675914
0.682551 0.682551 0.682551
0.689204 0.689204 0.689204
0.695842 0.695842 0.695842
0.702495 0.702495 0.702495
0.709133 0.709133 0.709133
0.715785 0.715785 0.715785
0.722423 0.722423 0.722423
0.729061 0.729061 0.729061
0.735714 0.735714 0.735714
0.742351 0.742351 0.742351
0.749004 0.749004 0.749004
0.558755 0.558755 0.558755
0.565393 0.565393 0.565393
0.57203 0.57203 0.57203
0.578683 0.578683 0.578683
0.585321 0.585321 0.585321
0.591959 0.591959 0.591959
0.598611 0.598611 0.598611
0.605249 0.605249 0.605249
0.611902 0.611902 0.611902
0.61854 0.61854 0.61854
0.625177 0.625177 0.625177
0.63183 0.63183 0.63183
0.638468 0.638468 0.638468
0.645121 0.645121 0.645121
0.651759 0.651759 0.651759
0.658396 0.658396 0.658396
0.665049 0.665049 0.665049
0.671687 0.671687 0.671687
0.67834 0.67834 0.67834
0.684977 0.684977 0.684977
0.691615 0.691615 0.691615
0.698268 0.698268 0.698268
0.704906 0.704906 0.704906
0.711559 0.711559 0.711559
0.718196 0.718196 0.718196
0.724834 0.724834 0.724834
0.731487 0.731487 0.731487
0.738125 0.738125 0.738125
0.744778 0.744778 0.744778
0.751415 0.751415 0.751415
0.758053 0.758053 0.758053
0.764706 0.764706 0.764706
0.771344 0.771344 0.771344
0.581094 0.581094 0.581094
0.587732 0.587732 0.587732
0.594385 0.594385 0.594385
0.601022 0.601022 0.601022
0.607675 0.607675 0.607675
0.614313 0.614313 0.614313
0.620951 0.620951 0.620951
0.627604 0.627604 0.627604
0.634241 0.634241 0.634241
0.640894 0.640894 0.640894
0.647532 0.647532 0.647532
0.654169 0.654169 0.654169
0.660822 0.660822 0.660822
0.66746 0.66746 0.66746
0.674113 0.674113 0.674113
0.680751 0.680751 0.680751
0.687404 0.687404 0.687404
0.694041 0.694041 0.694041
0.700679 0.700679 0.700679
0.707332 0.707332 0.707332
0.71397 0.71397 0.71397
0.720623 0.720623 0.720623
0.72726 0.72726 0.72726
0.733898 0.733898 0.733898
0.740551 0.740551 0.740551
0.747189 0.747189 0.747189
0.753841 0.753841 0.753841
0.760479 0.760479 0.760479
0.767117 0.767117 0.767117
0.77377 0.77377 0.77377
0.780407 0.780407 0.780407
0.78706 0.78706 0.78706
0.793698 0.793698 0.793698
0.603449 0.603449 0.603449
0.610086 0.610086 0.610086
