src/luts/rounded/12.cube
TITLE "Generated by Resolve"
LUT_3D_SIZE 5
0 0 0
0.0531472 0.0531472 0.0531472
0.106294 0.106294 0.106294
0.159457 0.159457 0.159457
0.212604 0.212604 0.212604
0.17879 0.17879 0.17879
0.231937 0.231937 0.231937
0.285084 0.285084 0.285084
0.338247 0.338247 0.338247
0.391394 0.391394 0.391394
0.357595 0.357595 0.357595
0.410742 0.410742 0.410742
0.46389 0.46389 0.46389
0.517037 0.517037 0.517037
0.570199 0.570199 0.570199
0.5364 0.5364 0.5364
0.589548 0.589548 0.589548
0.642695 0.642695 0.642695
0.695842 0.695842 0.695842
0.749004 0.749004 0.749004
0.715206 0.715206 0.715206
0.768353 0.768353 0.768353
0.8215 0.8215 0.8215
0.874647 0.874647 0.874647
0.927794 0.927794 0.927794
0.0180514 0.0180514 0.0180514
0.0711986 0.0711986 0.0711986
0.124346 0.124346 0.124346
0.177493 0.177493 0.177493
0.230655 0.230655 0.230655
0.196841 0.196841 0.196841
0.249989 0.249989 0.249989
0.303136 0.303136 0.303136
0.356283 0.356283 0.356283
0.409445 0.409445 0.409445
0.375647 0.375647 0.375647
0.428794 0.428794 0.428794
0.481941 0.481941 0.481941
0.535088 0.535088 0.535088
0.588251 0.588251 0.588251
0.554452 0.554452 0.554452
0.607599 0.607599 0.607599
0.660746 0.660746 0.660746
0.713893 0.713893 0.713893
0.76704 0.76704 0.76704
0.733242 0.733242 0.733242
0.786404 0.786404 0.786404
0.839551 0.839551 0.839551
0.892699 0.892699 0.892699
0.945846 0.945846 0.945846
0.0361028 0.0361028 0.0361028
0.08925 0.08925 0.08925
0.142397 0.142397 0.142397
0.195544 0.195544 0.195544
0.248707 0.248707 0.248707
0.214893 0.214893 0.214893
0.26804 0.26804 0.26804
0.321187 0.321187 0.321187
0.374334 0.374334 0.374334
0.427497 0.427497 0.427497
0.393698 0.393698 0.393698
0.446845 0.446845 0.446845
0.499992 0.499992 0.499992
0.55314 0.55314 0.55314
0.606287 0.606287 0.606287
0.572503 0.572503 0.572503
0.62565 0.62565 0.62565
0.678798 0.678798 0.678798
0.731945 0.731945 0.731945
0.785092 0.785092 0.785092
0.751293 0.751293 0.751293
0.80444 0.80444 0.80444
0.857603 0.857603 0.857603
0.91075 0.91075 0.91075
0.963897 0.963897 0.963897
0.0541543 0.0541543 0.0541543
0.107301 0.107301 0.107301
0.160449 0.160449 0.160449
0.213596 0.213596 0.213596
0.266743 0.266743 0.266743
0.232944 0.232944 0.232944
0.286091 0.286091 0.286091
0.339239 0.339239 0.339239
0.392386 0.392386 0.392386
0.445548 0.445548 0.445548
0.411749 0.411749 0.411749
0.464897 0.464897 0.464897
0.518044 0.518044 0.518044
0.571191 0.571191 0.571191
0.624338 0.624338 0.624338
0.590555 0.590555 0.590555
0.643702 0.643702 0.643702
0.696849 0.696849 0.696849
0.749996 0.749996 0.749996
0.803143 0.803143 0.803143
0.769345 0.769345 0.769345
0.822492 0.822492 0.822492
0.875654 0.875654 0.875654
0.928801 0.928801 0.928801
0.981949 0.981949 0.981949
0.0722057 0.0722057 0.0722057
0.125353 0.125353 0.125353
0.1785 0.1785 0.1785
0.231647 0.231647 0.231647
0.284794 0.284794 0.284794
0.250996 0.250996 0.250996
0.304143 0.304143 0.304143
0.35729 0.35729 0.35729
0.410437 0.410437 0.410437
0.463584 0.463584 0.463584
0.429801 0.429801 0.429801
0.482948 0.482948 0.482948
0.536095 0.536095 0.536095
0.589242 0.589242 0.589242
0.64239 0.64239 0.64239
0.608591 0.608591 0.608591
0.661738 0.661738 0.661738
0.7149 0.7149 0.7149
0.768048 0.768048 0.768048
0.821195 0.821195 0.821195
0.787396 0.787396 0.787396
0.840543 0.840543 0.840543
0.893706 0.893706 0.893706
0.946853 0.946853 0.946853
1 1 1
