src/luts/rounded/12.cube
TITLE "Generated by Resolve"
LUT_3D_SIZE 9
0 0 0
0.026566 0.026566 0.026566
0.0531472 0.0531472 0.0531472
0.0797284 0.0797284 0.0797284
0.106294 0.106294 0.106294
0.132876 0.132876 0.132876
0.159457 0.159457 0.159457
0.186023 0.186023 0.186023
0.212604 0.212604 0.212604
0.0893873 0.0893873 0.0893873
0.115969 0.115969 0.115969
0.142535 0.142535 0.142535
0.169116 0.169116 0.169116
0.195682 0.195682 0.195682
0.222263 0.222263 0.222263
0.248844 0.248844 0.248844
0.27541 0.27541 0.27541
0.301991 0.301991 0.301991
0.17879 0.17879 0.17879
0.205371 0.205371 0.205371
0.231937 0.231937 0.231937
0.258518 0.258518 0.258518
0.285084 0.285084 0.285084
0.311666 0.311666 0.311666
0.338247 0.338247 0.338247
0.364813 0.364813 0.364813
0.391394 0.391394 0.391394
0.268193 0.268193 0.268193
0.294759 0.294759 0.294759
0.32134 0.32134 0.32134
0.347921 0.347921 0.347921
0.374487 0.374487 0.374487
0.401068 0.401068 0.401068
0.427649 0.427649 0.427649
0.454215 0.454215 0.454215
0.480797 0.480797 0.480797
0.357595 0.357595 0.357595
0.384161 0.384161 0.384161
0.410742 0.410742 0.410742
0.437324 0.437324 0.437324
0.46389 0.46389 0.46389
0.490471 0.490471 0.490471
0.517037 0.517037 0.517037
0.543618 0.543618 0.543618
0.570199 0.570199 0.570199
0.446998 0.446998 0.446998
0.473564 0.473564 0.473564
0.500145 0.500145 0.500145
0.526726 0.526726 0.526726
0.553292 0.553292 0.553292
0.579873 0.579873 0.579873
0.606439 0.606439 0.606439
0.633021 0.633021 0.633021
0.659602 0.659602 0.659602
0.5364 0.5364 0.5364
0.562966 0.562966 0.562966
0.589548 0.589548 0.589548
0.616114 0.616114 0.616114
0.642695 0.642695 0.642695
0.669276 0.669276 0.669276
0.695842 0.695842 0.695842
0.722423 0.722423 0.722423
0.749004 0.749004 0.749004
0.625803 0.625803 0.625803
0.652369 0.652369 0.652369
0.67895 0.67895 0.67895
0.705516 0.705516 0.705516
0.732097 0.732097 0.732097
0.758679 0.758679 0.758679
0.785245 0.785245 0.785245
0.811826 0.811826 0.811826
0.838392 0.838392 0.838392
0.715206 0.715206 0.715206
0.741772 0.741772 0.741772
0.768353 0.768353 0.768353
0.794919 0.794919 0.794919
0.8215 0.8215 0.8215
0.848081 0.848081 0.848081
0.874647 0.874647 0.874647
0.901228 0.901228 0.901228
0.927794 0.927794 0.927794
0.00901808 0.00901808 0.00901808
0.0355993 0.0355993 0.0355993
0.0621653 0.0621653 0.0621653
0.0887465 0.0887465 0.0887465
0.115328 0.115328 0.115328
0.141894 0.141894 0.141894
0.168475 0.168475 0.168475
0.195056 0.195056 0.195056
0.221622 0.221622 0.221622
0.0984207 0.0984207 0.0984207
0.124987 0.124987 0.124987
0.151568 0.151568 0.151568
0.178134 0.178134 0.178134
0.204715 0.204715 0.204715
0.231281 0.231281 0.231281
0.257862 0.257862 0.257862
0.284443 0.284443 0.284443
0.311009 0.311009 0.311009
0.187823 0.187823 0.187823
0.214389 0.214389 0.214389
0.24097 0.24097 0.24097
0.267536 0.267536 0.267536
0.294118 0.294118 0.294118
0.320684 0.320684 0.320684
0.347265 0.347265 0.347265
0.373846 0.373846 0.373846
0.400412 0.400412 0.400412
0.277211 0.277211 0.277211
0.303792 0.303792 0.303792
0.330358 0.330358 0.330358
0.356939 0.356939 0.356939
0.38352 0.38352 0.38352
0.410086 0.410086 0.410086
0.436667 0.436667 0.436667
0.463249 0.463249 0.463249
0.489815 0.489815 0.489815
0.366613 0.366613 0.366613
0.393194 0.393194 0.393194
0.41976 0.41976 0.41976
0.446342 0.446342 0.446342
0.472923 0.472923 0.472923
0.499489 0.499489 0.499489
0.52607 0.52607 0.52607
0.552636 0.552636 0.552636
0.579217 0.579217 0.579217
0.456016 0.456016 0.456016
0.482597 0.482597 0.482597
0.509163 0.509163 0.509163
0.535744 0.535744 0.535744
0.562325 0.562325 0.562325
0.588891 0.588891 0.588891
0.615473 0.615473 0.615473
0.642039 0.642039 0.642039
0.66862 0.66862 0.66862
0.545419 0.545419 0.545419
0.572 0.572 0.572
0.598566 0.598566 0.598566
0.625147 0.625147 0.625147
0.651713 0.651713 0.651713
0.678294 0.678294 0.678294
0.704875 0.704875 0.704875
0.731441 0.731441 0.731441
0.758022 0.758022 0.758022
0.634821 0.634821 0.634821
0.661402 0.661402 0.661402
0.687968 0.687968 0.687968
0.714549 0.714549 0.714549
0.741115 0.741115 0.741115
0.767697 0.767697 0.767697
0.794278 0.794278 0.794278
0.820844 0.820844 0.820844
0.847425 0.847425 0.847425
0.724224 0.724224 0.724224
0.75079 0.75079 0.75079
0.777371 0.777371 0.777371
0.803952 0.803952 0.803952
0.830518 0.830518 0.830518
0.857099 0.857099 0.857099
0.88368 0.88368 0.88368
0.910246 0.910246 0.910246
0.936828 0.936828 0.936828
0.0180514 0.0180514 0.0180514
0.0446174 0.0446174 0.0446174
0.0711986 0.0711986 0.0711986
0.0977646 0.0977646 0.0977646
0.124346 0.124346 0.124346
0.150927 0.150927 0.150927
0.177493 0.177493 0.177493
0.204074 0.204074 0.204074
0.230655 0.230655 0.230655
0.107439 0.107439 0.107439
0.134005 0.134005 0.134005
0.160586 0.160586 0.160586
0.187167 0.187167 0.187167
0.213733 0.213733 0.213733
0.240314 0.240314 0.240314
0.266896 0.266896 0.266896
0.293462 0.293462 0.293462
0.320043 0.320043 0.320043
0.196841 0.196841 0.196841
0.223407 0.223407 0.223407
0.249989 0.249989 0.249989
0.27657 0.27657 0.27657
0.303136 0.303136 0.303136
0.329717 0.329717 0.329717
0.356283 0.356283 0.356283
0.382864 0.382864 0.382864
0.409445 0.409445 0.409445
0.286244 0.286244 0.286244
0.31281 0.31281 0.31281
0.339391 0.339391 0.339391
0.365972 0.365972 0.365972
0.392538 0.392538 0.392538
0.41912 0.41912 0.41912
0.445686 0.445686 0.445686
0.472267 0.472267 0.472267
0.498848 0.498848 0.498848
0.375647 0.375647 0.375647
0.402213 0.402213 0.402213
0.428794 0.428794 0.428794
0.45536 0.45536 0.45536
0.481941 0.481941 0.481941
0.508522 0.508522 0.508522
0.535088 0.535088 0.535088
0.561669 0.561669 0.561669
0.588251 0.588251 0.588251
0.465049 0.465049 0.465049
0.491615 0.491615 0.491615
0.518196 0.518196 0.518196
0.544762 0.544762 0.544762
0.571344 0.571344 0.571344
0.597925 0.597925 0.597925
0.624491 0.624491 0.624491
0.651072 0.651072 0.651072
0.677638 0.677638 0.677638
0.554452 0.554452 0.554452
0.581018 0.581018 0.581018
0.607599 0.607599 0.607599
0.634165 0.634165 0.634165
0.660746 0.660746 0.660746
0.687327 0.687327 0.687327
0.713893 0.713893 0.713893
0.740475 0.740475 0.740475
0.76704 0.76704 0.76704
0.643854 0.643854 0.643854
0.67042 0.67042 0.67042
0.697002 0.697002 0.697002
0.723568 0.723568 0.723568
0.750149 0.750149 0.750149
0.776715 0.776715 0.776715
0.803296 0.803296 0.803296
0.829877 0.829877 0.829877
0.856443 0.856443 0.856443
0.733242 0.733242 0.733242
0.759823 0.759823 0.759823
0.786404 0.786404 0.786404
0.81297 0.81297 0.81297
0.839551 0.839551 0.839551
0.866117 0.866117 0.866117
0.892699 0.892699 0.892699
0.91928 0.91928 0.91928
0.945846 0.945846 0.945846
0.0270695 0.0270695 0.0270695
0.0536507 0.0536507 0.0536507
0.0802167 0.0802167 0.0802167
0.106798 0.106798 0.106798
0.133379 0.133379 0.133379
0.159945 0.159945 0.159945
0.186526 0.186526 0.186526
0.213092 0.213092 0.213092
0.239673 0.239673 0.239673
0.116472 0.116472 0.116472
0.143038 0.143038 0.143038
0.169619 0.169619 0.169619
0.196185 0.196185 0.196185
0.222766 0.222766 0.222766
0.249332 0.249332 0.249332
0.275914 0.275914 0.275914
0.302495 0.302495 0.302495
0.329061 0.329061 0.329061
0.205859 0.205859 0.205859
0.232441 0.232441 0.232441
0.259007 0.259007 0.259007
0.285588 0.285588 0.285588
0.312169 0.312169 0.312169
0.338735 0.338735 0.338735
0.365316 0.365316 0.365316
0.391897 0.391897 0.391897
0.418463 0.418463 0.418463
0.295262 0.295262 0.295262
0.321843 0.321843 0.321843
0.348409 0.348409 0.348409
0.37499 0.37499 0.37499
0.401572 0.401572 0.401572
0.428138 0.428138 0.428138
0.454719 0.454719 0.454719
0.481285 0.481285 0.481285
0.507866 0.507866 0.507866
0.384665 0.384665 0.384665
0.411246 0.411246 0.411246
0.437812 0.437812 0.437812
0.464393 0.464393 0.464393
0.490974 0.490974 0.490974
0.51754 0.51754 0.51754
0.544121 0.544121 0.544121
0.570687 0.570687 0.570687
0.597269 0.597269 0.597269
0.474067 0.474067 0.474067
0.500648 0.500648 0.500648
0.527214 0.527214 0.527214
0.553796 0.553796 0.553796
0.580362 0.580362 0.580362
0.606943 0.606943 0.606943
0.633524 0.633524 0.633524
0.66009 0.66009 0.66009
0.686671 0.686671 0.686671
0.56347 0.56347 0.56347
0.590051 0.590051 0.590051
0.616617 0.616617 0.616617
0.643198 0.643198 0.643198
0.669764 0.669764 0.669764
0.696345 0.696345 0.696345
0.722927 0.722927 0.722927
0.749493 0.749493 0.749493
0.776074 0.776074 0.776074
0.652873 0.652873 0.652873
0.679438 0.679438 0.679438
0.70602 0.70602 0.70602
0.732601 0.732601 0.732601
0.759167 0.759167 0.759167
0.785748 0.785748 0.785748
0.812329 0.812329 0.812329
0.838895 0.838895 0.838895
0.865476 0.865476 0.865476
0.742275 0.742275 0.742275
0.768841 0.768841 0.768841
0.795422 0.795422 0.795422
0.822003 0.822003 0.822003
0.848569 0.848569 0.848569
0.875151 0.875151 0.875151
0.901717 0.901717 0.901717
0.928298 0.928298 0.928298
0.954879 0.954879 0.954879
0.0361028 0.0361028 0.0361028
0.0626688 0.0626688 0.0626688
0.08925 0.08925 0.08925
0.115816 0.115816 0.115816
0.142397 0.142397 0.142397
0.168978 0.168978 0.168978
0.195544 0.195544 0.195544
0.222126 0.222126 0.222126
0.248707 0.248707 0.248707
0.12549 0.12549 0.12549
0.152056 0.152056 0.152056
0.178637 0.178637 0.178637
0.205219 0.205219 0.205219
0.231785 0.231785 0.231785
0.258366 0.258366 0.258366
0.284932 0.284932 0.284932
0.311513 0.311513 0.311513
0.338094 0.338094 0.338094
0.214893 0.214893 0.214893
0.241459 0.241459 0.241459
0.26804 0.26804 0.26804
0.294621 0.294621 0.294621
0.321187 0.321187 0.321187
0.347768 0.347768 0.347768
0.374334 0.374334 0.374334
0.400916 0.400916 0.400916
0.427497 0.427497 0.427497
0.304295 0.304295 0.304295
0.330861 0.330861 0.330861
0.357443 0.357443 0.357443
0.384009 0.384009 0.384009
0.41059 0.41059 0.41059
0.437171 0.437171 0.437171
0.463737 0.463737 0.463737
0.490318 0.490318 0.490318
0.516899 0.516899 0.516899
0.393698 0.393698 0.393698
0.420264 0.420264 0.420264
0.446845 0.446845 0.446845
0.473411 0.473411 0.473411
0.499992 0.499992 0.499992
0.526574 0.526574 0.526574
0.55314 0.55314 0.55314
0.579721 0.579721 0.579721
0.606287 0.606287 0.606287
0.483101 0.483101 0.483101
0.509667 0.509667 0.509667
0.536248 0.536248 0.536248
0.562814 0.562814 0.562814
0.589395 0.589395 0.589395
0.615976 0.615976 0.615976
0.642542 0.642542 0.642542
0.669123 0.669123 0.669123
0.695689 0.695689 0.695689
0.572503 0.572503 0.572503
0.599069 0.599069 0.599069
0.62565 0.62565 0.62565
0.652216 0.652216 0.652216
0.678798 0.678798 0.678798
0.705364 0.705364 0.705364
0.731945 0.731945 0.731945
0.758526 0.758526 0.758526
0.785092 0.785092 0.785092
0.661891 0.661891 0.661891
0.688472 0.688472 0.688472
0.715053 0.715053 0.715053
0.741619 0.741619 0.741619
0.7682 0.7682 0.7682
0.794766 0.794766 0.794766
0.821347 0.821347 0.821347
0.847929 0.847929 0.847929
0.874495 0.874495 0.874495
0.751293 0.751293 0.751293
0.777874 0.777874 0.777874
0.80444 0.80444 0.80444
0.831022 0.831022 0.831022
0.857603 0.857603 0.857603
0.884169 0.884169 0.884169
0.91075 0.91075 0.91075
0.937331 0.937331 0.937331
0.963897 0.963897 0.963897
0.0451209 0.0451209 0.0451209
0.0717021 0.0717021 0.0717021
0.0982681 0.0982681 0.0982681
0.124849 0.124849 0.124849
0.151431 0.151431 0.151431
0.177996 0.177996 0.177996
0.204578 0.204578 0.204578
0.231144 0.231144 0.231144
0.257725 0.257725 0.257725
0.134508 0.134508 0.134508
0.161089 0.161089 0.161089
0.187655 0.187655 0.187655
0.214237 0.214237 0.214237
0.240818 0.240818 0.240818
0.267384 0.267384 0.267384
0.293965 0.293965 0.293965
0.320546 0.320546 0.320546
0.347112 0.347112 0.347112
0.223911 0.223911 0.223911
0.250492 0.250492 0.250492
0.277058 0.277058 0.277058
0.303639 0.303639 0.303639
0.33022 0.33022 0.33022
0.356786 0.356786 0.356786
0.383368 0.383368 0.383368
0.409934 0.409934 0.409934
0.436515 0.436515 0.436515
0.313313 0.313313 0.313313
0.339895 0.339895 0.339895
0.366461 0.366461 0.366461
0.393042 0.393042 0.393042
0.419623 0.419623 0.419623
0.446189 0.446189 0.446189
0.47277 0.47277 0.47277
0.499336 0.499336 0.499336
0.525917 0.525917 0.525917
0.402716 0.402716 0.402716
0.429297 0.429297 0.429297
0.455863 0.455863 0.455863
0.482444 0.482444 0.482444
0.50901 0.50901 0.50901
0.535592 0.535592 0.535592
0.562173 0.562173 0.562173
0.588739 0.588739 0.588739
0.61532 0.61532 0.61532
0.492119 0.492119 0.492119
0.5187 0.5187 0.5187
0.545266 0.545266 0.545266
0.571847 0.571847 0.571847
0.598413 0.598413 0.598413
0.624994 0.624994 0.624994
0.651576 0.651576 0.651576
0.678141 0.678141 0.678141
0.704723 0.704723 0.704723
0.581521 0.581521 0.581521
0.608087 0.608087 0.608087
0.634668 0.634668 0.634668
0.66125 0.66125 0.66125
0.687816 0.687816 0.687816
0.714397 0.714397 0.714397
0.740978 0.740978 0.740978
0.767544 0.767544 0.767544
0.794125 0.794125 0.794125
0.670924 0.670924 0.670924
0.69749 0.69749 0.69749
0.724071 0.724071 0.724071
0.750652 0.750652 0.750652
0.777218 0.777218 0.777218
0.8038 0.8038 0.8038
0.830365 0.830365 0.830365
0.856947 0.856947 0.856947
0.883528 0.883528 0.883528
0.760327 0.760327 0.760327
0.786892 0.786892 0.786892
0.813474 0.813474 0.813474
0.840055 0.840055 0.840055
0.866621 0.866621 0.866621
0.893202 0.893202 0.893202
0.919768 0.919768 0.919768
0.946349 0.946349 0.946349
0.97293 0.97293 0.97293
0.0541543 0.0541543 0.0541543
0.0807202 0.0807202 0.0807202
0.107301 0.107301 0.107301
0.133867 0.133867 0.133867
0.160449 0.160449 0.160449
0.18703 0.18703 0.18703
0.213596 0.213596 0.213596
0.240177 0.240177 0.240177
0.266743 0.266743 0.266743
0.143542 0.143542 0.143542
0.170108 0.170108 0.170108
0.196689 0.196689 0.196689
0.22327 0.22327 0.22327
0.249836 0.249836 0.249836
0.276417 0.276417 0.276417
0.302983 0.302983 0.302983
0.329564 0.329564 0.329564
0.356146 0.356146 0.356146
0.232944 0.232944 0.232944
0.25951 0.25951 0.25951
0.286091 0.286091 0.286091
0.312657 0.312657 0.312657
0.339239 0.339239 0.339239
0.36582 0.36582 0.36582
0.392386 0.392386 0.392386
0.418967 0.418967 0.418967
0.445548 0.445548 0.445548
0.322347 0.322347 0.322347
0.348913 0.348913 0.348913
0.375494 0.375494 0.375494
0.40206 0.40206 0.40206
0.428641 0.428641 0.428641
0.455222 0.455222 0.455222
0.481788 0.481788 0.481788
0.50837 0.50837 0.50837
0.534936 0.534936 0.534936
0.411749 0.411749 0.411749
0.438315 0.438315 0.438315
0.464897 0.464897 0.464897
0.491463 0.491463 0.491463
0.518044 0.518044 0.518044
0.544625 0.544625 0.544625
0.571191 0.571191 0.571191
0.597772 0.597772 0.597772
0.624338 0.624338 0.624338
0.501152 0.501152 0.501152
0.527718 0.527718 0.527718
0.554299 0.554299 0.554299
0.580865 0.580865 0.580865
0.607446 0.607446 0.607446
0.634012 0.634012 0.634012
0.660594 0.660594 0.660594
0.687175 0.687175 0.687175
0.713741 0.713741 0.713741
0.590555 0.590555 0.590555
0.617121 0.617121 0.617121
0.643702 0.643702 0.643702
0.670268 0.670268 0.670268
0.696849 0.696849 0.696849
0.723415 0.723415 0.723415
0.749996 0.749996 0.749996
0.776577 0.776577 0.776577
0.803143 0.803143 0.803143
0.679942 0.679942 0.679942
0.706523 0.706523 0.706523
0.733089 0.733089 0.733089
0.75967 0.75967 0.75967
0.786252 0.786252 0.786252
0.812818 0.812818 0.812818
0.839399 0.839399 0.839399
0.86598 0.86598 0.86598
0.892546 0.892546 0.892546
0.769345 0.769345 0.769345
0.795926 0.795926 0.795926
0.822492 0.822492 0.822492
0.849073 0.849073 0.849073
0.875654 0.875654 0.875654
0.90222 0.90222 0.90222
0.928801 0.928801 0.928801
0.955367 0.955367 0.955367
0.981949 0.981949 0.981949
0.0631723 0.0631723 0.0631723
0.0897536 0.0897536 0.0897536
0.11632 0.11632 0.11632
0.142901 0.142901 0.142901
0.169467 0.169467 0.169467
0.196048 0.196048 0.196048
0.222629 0.222629 0.222629
0.249195 0.249195 0.249195
0.275776 0.275776 0.275776
0.15256 0.15256 0.15256
0.179141 0.179141 0.179141
0.205707 0.205707 0.205707
0.232288 0.232288 0.232288
0.258869 0.258869 0.258869
0.285435 0.285435 0.285435
0.312016 0.312016 0.312016
0.338582 0.338582 0.338582
0.365164 0.365164 0.365164
0.241962 0.241962 0.241962
0.268544 0.268544 0.268544
0.295109 0.295109 0.295109
0.321691 0.321691 0.321691
0.348272 0.348272 0.348272
0.374838 0.374838 0.374838
0.401419 0.401419 0.401419
0.427985 0.427985 0.427985
0.454566 0.454566 0.454566
0.331365 0.331365 0.331365
0.357946 0.357946 0.357946
0.384512 0.384512 0.384512
0.411093 0.411093 0.411093
0.437659 0.437659 0.437659
0.46424 0.46424 0.46424
0.490822 0.490822 0.490822
0.517388 0.517388 0.517388
0.543969 0.543969 0.543969
0.420768 0.420768 0.420768
0.447349 0.447349 0.447349
0.473915 0.473915 0.473915
0.500496 0.500496 0.500496
0.527062 0.527062 0.527062
0.553643 0.553643 0.553643
0.580224 0.580224 0.580224
0.60679 0.60679 0.60679
0.633371 0.633371 0.633371
0.51017 0.51017 0.51017
0.536736 0.536736 0.536736
0.563317 0.563317 0.563317
0.589899 0.589899 0.589899
0.616464 0.616464 0.616464
0.643046 0.643046 0.643046
0.669627 0.669627 0.669627
0.696193 0.696193 0.696193
0.722774 0.722774 0.722774
0.599573 0.599573 0.599573
0.626139 0.626139 0.626139
0.65272 0.65272 0.65272
0.679301 0.679301 0.679301
0.705867 0.705867 0.705867
0.732448 0.732448 0.732448
0.759014 0.759014 0.759014
0.785595 0.785595 0.785595
0.812177 0.812177 0.812177
0.688975 0.688975 0.688975
0.715541 0.715541 0.715541
0.742123 0.742123 0.742123
0.768704 0.768704 0.768704
0.79527 0.79527 0.79527
0.821851 0.821851 0.821851
0.848417 0.848417 0.848417
0.874998 0.874998 0.874998
0.901579 0.901579 0.901579
0.778378 0.778378 0.778378
0.804944 0.804944 0.804944
0.831525 0.831525 0.831525
0.858091 0.858091 0.858091
0.884672 0.884672 0.884672
0.911254 0.911254 0.911254
0.937819 0.937819 0.937819
0.964401 0.964401 0.964401
0.990982 0.990982 0.990982
0.0722057 0.0722057 0.0722057
0.0987716 0.0987716 0.0987716
0.125353 0.125353 0.125353
0.151919 0.151919 0.151919
0.1785 0.1785 0.1785
0.205081 0.205081 0.205081
0.231647 0.231647 0.231647
0.258228 0.258228 0.258228
0.284794 0.284794 0.284794
0.161593 0.161593 0.161593
0.188159 0.188159 0.188159
0.21474 0.21474 0.21474
0.241306 0.241306 0.241306
0.267887 0.267887 0.267887
0.294469 0.294469 0.294469
0.321035 0.321035 0.321035
0.347616 0.347616 0.347616
0.374197 0.374197 0.374197
0.250996 0.250996 0.250996
0.277562 0.277562 0.277562
0.304143 0.304143 0.304143
0.330709 0.330709 0.330709
0.35729 0.35729 0.35729
0.383871 0.383871 0.383871
0.410437 0.410437 0.410437
0.437018 0.437018 0.437018
0.463584 0.463584 0.463584
0.340398 0.340398 0.340398
0.366964 0.366964 0.366964
0.393545 0.393545 0.393545
0.420111 0.420111 0.420111
0.446693 0.446693 0.446693
0.473274 0.473274 0.473274
0.49984 0.49984 0.49984
0.526421 0.526421 0.526421
0.552987 0.552987 0.552987
0.429801 0.429801 0.429801
0.456367 0.456367 0.456367
0.482948 0.482948 0.482948
0.509514 0.509514 0.509514
0.536095 0.536095 0.536095
0.562661 0.562661 0.562661
0.589242 0.589242 0.589242
0.615824 0.615824 0.615824
0.64239 0.64239 0.64239
0.519203 0.519203 0.519203
0.545769 0.545769 0.545769
0.572351 0.572351 0.572351
0.598917 0.598917 0.598917
0.625498 0.625498 0.625498
0.652064 0.652064 0.652064
0.678645 0.678645 0.678645
0.705226 0.705226 0.705226
0.731792 0.731792 0.731792
0.608591 0.608591 0.608591
0.635172 0.635172 0.635172
0.661738 0.661738 0.661738
0.688319 0.688319 0.688319
0.7149 0.7149 0.7149
0.741466 0.741466 0.741466
0.768048 0.768048 0.768048
0.794629 0.794629 0.794629
0.821195 0.821195 0.821195
0.697993 0.697993 0.697993
0.724575 0.724575 0.724575
0.751141 0.751141 0.751141
0.777722 0.777722 0.777722
0.804303 0.804303 0.804303
0.830869 0.830869 0.830869
0.85745 0.85745 0.85745
0.884016 0.884016 0.884016
0.910597 0.910597 0.910597
0.787396 0.787396 0.787396
0.813977 0.813977 0.813977
0.840543 0.840543 0.840543
0.867124 0.867124 0.867124
0.893706 0.893706 0.893706
0.920272 0.920272 0.920272
0.946853 0.946853 0.946853
0.973419 0.973419 0.973419
1 1 1
