src/luts/rounded/13.cube
TITLE "Generated by Resolve"
LUT_3D_SIZE 5
0.106096 0 0.166049
0.210117 0 0.171496
0.482643 0 0.134554
0.846555 0 0.0387427
0.92163 0 0.0371252
0.092668 0.140154 0.148669
0.197879 0.195804 0.201465
0.466468 0.199603 0.156176
0.857221 0.151568 0.0773175
0.971908 0.225345 0.0755169
0.0721599 0.407813 0.123308
0.181811 0.472419 0.18555
0.368612 0.509163 0.220203
0.743587 0.474388 0.127596
0.950729 0.503975 0.111727
0.0762188 0.680888 0.130144
0.189319 0.743023 0.193576
0.387198 0.771038 0.234806
0.698482 0.750088 0.208087
0.958907 0.749218 0.157458
0.147753 0.904051 0.205829
0.252583 0.961349 0.257649
0.440391 0.98674 0.269062
0.723812 0.966171 0.244327
0.972686 0.956405 0.212665
0.117708 0 0.304082
0.230167 0 0.354894
0.686412 0 0.214252
0.909758 0 0.0939956
0.993347 0 0.0573739
0.103944 0.154055 0.277684
0.209705 0.210575 0.334173
0.508141 0.207446 0.255879
0.899474 0.168505 0.134325
1 0.24271 0.158206
0.0859083 0.424613 0.256718
0.19556 0.489052 0.31957
0.383993 0.526085 0.348241
0.787793 0.491325 0.180957
0.969696 0.532448 0.170077
0.0889754 0.695262 0.27863
0.202487 0.757046 0.340154
0.399451 0.786252 0.372564
0.711818 0.76614 0.331289
0.976379 0.774166 0.21651
0.156603 0.913893 0.36994
0.261143 0.971313 0.41442
0.445029 1 0.412161
0.731212 0.979294 0.37702
0.987289 0.969604 0.324331
0.118349 0 0.55198
0.229755 0 0.603006
0.391653 0 0.625238
0.856031 0 0.533196
0.973571 0 0.464759
0.10219 0.154955 0.527657
0.208392 0.212696 0.586511
0.395972 0.244938 0.625132
1 0.0813306 0.552239
1 0.159442 0.450904
0.0867475 0.427832 0.510903
0.195834 0.492012 0.574914
0.381445 0.528649 0.614389
0.802441 0.483665 0.454582
0.982742 0.541009 0.362051
0.090547 0.697444 0.535332
0.203662 0.758679 0.597299
0.397436 0.788205 0.630243
0.705623 0.766171 0.602243
0.974487 0.785611 0.409979
0.155596 0.913985 0.624277
0.258808 0.970718 0.668345
0.436866 1 0.667323
0.724239 0.978866 0.63299
0.979873 0.965988 0.596857
0.120912 0 0.76466
0.231144 0 0.816495
0.395056 0 0.84213
0.69279 0 0.811627
0.961822 0 0.811246
0.102632 0.161639 0.743099
0.209995 0.220493 0.802976
0.400946 0.252445 0.841245
0.718227 0.231907 0.825925
1 0.205234 0.870222
0.089662 0.436439 0.729458
0.198734 0.500374 0.793225
0.386572 0.536248 0.832395
0.700404 0.517647 0.816724
1 0.474861 0.816693
0.0947738 0.70515 0.753338
0.207675 0.765713 0.814969
0.400717 0.794278 0.847807
0.705226 0.771008 0.828305
0.992203 0.76109 0.732158
0.159564 0.918212 0.839277
0.261601 0.974227 0.882948
0.436805 1 0.882918
0.723949 0.982162 0.84921
0.97734 0.9673 0.828992
0.129686 0 0.897475
0.237705 0 0.958373
0.406973 0.00488289 1
0.706676 0 0.98172
0.970352 0 0.973968
0.110033 0.178042 0.878126
0.21912 0.238041 0.937011
0.414481 0.266835 0.985611
0.73109 0.245716 0.976272
0.979919 0.249653 0.980392
0.0991531 0.454398 0.866682
0.209201 0.518349 0.927611
0.400244 0.550301 0.979477
0.7122 0.530327 0.974029
0.974578 0.52607 0.975601
0.108202 0.724498 0.87071
0.22063 0.783612 0.935851
0.412375 0.807401 0.989258
0.713314 0.781094 0.987137
0.969375 0.766979 0.986328
0.177188 0.935347 0.934203
0.27686 0.989258 0.98819
0.448432 1 1
0.731441 0.990921 1
0.981125 0.974594 0.998856
