src/luts/rounded/13.cube
TITLE "Generated by Resolve"
LUT_3D_SIZE 9
0.106096 0 0.166049
0.150576 0 0.173404
0.210117 0 0.171496
0.29453 0 0.173541
0.482643 0 0.134554
0.674098 0 0.0875715
0.846555 0 0.0387427
0.893446 0 0.0355993
0.92163 0 0.0371252
0.10576 0.0208896 0.16495
0.152453 0.0472419 0.190158
0.221424 0.0695659 0.188312
0.304845 0.089189 0.179446
0.49662 0.0612039 0.140856
0.690593 0.0341344 0.098558
0.864408 0.0173953 0.0561074
0.91928 0.0521248 0.0575875
0.953414 0.096788 0.0644846
0.092668 0.140154 0.148669
0.137102 0.170748 0.174945
0.197879 0.195804 0.201465
0.275547 0.222553 0.194186
0.466468 0.199603 0.156176
0.674128 0.169268 0.118196
0.857221 0.151568 0.0773175
0.932555 0.182223 0.062974
0.971908 0.225345 0.0755169
0.079118 0.269642 0.132937
0.125246 0.303548 0.161761
0.18764 0.331304 0.192798
0.25655 0.359808 0.219135
0.40705 0.360464 0.180438
0.617716 0.332326 0.132769
0.805585 0.311742 0.0983291
0.918227 0.322484 0.087953
0.962463 0.362631 0.101564
0.0721599 0.407813 0.123308
0.118837 0.443641 0.15378
0.181811 0.472419 0.18555
0.250416 0.500298 0.218173
0.368612 0.509163 0.220203
0.553597 0.493874 0.172732
0.743587 0.474388 0.127596
0.905684 0.464576 0.0958267
0.950729 0.503975 0.111727
0.0705577 0.546181 0.121614
0.117449 0.581567 0.152056
0.18085 0.609995 0.183978
0.250965 0.6374 0.216403
0.370428 0.644068 0.228687
0.537316 0.632517 0.208804
0.698253 0.625147 0.17377
0.862852 0.613825 0.136355
0.95227 0.633188 0.129168
0.0762188 0.680888 0.130144
0.124926 0.715557 0.160967
0.189319 0.743023 0.193576
0.261326 0.768566 0.22565
0.387198 0.771038 0.234806
0.54815 0.757656 0.228748
0.698482 0.750088 0.208087
0.841688 0.74519 0.176822
0.958907 0.749218 0.157458
0.0901656 0.811276 0.14638
0.139818 0.843732 0.177005
0.204105 0.868925 0.209171
0.277287 0.891112 0.240101
0.408576 0.888258 0.244999
0.566613 0.872892 0.238239
0.709422 0.862257 0.234455
0.845441 0.856153 0.209751
0.967102 0.855756 0.183886
0.147753 0.904051 0.205829
0.196826 0.933593 0.235035
0.252583 0.961349 0.257649
0.316854 0.986709 0.277028
0.440391 0.98674 0.269062
0.586969 0.975769 0.252659
0.723812 0.966171 0.244327
0.851041 0.958251 0.239994
0.972686 0.956405 0.212665
0.11371 0 0.214252
0.162234 0 0.241749
0.261448 0 0.264698
0.500999 0 0.165209
0.787106 0 0.0386053
0.807996 0 0.0462806
0.897795 0 0.0542611
0.935561 0 0.0743572
0.962509 0 0.0773632
0.113527 0.0287022 0.212039
0.160174 0.0549783 0.238712
0.238849 0.0719005 0.240604
0.331838 0.0879377 0.227131
0.534127 0.0567788 0.179797
0.732296 0.0290532 0.13228
0.895781 0.0204929 0.0772717
0.943542 0.058793 0.0814221
0.977417 0.104005 0.0881361
0.100084 0.149401 0.194598
0.144518 0.180346 0.221439
0.205814 0.205615 0.247868
0.290318 0.230732 0.233555
0.48893 0.206622 0.183734
0.695735 0.177691 0.142519
0.880705 0.15787 0.108888
0.950088 0.188098 0.113008
0.993042 0.230671 0.119127
0.0872663 0.27985 0.180117
0.133547 0.313985 0.209537
0.196246 0.34197 0.240131
0.265873 0.370382 0.266117
0.427512 0.368902 0.209735
0.638926 0.341543 0.156069
0.826505 0.321416 0.119493
0.92929 0.336019 0.11487
0.973907 0.375982 0.129046
0.0806897 0.418433 0.172427
0.127413 0.454276 0.203006
0.190539 0.48304 0.234226
0.259403 0.510735 0.266255
0.378683 0.519112 0.268406
0.571939 0.5037 0.20032
0.76405 0.484596 0.147814
0.917403 0.478264 0.120836
0.961059 0.518074 0.137789
0.0789197 0.55642 0.172412
0.125948 0.591806 0.203159
0.189639 0.620233 0.234592
0.260105 0.647471 0.266911
0.379507 0.654017 0.279744
0.54699 0.642512 0.25742
0.712978 0.635981 0.203906
0.881605 0.624216 0.156863
0.96199 0.646876 0.154742
0.0847181 0.690822 0.183001
0.13341 0.725307 0.21442
0.198108 0.752682 0.245884
0.270329 0.778027 0.27744
0.395438 0.780438 0.287404
0.556191 0.766934 0.280705
0.707042 0.759426 0.256519
0.854047 0.755825 0.20676
0.968627 0.761791 0.182406
0.0982834 0.820218 0.202625
0.147799 0.852399 0.233463
0.212375 0.877485 0.263584
0.285649 0.89958 0.292851
0.415686 0.896803 0.29868
0.573526 0.881331 0.291112
0.716182 0.870604 0.286427
0.853132 0.864927 0.255314
0.97641 0.866819 0.21207
0.155138 0.911788 0.264179
0.203922 0.941161 0.293065
0.259724 0.969009 0.313344
0.323598 0.994659 0.330388
0.445167 0.995361 0.322576
0.591531 0.984527 0.304799
0.729397 0.974227 0.296376
0.856641 0.966339 0.291203
0.981735 0.965118 0.251286
0.117708 0 0.304082
0.166094 0 0.330526
0.230167 0 0.354894
0.338003 0 0.373007
0.686412 0 0.214252
0.8663 0 0.123186
0.909758 0 0.0939956
0.953994 0 0.0556802
0.993347 0 0.0573739
0.117449 0.0314336 0.299062
0.163592 0.0581521 0.325902
0.225452 0.07953 0.350637
0.457115 0.024918 0.339452
0.787533 0 0.208804
0.944244 0 0.137133
0.986587 0 0.140169
1 0.0251469 0.166918
1 0.0649882 0.196475
0.103944 0.154055 0.277684
0.148089 0.185107 0.307179
0.209705 0.210575 0.334173
0.30927 0.23035 0.31043
0.508141 0.207446 0.255879
0.714473 0.184604 0.186145
0.899474 0.168505 0.134325
0.960311 0.201633 0.14641
1 0.24271 0.158206
0.0921187 0.285588 0.263355
0.13814 0.319661 0.295705
0.201282 0.348043 0.324468
0.271061 0.376684 0.349737
0.447456 0.372381 0.269459
0.664759 0.346044 0.194934
0.851377 0.328664 0.145953
0.938979 0.350179 0.146044
0.983841 0.389853 0.16144
0.0859083 0.424613 0.256718
0.132174 0.460105 0.290364
0.19556 0.489052 0.31957
0.264836 0.517021 0.348638
0.383993 0.526085 0.348241
0.593652 0.509026 0.24593
0.787793 0.491325 0.180957
0.924697 0.493568 0.152544
0.969696 0.532448 0.170077
0.0837262 0.561929 0.260655
0.130404 0.597009 0.294423
0.194537 0.625727 0.323415
0.265492 0.653361 0.3523
0.384665 0.660655 0.361349
0.552468 0.649638 0.334951
0.728222 0.643091 0.254841
0.90396 0.63151 0.186938
0.968948 0.661418 0.186053
0.0889754 0.695262 0.27863
0.137377 0.729427 0.31191
0.202487 0.757046 0.340154
0.275105 0.782834 0.367147
0.399451 0.786252 0.372564
0.560479 0.773114 0.361425
0.711818 0.76614 0.331289
0.864607 0.763073 0.261769
0.976379 0.774166 0.21651
0.101701 0.823133 0.305196
0.150896 0.855039 0.33666
0.215869 0.880323 0.36286
0.289311 0.902953 0.386999
0.418235 0.901457 0.387335
0.576425 0.886442 0.374578
0.71931 0.87602 0.365881
0.85687 0.870909 0.32871
0.984268 0.874418 0.265095
0.156603 0.913893 0.36994
0.205051 0.94313 0.398596
0.261143 0.971313 0.41442
0.324865 0.997787 0.425879
0.445029 1 0.412161
0.592279 0.989609 0.388998
0.731212 0.979294 0.37702
0.858778 0.971801 0.368475
0.987289 0.969604 0.324331
0.118471 0 0.425361
0.166491 0 0.451926
0.230457 0 0.47599
0.295995 0 0.498741
0.467628 0 0.480705
0.805386 0 0.357504
0.901152 0 0.28188
0.94609 0 0.240604
0.991333 0 0.199176
0.117617 0.0306249 0.420447
0.16318 0.0577554 0.447852
0.224781 0.0795758 0.472801
0.291737 0.102022 0.499046
0.568124 0.0263828 0.491341
0.929168 0 0.351385
0.983169 0 0.296178
1 0.0300298 0.260166
1 0.0771954 0.225147
0.103548 0.154635 0.399725
0.147539 0.185992 0.430411
0.2094 0.211719 0.457893
0.278172 0.237491 0.486427
0.635325 0.138933 0.408392
0.984344 0.0548104 0.28159
1 0.079469 0.280964
1 0.129732 0.281849
1 0.186389 0.285847
0.0926223 0.287022 0.386618
0.138552 0.321248 0.420188
0.20177 0.349767 0.449287
0.271061 0.377997 0.478614
0.459525 0.367269 0.399954
0.674449 0.343862 0.316167
0.857282 0.330755 0.254551
0.946303 0.357702 0.223575
0.989899 0.405234 0.202167
0.0867628 0.426398 0.381033
0.132784 0.46183 0.415686
0.196094 0.490654 0.445029
0.265431 0.518608 0.474006
0.382925 0.527428 0.479744
0.605188 0.507424 0.359731
0.808026 0.491096 0.264744
0.930419 0.504387 0.217121
0.977035 0.547616 0.207416
0.084535 0.563409 0.386191
0.13109 0.598489 0.420706
0.195285 0.627146 0.449943
0.266285 0.654749 0.478645
0.384695 0.662348 0.487648
0.550988 0.650843 0.466835
0.74287 0.644236 0.343557
0.923842 0.635157 0.247578
0.973068 0.674846 0.235843
0.090013 0.696406 0.405447
0.138216 0.730449 0.439216
0.203326 0.7579 0.467414
0.275731 0.783566 0.494301
0.398611 0.787396 0.499687
0.559396 0.774151 0.487877
0.709209 0.766598 0.462821
0.874052 0.766262 0.345769
0.982391 0.783001 0.278599
0.102632 0.823468 0.432959
0.151492 0.855161 0.464668
0.216342 0.880186 0.490547
0.289326 0.902754 0.514351
0.416281 0.901823 0.515038
0.574258 0.886717 0.501457
0.716915 0.876188 0.492149
0.853117 0.870665 0.459205
0.990127 0.878523 0.346838
0.156024 0.913954 0.496849
0.204089 0.942992 0.525597
0.259937 0.971054 0.540887
0.322881 0.997665 0.551934
0.440803 1 0.538537
0.588678 0.989761 0.51548
0.727794 0.979294 0.503151
0.855299 0.971771 0.494408
0.984665 0.96875 0.452079
0.118349 0 0.55198
0.165988 0 0.578714
0.229755 0 0.603006
0.294545 0 0.625422
0.391653 0 0.625238
0.589014 0 0.595804
0.856031 0 0.533196
0.926497 0 0.517891
0.973571 0 0.464759
0.116793 0.0296178 0.547189
0.161852 0.0572366 0.574914
0.223194 0.0794842 0.600244
0.290089 0.102373 0.626841
0.405875 0.105943 0.634699
0.646464 0.0522164 0.617182
0.959655 0 0.589349
1 0.00891127 0.55964
1 0.0625772 0.47538
0.10219 0.154955 0.527657
0.146258 0.186709 0.558663
0.208392 0.212696 0.586511
0.277409 0.238743 0.615366
0.395972 0.244938 0.625132
0.694652 0.167437 0.597421
1 0.0813306 0.552239
1 0.108461 0.509957
1 0.159442 0.450904
0.0922866 0.288136 0.515846
0.138216 0.322621 0.54963
0.201465 0.351278 0.578958
0.270802 0.379538 0.608469
0.387579 0.388037 0.618738
0.760906 0.283864 0.534874
0.999802 0.254704 0.408942
1 0.279713 0.372091
1 0.335836 0.343816
0.0867475 0.427832 0.510903
0.132616 0.463279 0.545586
0.195834 0.492012 0.574914
0.265293 0.519951 0.604074
0.381445 0.528649 0.614389
0.610269 0.499245 0.525719
0.802441 0.483665 0.454582
0.938552 0.491539 0.398413
0.982742 0.541009 0.362051
0.0847028 0.56466 0.516152
0.131197 0.599817 0.550759
0.195438 0.628428 0.580118
0.266453 0.655924 0.608972
0.384344 0.663584 0.618341
0.548821 0.651545 0.604044
0.747875 0.636561 0.503838
0.920272 0.629664 0.417487
0.96968 0.676036 0.368994
0.090547 0.697444 0.535332
0.138613 0.731411 0.56907
0.203662 0.758679 0.597299
0.275837 0.784161 0.624323
0.397436 0.788205 0.630243
0.557885 0.774731 0.618479
0.705623 0.766171 0.602243
0.878187 0.759396 0.496193
0.974487 0.785611 0.409979
0.103243 0.823865 0.562142
0.151797 0.85536 0.593698
0.216464 0.88011 0.619608
0.288991 0.902495 0.643687
0.414145 0.901976 0.645167
0.571817 0.886641 0.631678
0.714183 0.875914 0.622339
0.848081 0.869032 0.601083
0.984817 0.874372 0.501442
0.155596 0.913985 0.624277
0.203281 0.94287 0.652979
0.258808 0.970718 0.668345
0.320989 0.99733 0.679744
0.436866 1 0.667323
0.585275 0.98941 0.645197
0.724239 0.978866 0.63299
0.851911 0.97113 0.624552
0.979873 0.965988 0.596857
0.119219 0 0.666102
0.166522 0 0.692973
0.23003 0 0.717571
0.294835 0 0.740719
0.39202 0 0.741344
0.544854 0 0.722057
0.714061 0 0.704295
0.917449 0 0.676249
0.959594 0 0.701839
0.116869 0.0306096 0.661463
0.161532 0.0587015 0.689448
0.222675 0.0814069 0.71516
0.289708 0.104631 0.742046
0.406378 0.108232 0.749889
0.570428 0.0928206 0.738216
0.753246 0.0685435 0.72311
0.988098 0.00932326 0.747234
1 0.0408179 0.781384
0.10193 0.15729 0.643122
0.146181 0.18938 0.674311
0.208637 0.21561 0.702495
0.277958 0.241871 0.731579
0.397391 0.247974 0.741192
0.563302 0.234821 0.731228
0.767117 0.202243 0.716869
1 0.142336 0.746029
1 0.136217 0.805188
0.0930495 0.291203 0.632502
0.139055 0.325917 0.666362
0.20235 0.354665 0.695857
0.271839 0.382895 0.725444
0.389258 0.391073 0.735378
0.554131 0.378683 0.724697
0.797223 0.327276 0.702739
1 0.281575 0.69366
1 0.286885 0.657115
0.0877699 0.431174 0.628
0.133547 0.466606 0.662562
0.19675 0.495247 0.69189
0.266407 0.523186 0.721172
0.383017 0.531716 0.731441
0.547356 0.519875 0.72134
0.871656 0.43621 0.654047
1 0.445518 0.577844
1 0.480354 0.490013
0.0859693 0.567864 0.633234
0.132464 0.603052 0.667811
0.19678 0.631586 0.69723
0.267872 0.658946 0.726116
0.385809 0.666438 0.735515
0.54876 0.654215 0.725093
0.752956 0.631037 0.652201
0.928817 0.617075 0.591302
0.981033 0.654978 0.577081
0.0922103 0.700359 0.65214
0.140169 0.734234 0.685756
0.205158 0.761303 0.713985
0.277211 0.786557 0.741024
0.398138 0.790524 0.747143
0.558358 0.776806 0.735409
0.704341 0.767712 0.724605
0.88304 0.753307 0.639887
0.963165 0.778363 0.600153
0.104936 0.826078 0.678203
0.153246 0.857374 0.709606
0.217746 0.881849 0.735485
0.289952 0.904021 0.759625
0.413947 0.903624 0.761563
0.571344 0.888075 0.748119
0.713451 0.877165 0.738796
0.845548 0.869505 0.725078
0.978256 0.873152 0.643671
0.156802 0.915434 0.739223
0.204135 0.944152 0.767849
0.259388 0.971801 0.783139
0.32105 0.998383 0.79472
0.435508 1 0.78291
0.5841 0.990478 0.761288
0.722972 0.979858 0.749187
0.850675 0.97203 0.740932
0.977462 0.96556 0.723125
0.120912 0 0.76466
0.167926 0 0.791669
0.231144 0 0.816495
0.29688 0 0.841108
0.395056 0 0.84213
0.548669 0 0.82324
0.69279 0 0.811627
0.844526 0 0.802396
0.961822 0 0.811246
0.117723 0.0336614 0.760281
0.162097 0.0621958 0.788495
0.223148 0.085359 0.814542
0.290501 0.108843 0.841642
0.409003 0.112047 0.849104
0.573281 0.0969406 0.83772
0.7234 0.0880598 0.831266
0.875685 0.0784619 0.817975
1 0.0672007 0.867781
0.102632 0.161639 0.743099
0.147234 0.193988 0.774502
0.209995 0.220493 0.802976
0.279728 0.246876 0.832197
0.400946 0.252445 0.841245
0.566857 0.239445 0.831342
0.718227 0.231907 0.825925
0.879683 0.218357 0.814923
1 0.205234 0.870222
0.0947433 0.296269 0.733608
0.140917 0.331106 0.767559
0.204303 0.35993 0.797147
0.274067 0.388052 0.826688
0.393072 0.395483 0.835935
0.557763 0.383093 0.825116
0.707942 0.376013 0.819074
0.884474 0.354894 0.807355
1 0.338933 0.859724
0.089662 0.436439 0.729458
0.13547 0.471763 0.763867
0.198734 0.500374 0.793225
0.268727 0.528222 0.822522
0.386572 0.536248 0.832395
0.550927 0.524392 0.822248
0.700404 0.517647 0.816724
0.915557 0.477333 0.799985
1 0.474861 0.816693
0.0881208 0.572992 0.734691
0.134768 0.608133 0.769207
0.199176 0.636576 0.798627
0.270451 0.663752 0.827466
0.38909 0.670771 0.836545
0.551812 0.658442 0.826139
0.69926 0.650874 0.820096
0.960845 0.590173 0.773205
1 0.617273 0.725856
0.0947738 0.70515 0.753338
0.142733 0.738857 0.786831
0.207675 0.765713 0.814969
0.279713 0.790677 0.841886
0.400717 0.794278 0.847807
0.560662 0.780346 0.836011
0.705226 0.771008 0.828305
0.88864 0.749813 0.764233
0.992203 0.76109 0.732158
0.10753 0.830091 0.778668
0.155657 0.861143 0.809888
0.22002 0.885344 0.835645
0.292058 0.90724 0.859739
0.415641 0.906706 0.861723
0.572808 0.890913 0.848249
0.714763 0.87982 0.838895
0.845426 0.871809 0.829557
0.97705 0.871855 0.768704
0.159564 0.918212 0.839277
0.206607 0.946746 0.86775
0.261601 0.974227 0.882948
0.322972 1 0.894514
0.436805 1 0.882918
0.585138 0.992859 0.861234
0.723949 0.982162 0.84921
0.851652 0.974289 0.841016
0.97734 0.9673 0.828992
0.122911 0 0.85153
0.16968 0 0.87863
0.232609 0 0.903639
0.299489 0 0.929808
0.399847 0.000885023 0.931441
0.55436 0 0.912871
0.699031 0 0.901564
0.834669 0 0.895811
0.96669 0 0.895918
0.118837 0.037995 0.847486
0.163043 0.0669718 0.875914
0.224094 0.0905318 0.902281
0.291936 0.114199 0.929549
0.412924 0.116747 0.936339
0.577447 0.101946 0.925246
0.72781 0.0932784 0.918929
0.866621 0.0888533 0.915755
0.97554 0.0977951 0.920424
0.103807 0.167208 0.831495
0.148882 0.199756 0.863066
0.211902 0.226535 0.891829
0.282155 0.252995 0.921126
0.405737 0.257755 0.929351
0.571725 0.244846 0.919463
0.723079 0.237354 0.913985
0.862303 0.233417 0.911223
0.972992 0.240803 0.918395
0.0968795 0.30251 0.823087
0.143267 0.337423 0.857084
0.20676 0.366278 0.886732
0.27689 0.394232 0.916152
0.398108 0.40061 0.924376
0.562737 0.388251 0.913573
0.712886 0.381292 0.9075
0.851133 0.377997 0.904601
0.970138 0.381689 0.911452
0.0919203 0.442832 0.819181
0.137835 0.477989 0.853407
0.201251 0.5066 0.882826
0.271687 0.534325 0.912093
0.391531 0.541497 0.921187
0.555779 0.529641 0.91107
0.705104 0.522881 0.905501
0.8421 0.519463 0.902831
0.975509 0.514504 0.909499
0.0906691 0.579263 0.824445
0.13756 0.614298 0.858869
0.202075 0.642634 0.888273
0.27364 0.669551 0.916976
0.393622 0.675822 0.925444
0.556069 0.663371 0.915007
0.703227 0.655665 0.908797
0.837736 0.650889 0.90518
0.988235 0.633799 0.912734
0.097734 0.711009 0.842786
0.14583 0.744595 0.875547
0.210666 0.77113 0.904143
0.28275 0.795758 0.930846
0.404395 0.798764 0.936324
0.564019 0.784634 0.924453
0.708263 0.775113 0.916655
0.839857 0.768521 0.911467
1 0.742809 0.895888
0.111009 0.835676 0.863294
0.159091 0.866499 0.893889
0.222858 0.889937 0.923262
0.294743 0.911437 0.947982
0.418463 0.910491 0.949722
0.575372 0.89453 0.936156
0.717174 0.883253 0.926757
0.846632 0.875135 0.920043
0.99498 0.864622 0.868971
0.164065 0.92253 0.921386
0.210849 0.950912 0.949493
0.26508 0.977676 0.96875
0.325963 1 0.98294
0.43975 1 0.971267
0.587472 0.995956 0.949142
0.726268 0.985199 0.937133
0.853834 0.977401 0.928786
0.978607 0.97023 0.920348
0.129686 0 0.897475
0.176165 0 0.924987
0.237705 0 0.958373
0.303517 0 0.993011
0.406973 0.00488289 1
0.561761 0 0.99089
0.706676 0 0.98172
0.842695 0 0.975875
0.970352 0 0.973968
0.124834 0.0476539 0.89276
0.169512 0.0776074 0.917159
0.23006 0.100999 0.948119
0.29778 0.124117 0.980987
0.42063 0.125109 0.993423
0.584817 0.109972 0.987289
0.73518 0.101289 0.982803
0.874235 0.0970932 0.979019
0.985412 0.10457 0.985977
0.110033 0.178042 0.878126
0.156374 0.211536 0.90399
0.21912 0.238041 0.937011
0.289174 0.263798 0.972
0.414481 0.266835 0.985611
0.57995 0.253407 0.980255
0.73109 0.245716 0.976272
0.870298 0.24184 0.972778
0.979919 0.249653 0.980392
0.103853 0.313787 0.872114
0.151339 0.349615 0.899382
0.214435 0.377997 0.932815
0.284184 0.405005 0.967803
0.406912 0.4094 0.981582
0.570916 0.396445 0.975875
0.72079 0.389258 0.972122
0.858946 0.385992 0.969467
0.974868 0.391424 0.97525
0.0991531 0.454398 0.866682
0.146136 0.490288 0.893889
0.209201 0.518349 0.927611
0.279225 0.545083 0.963424
0.400244 0.550301 0.979477
0.563516 0.537621 0.975799
0.7122 0.530327 0.974029
0.848753 0.526574 0.97322
0.974578 0.52607 0.975601
0.0992142 0.591669 0.864729
0.147097 0.627314 0.893263
0.211002 0.654765 0.928328
0.281758 0.680339 0.96527
0.401984 0.684535 0.982712
0.563073 0.670893 0.980591
0.709209 0.662287 0.979965
0.842893 0.656855 0.97995
0.969528 0.652766 0.981186
0.108202 0.724498 0.87071
0.156756 0.758236 0.900236
0.22063 0.783612 0.935851
0.291447 0.806546 0.972686
0.412375 0.807401 0.989258
0.570352 0.791775 0.987549
0.713314 0.781094 0.987137
0.843931 0.773632 0.987137
0.969375 0.766979 0.986328
0.122545 0.849409 0.88188
0.170657 0.880079 0.911269
0.233539 0.902495 0.94638
0.303929 0.92221 0.982269
0.426246 0.919127 0.996887
0.581399 0.901518 0.994842
0.721874 0.889006 0.993988
0.850355 0.880003 0.993515
0.974151 0.872023 0.993042
0.177188 0.935347 0.934203
0.223697 0.9635 0.962386
0.27686 0.989258 0.98819
0.336294 1 1
0.448432 1 1
0.593835 1 1
0.731441 0.990921 1
0.857984 0.982452 0.999191
0.981125 0.974594 0.998856
