src/luts/rounded/13.cube
TITLE "Generated by Resolve"
LUT_3D_SIZE 33
0.106096 0 0.166049
0.116258 0 0.168551
0.126818 0 0.170672
0.138109 0 0.172473
0.150576 0 0.173404
0.163684 0 0.172595
0.178058 0 0.170779
0.193698 0 0.170672
0.210117 0 0.171496
0.227161 0 0.172778
0.244373 0 0.174609
0.266514 0 0.174929
0.29453 0 0.173541
0.333104 0 0.167742
0.381735 0 0.157382
0.432654 0 0.145769
0.482643 0 0.134554
0.531914 0 0.123232
0.580423 0 0.111559
0.627863 0 0.0996262
0.674098 0 0.0875715
0.719081 0 0.0754253
0.762814 0 0.0632334
0.805264 0 0.0510262
0.846555 0 0.0387427
0.872572 0 0.0324559
0.879622 0 0.0337682
0.886549 0 0.0348058
0.893446 0 0.0355993
0.900343 0 0.0361944
0.907332 0 0.0366217
0.914397 0 0.0369116
0.92163 0 0.0371252
0.106432 0 0.166262
0.11754 0 0.172625
0.130343 0 0.174792
0.143206 0 0.174975
0.157229 0 0.176623
0.171588 0 0.175875
0.186648 0 0.176059
0.202548 0 0.176883
0.218906 0 0.178149
0.235737 0 0.179614
0.252796 0.0021973 0.181369
0.274937 0.00561532 0.181506
0.302235 0.00700389 0.179171
0.340154 0.00399786 0.171817
0.387793 0 0.160433
0.437964 0 0.148241
0.487846 0 0.136873
0.537179 0 0.125643
0.585626 0 0.114046
0.632975 0 0.102205
0.679225 0 0.0902266
0.724285 0 0.0781872
0.768017 0 0.0661784
0.810437 0 0.0541848
0.85127 0 0.0423896
0.87689 0 0.0365911
0.884321 0 0.0381476
0.891646 0 0.0394293
0.898924 0 0.0404669
0.906218 0 0.0413367
0.913558 0 0.0420539
0.921004 0.00273136 0.042649
0.928618 0.0138552 0.043183
0.106676 0 0.166415
0.11783 0 0.173159
0.129244 0 0.179095
0.14258 0 0.181506
0.157244 0 0.180362
0.172503 0 0.175357
0.188785 0.0052491 0.176196
0.205463 0.010544 0.177844
0.222202 0.0159762 0.179675
0.239216 0.0214694 0.181552
0.255848 0.0273747 0.183169
0.277333 0.0313268 0.182895
0.30454 0.0329137 0.180346
0.343374 0.029572 0.173022
0.391592 0.0222477 0.161776
0.442084 0.0139315 0.149798
0.492271 0.00569162 0.138705
0.541787 0 0.127703
0.590356 0 0.11632
0.637827 0 0.104753
0.684092 0 0.0931106
0.729122 0 0.0814374
0.7729 0 0.06981
0.815381 0 0.0582132
0.856336 0 0.0467842
0.8822 0 0.0413367
0.890043 0 0.043183
0.897795 0 0.0447852
0.905486 0 0.0461738
0.913176 0.00727855 0.047364
0.920882 0.0183719 0.0483864
0.928664 0.0295262 0.0493172
0.936629 0.0407111 0.0501717
0.106615 0 0.16614
0.117662 0.00015259 0.172839
0.129122 0.00666819 0.179553
0.140932 0.0132753 0.185046
0.154955 0.019501 0.18703
0.171969 0.0245365 0.187823
0.18883 0.0308995 0.183078
0.204746 0.0381323 0.17731
0.22208 0.0434577 0.178744
0.239506 0.0487984 0.180896
0.256641 0.0544747 0.183078
0.278447 0.0583505 0.183169
0.30602 0.0598764 0.180865
0.345357 0.0564126 0.173816
0.394156 0.0489357 0.162875
0.445136 0.0404974 0.151339
0.495674 0.0322423 0.140627
0.545525 0.0244297 0.129961
0.594369 0.017258 0.118959
0.642054 0.0107576 0.107774
0.688502 0.00492866 0.0965438
0.7337 0 0.0853132
0.777615 0 0.0741283
0.820188 0 0.0629892
0.861418 0 0.0519112
0.888029 0 0.0466773
0.89659 0.0015259 0.0487678
0.904738 0.0124208 0.050721
0.91281 0.0234073 0.0524453
0.920867 0.0344701 0.0539864
0.928939 0.0456092 0.055375
0.937102 0.0567941 0.0566415
0.945449 0.0679942 0.0578622
0.10576 0.0208896 0.16495
0.116655 0.0277409 0.171542
0.127977 0.0344091 0.178195
0.139834 0.0408484 0.184878
0.152453 0.0472419 0.190158
0.167849 0.0530861 0.19173
0.18555 0.0582437 0.191592
0.20351 0.0638437 0.189639
0.221424 0.0695659 0.188312
0.238788 0.0760815 0.185489
0.254719 0.0837415 0.181674
0.276661 0.0878462 0.181262
0.304845 0.089189 0.179446
0.34464 0.0856641 0.172732
0.394125 0.0780194 0.162173
0.445686 0.0694743 0.151095
0.49662 0.0612039 0.140856
0.546777 0.0534524 0.130571
0.595941 0.0463417 0.119982
0.6439 0.0399023 0.109285
0.690593 0.0341344 0.098558
0.736019 0.0290227 0.0878614
0.780148 0.0245212 0.0772106
0.822904 0.0206607 0.0666209
0.864408 0.0173953 0.0561074
0.892256 0.0199893 0.0509804
0.90222 0.0302586 0.0530861
0.910796 0.0411383 0.0554513
0.91928 0.0521248 0.0575875
0.927718 0.0632181 0.0595102
0.936172 0.0743725 0.0612497
0.944686 0.0855879 0.0628977
0.953414 0.096788 0.0644846
0.103761 0.0493019 0.162387
0.114427 0.0563821 0.168872
0.125551 0.0633097 0.175402
0.137224 0.0699779 0.18201
0.149828 0.0762493 0.188724
0.163958 0.0822156 0.193896
0.179843 0.0882277 0.195102
0.19791 0.0941634 0.192111
0.216037 0.0997177 0.192172
0.234485 0.105226 0.19292
0.252537 0.111208 0.193423
0.274647 0.11577 0.191623
0.30312 0.117769 0.18706
0.340566 0.117311 0.172229
0.390143 0.110231 0.160006
0.442573 0.101411 0.149584
0.494194 0.0930343 0.139635
0.5449 0.0852369 0.129656
0.594507 0.0780957 0.119493
0.642832 0.0716716 0.109316
0.689876 0.065919 0.0991684
0.735576 0.0608225 0.0890669
0.779995 0.0563516 0.0790417
0.823056 0.0525216 0.0690776
0.864851 0.0492866 0.0591287
0.894484 0.0512856 0.0539101
0.906569 0.0608072 0.0557717
0.915572 0.0716716 0.0585641
0.924468 0.0826581 0.0611124
0.933333 0.0936751 0.0634775
0.942214 0.104753 0.0656748
0.951171 0.115877 0.0677501
0.960266 0.127001 0.0697337
0.10045 0.0789044 0.158251
0.110903 0.0862593 0.164675
0.121828 0.0934615 0.171145
0.133333 0.100435 0.177691
0.145769 0.106996 0.18439
0.15967 0.112947 0.191257
0.174914 0.118761 0.196353
0.190951 0.125216 0.197421
0.208972 0.132036 0.192645
0.227176 0.138048 0.192859
0.245411 0.144015 0.19443
0.266728 0.148791 0.195117
0.294957 0.150759 0.192859
0.334127 0.148211 0.185824
0.385031 0.140963 0.172519
0.439124 0.132036 0.159701
0.492042 0.123781 0.147356
0.542794 0.116762 0.134646
0.590478 0.111788 0.119982
0.638453 0.106081 0.108461
0.68603 0.100237 0.098909
0.732235 0.095079 0.0894179
0.777066 0.0905776 0.0799725
0.8206 0.0866865 0.0705577
0.862882 0.0833753 0.0611429
0.894896 0.0844892 0.0556344
0.909773 0.0929274 0.0569924
0.919219 0.1037 0.0602579
0.928512 0.114595 0.0632181
0.937743 0.125551 0.0659648
0.94696 0.136568 0.068513
0.956161 0.147662 0.0708782
0.965423 0.158801 0.0730602
0.0965896 0.109255 0.153429
0.106844 0.11693 0.159838
0.117632 0.124437 0.166293
0.129 0.131716 0.172839
0.141344 0.138598 0.179538
0.155077 0.1449 0.18645
0.170367 0.150576 0.193606
0.186023 0.156741 0.198627
0.202197 0.163607 0.199939
0.220188 0.17116 0.194354
0.238605 0.177722 0.193927
0.25803 0.183673 0.194995
0.284489 0.186664 0.193606
0.320195 0.185763 0.188663
0.371405 0.178225 0.177493
0.426673 0.168978 0.164904
0.481056 0.160113 0.153185
0.534295 0.151781 0.142321
0.585855 0.144228 0.132235
0.635493 0.137835 0.121538
0.684184 0.131853 0.111177
0.730953 0.127047 0.0997482
0.773632 0.125109 0.0841688
0.815839 0.122759 0.0714427
0.858625 0.119326 0.0624704
0.893523 0.119295 0.0563058
0.911711 0.126406 0.0567636
0.921462 0.137133 0.0603647
0.931014 0.147982 0.0636301
0.94052 0.158877 0.0666972
0.949996 0.169818 0.0695506
0.959487 0.180819 0.072221
0.96907 0.191821 0.0747539
0.092668 0.140154 0.148669
0.1028 0.148165 0.155108
0.113497 0.155978 0.161608
0.124819 0.163561 0.168215
0.137102 0.170748 0.174945
0.15079 0.177371 0.181903
0.16614 0.183291 0.189166
0.181842 0.189273 0.196506
0.197879 0.195804 0.201465
0.214343 0.203067 0.202762
0.23238 0.211154 0.197024
0.250904 0.218311 0.195758
0.275547 0.222553 0.194186
0.308431 0.223224 0.190082
0.356252 0.217456 0.18024
0.411429 0.208515 0.167819
0.466468 0.199603 0.156176
0.52047 0.191119 0.145556
0.57319 0.183169 0.135821
0.624384 0.17583 0.127138
0.674128 0.169268 0.118196
0.722438 0.1635 0.108766
0.769177 0.158587 0.0988022
0.813474 0.155138 0.0872206
0.857221 0.151568 0.0773175
0.893339 0.151385 0.0694438
0.913436 0.158312 0.0664683
0.923156 0.170352 0.0640574
0.932555 0.182223 0.062974
0.942397 0.19295 0.0664073
0.952224 0.203723 0.0696269
0.96202 0.214527 0.0726329
0.971908 0.225345 0.0755169
0.0883803 0.171984 0.143771
0.0984665 0.18027 0.150271
0.109163 0.188373 0.156878
0.120531 0.196201 0.163577
0.132876 0.203632 0.170443
0.146609 0.210483 0.177508
0.162066 0.216617 0.184909
0.177905 0.222797 0.192432
0.194003 0.229068 0.200046
0.210559 0.23592 0.204715
0.227481 0.243549 0.205783
0.245411 0.252033 0.200763
0.268132 0.258 0.197009
0.298634 0.260243 0.192477
0.342321 0.256657 0.183658
0.396262 0.248585 0.171298
0.451423 0.239948 0.159182
0.505745 0.231586 0.148272
0.558877 0.223667 0.138323
0.61062 0.216312 0.129259
0.660868 0.209537 0.120989
0.709743 0.203464 0.112444
0.757229 0.198093 0.103593
0.803265 0.193393 0.0945754
0.847929 0.189303 0.0854047
0.887541 0.187427 0.0776074
0.910857 0.192554 0.0758984
0.921889 0.203021 0.0783551
0.932479 0.213977 0.079118
0.943175 0.224506 0.0814527
0.953811 0.235203 0.0829938
0.964248 0.246311 0.0828107
0.974258 0.258122 0.0800793
0.0843214 0.204364 0.139223
0.0944686 0.212894 0.145876
0.105272 0.221195 0.152636
0.116747 0.229221 0.159503
0.129259 0.236835 0.166537
0.143114 0.2439 0.173785
0.15874 0.250202 0.181338
0.174777 0.256535 0.189044
0.191043 0.262974 0.196872
0.207568 0.269535 0.204746
0.224643 0.276738 0.208972
0.242008 0.28484 0.208835
0.261982 0.292592 0.204318
0.290135 0.296651 0.197818
0.329259 0.295567 0.189197
0.381888 0.288457 0.176364
0.436896 0.280201 0.163607
0.491157 0.272145 0.152117
0.544381 0.264424 0.141726
0.596323 0.257191 0.132189
0.646845 0.250446 0.12369
0.695979 0.244282 0.115496
0.743725 0.238773 0.106996
0.790082 0.233906 0.0983749
0.835096 0.229618 0.0896773
0.878584 0.225956 0.0810254
0.906203 0.229068 0.0785229
0.917464 0.239155 0.0824292
0.928618 0.249271 0.0859236
0.939666 0.25948 0.0889296
0.950668 0.269734 0.0914778
0.961669 0.280079 0.0934462
0.972641 0.290639 0.0942855
0.0811475 0.236942 0.135561
0.0915389 0.245594 0.142504
0.102571 0.254017 0.149523
0.114275 0.262181 0.156649
0.126955 0.269963 0.163882
0.140932 0.277226 0.171283
0.156664 0.283757 0.178897
0.172747 0.290333 0.186694
0.189059 0.297002 0.194583
0.205615 0.303761 0.202548
0.222416 0.310628 0.210529
0.239963 0.318135 0.213962
0.258412 0.326207 0.212818
0.283131 0.332021 0.207202
0.317098 0.333806 0.198108
0.367254 0.328267 0.184466
0.422705 0.320195 0.17026
0.477028 0.312413 0.157748
0.530053 0.305013 0.1467
0.581842 0.29807 0.136507
0.632288 0.291585 0.127199
0.681346 0.285527 0.118868
0.729107 0.280034 0.110521
0.775555 0.275105 0.102022
0.820691 0.27071 0.093492
0.864683 0.266773 0.0848859
0.897993 0.267353 0.080293
0.912184 0.276081 0.083299
0.923293 0.286076 0.0871901
0.93434 0.296101 0.0907149
0.945357 0.306142 0.0938888
0.956405 0.316197 0.0967727
0.967544 0.326299 0.0993515
0.079118 0.269642 0.132937
0.0896162 0.278492 0.140032
0.10074 0.287144 0.147189
0.112505 0.295552 0.154421
0.125246 0.303548 0.161761
0.139269 0.31104 0.169253
0.155077 0.317754 0.176959
0.171252 0.324483 0.184833
0.18764 0.331304 0.192798
0.204242 0.338216 0.200839
0.221103 0.34519 0.208972
0.2383 0.352132 0.217014
0.25655 0.359808 0.219135
0.279393 0.36614 0.216358
0.308629 0.370001 0.209583
0.352163 0.367819 0.196475
0.40705 0.360464 0.180438
0.462058 0.352728 0.166171
0.515526 0.345403 0.153796
0.567361 0.338628 0.142794
0.617716 0.332326 0.132769
0.666651 0.326452 0.123873
0.714244 0.321019 0.115465
0.76054 0.316136 0.106905
0.805585 0.311742 0.0983291
0.849515 0.307774 0.0897231
0.887495 0.306279 0.0831617
0.90724 0.312505 0.0838788
0.918227 0.322484 0.087953
0.929183 0.332494 0.091722
0.940185 0.342519 0.0952468
0.951263 0.352575 0.0985122
0.962463 0.362631 0.101564
0.076936 0.303426 0.130037
0.0874647 0.31252 0.13727
0.0986343 0.32137 0.144533
0.11046 0.329946 0.151873
0.123247 0.338125 0.159335
0.137316 0.345754 0.166918
0.15317 0.352621 0.174701
0.169436 0.359442 0.182635
0.185885 0.366369 0.190692
0.202579 0.373358 0.198779
0.219486 0.380407 0.206973
0.236713 0.387411 0.215198
0.254307 0.394339 0.22327
0.276997 0.400565 0.221836
0.303929 0.40502 0.218387
0.340002 0.405829 0.209476
0.390372 0.400748 0.193713
0.444999 0.393591 0.177462
0.498955 0.386404 0.163195
0.551385 0.379538 0.150759
0.602152 0.373205 0.139666
0.65127 0.367361 0.129793
0.698802 0.361959 0.121065
0.744961 0.357061 0.112444
0.789899 0.352651 0.103761
0.833799 0.348653 0.0951247
0.876692 0.345052 0.0865492
0.903059 0.348501 0.0846418
0.914 0.358526 0.0889906
0.924941 0.368551 0.0930495
0.935943 0.378592 0.096849
0.947051 0.388617 0.100435
0.958312 0.398627 0.103822
0.0749065 0.337957 0.127291
0.0854505 0.347219 0.134661
0.0966812 0.356222 0.142061
0.108568 0.36492 0.149508
0.121401 0.373205 0.157061
0.135515 0.380941 0.164721
0.1514 0.3879 0.17258
0.167727 0.394797 0.180575
0.184237 0.401785 0.188663
0.200961 0.40882 0.196796
0.217914 0.4159 0.205005
0.235172 0.422934 0.213245
0.252766 0.429877 0.221485
0.274403 0.435111 0.227924
0.301274 0.43978 0.223438
0.333593 0.441764 0.218326
0.377997 0.438911 0.206561
0.428946 0.433448 0.190967
0.481697 0.42707 0.17528
0.534218 0.420447 0.161013
0.585382 0.414069 0.148547
0.635004 0.408133 0.137453
0.682963 0.40267 0.12781
0.729366 0.397742 0.118868
0.774426 0.393378 0.110063
0.818387 0.389441 0.101396
0.861479 0.385809 0.0927901
0.896269 0.385687 0.0874342
0.91078 0.394202 0.090425
0.92166 0.404273 0.0947127
0.932616 0.414298 0.0987564
0.943679 0.424308 0.102586
0.954925 0.434287 0.106218
0.0733501 0.372824 0.125063
0.0838941 0.382208 0.132555
0.0951705 0.391302 0.140063
0.107103 0.400092 0.147616
0.119966 0.408453 0.15523
0.134096 0.416251 0.162951
0.150011 0.42327 0.17084
0.166369 0.430198 0.178866
0.18291 0.437201 0.186984
0.199649 0.444266 0.195117
0.216602 0.451347 0.203326
0.233875 0.458366 0.211551
0.251514 0.465263 0.21976
0.273121 0.470451 0.226352
0.298528 0.474052 0.230884
0.330388 0.476631 0.223606
0.371771 0.474632 0.214847
0.418311 0.470665 0.202655
0.46714 0.465934 0.188418
0.517693 0.46041 0.173632
0.56849 0.454551 0.159808
0.618357 0.448798 0.147478
0.666789 0.443397 0.136645
0.713649 0.438422 0.127153
0.759136 0.433967 0.117922
0.803403 0.429969 0.108934
0.846677 0.426337 0.10016
0.886732 0.423987 0.0925154
0.908736 0.429313 0.0923629
0.919432 0.439445 0.096788
0.930236 0.449516 0.100999
0.941207 0.459541 0.105013
0.952377 0.46949 0.108858
0.0721599 0.407813 0.123308
0.0827039 0.417288 0.130907
0.0939956 0.426429 0.138491
0.105943 0.435248 0.146105
0.118837 0.443641 0.15378
0.132982 0.451484 0.161532
0.148852 0.458534 0.169451
0.165255 0.465446 0.177462
0.181811 0.472419 0.18555
0.19855 0.479454 0.193668
0.215488 0.486519 0.201862
0.232731 0.493492 0.210056
0.250416 0.500298 0.218173
0.272038 0.505394 0.224659
0.297398 0.508873 0.229541
0.327398 0.510628 0.231174
0.368612 0.509163 0.220203
0.413214 0.505821 0.210269
0.458457 0.502388 0.199084
0.505287 0.498451 0.186328
0.553597 0.493874 0.172732
0.602426 0.488838 0.15967
0.650767 0.483757 0.147616
0.697856 0.478874 0.137194
0.743587 0.474388 0.127596
0.788205 0.470314 0.118151
0.83183 0.466575 0.108965
0.874647 0.463096 0.0999619
0.905684 0.464576 0.0958267
0.918334 0.473854 0.099382
0.928954 0.48397 0.10367
0.939727 0.494026 0.107774
0.950729 0.503975 0.111727
0.0713207 0.442786 0.122057
0.0818494 0.452277 0.129717
0.0931563 0.461448 0.137377
0.105104 0.470268 0.145037
0.118013 0.478645 0.152712
0.132128 0.486473 0.160464
0.147967 0.493507 0.168383
0.16437 0.500374 0.176364
0.180926 0.507301 0.184405
0.19762 0.514275 0.192477
0.214527 0.521263 0.200595
0.231754 0.528191 0.208759
0.249577 0.53492 0.2168
0.271336 0.540002 0.22327
0.296864 0.543465 0.228122
0.326818 0.545083 0.230961
0.366079 0.54316 0.227863
0.410941 0.540108 0.216022
0.454643 0.537179 0.206546
0.498604 0.534264 0.196231
0.543511 0.531014 0.184802
0.589609 0.52726 0.172442
0.636316 0.523049 0.16025
0.682811 0.518669 0.14876
0.728435 0.514305 0.138705
0.773129 0.510246 0.128939
0.816953 0.506462 0.119341
0.860014 0.502892 0.109957
0.899046 0.500938 0.102174
0.918257 0.507408 0.102754
0.928679 0.517571 0.106996
0.939254 0.527642 0.111086
0.950057 0.537606 0.115053
0.0707866 0.477592 0.12134
0.0813306 0.487068 0.129046
0.0926223 0.496193 0.136721
0.10457 0.504982 0.144381
0.117449 0.513329 0.152056
0.131563 0.521096 0.159655
0.147372 0.528069 0.167544
0.163729 0.534874 0.175463
0.180285 0.541741 0.18349
0.197024 0.548714 0.191562
0.214008 0.555718 0.19971
0.231281 0.562676 0.207904
0.249363 0.56936 0.2159
0.271321 0.574395 0.222431
0.297063 0.577844 0.227115
0.327382 0.579324 0.229908
0.366278 0.577188 0.229007
0.409186 0.573816 0.224002
0.453254 0.571069 0.212757
0.495995 0.568536 0.203647
0.538643 0.566079 0.19408
0.581811 0.563409 0.183734
0.625788 0.560357 0.17258
0.670298 0.556909 0.161364
0.714839 0.553201 0.150561
0.758984 0.549355 0.140871
0.802655 0.545617 0.131029
0.845762 0.542031 0.121263
0.88835 0.538567 0.111666
0.91751 0.540734 0.107729
0.929198 0.550301 0.111177
0.93962 0.560388 0.115145
0.950225 0.570352 0.119005
0.0705577 0.512093 0.121202
0.0810864 0.521508 0.128908
0.0923629 0.530571 0.136568
0.104311 0.5393 0.144045
0.117174 0.547555 0.15169
0.131304 0.555291 0.159365
0.147173 0.562249 0.167239
0.163592 0.569085 0.17525
0.180255 0.575967 0.183307
0.197055 0.582956 0.191424
0.214115 0.589975 0.199619
0.231434 0.596963 0.207858
0.249836 0.60354 0.215732
0.272038 0.608545 0.221942
0.298024 0.611887 0.226688
0.328939 0.613108 0.229282
0.367895 0.610895 0.228534
0.410101 0.60734 0.226322
0.452338 0.604303 0.221302
0.49546 0.601907 0.210376
0.537148 0.599756 0.201556
0.578515 0.597681 0.192569
0.62005 0.595499 0.183124
0.662043 0.593027 0.173053
0.704463 0.590234 0.162814
0.747173 0.587091 0.152758
0.789868 0.583673 0.14342
0.832486 0.580224 0.133623
0.874937 0.576776 0.12369
0.912993 0.575113 0.115587
0.930312 0.582208 0.11632
0.940581 0.592248 0.120058
0.951034 0.602197 0.123705
0.0705577 0.546181 0.121614
0.081117 0.555535 0.129244
0.0924544 0.564569 0.136782
0.104479 0.573297 0.144366
0.117449 0.581567 0.152056
0.131685 0.589303 0.159854
0.147646 0.596246 0.167819
0.164111 0.603113 0.175875
0.18085 0.609995 0.183978
0.197726 0.616983 0.192157
0.214862 0.623972 0.200366
0.232181 0.630961 0.208652
0.250965 0.6374 0.216403
0.273426 0.642283 0.222431
0.299687 0.645502 0.227008
0.331304 0.646372 0.229389
0.370428 0.644068 0.228687
0.412482 0.640497 0.226703
0.453803 0.637263 0.224842
0.495232 0.634577 0.219532
0.537316 0.632517 0.208804
0.577966 0.630671 0.200183
0.618067 0.628931 0.191669
0.658045 0.627146 0.18291
0.698253 0.625147 0.17377
0.738872 0.622827 0.164416
0.779904 0.620111 0.155093
0.821225 0.617044 0.146075
0.862852 0.613825 0.136355
0.904662 0.610468 0.126284
0.931334 0.613504 0.122621
0.941939 0.623316 0.125826
0.95227 0.633188 0.129168
0.0710155 0.580056 0.122576
0.0817426 0.589395 0.130236
0.0931868 0.598444 0.137835
0.105303 0.607156 0.145525
0.118379 0.615427 0.153292
0.132708 0.623133 0.161135
0.14876 0.63006 0.169162
0.16527 0.636912 0.177264
0.182086 0.643763 0.185397
0.199023 0.650706 0.193606
0.21622 0.657664 0.201846
0.233539 0.664637 0.210178
0.252689 0.670878 0.217777
0.275471 0.675608 0.223697
0.302022 0.678645 0.228153
0.33434 0.679164 0.230289
0.373709 0.676677 0.229496
0.415625 0.673091 0.227604
0.456764 0.66981 0.225956
0.497108 0.66688 0.224338
0.537682 0.664515 0.21857
0.578698 0.66276 0.20795
0.618235 0.661189 0.199435
0.657084 0.659739 0.191272
0.695674 0.658244 0.183062
0.734356 0.656565 0.174624
0.773449 0.654551 0.165972
0.813031 0.652125 0.157412
0.853162 0.649302 0.148608
0.893904 0.64625 0.138888
0.92958 0.645289 0.131106
0.943481 0.653559 0.132479
0.953735 0.663325 0.135424
0.0721141 0.613855 0.124361
0.0830091 0.623163 0.132021
0.0945754 0.632166 0.139727
0.106767 0.640848 0.147463
0.119951 0.649073 0.155245
0.134386 0.656733 0.163149
0.150515 0.663615 0.171221
0.167041 0.670436 0.179355
0.183932 0.677241 0.187518
0.200931 0.684108 0.195743
0.218173 0.691005 0.204013
0.235477 0.697932 0.21239
0.255039 0.703929 0.219837
0.278141 0.708446 0.225589
0.304997 0.711299 0.229908
0.338018 0.711421 0.231754
0.37763 0.708736 0.230838
0.419409 0.705104 0.228992
0.460456 0.701762 0.227359
0.500587 0.698756 0.225986
0.539864 0.696086 0.224582
0.579553 0.694026 0.218235
0.619455 0.692515 0.207645
0.657862 0.691188 0.199191
0.695521 0.689952 0.191257
0.732891 0.688655 0.183429
0.770336 0.687144 0.175463
0.808164 0.685298 0.167376
0.846525 0.682994 0.159442
0.885679 0.680323 0.150713
0.923583 0.678203 0.141909
0.945113 0.68304 0.139803
0.955306 0.692668 0.142412
0.0738689 0.647471 0.12697
0.0849012 0.656718 0.1346
0.0965744 0.665675 0.142306
0.108888 0.674311 0.150042
0.122148 0.682475 0.157839
0.136706 0.690044 0.165789
0.15288 0.696864 0.173907
0.169421 0.703624 0.182086
0.186358 0.710338 0.19028
0.203403 0.717144 0.19852
0.220691 0.723934 0.20679
0.237949 0.730785 0.215198
0.257939 0.736507 0.222507
0.281376 0.740795 0.228092
0.308583 0.743389 0.232212
0.342321 0.743114 0.233692
0.382162 0.7402 0.232639
0.423819 0.736507 0.230808
0.464714 0.733089 0.229191
0.504707 0.729992 0.227802
0.54377 0.727214 0.226642
0.581918 0.724773 0.225406
0.620676 0.722972 0.218387
0.659434 0.721675 0.207752
0.696742 0.720516 0.199283
0.733333 0.719387 0.19144
0.76968 0.718151 0.183825
0.806119 0.716701 0.176196
0.842924 0.7149 0.168551
0.880369 0.712642 0.160998
0.918776 0.710018 0.152316
0.946532 0.711955 0.14757
0.957 0.721294 0.149874
0.0762188 0.680888 0.130144
0.0874037 0.690059 0.137758
0.0991684 0.69894 0.145434
0.111574 0.707485 0.153155
0.124926 0.715557 0.160967
0.13959 0.723003 0.168948
0.155795 0.729732 0.177111
0.172351 0.736416 0.185351
0.189319 0.743023 0.193576
0.206378 0.749722 0.201831
0.223697 0.75639 0.210101
0.24094 0.763149 0.218524
0.261326 0.768566 0.22565
0.2851 0.77258 0.231113
0.312642 0.774914 0.234943
0.347112 0.774197 0.236042
0.387198 0.771038 0.234806
0.428687 0.767254 0.232959
0.469429 0.763729 0.231342
0.509285 0.76054 0.229938
0.54815 0.757656 0.228748
0.586053 0.755077 0.227741
0.623041 0.752804 0.226596
0.660838 0.751232 0.218845
0.698482 0.750088 0.208087
0.734813 0.74902 0.199527
0.770535 0.747921 0.191684
0.806043 0.746685 0.184161
0.841688 0.74519 0.176822
0.877729 0.743374 0.169497
0.914549 0.74107 0.162112
0.946502 0.740948 0.155917
0.958907 0.749218 0.157458
0.079118 0.714031 0.133745
0.0904402 0.723079 0.141329
0.102296 0.731868 0.149004
0.114778 0.740307 0.156725
0.128206 0.748257 0.164553
0.142931 0.755581 0.172549
0.159167 0.762203 0.180728
0.175723 0.76878 0.188998
0.192691 0.77525 0.197253
0.209735 0.781811 0.205524
0.22707 0.788357 0.213779
0.244312 0.79498 0.222187
0.26508 0.800092 0.229145
0.289174 0.803784 0.234501
0.317082 0.805844 0.23801
0.352255 0.804669 0.238651
0.392523 0.801251 0.237232
0.43386 0.797345 0.23534
0.474418 0.793713 0.233661
0.514076 0.790387 0.232227
0.552773 0.787381 0.231006
0.590478 0.78468 0.229969
0.627207 0.782269 0.229084
0.663035 0.780148 0.228016
0.699886 0.778759 0.219455
0.736599 0.777737 0.20856
0.772091 0.776684 0.199847
0.80708 0.775555 0.191943
0.841947 0.774273 0.184451
0.877012 0.772702 0.177264
0.912551 0.770748 0.170306
0.944671 0.770199 0.16463
0.960952 0.776547 0.164782
0.0824903 0.746853 0.137697
0.0939193 0.755779 0.145281
0.105852 0.764431 0.152941
0.118395 0.772732 0.160678
0.131868 0.78056 0.16849
0.146654 0.787732 0.176486
0.16286 0.794232 0.184649
0.1794 0.800671 0.192889
0.196368 0.807019 0.20116
0.213397 0.813443 0.209445
0.230701 0.819821 0.2177
0.248005 0.826246 0.226032
0.269078 0.831052 0.232807
0.293492 0.834424 0.238025
0.321706 0.836149 0.24126
0.357504 0.834516 0.241428
0.397971 0.830823 0.23978
0.439124 0.826795 0.237842
0.4795 0.823041 0.236118
0.518959 0.819593 0.234638
0.557458 0.816464 0.233371
0.594995 0.813626 0.232303
0.63154 0.811093 0.231388
0.667079 0.808835 0.230625
0.701808 0.806851 0.229618
0.737865 0.805615 0.220172
0.773754 0.804623 0.209079
0.808576 0.803555 0.200168
0.843 0.802365 0.192187
0.877424 0.800961 0.184695
0.912123 0.799237 0.177554
0.944183 0.798444 0.172168
0.963073 0.803357 0.171649
0.0862135 0.779293 0.141939
0.0977035 0.788067 0.149523
0.109697 0.796567 0.157183
0.122271 0.80473 0.164889
0.13579 0.812406 0.172686
0.150668 0.819379 0.180652
0.166781 0.825788 0.188754
0.183291 0.832074 0.196948
0.200214 0.83827 0.205173
