src/luts/rounded/14.cube
TITLE "Generated by Resolve"
LUT_3D_SIZE 33
0.233967 0.0414435 0.293797
0.239063 0.0436561 0.291051
0.244526 0.046479 0.287861
0.250523 0.0486763 0.284092
0.257633 0.050309 0.279225
0.265446 0.0521401 0.272557
0.274144 0.0530709 0.264408
0.283436 0.0523537 0.257694
0.293034 0.0508431 0.251331
0.303059 0.0488746 0.245167
0.312673 0.0464485 0.239155
0.331075 0.0434272 0.233158
0.357122 0.0393835 0.227115
0.401862 0.0357061 0.22118
0.460639 0.0325017 0.21529
0.518898 0.0299992 0.209812
0.576272 0.0281987 0.205081
0.633219 0.026978 0.200015
0.689296 0.0263676 0.19469
0.744259 0.0265507 0.189288
0.798001 0.027451 0.183856
0.850431 0.0290379 0.178378
0.901625 0.0311894 0.1729
0.951278 0.0339513 0.16733
1 0.0371405 0.161608
1 0.0408026 0.15581
1 0.0447242 0.149844
1 0.0487831 0.143694
1 0.0529488 0.137331
1 0.057084 0.130709
1 0.0611887 0.123842
1 0.0652171 0.116732
1 0.0689708 0.109331
0.233509 0.0674907 0.293248
0.237964 0.0674754 0.292836
0.244007 0.0672313 0.287907
0.250629 0.0678874 0.281392
0.258152 0.0672465 0.276188
0.266285 0.0674144 0.268559
0.275029 0.0669108 0.262104
0.284352 0.0657359 0.256001
0.293904 0.064271 0.250111
0.303914 0.0626688 0.244327
0.313848 0.0608377 0.238621
0.332784 0.0583963 0.232914
0.35938 0.056733 0.227192
0.405615 0.0558785 0.221576
0.46421 0.0545815 0.215915
0.522438 0.053193 0.210498
0.579904 0.0514076 0.205722
0.636759 0.0501869 0.200687
0.692653 0.0497139 0.195331
0.747356 0.049958 0.189883
0.800977 0.050782 0.184314
0.853208 0.0522316 0.178698
0.903944 0.0542611 0.173053
0.953216 0.0568093 0.16733
1 0.0597848 0.161501
1 0.0631266 0.15555
1 0.0666819 0.149447
1 0.0703899 0.14313
1 0.0741436 0.136614
1 0.0779736 0.129915
1 0.0817426 0.122988
1 0.0854047 0.115801
1 0.0887922 0.108354
0.233097 0.0941634 0.292744
0.237522 0.0939498 0.292668
0.242329 0.0938888 0.291844
0.248615 0.0930343 0.286931
0.256474 0.0923629 0.278325
0.265339 0.0928054 0.265812
0.274479 0.0905318 0.259571
0.284031 0.088304 0.253727
0.293751 0.0864271 0.248188
0.303899 0.0847334 0.242817
0.313878 0.0839704 0.237476
0.332921 0.0829633 0.23212
0.360067 0.0818647 0.226703
0.407675 0.0805371 0.221286
0.466606 0.079118 0.215808
0.525093 0.0775158 0.210498
0.58262 0.0754559 0.205798
0.639353 0.0740978 0.200717
0.695094 0.0734417 0.195331
0.749554 0.0734417 0.189822
0.802686 0.074052 0.184207
0.854429 0.0752422 0.178515
0.904723 0.076936 0.172763
0.953536 0.0791333 0.166918
1 0.0817578 0.160983
1 0.0846876 0.15491
1 0.0878157 0.148669
1 0.0910964 0.14229
1 0.0944839 0.135698
1 0.0979171 0.128923
1 0.101396 0.121965
1 0.104753 0.114778
1 0.107866 0.107301
0.232654 0.121294 0.292103
0.237079 0.121279 0.292073
0.241825 0.120943 0.291966
0.247059 0.120836 0.2907
0.253925 0.119677 0.285145
0.263172 0.116289 0.277668
0.272923 0.115221 0.264942
0.282826 0.11664 0.252125
0.292851 0.113909 0.246509
0.303197 0.111894 0.241169
0.313222 0.110338 0.235966
0.332403 0.109041 0.230777
0.359899 0.107729 0.225528
0.408011 0.106172 0.22034
0.467369 0.104479 0.215061
0.526024 0.102449 0.209964
0.583597 0.100145 0.205356
0.640314 0.0984054 0.200244
0.695888 0.0974136 0.194842
0.750103 0.0970626 0.189288
0.80293 0.0973068 0.183627
0.854307 0.098085 0.177874
0.904189 0.0993668 0.172045
0.952468 0.101198 0.166125
0.999237 0.103456 0.160128
1 0.105898 0.153948
1 0.108568 0.147662
1 0.111498 0.141222
1 0.114534 0.134615
1 0.117662 0.12784
1 0.120775 0.120851
1 0.123781 0.113649
1 0.12636 0.106111
0.232059 0.149767 0.291173
0.2365 0.150088 0.291218
0.241291 0.150134 0.291218
0.246464 0.149737 0.291096
0.252399 0.149233 0.289433
0.260395 0.14728 0.283101
0.270283 0.144259 0.274464
0.280705 0.141848 0.264607
0.291264 0.139544 0.255863
0.302037 0.13962 0.245212
0.311864 0.141802 0.23447
0.330938 0.139895 0.229297
0.358816 0.138033 0.224216
0.406989 0.13608 0.218997
0.466896 0.133898 0.21387
0.52578 0.131487 0.208972
0.583276 0.128756 0.20441
0.639857 0.12668 0.199207
0.695216 0.125185 0.193759
0.749172 0.124346 0.18819
0.801663 0.124086 0.182498
0.852674 0.124331 0.176715
0.902144 0.125078 0.17084
0.949996 0.126345 0.164858
0.99646 0.127962 0.158785
1 0.129915 0.152605
1 0.132174 0.146304
1 0.13463 0.139849
1 0.137255 0.133242
1 0.140017 0.126452
1 0.142779 0.119478
1 0.145418 0.112276
1 0.14757 0.104738
0.231312 0.180362 0.289845
0.235782 0.181216 0.290044
0.24062 0.181781 0.290181
0.245853 0.181918 0.290211
0.251728 0.181231 0.290028
0.258793 0.179751 0.28777
0.267216 0.178073 0.281056
0.277897 0.176364 0.269596
0.288609 0.174182 0.262242
0.299687 0.171954 0.25536
0.310048 0.169848 0.24828
0.328603 0.168063 0.240681
0.356741 0.166903 0.232013
0.402945 0.170748 0.217533
0.463523 0.16791 0.212467
0.522805 0.164706 0.207874
0.58056 0.161486 0.202991
0.637217 0.158862 0.197681
0.69247 0.156802 0.192203
0.746166 0.155367 0.186572
0.798367 0.154437 0.18085
0.848981 0.15407 0.175036
0.898054 0.154086 0.169116
0.945556 0.154711 0.163119
0.991806 0.15581 0.157046
1 0.157259 0.150866
1 0.158999 0.144579
1 0.161059 0.13814
1 0.163195 0.131548
1 0.165393 0.124773
1 0.167575 0.1178
1 0.169696 0.110613
1 0.17142 0.103105
0.230472 0.213519 0.288151
0.234974 0.214923 0.288548
0.239857 0.216037 0.288869
0.245151 0.216724 0.289082
0.251072 0.216587 0.289067
0.257939 0.215167 0.28867
0.265766 0.213214 0.285969
0.274479 0.212177 0.279316
0.28542 0.21178 0.266484
0.296742 0.210651 0.259632
0.307668 0.209171 0.253758
0.323888 0.207111 0.247654
0.350896 0.2047 0.241077
0.396078 0.202014 0.234211
0.458915 0.199222 0.227039
0.520211 0.196201 0.219623
0.578943 0.192935 0.21149
0.634333 0.190784 0.20206
0.686397 0.191836 0.190234
0.740215 0.189502 0.184527
0.792218 0.187823 0.178759
0.842695 0.186664 0.1729
0.891646 0.18613 0.166995
0.939193 0.186099 0.161028
0.985412 0.186618 0.154971
1 0.187457 0.148821
1 0.188586 0.142535
1 0.190097 0.136126
1 0.191745 0.129549
1 0.193545 0.122805
1 0.195392 0.115862
1 0.197375 0.108705
1 0.1991 0.101228
0.229725 0.247974 0.286427
0.234241 0.249928 0.287022
0.23917 0.25156 0.287541
0.244511 0.252735 0.287938
0.250492 0.253086 0.28809
0.257359 0.252216 0.287861
0.265126 0.249943 0.287205
0.273198 0.248341 0.284337
0.281987 0.247654 0.277928
0.293126 0.248219 0.264591
0.304891 0.247852 0.257145
0.318456 0.247211 0.25153
0.343557 0.245823 0.245579
0.382437 0.243671 0.239277
0.446448 0.240909 0.232837
0.50898 0.237568 0.226246
0.569421 0.233585 0.219638
0.627482 0.228916 0.212833
0.68333 0.22443 0.206683
0.737392 0.220752 0.199619
0.789593 0.218067 0.191409
0.83949 0.216724 0.181582
0.883268 0.220447 0.164691
0.930877 0.219867 0.15874
0.977188 0.219806 0.152697
1 0.220249 0.146578
1 0.221042 0.140337
1 0.222263 0.133974
1 0.223636 0.127443
1 0.225055 0.120745
1 0.226551 0.113832
1 0.228046 0.106722
1 0.229145 0.0992905
0.229206 0.283192 0.2851
0.233753 0.285634 0.285878
0.238727 0.287724 0.286564
0.244099 0.289281 0.287098
0.250095 0.290028 0.287358
0.256962 0.289525 0.287236
0.26479 0.28748 0.286641
0.272709 0.285466 0.28603
0.280919 0.28394 0.282811
0.289937 0.283574 0.276234
0.300999 0.28455 0.26273
0.312688 0.284642 0.254139
0.336049 0.284611 0.248096
0.371084 0.283787 0.24239
0.43093 0.281971 0.236378
0.494301 0.279271 0.230152
0.55581 0.275731 0.223941
0.614847 0.271336 0.217487
0.671748 0.266926 0.211276
0.726619 0.262684 0.205737
0.779858 0.259098 0.199359
0.831479 0.256077 0.192554
0.881376 0.253681 0.185214
0.929473 0.251926 0.177417
0.975814 0.250919 0.168963
1 0.250629 0.159518
1 0.251698 0.147814
1 0.25626 0.131716
1 0.257053 0.125216
1 0.257877 0.118532
1 0.258824 0.111666
1 0.25977 0.10457
1 0.260349 0.0971542
0.229007 0.320256 0.284352
0.23357 0.323049 0.285267
0.238544 0.325383 0.286046
0.243946 0.327169 0.286656
0.249943 0.328069 0.286992
0.256809 0.327718 0.286915
0.264637 0.32575 0.286336
0.272557 0.323766 0.28571
0.280522 0.32166 0.285054
0.289006 0.32018 0.281163
0.2981 0.319738 0.273854
0.308553 0.320653 0.260899
0.328084 0.321035 0.251164
0.359991 0.321492 0.244648
0.414313 0.321416 0.239185
0.478553 0.32015 0.233478
0.541024 0.317723 0.227497
0.601038 0.314153 0.221454
0.658763 0.31017 0.21532
0.714473 0.306203 0.209628
0.768185 0.302464 0.204196
0.820294 0.299275 0.197971
0.87071 0.296574 0.191363
0.919402 0.294347 0.184451
0.966659 0.292515 0.177264
1 0.291112 0.169741
1 0.290013 0.161883
1 0.289113 0.153735
1 0.288563 0.144945
1 0.288289 0.135424
1 0.288411 0.124697
1 0.289845 0.11078
1 0.293202 0.0948348
0.228946 0.357504 0.283833
0.233494 0.360418 0.28481
0.238468 0.362829 0.285649
0.243839 0.364645 0.286275
0.249836 0.365545 0.28661
0.256641 0.365209 0.286534
0.264454 0.363195 0.285908
0.272358 0.36112 0.285237
0.280308 0.358999 0.28455
0.288487 0.356954 0.283894
0.297124 0.355474 0.279164
0.306462 0.355367 0.27013
0.320699 0.356085 0.258564
0.348547 0.356802 0.248249
0.395163 0.357656 0.241382
0.461051 0.358022 0.235843
0.524514 0.357214 0.230442
0.585458 0.355001 0.224826
0.644007 0.351965 0.218952
0.700435 0.348714 0.213245
0.754757 0.345342 0.208148
0.807324 0.342275 0.202502
0.858152 0.33962 0.196353
0.907256 0.337346 0.189899
0.954864 0.335424 0.183169
1 0.333806 0.176181
1 0.332479 0.168887
1 0.331334 0.161303
1 0.330312 0.153414
1 0.329427 0.145144
1 0.328511 0.136553
1 0.327657 0.127459
1 0.326482 0.117861
0.228931 0.393866 0.28333
0.233433 0.396567 0.284321
0.238376 0.398779 0.285145
0.243702 0.400412 0.285756
0.249653 0.401221 0.286061
0.256413 0.400946 0.285985
0.264317 0.399161 0.285374
0.272145 0.39733 0.284718
0.28011 0.395468 0.284047
0.288304 0.393668 0.283406
0.296605 0.391806 0.282734
0.305577 0.390478 0.276936
0.316487 0.390402 0.267201
0.338827 0.391058 0.25626
0.375402 0.391852 0.245808
0.439734 0.392752 0.238376
0.50518 0.393256 0.232578
0.567605 0.392752 0.227237
0.62707 0.391302 0.221988
0.684306 0.38938 0.216526
0.739345 0.387198 0.211292
0.79234 0.384817 0.206409
0.843565 0.382605 0.200748
0.89308 0.38056 0.19469
0.940993 0.37879 0.188342
0.987655 0.377249 0.18172
1 0.375921 0.174823
1 0.374746 0.16762
1 0.373678 0.160143
1 0.372656 0.152361
1 0.371633 0.144213
1 0.370596 0.135744
1 0.369329 0.126787
0.228901 0.429114 0.282673
0.233356 0.431922 0.283665
0.238254 0.434348 0.284504
0.24358 0.436255 0.285161
0.249516 0.437308 0.285512
0.256245 0.437232 0.285466
0.264149 0.435554 0.284871
0.272007 0.433768 0.28423
0.279973 0.431937 0.283558
0.288167 0.430182 0.282933
0.296468 0.428351 0.282277
0.305074 0.426368 0.281559
0.314809 0.425101 0.274159
0.33373 0.424872 0.264668
0.362188 0.425452 0.25452
0.415656 0.426276 0.244053
0.481392 0.4271 0.235843
0.54551 0.427543 0.229603
0.606973 0.427482 0.224338
0.665446 0.426886 0.219226
0.72137 0.425818 0.214252
0.774899 0.424247 0.209689
0.826596 0.422721 0.204608
0.876432 0.421317 0.198993
0.924727 0.42002 0.193042
0.971679 0.418845 0.18677
1 0.417792 0.180209
1 0.4168 0.173358
1 0.415869 0.166201
1 0.414939 0.158724
1 0.413931 0.150942
1 0.412833 0.142809
1 0.411414 0.134218
0.228931 0.46656 0.281971
0.233341 0.469581 0.28304
0.238239 0.472114 0.28394
0.243549 0.474067 0.284642
0.249454 0.475181 0.285039
0.256184 0.475166 0.285023
0.264073 0.473564 0.284459
0.271946 0.471778 0.283803
0.279911 0.469978 0.283146
0.288121 0.468254 0.282506
0.296422 0.466423 0.281849
0.305013 0.464454 0.281132
0.313863 0.462303 0.280339
0.331914 0.461234 0.270726
0.355962 0.460639 0.262486
0.396506 0.461051 0.253117
0.457069 0.461814 0.242893
0.520333 0.462394 0.234028
0.582788 0.462928 0.227207
0.643 0.463233 0.221714
0.700572 0.463172 0.216663
0.755428 0.46273 0.21207
0.807782 0.461952 0.207736
0.858137 0.461128 0.20264
0.906828 0.460273 0.197101
0.954192 0.459419 0.191211
1 0.458549 0.185016
1 0.457679 0.178485
1 0.456779 0.171649
1 0.455802 0.164477
1 0.454749 0.15697
1 0.453529 0.149111
1 0.451972 0.140841
0.229084 0.504143 0.281422
0.233448 0.50724 0.282567
0.238315 0.509834 0.283528
0.24361 0.511849 0.284276
0.249516 0.513008 0.284703
0.256229 0.513039 0.284703
0.264088 0.511467 0.284153
0.271977 0.509682 0.283497
0.279957 0.507897 0.282826
0.288151 0.506157 0.282185
0.296452 0.504341 0.281498
0.305043 0.502358 0.280766
0.313909 0.500206 0.279957
0.330632 0.497902 0.279118
0.353887 0.49691 0.26833
0.387243 0.496147 0.26041
0.440421 0.496361 0.251652
0.497917 0.496956 0.241901
0.558129 0.49749 0.232807
0.618448 0.498054 0.225391
0.676966 0.498543 0.219593
0.733211 0.498817 0.214511
0.786908 0.498741 0.210239
0.838331 0.498619 0.205509
0.88777 0.49839 0.200397
0.935607 0.498039 0.194934
0.982284 0.497581 0.18912
1 0.496925 0.182956
1 0.496208 0.176425
1 0.495369 0.169574
1 0.494362 0.162371
1 0.493172 0.154788
1 0.49163 0.146746
0.229343 0.541634 0.281041
0.233677 0.544823 0.282277
0.238529 0.547433 0.283284
0.243809 0.549462 0.284077
0.249699 0.550652 0.28452
0.256382 0.550698 0.28455
0.26424 0.549142 0.283986
0.272114 0.547341 0.283314
0.280095 0.545541 0.282628
0.288289 0.543801 0.281971
0.296574 0.541955 0.28127
0.305165 0.53994 0.280507
0.314092 0.537743 0.279667
0.330846 0.535424 0.278782
0.35227 0.53315 0.277546
0.383963 0.532128 0.266224
0.432929 0.531228 0.258427
0.48394 0.531273 0.250141
0.538277 0.531792 0.241032
0.595209 0.532372 0.232059
0.652766 0.532876 0.224399
0.709331 0.533379 0.218006
0.763851 0.533776 0.212894
0.816159 0.534005 0.208316
0.866712 0.534279 0.203281
0.915496 0.534417 0.198032
0.96286 0.534386 0.192477
1 0.534188 0.186664
1 0.533806 0.180514
1 0.533227 0.173983
1 0.532418 0.167102
1 0.531289 0.159823
1 0.529824 0.152087
0.229725 0.578943 0.280903
0.234012 0.582162 0.282216
0.238849 0.584787 0.283268
0.244114 0.586816 0.284077
0.249989 0.587991 0.28455
0.256672 0.588052 0.284581
0.264408 0.58648 0.284001
0.272374 0.584649 0.283314
0.280354 0.582818 0.282597
0.288533 0.581033 0.28191
0.296818 0.579141 0.281178
0.305379 0.577096 0.280385
0.314443 0.574838 0.279484
0.331258 0.572473 0.278538
0.352697 0.570092 0.277577
0.381994 0.568017 0.27509
0.430304 0.566781 0.264317
0.477821 0.565805 0.25655
0.526833 0.565744 0.2486
0.578134 0.566155 0.240146
0.631693 0.566735 0.23151
0.686213 0.567208 0.223728
0.740398 0.567712 0.216999
0.792981 0.568048 0.211795
0.84387 0.568521 0.206622
0.893385 0.568917 0.201236
0.941604 0.569253 0.195743
0.988693 0.569375 0.18999
1 0.569314 0.184024
1 0.568994 0.177752
1 0.568444 0.17113
1 0.56759 0.164157
1 0.566323 0.156725
0.230213 0.615946 0.281071
0.234485 0.61915 0.282429
0.239307 0.621759 0.283513
0.244556 0.623758 0.284352
0.250431 0.624903 0.28481
0.257084 0.624918 0.284825
0.264805 0.623331 0.284245
0.272755 0.621454 0.283513
0.280751 0.619562 0.282765
0.288899 0.617731 0.282048
0.297169 0.615793 0.28127
0.305684 0.613672 0.280415
0.315007 0.611353 0.279454
0.331899 0.608911 0.278416
0.353506 0.60647 0.277348
0.382666 0.604105 0.276204
0.42855 0.602136 0.272801
0.475792 0.600732 0.262577
0.52192 0.599725 0.254795
0.568933 0.599557 0.24712
0.617487 0.599893 0.239185
0.667857 0.600412 0.230991
0.71928 0.600931 0.223331
0.770596 0.601328 0.216434
0.821103 0.601633 0.210925
0.870756 0.602075 0.205173
0.919234 0.602518 0.199435
0.966827 0.602838 0.193591
1 0.60296 0.187579
1 0.602899 0.181384
1 0.602564 0.174853
1 0.601923 0.168048
1 0.600839 0.1608
0.230823 0.652491 0.281605
0.23508 0.655665 0.282994
0.239887 0.658213 0.284092
0.245136 0.660166 0.284901
0.250996 0.661265 0.285359
0.257649 0.661234 0.28513
0.265354 0.659556 0.28452
0.273289 0.657633 0.283757
0.28127 0.65568 0.282963
0.289403 0.653773 0.282185
0.297658 0.651759 0.281346
0.306111 0.649561 0.280415
0.315816 0.64715 0.279362
0.332815 0.644602 0.278386
0.354696 0.64213 0.277043
0.384451 0.639658 0.275853
0.429603 0.637247 0.27483
0.474556 0.635248 0.271153
0.520485 0.633829 0.26099
0.565133 0.632822 0.253147
0.610239 0.632578 0.24564
0.656352 0.632776 0.238102
0.703731 0.633219 0.230365
0.752026 0.633707 0.222965
0.800702 0.634089 0.216098
0.849058 0.634211 0.2103
0.897246 0.634562 0.204059
0.94493 0.634882 0.197803
0.991897 0.635126 0.191608
1 0.635172 0.185245
1 0.634974 0.178714
1 0.634516 0.171923
1 0.633631 0.164752
0.23154 0.688487 0.282597
0.235798 0.691585 0.28394
0.240604 0.694072 0.285008
0.245853 0.695964 0.285557
0.251713 0.696971 0.285985
0.25835 0.696834 0.285939
0.266056 0.695079 0.285283
0.27393 0.69308 0.284489
0.281926 0.691035 0.28365
0.290028 0.689052 0.282811
0.298268 0.686931 0.28191
0.306615 0.684611 0.280903
0.316838 0.682109 0.279713
0.334035 0.67953 0.278202
0.356207 0.67689 0.276921
0.38703 0.674266 0.275792
0.431891 0.671702 0.274754
0.475746 0.669276 0.273823
0.519631 0.667353 0.269764
0.564157 0.665934 0.259495
0.60734 0.664927 0.251545
0.650629 0.664576 0.244129
0.694453 0.664668 0.236866
0.739132 0.665003 0.229557
0.78468 0.665415 0.222477
0.830854 0.66569 0.215747
0.877333 0.665766 0.209751
0.924025 0.665904 0.203113
0.970794 0.666072 0.196414
1 0.666117 0.1897
1 0.665995 0.182986
1 0.665629 0.176059
1 0.664881 0.168826
0.232349 0.723888 0.28397
0.236637 0.726879 0.285206
0.241459 0.72929 0.285969
0.246693 0.73106 0.286717
0.252537 0.73196 0.287083
0.259174 0.731701 0.286976
0.266865 0.729809 0.286275
0.274693 0.727749 0.285451
0.282689 0.725597 0.28455
0.290761 0.723491 0.28368
0.299001 0.721248 0.282704
0.307179 0.718807 0.281621
0.318029 0.716167 0.280324
0.335439 0.713466 0.278706
0.357961 0.710674 0.277409
0.390112 0.707897 0.276219
0.434531 0.705165 0.275135
0.478141 0.702586 0.274128
0.52076 0.700175 0.273243
0.563485 0.698344 0.268452
0.606607 0.696971 0.258045
0.648356 0.695949 0.249943
0.689937 0.695537 0.242573
0.731731 0.695521 0.235492
0.774075 0.69575 0.228534
0.817334 0.696025 0.221759
0.861357 0.696147 0.21529
0.906065 0.696117 0.209125
0.951522 0.696132 0.202182
0.997436 0.696071 0.195087
1 0.695903 0.187915
1 0.695521 0.180667
1 0.69482 0.173236
0.233188 0.758633 0.285359
0.237568 0.761486 0.286519
0.24239 0.76376 0.287434
0.247623 0.765408 0.28809
0.253468 0.766171 0.288396
0.260105 0.765774 0.288243
0.267781 0.76376 0.28748
0.275547 0.761593 0.28661
0.283543 0.759289 0.285664
0.291585 0.757046 0.284718
0.299794 0.754665 0.283696
0.30782 0.752071 0.282536
0.319371 0.749279 0.281132
0.337011 0.746426 0.279423
0.359945 0.743465 0.27805
0.393332 0.74052 0.276799
0.437491 0.737636 0.275639
0.480888 0.73489 0.274571
0.523247 0.732326 0.273625
0.564508 0.729976 0.27277
0.606119 0.728252 0.267201
0.647852 0.726925 0.256626
0.688167 0.725917 0.248356
0.728115 0.725444 0.240986
0.768139 0.725322 0.234028
0.808698 0.725399 0.227314
0.85008 0.725521 0.220783
0.892256 0.725414 0.21471
0.935576 0.725307 0.208225
0.979934 0.72517 0.201083
1 0.724849 0.193637
1 0.724422 0.186053
1 0.72369 0.17821
0.234165 0.792645 0.287221
0.23859 0.795346 0.288243
0.243412 0.797452 0.289052
0.248631 0.798962 0.289616
0.254475 0.799573 0.289845
0.261128 0.798993 0.289631
0.268772 0.796826 0.288838
0.276478 0.794537 0.287922
0.284474 0.792081 0.286915
0.292485 0.789685 0.285908
0.300664 0.787137 0.284825
0.308507 0.784375 0.283589
0.320821 0.781384 0.282124
0.338766 0.778378 0.280293
0.362158 0.775265 0.278828
0.396811 0.772152 0.277501
0.440757 0.769116 0.276265
0.483909 0.766201 0.275135
0.52607 0.763485 0.274128
0.567102 0.760967 0.273213
0.607034 0.758694 0.272404
0.647501 0.757092 0.265995
0.687892 0.755825 0.255238
0.726818 0.754833 0.246799
0.765316 0.754314 0.239353
0.803937 0.75407 0.232471
0.843046 0.753964 0.225834
0.882902 0.753872 0.219562
0.92372 0.753567 0.213733
0.965881 0.753292 0.207034
1 0.752956 0.199695
1 0.752453 0.191959
1 0.751583 0.18381
0.235218 0.825895 0.289189
0.239673 0.828397 0.290059
0.244495 0.830335 0.29073
0.249729 0.831662 0.291173
0.255558 0.83209 0.29131
0.262211 0.831281 0.291035
0.26981 0.828962 0.290227
0.27747 0.826535 0.289311
0.285451 0.823896 0.288258
0.293416 0.821347 0.287205
0.301579 0.818616 0.286046
0.30927 0.815671 0.284764
0.322408 0.812512 0.283268
0.340658 0.809354 0.281346
0.364599 0.806088 0.279744
0.400595 0.802823 0.278325
0.444312 0.799634 0.277012
0.487251 0.796551 0.275822
0.529183 0.793667 0.274723
0.569986 0.791012 0.273747
0.609705 0.788571 0.272892
0.64828 0.786358 0.272114
0.687648 0.784878 0.264836
0.72668 0.783688 0.253864
0.76437 0.782712 0.245228
0.80174 0.782086 0.237675
0.839216 0.781689 0.230762
0.877226 0.781399 0.224338
0.915938 0.781079 0.218143
0.955734 0.780545 0.21236
0.997131 0.780087 0.205463
1 0.779507 0.19791
1 0.778668 0.189761
0.236332 0.858335 0.291096
0.240803 0.860609 0.291814
0.245624 0.862348 0.292363
0.250843 0.863478 0.292714
0.256672 0.863691 0.29276
0.263325 0.862654 0.292424
0.270893 0.860182 0.2916
0.278492 0.857603 0.290684
0.286458 0.85481 0.289631
0.294392 0.852079 0.288548
0.302541 0.84918 0.287343
0.31014 0.846067 0.286
0.324071 0.842725 0.284459
0.342687 0.839384 0.282567
0.367224 0.835996 0.280735
0.404547 0.832578 0.279225
0.448051 0.829221 0.277836
0.490776 0.826001 0.276555
0.532479 0.822965 0.27541
0.573098 0.820142 0.274372
0.612558 0.817548 0.273442
0.650935 0.815183 0.272602
0.688182 0.813031 0.27187
0.726436 0.811688 0.263676
0.764294 0.810544 0.252461
0.800992 0.809537 0.243626
0.837415 0.808804 0.23592
0.874022 0.80824 0.228946
0.911147 0.807736 0.222568
0.949035 0.807126 0.216602
0.988251 0.806378 0.21059
1 0.805692 0.203464
1 0.804791 0.195544
0.237461 0.889937 0.292866
0.241947 0.891966 0.293462
0.246769 0.893507 0.293935
0.251972 0.894423 0.294209
0.257801 0.894438 0.294194
0.264378 0.893172 0.293767
0.271962 0.890547 0.292912
0.27953 0.887816 0.291981
0.28748 0.884855 0.290929
0.295369 0.881971 0.28986
0.303502 0.878904 0.288624
0.311116 0.875608 0.287236
0.325795 0.872099 0.285664
0.344747 0.868559 0.283864
0.369924 0.865064 0.281773
0.408515 0.861494 0.28014
0.451804 0.858 0.278676
0.494331 0.854612 0.277317
0.535821 0.851423 0.276097
0.576196 0.848447 0.274998
0.615457 0.845701 0.274006
0.653605 0.843168 0.273106
0.690639 0.840879 0.272312
0.726574 0.838788 0.271611
0.763851 0.837583 0.262455
0.800748 0.836439 0.251011
0.836606 0.835386 0.241932
0.872282 0.834516 0.234073
0.908263 0.833783 0.227008
0.944839 0.833036 0.220645
0.982238 0.83209 0.214984
1 0.83122 0.208453
1 0.830213 0.200961
0.23856 0.920729 0.294545
0.243061 0.922545 0.295064
0.247883 0.923858 0.29546
0.253086 0.924575 0.295674
0.2589 0.924376 0.295583
0.265507 0.92285 0.295064
0.273014 0.920134 0.294179
0.280552 0.91725 0.293202
0.288457 0.914137 0.292134
0.29633 0.911086 0.291051
0.304433 0.907835 0.28983
0.31223 0.904387 0.288411
0.327489 0.90071 0.286793
0.346853 0.897002 0.284993
0.372625 0.893355 0.28275
0.41236 0.889647 0.281025
0.455467 0.885985 0.279469
0.497749 0.88246 0.27805
0.53904 0.879118 0.276753
0.579187 0.87599 0.275593
0.618219 0.873091 0.27454
0.656168 0.870405 0.273579
0.692988 0.867964 0.27274
0.728725 0.865751 0.271992
0.7635 0.863737 0.271321
0.800046 0.862623 0.261143
0.836149 0.861479 0.24947
0.871412 0.860365 0.240146
0.9066 0.859358 0.232151
0.942199 0.858442 0.225132
0.978485 0.85745 0.218677
1 0.85626 0.212818
1 0.8551 0.205859
0.239658 0.950759 0.296162
0.24416 0.952346 0.29662
0.248966 0.953475 0.296971
0.25417 0.953994 0.297124
0.259968 0.953597 0.296956
0.266651 0.951751 0.296315
0.274006 0.949004 0.295369
0.281529 0.945968 0.294347
0.289403 0.942687 0.293217
