src/luts/rounded/14.cube
TITLE "Generated by Resolve"
LUT_3D_SIZE 9
0.233967 0.0414435 0.293797
0.257633 0.050309 0.279225
0.293034 0.0508431 0.251331
0.357122 0.0393835 0.227115
0.576272 0.0281987 0.205081
0.798001 0.027451 0.183856
1 0.0371405 0.161608
1 0.0529488 0.137331
1 0.0689708 0.109331
0.232059 0.149767 0.291173
0.252399 0.149233 0.289433
0.291264 0.139544 0.255863
0.358816 0.138033 0.224216
0.583276 0.128756 0.20441
0.801663 0.124086 0.182498
0.99646 0.127962 0.158785
1 0.137255 0.133242
1 0.14757 0.104738
0.229206 0.283192 0.2851
0.250095 0.290028 0.287358
0.280919 0.28394 0.282811
0.336049 0.284611 0.248096
0.55581 0.275731 0.223941
0.779858 0.259098 0.199359
0.975814 0.250919 0.168963
1 0.257053 0.125216
1 0.260349 0.0971542
0.228901 0.429114 0.282673
0.249516 0.437308 0.285512
0.279973 0.431937 0.283558
0.314809 0.425101 0.274159
0.481392 0.4271 0.235843
0.72137 0.425818 0.214252
0.924727 0.42002 0.193042
1 0.415869 0.166201
1 0.411414 0.134218
0.229725 0.578943 0.280903
0.249989 0.587991 0.28455
0.280354 0.582818 0.282597
0.314443 0.574838 0.279484
0.430304 0.566781 0.264317
0.631693 0.566735 0.23151
0.84387 0.568521 0.206622
1 0.569314 0.184024
1 0.566323 0.156725
0.232349 0.723888 0.28397
0.252537 0.73196 0.287083
0.282689 0.725597 0.28455
0.318029 0.716167 0.280324
0.434531 0.705165 0.275135
0.606607 0.696971 0.258045
0.774075 0.69575 0.228534
0.951522 0.696132 0.202182
1 0.69482 0.173236
0.236332 0.858335 0.291096
0.256672 0.863691 0.29276
0.286458 0.85481 0.289631
0.324071 0.842725 0.284459
0.448051 0.829221 0.277836
0.612558 0.817548 0.273442
0.764294 0.810544 0.252461
0.911147 0.807736 0.222568
1 0.804791 0.195544
0.240681 0.980102 0.297719
0.26096 0.982132 0.298268
0.290288 0.970581 0.294194
0.330663 0.955856 0.288701
0.461875 0.939956 0.280766
0.623133 0.925994 0.275425
0.767132 0.91577 0.271885
0.904738 0.909621 0.246128
1 0.903944 0.214572
0.243946 1 0.302724
0.26392 1 0.302083
0.292699 1 0.296437
0.334844 1 0.28983
0.469505 1 0.281605
0.628717 1 0.27599
0.77113 1 0.27219
0.901808 1 0.269535
1 1 0.238254
0.233555 0.0403601 0.335134
0.25362 0.0359655 0.333547
0.317784 0 0.318517
0.62121 0 0.259236
0.994949 0 0.192508
0.938476 0 0.154498
1 0 0.150423
1 0 0.134401
1 0.0235904 0.108797
0.231785 0.149493 0.331334
0.25211 0.148959 0.331136
0.294026 0.127291 0.293751
0.367086 0.116945 0.252583
0.599008 0.101137 0.222156
0.820661 0.0944381 0.192477
1 0.109026 0.15819
1 0.119402 0.132815
1 0.130602 0.104372
0.229267 0.285145 0.324819
0.250309 0.292485 0.327825
0.281285 0.286229 0.322744
0.342412 0.283848 0.279057
0.571176 0.275395 0.2439
0.793851 0.260075 0.215702
0.989181 0.249729 0.190066
1 0.245884 0.158923
1 0.243671 0.121721
0.228962 0.431235 0.322957
0.249683 0.439689 0.32636
0.280217 0.434272 0.323674
0.315526 0.426978 0.313787
0.498955 0.432364 0.261494
0.73846 0.430945 0.23328
0.939666 0.423667 0.208698
1 0.418433 0.182376
1 0.413458 0.15053
0.229694 0.581003 0.322835
0.250111 0.590158 0.32665
0.280507 0.584802 0.323964
0.314809 0.576516 0.32015
0.431235 0.567559 0.304311
0.644755 0.571283 0.25391
0.8607 0.574899 0.223011
1 0.574411 0.20087
1 0.570108 0.172824
0.232197 0.725597 0.327626
0.252552 0.733654 0.331106
0.282704 0.726955 0.327718
0.318013 0.716945 0.323033
0.433753 0.705272 0.317769
0.60592 0.696605 0.29723
0.780774 0.69868 0.251118
0.964263 0.70045 0.216953
1 0.698726 0.189441
0.23624 0.859586 0.337026
0.256565 0.864729 0.33933
0.286305 0.85539 0.334447
0.323674 0.84268 0.328252
0.446021 0.828367 0.32163
0.609995 0.816251 0.316213
0.762112 0.809186 0.291264
0.914794 0.809674 0.243931
1 0.807462 0.211444
0.240497 0.980591 0.347601
0.2607 0.982406 0.348333
0.289952 0.970382 0.34165
0.329824 0.955032 0.333776
0.458717 0.938262 0.325734
0.619471 0.923888 0.319158
0.76318 0.91342 0.314519
0.902144 0.908125 0.281987
1 0.905837 0.233265
0.24361 1 0.355077
0.263462 1 0.354269
0.29218 1 0.346029
0.333501 1 0.336858
0.465431 1 0.32784
0.624353 1 0.320577
0.766674 1 0.315465
0.897292 1 0.311818
1 1 0.267994
0.232929 0.0376898 0.42472
0.252827 0.033463 0.422019
0.281514 0.0152285 0.409674
0.380255 0 0.411841
0.835004 0 0.334569
1 0 0.253742
1 0 0.181308
1 0 0.0907149
1 0 0.0551156
0.231266 0.147677 0.41825
0.251591 0.148135 0.418814
0.281437 0.136309 0.41033
0.487587 0.0333562 0.350347
0.872465 0 0.261707
1 0 0.188678
1 0 0.149294
1 0 0.138674
1 0 0.133013
0.22916 0.285801 0.408164
0.250233 0.293553 0.414435
0.280934 0.286839 0.409171
0.345769 0.266529 0.341985
0.570077 0.255863 0.297704
0.804517 0.258473 0.250233
1 0.254185 0.209461
1 0.24979 0.182757
1 0.24654 0.149386
0.228885 0.431952 0.405417
0.249577 0.440589 0.41236
0.28014 0.435172 0.407156
0.315114 0.427649 0.395575
0.517159 0.433661 0.321355
0.764263 0.434943 0.271992
0.962631 0.428641 0.232685
1 0.42295 0.205005
1 0.417411 0.17377
0.229633 0.581781 0.406271
0.250004 0.590997 0.413931
0.280385 0.585534 0.408637
0.314611 0.577066 0.400946
0.429923 0.567941 0.380957
0.667094 0.576638 0.299825
0.887556 0.584176 0.258808
1 0.582773 0.226001
1 0.575998 0.197513
0.23209 0.72604 0.416297
0.252354 0.734035 0.423072
0.282445 0.727108 0.416495
0.317479 0.716793 0.407141
0.431785 0.704784 0.396307
0.603586 0.695994 0.370336
0.790784 0.700664 0.29836
0.986709 0.707347 0.246952
1 0.706325 0.214725
0.236011 0.859312 0.433967
0.256184 0.864302 0.438132
0.285832 0.854658 0.429175
0.322652 0.841611 0.417411
0.442802 0.826978 0.404242
0.606348 0.814557 0.393011
0.758206 0.807309 0.360464
0.917891 0.809537 0.29366
1 0.812238 0.238117
0.240101 0.9794 0.451987
0.260105 0.981109 0.453285
0.289281 0.968765 0.441947
0.328267 0.953109 0.427832
0.454353 0.936049 0.412482
0.614771 0.921447 0.399298
0.758221 0.910811 0.389593
0.896742 0.905058 0.349401
1 0.905623 0.279362
0.243046 1 0.463813
0.262684 1 0.462776
0.291341 1 0.449546
0.331533 1 0.433783
0.46038 1 0.417136
0.619074 1 0.402914
0.761242 1 0.392523
0.891798 1 0.384649
1 0.997757 0.335821
0.232364 0.0349889 0.548028
0.252079 0.0310521 0.545632
0.280797 0.013077 0.532998
0.312078 0 0.520424
0.523796 0 0.526528
0.955444 0 0.490669
1 0 0.382391
1 0 0.294591
1 0 0.204227
0.230854 0.146212 0.542473
0.251179 0.147738 0.544274
0.281132 0.136736 0.5364
0.315358 0.125231 0.528664
0.609171 0.0480049 0.520821
1 0 0.423667
1 0 0.313741
1 0 0.227649
1 0 0.142977
0.229145 0.286748 0.534112
0.250156 0.294865 0.54165
0.280812 0.28809 0.53666
0.315465 0.278218 0.52958
0.69543 0.178439 0.451057
1 0.0729076 0.296407
1 0 0.20705
1 0.0289769 0.177142
1 0.0751202 0.166659
0.228885 0.432807 0.531838
0.249516 0.441642 0.53994
0.280079 0.436255 0.535134
0.314427 0.428275 0.528237
0.509972 0.409964 0.440146
0.745327 0.406134 0.371511
0.953521 0.415091 0.32932
1 0.423377 0.279683
1 0.426932 0.208545
0.229664 0.58265 0.533501
0.249943 0.591943 0.542199
0.280293 0.586389 0.537194
0.314427 0.577752 0.52958
0.427634 0.568078 0.516533
0.684474 0.580179 0.425925
0.914565 0.590021 0.351812
1 0.587808 0.289052
1 0.584115 0.228183
0.232074 0.726543 0.54461
0.252186 0.734508 0.552132
0.2822 0.727352 0.545602
0.31693 0.716731 0.53608
0.429816 0.704417 0.525017
0.599893 0.694942 0.505562
0.808728 0.704845 0.394537
1 0.713619 0.310674
1 0.716182 0.260578
0.235843 0.859022 0.563287
0.255833 0.86392 0.568002
0.285389 0.854002 0.558846
0.321645 0.84065 0.546685
0.439582 0.825711 0.533104
0.602716 0.813016 0.521584
0.752773 0.804944 0.495033
0.9243 0.809659 0.377615
1 0.814862 0.295766
0.23975 0.978225 0.582193
0.259556 0.979843 0.583856
0.288609 0.967239 0.572122
0.326726 0.951293 0.557443
0.450019 0.934005 0.541558
0.610132 0.919219 0.528008
0.753307 0.908446 0.518196
0.889967 0.901778 0.482841
1 0.903609 0.356451
0.242527 1 0.5944
0.261952 1 0.593622
0.290501 1 0.579965
0.329625 1 0.563653
0.455421 1 0.546456
0.613931 1 0.531899
0.755978 1 0.521416
0.886503 1 0.513863
1 0.994095 0.466545
0.231952 0.03299 0.676921
0.251514 0.0294194 0.674968
0.280262 0.0118257 0.662943
0.311498 0 0.650889
0.410178 0 0.639963
0.644846 0 0.644266
0.973968 0 0.645518
1 0 0.604593
1 0 0.503655
0.230625 0.145785 0.67245
0.250965 0.148348 0.675059
0.281056 0.138201 0.668025
0.315358 0.127245 0.660777
0.430716 0.115816 0.653544
0.69189 0.0833448 0.655619
1 0 0.63859
1 0 0.565774
1 0 0.4206
0.229282 0.288579 0.666316
0.250233 0.29691 0.673838
0.280827 0.289998 0.668803
0.315496 0.280232 0.661845
0.430991 0.269413 0.654459
0.750835 0.214618 0.648554
1 0.0704967 0.5505
1 0 0.408682
1 0 0.293172
0.229038 0.434379 0.664317
0.249607 0.443397 0.672389
0.28014 0.438087 0.667704
0.314504 0.430091 0.660945
0.427756 0.420951 0.653483
0.836774 0.346624 0.59971
1 0.26389 0.417624
1 0.187213 0.278294
1 0.22002 0.217197
0.229862 0.584222 0.666285
0.250019 0.593576 0.674861
0.280324 0.587961 0.669856
0.314412 0.579141 0.662272
0.42562 0.568872 0.653498
0.670878 0.553277 0.577813
0.880491 0.554604 0.523003
1 0.567025 0.470069
1 0.571618 0.380911
0.232242 0.727672 0.677028
0.252171 0.735592 0.684413
0.282094 0.728237 0.677836
0.316609 0.717311 0.668299
0.428519 0.704677 0.657298
0.596719 0.694575 0.644648
0.82565 0.708293 0.571969
1 0.723095 0.505928
1 0.720333 0.403082
0.235828 0.859312 0.694743
0.255634 0.864103 0.699321
0.285069 0.853941 0.690181
0.320867 0.840314 0.678126
0.437034 0.825071 0.664683
0.599771 0.8121 0.653193
0.748119 0.803403 0.636515
0.940093 0.813855 0.546014
1 0.825605 0.44303
0.239551 0.977584 0.712566
0.259144 0.979126 0.714199
0.288075 0.966278 0.702586
0.32549 0.950118 0.688136
0.446418 0.932616 0.672526
0.606256 0.917647 0.659175
0.749218 0.906752 0.649454
0.884352 0.899519 0.627466
1 0.904753 0.524865
0.242176 1 0.723964
0.261372 1 0.723369
0.28983 1 0.710002
0.328069 1 0.694087
0.45124 1 0.677302
0.609628 1 0.663081
0.751583 1 0.652796
0.882078 0.998444 0.645365
1 0.991714 0.615366
0.231769 0.0321965 0.790875
0.25124 0.0290227 0.789334
0.280034 0.0119326 0.777951
0.31133 0 0.766705
0.410178 0 0.756512
0.580179 0 0.750164
0.771862 0 0.753826
1 0 0.763378
1 0 0.754788
0.230671 0.146853 0.787671
0.251087 0.150378 0.791012
0.281285 0.140993 0.784665
0.315923 0.13048 0.777813
0.432456 0.119188 0.770672
0.605509 0.11078 0.765728
0.80647 0.106371 0.768139
1 0.023331 0.771801
1 0 0.754589
0.229648 0.29163 0.783398
0.250584 0.300038 0.790845
0.281147 0.292988 0.785763
0.316091 0.28336 0.778958
0.432731 0.272648 0.771603
0.606149 0.26508 0.766873
0.825315 0.250187 0.768185
1 0.145861 0.755108
1 0.00743114 0.697246
0.229419 0.437156 0.781552
0.249973 0.446281 0.789609
0.280491 0.440986 0.785
0.315099 0.432959 0.778317
0.429404 0.423774 0.770779
0.602014 0.417319 0.765637
0.86482 0.388602 0.764416
1 0.271031 0.686397
1 0.136568 0.510323
0.230259 0.586954 0.783703
0.250355 0.596292 0.792157
0.280629 0.59057 0.787137
0.31487 0.581598 0.779522
0.426612 0.571145 0.770703
0.596643 0.563012 0.76405
0.950103 0.504753 0.723003
1 0.444556 0.576181
1 0.385443 0.385092
0.232563 0.7299 0.794049
0.252399 0.737728 0.801266
0.282246 0.730129 0.794598
0.316732 0.718914 0.784955
0.42855 0.705989 0.773877
0.594766 0.695262 0.764706
0.809277 0.681376 0.700633
1 0.680171 0.651804
1 0.6869 0.605676
0.236011 0.86067 0.81088
0.25568 0.865293 0.81529
0.285008 0.854887 0.806119
0.320592 0.840986 0.794049
0.435904 0.825467 0.780591
0.598337 0.812192 0.769085
0.744945 0.80296 0.757931
0.953155 0.815549 0.699382
1 0.830121 0.64828
0.239567 0.977981 0.827726
0.259007 0.9794 0.829297
0.287816 0.966339 0.8177
0.324804 0.949966 0.803357
0.444297 0.932265 0.787884
0.603937 0.917144 0.774639
0.746731 0.906126 0.764981
0.8804 0.898466 0.751049
1 0.910719 0.676265
0.242054 1 0.838376
0.261067 1 0.837919
0.289433 1 0.824704
0.327123 1 0.809018
0.448631 1 0.792493
0.606928 1 0.7785
0.748852 1 0.768383
0.879347 0.997696 0.761044
1 0.990616 0.742153
0.231815 0.0327916 0.888075
0.25124 0.030045 0.886931
0.280125 0.01355 0.876127
0.311574 0 0.865599
0.412024 0 0.856031
0.582727 0 0.850111
0.737896 0 0.848173
0.90631 0 0.85333
1 0 0.862196
0.230991 0.149523 0.88632
0.251545 0.153933 0.890318
0.281865 0.14522 0.88452
0.317113 0.135012 0.877943
0.43592 0.12372 0.870802
0.608759 0.115175 0.86569
0.765194 0.11162 0.86421
0.936782 0.121462 0.868193
1 0.0638132 0.874052
0.230274 0.296025 0.88365
0.251225 0.304295 0.890913
0.281788 0.29723 0.885832
0.317296 0.287694 0.879133
0.436301 0.277058 0.871824
0.609689 0.269551 0.867033
0.766598 0.266667 0.865843
0.943465 0.268147 0.868574
1 0.199756 0.870375
0.23003 0.441291 0.881941
0.250614 0.450385 0.889921
0.281178 0.445075 0.885344
0.316304 0.436988 0.87866
0.432853 0.427741 0.871077
0.605264 0.421164 0.865782
0.760769 0.418647 0.863844
0.952667 0.412467 0.86595
1 0.324331 0.84744
0.230869 0.591012 0.884215
0.25098 0.600214 0.89247
0.281239 0.594324 0.887373
0.315877 0.585184 0.879683
0.429328 0.574517 0.870771
0.598993 0.566171 0.863874
0.751293 0.56144 0.860121
0.983505 0.536721 0.858839
1 0.443839 0.786267
0.233097 0.733425 0.894148
0.252918 0.740993 0.901106
0.282704 0.733135 0.894286
0.317403 0.721645 0.88452
0.430106 0.708446 0.873304
0.595895 0.697444 0.863996
0.74432 0.690105 0.857954
1 0.638224 0.820233
1 0.582605 0.688487
0.236423 0.863233 0.910109
0.255985 0.867597 0.914305
0.285252 0.856947 0.905013
0.320882 0.842771 0.892851
0.436347 0.826993 0.879316
0.598459 0.813443 0.867704
0.743374 0.803708 0.859373
0.936461 0.78967 0.801755
1 0.781491 0.748913
0.239811 0.979568 0.926024
0.259129 0.980804 0.927474
0.287861 0.967514 0.915831
0.324727 0.950942 0.901503
0.443839 0.933074 0.886061
0.603342 0.9178 0.872862
0.746044 0.906661 0.863249
0.878294 0.898665 0.853712
1 0.910582 0.803525
0.242161 1 0.935973
0.261051 1 0.935546
0.289357 1 0.922438
0.326833 1 0.906905
0.447776 1 0.890532
0.606043 1 0.876677
0.747997 1 0.866682
0.878538 0.997665 0.859449
1 0.990875 0.846845
0.232013 0.0343938 0.973922
0.251453 0.032105 0.973144
0.28043 0.0163119 0.962966
0.312139 0.000228885 0.953048
0.415259 0 0.944045
0.586572 0 0.938476
0.742153 0 0.93669
0.886229 0 0.937331
1 0 0.942519
0.23151 0.153429 0.9738
0.252232 0.158618 0.978363
0.282704 0.150408 0.972992
0.318746 0.140383 0.966583
0.440497 0.128985 0.95935
0.613291 0.120409 0.954177
0.769833 0.116945 0.952667
0.914977 0.117082 0.95375
1 0.126421 0.958648
0.231037 0.301289 0.972473
0.252033 0.309285 0.979446
0.282643 0.302296 0.974456
0.318929 0.292836 0.967834
0.441093 0.282261 0.960555
0.614481 0.274769 0.955703
0.771328 0.27187 0.954391
0.91635 0.272053 0.955428
1 0.2757 0.958648
0.230808 0.446326 0.970901
0.251469 0.455329 0.978759
0.282063 0.449973 0.974182
0.317922 0.44181 0.967468
0.437461 0.432456 0.959823
0.609705 0.425757 0.954376
0.764981 0.423087 0.952224
0.907988 0.422995 0.952178
1 0.421759 0.954025
0.231601 0.595956 0.973251
0.251804 0.604913 0.981262
0.282063 0.598856 0.976059
0.317311 0.589502 0.968277
0.433204 0.578622 0.959213
0.602502 0.569986 0.952071
0.754406 0.565011 0.948028
0.893736 0.562371 0.945953
1 0.550301 0.946105
0.233768 0.737789 0.982773
0.25359 0.745007 0.98941
0.283345 0.736843 0.982391
0.318471 0.725078 0.972473
0.432776 0.711604 0.961105
0.598169 0.700343 0.951629
0.746212 0.69276 0.945312
0.881743 0.687526 0.94107
1 0.656977 0.936385
0.236957 0.86659 0.997833
0.256489 0.870649 1
0.285695 0.859709 0.992355
0.321569 0.845289 0.980056
0.437858 0.829236 0.966415
0.599603 0.815457 0.954681
0.744183 0.805539 0.946242
0.87657 0.79823 0.940154
1 0.745281 0.897383
0.240192 0.981949 1
0.259434 0.982925 1
0.288106 0.969421 1
0.325078 0.952667 0.988098
0.444526 0.934661 0.972656
0.60383 0.919249 0.959442
0.746441 0.908003 0.949813
0.877287 0.899702 0.942702
1 0.883803 0.884794
0.24242 1 1
0.261219 1 1
0.289479 1 1
0.327001 1 0.99324
0.448096 1 0.976974
0.606317 1 0.963226
0.748318 1 0.953292
0.879011 0.998947 0.946181
1 0.991547 0.937041
0.232258 0.0363317 1
0.251759 0.0345922 1
0.280827 0.0195926 1
0.312917 0.00433356 1
0.419059 0 1
0.590906 0 1
0.746777 0 1
0.890837 0 1
1 0 1
0.232136 0.157855 1
0.253025 0.163745 1
0.283604 0.155947 1
0.3205 0.145998 1
0.445289 0.134401 1
0.618189 0.125917 1
0.774853 0.12253 1
0.920043 0.122698 1
1 0.123247 1
0.231861 0.306767 1
0.252888 0.314488 1
0.283574 0.307607 1
0.320714 0.298207 1
0.44622 0.287678 1
0.619608 0.280186 1
0.776379 0.277241 1
0.921294 0.277348 1
1 0.277455 1
0.231617 0.451591 1
0.252384 0.460487 1
0.283024 0.45507 1
0.319677 0.446815 1
0.442374 0.437354 1
0.61442 0.430503 1
0.769467 0.427665 1
0.912154 0.427375 1
1 0.426703 1
0.232319 0.601053 1
0.252659 0.609781 1
0.282933 0.603525 1
0.318822 0.593973 1
0.437293 0.582849 1
0.606226 0.573938 1
0.757748 0.568689 1
0.896681 0.565789 1
1 0.562463 1
0.23447 0.742306 1
0.254322 0.749157 1
0.284031 0.740688 1
0.3196 0.728618 1
0.435645 0.7149 1
0.600671 0.703365 1
0.748318 0.695521 1
0.883452 0.690059 1
1 0.684215 1
0.237522 0.870085 1
0.257023 0.873838 1
0.286168 0.862623 1
0.322316 0.847929 1
0.439551 0.831632 1
0.600946 0.817639 1
0.745251 0.807523 1
0.877394 0.800076 1
1 0.792615 1
0.240604 0.984466 1
0.259785 0.985183 1
0.288396 0.971496 1
0.325505 0.954574 1
0.445426 0.936416 1
0.604532 0.920913 1
0.74699 0.90959 1
0.877684 0.901228 1
1 0.893233 1
0.24271 1 1
0.261448 1 1
0.289662 1 1
0.327276 1 1
0.448692 1 1
0.606882 1 1
0.748898 1 1
0.879332 1 1
1 0.99295 1
