src/luts/rounded/14.cube
TITLE "Generated by Resolve"
LUT_3D_SIZE 5
0.233967 0.0414435 0.293797
0.293034 0.0508431 0.251331
0.576272 0.0281987 0.205081
1 0.0371405 0.161608
1 0.0689708 0.109331
0.229206 0.283192 0.2851
0.280919 0.28394 0.282811
0.55581 0.275731 0.223941
0.975814 0.250919 0.168963
1 0.260349 0.0971542
0.229725 0.578943 0.280903
0.280354 0.582818 0.282597
0.430304 0.566781 0.264317
0.84387 0.568521 0.206622
1 0.566323 0.156725
0.236332 0.858335 0.291096
0.286458 0.85481 0.289631
0.448051 0.829221 0.277836
0.764294 0.810544 0.252461
1 0.804791 0.195544
0.243946 1 0.302724
0.292699 1 0.296437
0.469505 1 0.281605
0.77113 1 0.27219
1 1 0.238254
0.232929 0.0376898 0.42472
0.281514 0.0152285 0.409674
0.835004 0 0.334569
1 0 0.181308
1 0 0.0551156
0.22916 0.285801 0.408164
0.280934 0.286839 0.409171
0.570077 0.255863 0.297704
1 0.254185 0.209461
1 0.24654 0.149386
0.229633 0.581781 0.406271
0.280385 0.585534 0.408637
0.429923 0.567941 0.380957
0.887556 0.584176 0.258808
1 0.575998 0.197513
0.236011 0.859312 0.433967
0.285832 0.854658 0.429175
0.442802 0.826978 0.404242
0.758206 0.807309 0.360464
1 0.812238 0.238117
0.243046 1 0.463813
0.291341 1 0.449546
0.46038 1 0.417136
0.761242 1 0.392523
1 0.997757 0.335821
0.231952 0.03299 0.676921
0.280262 0.0118257 0.662943
0.410178 0 0.639963
0.973968 0 0.645518
1 0 0.503655
0.229282 0.288579 0.666316
0.280827 0.289998 0.668803
0.430991 0.269413 0.654459
1 0.0704967 0.5505
1 0 0.293172
0.229862 0.584222 0.666285
0.280324 0.587961 0.669856
0.42562 0.568872 0.653498
0.880491 0.554604 0.523003
1 0.571618 0.380911
0.235828 0.859312 0.694743
0.285069 0.853941 0.690181
0.437034 0.825071 0.664683
0.748119 0.803403 0.636515
1 0.825605 0.44303
0.242176 1 0.723964
0.28983 1 0.710002
0.45124 1 0.677302
0.751583 1 0.652796
1 0.991714 0.615366
0.231815 0.0327916 0.888075
0.280125 0.01355 0.876127
0.412024 0 0.856031
0.737896 0 0.848173
1 0 0.862196
0.230274 0.296025 0.88365
0.281788 0.29723 0.885832
0.436301 0.277058 0.871824
0.766598 0.266667 0.865843
1 0.199756 0.870375
0.230869 0.591012 0.884215
0.281239 0.594324 0.887373
0.429328 0.574517 0.870771
0.751293 0.56144 0.860121
1 0.443839 0.786267
0.236423 0.863233 0.910109
0.285252 0.856947 0.905013
0.436347 0.826993 0.879316
0.743374 0.803708 0.859373
1 0.781491 0.748913
0.242161 1 0.935973
0.289357 1 0.922438
0.447776 1 0.890532
0.747997 1 0.866682
1 0.990875 0.846845
0.232258 0.0363317 1
0.280827 0.0195926 1
0.419059 0 1
0.746777 0 1
1 0 1
0.231861 0.306767 1
0.283574 0.307607 1
0.44622 0.287678 1
0.776379 0.277241 1
1 0.277455 1
0.232319 0.601053 1
0.282933 0.603525 1
0.437293 0.582849 1
0.757748 0.568689 1
1 0.562463 1
0.237522 0.870085 1
0.286168 0.862623 1
0.439551 0.831632 1
0.745251 0.807523 1
1 0.792615 1
0.24271 1 1
0.289662 1 1
0.448692 1 1
0.748898 1 1
1 0.99295 1
