src/luts/rounded/15.cube
TITLE "Generated by Resolve"
LUT_3D_SIZE 33
0 0 0.0950942
0.0142824 0 0.0961318
0.0419318 0 0.097322
0.0695201 0 0.0989395
0.0971542 0 0.100389
0.125109 0 0.101778
0.15375 0 0.103059
0.183429 0 0.104158
0.213733 0 0.104448
0.245594 0 0.105165
0.278645 0 0.107027
0.311574 0 0.108492
0.344289 0 0.109758
0.374624 0 0.110964
0.403906 0 0.111086
0.433738 0 0.112779
0.463401 0 0.113313
0.493187 0 0.113695
0.523171 0 0.114611
0.553262 0 0.115496
0.583825 0 0.117647
0.613993 0 0.118364
0.644053 0 0.119387
0.674296 0 0.121599
0.703822 0 0.121309
0.733455 0 0.122026
0.763119 0 0.123476
0.792355 0 0.123888
0.822217 0 0.126955
0.851225 0 0.126986
0.879835 0 0.125917
0.909026 0 0.127214
0.938231 0 0.128557
0 0.0148318 0.094789
0.0135653 0.0143435 0.0967727
0.0373083 0.0154269 0.0993515
0.0631266 0.0156863 0.100679
0.0918135 0.0147402 0.100923
0.121279 0.0134432 0.101305
0.151034 0.0120699 0.101961
0.181598 0.0104524 0.102678
0.212879 0.00862135 0.103471
0.245212 0.00645457 0.104173
0.278202 0.00407416 0.105074
0.311284 0.00175479 0.106188
0.344289 0 0.107454
0.375677 0 0.109438
0.406455 0 0.11162
0.437354 0 0.113802
0.468467 0 0.116121
0.499733 0 0.118349
0.531044 0 0.120546
0.562478 0 0.122759
0.59411 0 0.124987
0.625711 0 0.12726
0.657084 0 0.129397
0.688304 0 0.131609
0.719417 0 0.133776
0.750378 0 0.135927
0.781018 0 0.138033
0.810956 0 0.139498
0.840497 0 0.140764
0.870024 0 0.142077
0.899428 0 0.143435
0.928832 0 0.14493
0.958022 0 0.146593
0 0.041886 0.0944991
0.0136721 0.0414588 0.0949569
0.0404517 0.0407721 0.0985733
0.0635386 0.0420539 0.101686
0.0872969 0.0432593 0.103716
0.112749 0.0437629 0.10544
0.140673 0.0433509 0.106203
0.171466 0.0418097 0.106081
0.204349 0.0394446 0.105715
0.23856 0.0365911 0.105516
0.272969 0.0337377 0.105608
0.307164 0.0310521 0.106218
0.341115 0.0285039 0.107195
0.373404 0.0267338 0.10898
0.404791 0.025391 0.111086
0.436179 0.024033 0.113283
0.46772 0.0226902 0.115587
0.499382 0.0213474 0.117922
0.531167 0.0200046 0.120287
0.562921 0.0187228 0.122591
0.594827 0.0173648 0.124895
0.626734 0.0160067 0.12726
0.658473 0.0146944 0.129641
0.690013 0.0134737 0.131945
0.72137 0.0122835 0.134249
0.752621 0.0110933 0.136629
0.783703 0.00996414 0.13901
0.814603 0.00889601 0.141375
0.845335 0.00793469 0.143694
0.875959 0.00704967 0.146029
0.906508 0.00624094 0.148501
0.937026 0.00549325 0.151049
0.967102 0.00505074 0.153811
0 0.0688945 0.0941634
0.0131533 0.0686351 0.0942397
0.0409857 0.0677501 0.0961929
0.0670329 0.0673533 0.100343
0.0903944 0.0685283 0.103838
0.113832 0.0700084 0.106172
0.138674 0.0710002 0.108202
0.165637 0.0711528 0.10988
0.195407 0.0702678 0.110628
0.228016 0.0683146 0.110536
0.262684 0.0655985 0.110033
0.298039 0.0626535 0.109697
0.333333 0.0598001 0.109712
0.367285 0.0575113 0.110689
0.4 0.0557717 0.112398
0.432303 0.0542153 0.114366
0.464515 0.0528115 0.116411
0.496834 0.0514229 0.118624
0.529229 0.0500343 0.120943
0.561624 0.0486915 0.123323
0.594018 0.0473945 0.125658
0.626337 0.0461128 0.128038
0.658503 0.0448615 0.130495
0.690501 0.0436561 0.132952
0.722225 0.0425574 0.135363
0.75375 0.0415045 0.137789
0.785168 0.0404669 0.140291
0.816403 0.0394903 0.142824
0.847532 0.0385901 0.145357
0.878477 0.0377966 0.147875
0.909285 0.0371252 0.150484
0.940108 0.0364996 0.153201
0.970504 0.0361334 0.156146
0 0.0959182 0.0938125
0.0126192 0.0958267 0.0937209
0.0404669 0.0951705 0.0948653
0.0679637 0.0943618 0.0978408
0.0938582 0.0941634 0.102235
0.117769 0.0952316 0.10602
0.141604 0.0967269 0.108721
0.16701 0.0977646 0.110765
0.194339 0.0980697 0.112657
0.223819 0.0975509 0.114229
0.255467 0.0962997 0.115084
0.288808 0.0944686 0.115373
0.323491 0.0921492 0.115328
0.358282 0.0898451 0.115541
0.391806 0.0880903 0.116457
0.425101 0.0864271 0.117845
0.458473 0.0847944 0.119509
0.491722 0.0832837 0.121309
0.524971 0.0818189 0.123339
0.558175 0.0803845 0.125551
0.591363 0.0789807 0.12784
0.624292 0.0776837 0.130144
0.657008 0.0764782 0.13254
0.68954 0.075288 0.134997
0.721843 0.0741588 0.137514
0.753841 0.073167 0.139986
0.785595 0.0722515 0.142489
0.817243 0.0713512 0.145098
0.848768 0.0705119 0.147738
0.880156 0.0697642 0.150423
0.911315 0.0691691 0.15317
0.942397 0.0686809 0.155947
0.973266 0.0683452 0.158846
0 0.12311 0.093431
0.0121309 0.123156 0.0933242
0.0398871 0.122728 0.0941024
0.0677195 0.122057 0.0961776
0.0951553 0.12137 0.0998398
0.121263 0.12134 0.104433
0.145998 0.122301 0.108446
0.170886 0.123613 0.111406
0.197162 0.124605 0.113619
0.225208 0.124971 0.115633
0.254658 0.124834 0.117723
0.285466 0.124269 0.119478
0.317708 0.123247 0.120699
0.351034 0.121843 0.121523
0.38378 0.120729 0.122683
0.416678 0.1196 0.123857
0.450263 0.118227 0.125093
0.484215 0.116732 0.126543
0.518303 0.115206 0.128145
0.552331 0.113756 0.129885
0.586374 0.112261 0.131807
0.620264 0.110811 0.133928
0.653681 0.109575 0.136126
0.686824 0.1084 0.138445
0.719768 0.107271 0.140871
0.752438 0.106218 0.143374
0.784802 0.105287 0.145922
0.816892 0.104448 0.148486
0.848814 0.103685 0.15108
0.880613 0.102968 0.153796
0.9122 0.102373 0.156588
0.943679 0.101869 0.159426
0.975052 0.101472 0.16231
0 0.15053 0.0930953
0.0116884 0.150713 0.093019
0.0394141 0.1505 0.0936599
0.0672923 0.150072 0.0952316
0.0953536 0.149447 0.0980697
0.122988 0.148928 0.102251
0.149676 0.148974 0.107027
0.175662 0.149752 0.111238
0.201678 0.150942 0.114504
0.228946 0.151888 0.117021
0.257481 0.152483 0.119295
0.2869 0.152789 0.121721
0.31722 0.152789 0.124193
0.348455 0.152483 0.126284
0.379538 0.152331 0.128405
0.410925 0.152102 0.130404
0.443275 0.151553 0.132113
0.476524 0.150729 0.133532
0.510491 0.149599 0.134951
0.5449 0.148272 0.136446
0.579492 0.146883 0.138018
0.613977 0.14551 0.139727
0.648249 0.144183 0.141619
0.682261 0.142916 0.143694
0.715953 0.141711 0.145876
0.749279 0.140658 0.148135
0.782223 0.139696 0.150515
0.814893 0.138781 0.153033
0.847364 0.137957 0.155581
0.879606 0.137224 0.158175
0.911559 0.13666 0.16083
0.94345 0.13611 0.163622
0.97525 0.135637 0.166506
0 0.178271 0.0928359
0.0113222 0.178592 0.0928206
0.0390631 0.178592 0.0934462
0.0669871 0.178454 0.094789
0.0952773 0.178073 0.0970932
0.12372 0.177554 0.100587
0.151949 0.177142 0.105196
0.179721 0.177142 0.110185
0.206806 0.177844 0.114672
0.234012 0.178912 0.118242
0.261936 0.17998 0.121126
0.290623 0.180911 0.123735
0.320058 0.181598 0.126452
0.34992 0.182132 0.129427
0.379477 0.182834 0.132631
0.409247 0.18352 0.135698
0.439979 0.183902 0.138384
0.471794 0.183932 0.140673
0.504555 0.183612 0.142641
0.538094 0.183001 0.144274
0.572351 0.182071 0.145815
0.606928 0.180941 0.147387
0.641489 0.179782 0.14905
0.675883 0.178607 0.150744
0.710079 0.177447 0.152575
0.744045 0.176303 0.154574
0.777676 0.175219 0.156664
0.810956 0.174258 0.158862
0.843992 0.173342 0.16112
0.876829 0.172488 0.163546
0.909316 0.171771 0.166079
0.941573 0.171176 0.168719
0.973678 0.170687 0.171389
0 0.206332 0.0926375
0.0111391 0.206928 0.0928817
0.0389715 0.207172 0.0935378
0.0669566 0.207294 0.0948043
0.0953689 0.207187 0.0968032
0.124208 0.206867 0.0997787
0.153368 0.206378 0.103853
0.182635 0.205905 0.108812
0.211353 0.205905 0.114122
0.239597 0.206516 0.118868
0.267521 0.207691 0.122744
0.295735 0.209033 0.126024
0.324544 0.210285 0.129015
0.353796 0.211398 0.132067
0.382406 0.212787 0.135729
0.410986 0.214206 0.139696
0.44036 0.215381 0.143374
0.470695 0.216251 0.146639
0.502022 0.216754 0.149462
0.534249 0.216907 0.151919
0.567285 0.216709 0.154009
0.600885 0.216266 0.155779
0.634867 0.215579 0.157443
0.669108 0.214679 0.159091
0.703365 0.213703 0.160739
0.737469 0.21268 0.162402
0.771389 0.211658 0.164172
0.805142 0.210605 0.166079
0.838682 0.209598 0.168063
0.871946 0.208667 0.170138
0.904891 0.207858 0.17232
0.937697 0.20708 0.174701
0.970336 0.206394 0.177142
0 0.234623 0.0926986
0.011368 0.235691 0.0933547
0.039292 0.236149 0.0941176
0.0674449 0.236469 0.0954299
0.096025 0.236606 0.097322
0.125093 0.236515 0.0999313
0.154772 0.236164 0.103487
0.185031 0.235569 0.108019
0.215137 0.235142 0.11342
0.244831 0.235142 0.119005
0.273716 0.235904 0.12401
0.302007 0.237308 0.128252
0.33048 0.238895 0.13193
0.359213 0.240497 0.135332
0.387228 0.242435 0.139147
0.415198 0.244388 0.143236
0.44361 0.246204 0.147463
0.47277 0.247745 0.151507
0.5028 0.248936 0.1552
0.533654 0.249821 0.158465
0.565362 0.250324 0.161318
0.597726 0.250523 0.163821
0.630518 0.250477 0.165988
0.663722 0.250187 0.167849
0.697261 0.249668 0.169558
0.730999 0.248936 0.171206
0.764752 0.248112 0.172808
0.798474 0.247196 0.174441
0.83209 0.24625 0.176104
0.865553 0.245289 0.177874
0.898817 0.244404 0.179751
0.93196 0.243519 0.181781
0.96492 0.24271 0.183886
0 0.263294 0.0931411
0.0121309 0.264836 0.0943313
0.040238 0.265461 0.0952621
0.0684062 0.266056 0.0965896
0.0970626 0.266484 0.0983749
0.126253 0.266667 0.100771
0.156237 0.266529 0.103929
0.187152 0.26598 0.107988
0.218433 0.265293 0.113161
0.249592 0.26479 0.119051
0.279744 0.265034 0.12491
0.308827 0.266102 0.130175
0.337331 0.26775 0.134737
0.365698 0.269657 0.13875
0.393149 0.272038 0.142931
0.420615 0.274418 0.147143
0.448631 0.2766 0.151385
0.477134 0.278584 0.155703
0.506157 0.280339 0.159991
0.535836 0.281819 0.163943
0.566293 0.282933 0.167529
0.597391 0.283742 0.170733
0.628977 0.28426 0.173571
0.661021 0.28452 0.176059
0.693446 0.284535 0.17821
0.726146 0.284306 0.180133
0.75906 0.283909 0.181827
0.792187 0.283314 0.183429
0.825483 0.282536 0.184985
0.858763 0.281697 0.186557
0.891936 0.280858 0.188144
0.925048 0.280003 0.189776
0.958129 0.279118 0.191577
0 0.292393 0.0942397
0.0134127 0.294438 0.0958267
0.0415961 0.295308 0.0968643
0.0698711 0.296147 0.0982528
0.0985885 0.296803 0.100023
0.127916 0.297261 0.102296
0.158083 0.297368 0.105211
0.18941 0.296986 0.108843
0.221424 0.296269 0.113558
0.253742 0.295445 0.11931
0.285283 0.295125 0.125612
0.315465 0.295689 0.131701
0.344594 0.297017 0.137163
0.372747 0.299046 0.142046
0.399924 0.30161 0.146777
0.426963 0.304311 0.151278
0.45452 0.306844 0.155612
0.482628 0.309148 0.159899
0.511193 0.311208 0.164248
0.540124 0.313069 0.168627
0.569604 0.314641 0.172793
0.599542 0.315969 0.176593
0.629938 0.317021 0.180026
0.660792 0.317769 0.183108
0.692058 0.318257 0.18584
0.723659 0.318502 0.188251
0.75552 0.318517 0.190356
0.787625 0.318318 0.192248
0.819974 0.317937 0.193912
0.852552 0.317403 0.195422
0.885252 0.316716 0.196963
0.918044 0.315969 0.198444
0.950957 0.315175 0.200046
0 0.322042 0.0958114
0.0152285 0.324575 0.0978256
0.0435187 0.325643 0.0990005
0.071931 0.326696 0.100481
0.10074 0.327596 0.102281
0.130144 0.328267 0.104494
0.160433 0.328588 0.10721
0.191989 0.328374 0.110506
0.22446 0.327733 0.114733
0.257572 0.326757 0.120104
0.290227 0.32604 0.126345
0.321599 0.32607 0.132937
0.35169 0.326909 0.139178
0.380148 0.32871 0.144991
0.407263 0.331289 0.150408
0.434073 0.334096 0.155383
0.46125 0.336843 0.159991
0.488899 0.339406 0.16437
0.517021 0.341756 0.168673
0.545541 0.343862 0.172961
0.574426 0.345708 0.177279
0.603586 0.347356 0.181552
0.633005 0.348775 0.185519
0.662776 0.34995 0.189105
0.692882 0.350866 0.192309
0.723339 0.351522 0.195209
0.754101 0.351919 0.197803
0.785153 0.352087 0.200076
0.816541 0.352056 0.202136
0.848157 0.351919 0.203998
0.880049 0.351659 0.205768
0.9122 0.351293 0.207401
0.944595 0.350851 0.208988
0 0.352224 0.0979782
0.0176852 0.3552 0.100435
0.0460822 0.356451 0.101717
0.0745861 0.357656 0.103258
0.103471 0.358724 0.105104
0.132952 0.359564 0.107286
0.163333 0.360052 0.109865
0.19498 0.360006 0.112871
0.22771 0.359457 0.11667
0.261341 0.358465 0.121508
0.29482 0.357488 0.127474
0.32723 0.357076 0.134112
0.358312 0.357397 0.140887
0.387411 0.358785 0.147463
0.414878 0.361105 0.153643
0.441657 0.363836 0.159228
0.468605 0.366644 0.164248
0.495872 0.36936 0.168872
0.523552 0.371908 0.173251
0.551614 0.374243 0.177493
0.580056 0.376287 0.181689
0.608728 0.378119 0.185885
0.637446 0.379767 0.190082
0.666392 0.381186 0.194125
0.695583 0.382391 0.197803
0.725078 0.383398 0.20119
0.754864 0.384207 0.204288
0.784939 0.384848 0.207065
0.815366 0.385306 0.209567
0.846128 0.38558 0.211887
0.877119 0.385748 0.214084
0.908476 0.385779 0.216083
0.940108 0.385702 0.217975
0 0.382757 0.100954
0.0209354 0.386084 0.103746
0.0495308 0.387381 0.105211
0.0781415 0.388693 0.106844
0.107073 0.389883 0.108705
0.136584 0.39086 0.110842
0.166979 0.391501 0.113298
0.198703 0.391562 0.116091
0.231571 0.391119 0.119509
0.265492 0.390143 0.123873
0.299397 0.389136 0.129244
0.332601 0.388403 0.135668
0.364614 0.388266 0.142565
0.39443 0.389197 0.149722
0.422477 0.391073 0.156573
0.449607 0.3935 0.162783
0.476463 0.396216 0.168322
0.503471 0.398947 0.173312
0.53077 0.401572 0.177905
0.558389 0.404013 0.182208
0.586358 0.406241 0.186343
0.614588 0.40824 0.190417
0.642924 0.410086 0.194491
0.671366 0.41178 0.198611
0.699931 0.413291 0.202701
0.72871 0.414649 0.206577
0.757733 0.415824 0.210178
0.787015 0.416831 0.213474
0.816587 0.41767 0.21648
0.846464 0.418341 0.219272
0.876539 0.418936 0.221836
0.90695 0.419379 0.224186
0.937758 0.419669 0.226413
0.00129702 0.413474 0.104692
0.024979 0.417029 0.107774
0.0535744 0.418463 0.10927
0.0822156 0.419883 0.110964
0.111192 0.421164 0.112825
0.140688 0.422232 0.1149
0.171054 0.422965 0.117235
0.202777 0.423148 0.119814
0.235721 0.422766 0.122927
0.26981 0.421805 0.126833
0.304158 0.420676 0.131762
0.33785 0.419776 0.137713
0.370581 0.419272 0.144457
0.401114 0.41976 0.151843
0.429801 0.421149 0.159182
0.45745 0.423133 0.165972
0.484565 0.425513 0.172076
0.511467 0.428122 0.177508
0.538521 0.430747 0.182437
0.565835 0.43331 0.186999
0.593469 0.435706 0.191287
0.621347 0.437949 0.195438
0.649378 0.440055 0.199512
0.677516 0.441962 0.203555
0.70573 0.443717 0.207614
0.733974 0.44535 0.211704
0.762341 0.446815 0.215686
0.790921 0.448112 0.21944
0.819776 0.449241 0.222904
0.848875 0.450233 0.226139
0.878202 0.451102 0.22916
0.90779 0.451881 0.231952
0.937758 0.452506 0.234562
0.00590524 0.444389 0.108751
0.0292515 0.448173 0.112047
0.0578164 0.449699 0.113542
0.0864576 0.451179 0.115221
0.115404 0.452522 0.117067
0.144884 0.453666 0.119097
0.175204 0.454459 0.121309
0.206882 0.454704 0.123705
0.239811 0.454368 0.126513
0.273976 0.453422 0.130007
0.308553 0.452216 0.134463
0.342718 0.451102 0.139971
0.376028 0.450294 0.146395
0.407111 0.450431 0.153674
0.436469 0.451331 0.161303
0.464744 0.452857 0.168566
0.492393 0.454871 0.175265
0.5196 0.457267 0.181292
0.546624 0.459892 0.18674
0.5738 0.462531 0.191699
0.60119 0.465064 0.196277
0.628763 0.467475 0.20058
0.656443 0.469764 0.204715
0.684276 0.471885 0.208774
0.712169 0.473838 0.212772
0.740124 0.475639 0.21677
0.768063 0.477302 0.220783
0.796078 0.478843 0.224781
0.824292 0.480217 0.228641
0.852705 0.481437 0.232258
0.8813 0.482582 0.23566
0.910185 0.483589 0.238849
0.939376 0.484474 0.241856
0.0106355 0.475456 0.112902
0.0335546 0.479469 0.116365
0.0621195 0.481041 0.117876
0.0907301 0.482551 0.119539
0.119661 0.483909 0.121355
0.149157 0.485023 0.123354
0.179431 0.485832 0.12546
0.211017 0.486091 0.127657
0.24387 0.485786 0.130175
0.277943 0.484886 0.133242
0.312612 0.483635 0.137209
0.347036 0.482414 0.142229
0.38088 0.481376 0.148287
0.412665 0.481209 0.155489
0.442618 0.48188 0.16318
0.471641 0.483024 0.170871
0.499916 0.484688 0.178073
0.527626 0.486778 0.18471
0.554925 0.489204 0.190692
0.582025 0.491798 0.196109
0.609262 0.494377 0.201038
0.636606 0.49688 0.2056
0.663981 0.499306 0.209903
0.691463 0.501579 0.213993
0.719036 0.5037 0.21799
0.746654 0.505653 0.221927
0.774319 0.507469 0.225834
0.801984 0.509148 0.229755
0.829709 0.510689 0.233692
0.857527 0.512123 0.237568
0.885481 0.513466 0.241306
0.91368 0.514672 0.244831
0.942168 0.51577 0.248157
0.0154269 0.506615 0.117082
0.0379034 0.510796 0.120714
0.0664378 0.512352 0.12221
0.0951095 0.513787 0.123888
0.123949 0.515145 0.125643
0.153338 0.516258 0.12752
0.183505 0.517067 0.129503
0.215 0.517311 0.131533
0.247807 0.517021 0.133837
0.281941 0.516152 0.136629
0.316594 0.515038 0.140185
0.351278 0.513848 0.144823
0.385519 0.512749 0.150484
0.417899 0.512383 0.157488
0.4486 0.512718 0.165209
0.478248 0.513558 0.173053
0.507149 0.514855 0.180667
0.535363 0.516625 0.187716
0.563073 0.518746 0.194247
0.590387 0.521157 0.200153
0.617548 0.52369 0.205493
0.644724 0.526192 0.210376
0.671885 0.528664 0.214908
0.699077 0.531014 0.219165
0.726329 0.533242 0.223209
0.753613 0.535332 0.227131
0.780941 0.537255 0.230976
0.808286 0.53904 0.234791
0.835706 0.540688 0.238605
0.863111 0.54226 0.24242
0.890532 0.54374 0.246281
0.91812 0.545113 0.250034
0.945937 0.546365 0.25362
0.0202029 0.537697 0.121355
0.0423438 0.54197 0.125109
0.0708019 0.543496 0.126558
0.0993515 0.544915 0.128145
0.12813 0.546227 0.129809
0.157427 0.547387 0.131609
0.187533 0.548257 0.133516
0.219013 0.548592 0.135485
0.251865 0.548379 0.137667
0.286061 0.547585 0.140291
0.320897 0.546487 0.143618
0.355703 0.545357 0.147875
0.390127 0.544305 0.153063
0.422919 0.543816 0.159716
0.454185 0.543923 0.1673
0.484489 0.544411 0.175174
0.514046 0.545342 0.183032
0.542855 0.546715 0.190524
0.570993 0.548516 0.197436
0.598657 0.550637 0.2038
0.625971 0.552972 0.209583
0.653025 0.555413 0.214832
0.680018 0.557855 0.219654
0.706966 0.560235 0.224109
0.733913 0.562509 0.228275
0.760876 0.564675 0.232242
0.787839 0.56669 0.236057
0.814847 0.568566 0.239796
0.841932 0.570306 0.243488
0.869047 0.571908 0.247166
0.896117 0.573465 0.250874
0.923247 0.574914 0.254643
0.950515 0.576288 0.258366
0.0249027 0.568658 0.125582
0.0466926 0.573022 0.129412
0.0751354 0.574548 0.130846
0.103639 0.576043 0.132403
0.132433 0.577432 0.134096
0.16173 0.578653 0.135882
0.191836 0.579583 0.137774
0.223331 0.579995 0.139681
0.256184 0.579858 0.141741
0.290364 0.579126 0.144183
0.325277 0.578073 0.147265
0.360204 0.576944 0.151217
0.394888 0.57583 0.1561
0.427832 0.575372 0.162234
0.45951 0.575296 0.169543
0.490349 0.575525 0.177295
0.52047 0.57612 0.185199
0.549874 0.577096 0.19295
0.578576 0.5785 0.20029
0.606653 0.580255 0.20708
0.634241 0.582284 0.213275
0.661402 0.584543 0.218906
0.688243 0.586923 0.224033
0.714992 0.589242 0.228702
0.74168 0.591516 0.233036
0.768322 0.593713 0.237095
0.794934 0.595773 0.240925
0.821576 0.597711 0.244617
0.848295 0.599496 0.248219
0.875059 0.60116 0.251774
0.901823 0.602731 0.25536
0.928649 0.604212 0.25893
0.95552 0.6056 0.262547
0.0296788 0.599695 0.129854
0.0512398 0.604227 0.133852
0.0796979 0.605798 0.135317
0.108217 0.60734 0.136904
0.137072 0.608759 0.138613
0.166445 0.609979 0.140459
0.196536 0.610956 0.142306
0.227985 0.611414 0.144152
0.260822 0.611307 0.146105
0.294926 0.610681 0.148333
0.329778 0.609689 0.151156
0.364767 0.608591 0.154803
0.399588 0.607431 0.159319
0.432853 0.606851 0.165148
0.464698 0.606729 0.172
0.495933 0.606744 0.179538
0.526543 0.60705 0.187335
0.556466 0.607675 0.195178
0.585687 0.608682 0.202792
0.614206 0.610056 0.209903
0.642191 0.611704 0.21651
0.669566 0.613657 0.222522
0.696437 0.615824 0.22797
0.723033 0.618067 0.232898
0.749493 0.620279 0.237415
0.77586 0.622431 0.241596
0.802182 0.624475 0.245502
0.828473 0.626413 0.24921
0.854826 0.628214 0.25275
0.881209 0.629908 0.256214
0.907591 0.631495 0.259648
0.934051 0.632975 0.263066
0.960601 0.634348 0.266499
0.0346838 0.630945 0.134463
0.0561227 0.635584 0.138552
0.0846113 0.637171 0.140063
0.113222 0.638682 0.141711
0.142061 0.640116 0.143404
0.171389 0.641367 0.14522
0.20148 0.642374 0.147036
0.232883 0.642847 0.148791
0.265675 0.642771 0.150637
0.299763 0.642161 0.152728
0.334554 0.641215 0.155322
0.369436 0.640177 0.158602
0.404303 0.639017 0.162783
0.43772 0.638331 0.168246
0.469871 0.638056 0.174777
0.501305 0.63798 0.181903
0.532311 0.63801 0.189532
0.562692 0.638315 0.197314
0.592371 0.638941 0.20502
0.621332 0.639902 0.212421
0.649683 0.641199 0.219287
0.677363 0.642786 0.225635
0.704433 0.644633 0.231418
0.730999 0.646662 0.236652
0.75729 0.648753 0.241398
0.783429 0.650797 0.245731
0.809461 0.652781 0.249729
0.835462 0.654658 0.253468
0.861448 0.656443 0.257008
0.887449 0.658106 0.26041
0.913451 0.659678 0.263722
0.939529 0.661158 0.267002
0.965713 0.662531 0.270253
0.0399023 0.662364 0.139376
0.0613718 0.666972 0.143526
0.0898756 0.668559 0.145037
0.118486 0.670085 0.14667
0.14728 0.671519 0.148348
0.176532 0.672816 0.150088
0.206546 0.673823 0.151843
0.237903 0.674311 0.153536
0.270634 0.674235 0.155261
0.304677 0.673594 0.157214
0.339452 0.672633 0.159609
0.374334 0.671565 0.162661
0.409064 0.670466 0.16643
0.442557 0.669718 0.171527
0.474845 0.669337 0.177661
0.506584 0.669032 0.184497
0.537835 0.668879 0.191791
0.568536 0.668925 0.199374
0.598642 0.669184 0.207065
0.628031 0.669764 0.214588
0.656748 0.670649 0.221714
0.684749 0.671855 0.228305
0.712032 0.67335 0.234379
0.73875 0.675044 0.239887
0.764981 0.676905 0.244862
0.790921 0.678798 0.249393
0.816709 0.680659 0.253529
0.842405 0.68246 0.257328
0.86807 0.684153 0.260884
0.893736 0.685771 0.264271
0.919371 0.687312 0.267521
0.945083 0.688777 0.270695
0.970901 0.69012 0.273823
0.0452583 0.693843 0.144579
0.0668803 0.698375 0.148669
0.0953689 0.699947 0.150179
0.123873 0.701503 0.15172
0.152621 0.702937 0.153368
0.181811 0.704204 0.155047
0.21178 0.705196 0.156741
0.243061 0.705653 0.158343
0.2757 0.705577 0.15996
0.309651 0.704921 0.161746
0.344335 0.703929 0.163943
0.379187 0.702815 0.166766
0.413947 0.701625 0.170245
0.447318 0.700908 0.174899
0.479667 0.700435 0.180652
0.511543 0.699977 0.187091
0.543084 0.699565 0.19411
0.57409 0.699336 0.20145
0.604456 0.699336 0.208942
0.634226 0.699535 0.216449
0.663294 0.700008 0.223697
0.6916 0.700801 0.230518
0.719142 0.7019 0.236805
0.746029 0.703243 0.242557
0.772366 0.704768 0.247791
0.798215 0.706432 0.252506
0.823804 0.708141 0.256809
0.849241 0.709804 0.260716
0.874647 0.711406 0.264347
0.899992 0.712947 0.26775
0.925307 0.714443 0.270985
0.950683 0.715846 0.274113
0.976135 0.717174 0.27715
0.0507057 0.725338 0.149981
0.0724956 0.729778 0.153887
0.100938 0.731334 0.155337
0.129397 0.732845 0.156847
0.158083 0.734249 0.158419
0.187243 0.735454 0.160067
0.217166 0.73637 0.161715
0.248356 0.736797 0.16321
0.280873 0.736675 0.164706
0.314641 0.736034 0.166278
0.349218 0.735012 0.168261
0.383963 0.733852 0.170825
0.418692 0.732586 0.174044
0.452079 0.731746 0.178393
0.484321 0.731243 0.183688
0.516258 0.730663 0.189715
0.547936 0.730068 0.196338
0.579202 0.729549 0.203403
0.609827 0.729244 0.210636
0.639872 0.729091 0.218036
0.669291 0.729152 0.225299
0.697917 0.729534 0.232258
0.725704 0.730236 0.238712
0.752804 0.731197 0.244678
0.779278 0.732387 0.250141
0.805219 0.733745 0.2551
0.830701 0.735241 0.259571
0.855955 0.736736 0.263645
0.881117 0.738216 0.267369
0.906203 0.739666 0.270832
0.931228 0.74107 0.274098
0.956283 0.742412 0.277195
0.981414 0.743694 0.280186
0.0561685 0.756817 0.155383
0.0781872 0.76109 0.159121
0.106584 0.762585 0.16051
0.134997 0.764035 0.16199
0.163653 0.765347 0.163531
0.192737 0.766491 0.165103
0.222583 0.76733 0.166659
0.253666 0.767697 0.168048
0.286061 0.767529 0.169406
0.319692 0.766827 0.170809
0.35404 0.765805 0.172534
0.388632 0.764584 0.174838
0.423255 0.763256 0.177752
0.456596 0.76231 0.181781
0.488853 0.761639 0.18674
0.520684 0.760983 0.192279
0.552407 0.76022 0.198474
0.583841 0.759457 0.205188
0.614771 0.758816 0.212222
0.644999 0.758389 0.219333
0.674723 0.758083 0.226551
0.703655 0.758068 0.233539
0.731731 0.758358 0.240192
0.759075 0.758953 0.246311
0.785718 0.759777 0.251972
0.811795 0.7608 0.25713
0.837324 0.762005 0.261814
0.86247 0.763317 0.266056
0.887434 0.76463 0.269917
0.912306 0.765942 0.273457
0.937057 0.767254 0.276783
0.961837 0.768521 0.279911
0.986664 0.769726 0.282887
0.0615702 0.788174 0.160784
0.0838941 0.792233 0.164309
0.112245 0.793622 0.165667
0.140597 0.79498 0.167071
0.169192 0.796201 0.168551
0.198138 0.797284 0.170001
0.227817 0.798077 0.17142
0.258762 0.798367 0.172671
0.291005 0.798123 0.173877
