src/luts/rounded/15.cube
TITLE "Generated by Resolve"
LUT_3D_SIZE 9
0 0 0.0950942
0.0971542 0 0.100389
0.213733 0 0.104448
0.344289 0 0.109758
0.463401 0 0.113313
0.583825 0 0.117647
0.703822 0 0.121309
0.822217 0 0.126955
0.938231 0 0.128557
0 0.0959182 0.0938125
0.0938582 0.0941634 0.102235
0.194339 0.0980697 0.112657
0.323491 0.0921492 0.115328
0.458473 0.0847944 0.119509
0.591363 0.0789807 0.12784
0.721843 0.0741588 0.137514
0.848768 0.0705119 0.147738
0.973266 0.0683452 0.158846
0 0.206332 0.0926375
0.0953689 0.207187 0.0968032
0.211353 0.205905 0.114122
0.324544 0.210285 0.129015
0.44036 0.215381 0.143374
0.567285 0.216709 0.154009
0.703365 0.213703 0.160739
0.838682 0.209598 0.168063
0.970336 0.206394 0.177142
0 0.322042 0.0958114
0.10074 0.327596 0.102281
0.22446 0.327733 0.114733
0.35169 0.326909 0.139178
0.46125 0.336843 0.159991
0.574426 0.345708 0.177279
0.692882 0.350866 0.192309
0.816541 0.352056 0.202136
0.944595 0.350851 0.208988
0.00590524 0.444389 0.108751
0.115404 0.452522 0.117067
0.239811 0.454368 0.126513
0.376028 0.450294 0.146395
0.492393 0.454871 0.175265
0.60119 0.465064 0.196277
0.712169 0.473838 0.212772
0.824292 0.480217 0.228641
0.939376 0.484474 0.241856
0.0249027 0.568658 0.125582
0.132433 0.577432 0.134096
0.256184 0.579858 0.141741
0.394888 0.57583 0.1561
0.52047 0.57612 0.185199
0.634241 0.582284 0.213275
0.74168 0.591516 0.233036
0.848295 0.599496 0.248219
0.95552 0.6056 0.262547
0.0452583 0.693843 0.144579
0.152621 0.702937 0.153368
0.2757 0.705577 0.15996
0.413947 0.701625 0.170245
0.543084 0.699565 0.19411
0.663294 0.700008 0.223697
0.772366 0.704768 0.247791
0.874647 0.711406 0.264347
0.976135 0.717174 0.27715
0.0668498 0.819318 0.166079
0.174472 0.82681 0.173342
0.295689 0.828336 0.178119
0.431586 0.823331 0.184588
0.56025 0.819303 0.20238
0.68397 0.815076 0.228214
0.796979 0.813855 0.254063
0.899306 0.816342 0.273457
0.996933 0.820493 0.287144
0.0851301 0.940108 0.184375
0.191699 0.945159 0.188937
0.310445 0.944747 0.191455
0.443748 0.938109 0.194644
0.570703 0.932387 0.207355
0.69546 0.925353 0.227848
0.812345 0.919509 0.252445
0.918059 0.917449 0.274403
1 0.919081 0.291112
0 0 0.168093
0.0973983 0 0.167941
0.209812 0 0.169177
0.337255 0 0.176379
0.4607 0 0.186435
0.58117 0 0.19173
0.701396 0 0.196307
0.819715 0 0.20116
0.936934 0 0.207004
0 0.100618 0.166873
0.0964218 0.101427 0.166705
0.213352 0.0985122 0.170535
0.345037 0.0912642 0.175433
0.471412 0.0873732 0.186694
0.59942 0.0838331 0.198535
0.72607 0.0816663 0.207095
0.85211 0.0784009 0.220066
0.975341 0.077409 0.230442
0 0.211704 0.166339
0.0975967 0.214588 0.168139
0.216663 0.214298 0.174731
0.333501 0.217166 0.190265
0.460899 0.217746 0.199863
0.599237 0.214084 0.208057
0.734554 0.21091 0.218799
0.864683 0.208774 0.230381
0.99147 0.207492 0.242481
0 0.32874 0.170825
0.104738 0.335195 0.175875
0.225925 0.338338 0.181064
0.359213 0.3355 0.201053
0.469535 0.345129 0.221973
0.586023 0.352407 0.238773
0.713024 0.353994 0.249226
0.845914 0.351141 0.255528
0.978653 0.347601 0.262608
0.0108949 0.451637 0.184421
0.120348 0.46009 0.191592
0.241733 0.464271 0.196704
0.379705 0.460685 0.208652
0.500221 0.463218 0.237629
0.609461 0.473289 0.258457
0.721935 0.481346 0.274876
0.837598 0.486183 0.289158
0.958694 0.487938 0.299016
0.0298009 0.575845 0.20116
0.137636 0.584756 0.20882
0.258717 0.589151 0.213626
0.39678 0.586679 0.221622
0.526146 0.585779 0.246647
0.642069 0.59057 0.275593
0.749538 0.599664 0.294942
0.856992 0.607034 0.309743
0.965545 0.612131 0.324147
0.0502785 0.701091 0.220371
0.157885 0.71017 0.228153
0.278614 0.714275 0.232609
0.415305 0.711864 0.238056
0.546075 0.709789 0.256321
0.669474 0.708461 0.284764
0.779416 0.712306 0.309361
0.881605 0.718715 0.325521
0.983536 0.72398 0.337926
0.0715953 0.82623 0.241566
0.179416 0.833524 0.247807
0.298344 0.83621 0.250721
0.432593 0.832395 0.253513
0.561517 0.828885 0.266117
0.687587 0.823743 0.288594
0.802747 0.821073 0.314473
0.905455 0.822965 0.334203
1 0.826932 0.347692
0.0892653 0.946334 0.259052
0.196109 0.951003 0.262898
0.312749 0.951629 0.263813
0.444175 0.946197 0.263905
0.570809 0.941176 0.272236
0.696864 0.93402 0.28867
0.816327 0.92694 0.311986
0.923506 0.923888 0.334447
1 0.92517 0.351705
0 0 0.243214
0.101259 0 0.243137
0.214572 0 0.241733
0.340414 0 0.23975
0.459678 0 0.248707
0.580713 0 0.260227
0.699947 0 0.267536
0.818021 0 0.274327
0.935241 0 0.281575
0 0.105623 0.241947
0.100526 0.106554 0.242039
0.214923 0.106096 0.24152
0.342168 0.102312 0.242374
0.466056 0.0996719 0.256138
0.593576 0.0965133 0.269841
0.721447 0.0933852 0.282521
0.847074 0.0909285 0.294835
0.970993 0.0894942 0.307424
0 0.217334 0.241947
0.102724 0.220462 0.24416
0.219715 0.22266 0.245823
0.353338 0.219455 0.251011
0.482612 0.21886 0.263951
0.613077 0.218479 0.277592
0.743603 0.217166 0.292287
0.870604 0.216541 0.304738
0.995041 0.216495 0.31664
0 0.335729 0.24773
0.110918 0.341863 0.25272
0.230396 0.34641 0.256596
0.365698 0.345113 0.264271
0.479133 0.353063 0.285878
0.607828 0.355138 0.297292
0.745815 0.351476 0.305196
0.877974 0.348348 0.315312
1 0.346593 0.326741
0.0161898 0.459113 0.26186
0.126894 0.467002 0.268711
0.246937 0.471931 0.273045
0.38172 0.471519 0.276555
0.508049 0.471962 0.301671
0.618158 0.481636 0.322637
0.734081 0.487999 0.33872
0.858015 0.489448 0.34844
0.988067 0.487236 0.354589
0.03505 0.583246 0.278508
0.144121 0.591684 0.285863
0.264332 0.596643 0.290288
0.398932 0.596902 0.293187
0.530571 0.596277 0.310384
0.649927 0.599039 0.339986
0.75761 0.607858 0.359167
0.866438 0.614252 0.373999
0.978378 0.617609 0.386816
0.0555581 0.708553 0.297749
0.164385 0.716991 0.305165
0.28423 0.721447 0.309224
0.4177 0.721141 0.31107
0.548135 0.720272 0.322499
0.675135 0.717418 0.347585
0.786587 0.71989 0.373388
0.888808 0.725963 0.389303
0.991531 0.730526 0.401373
0.076585 0.833295 0.318685
0.185336 0.839918 0.324331
0.303502 0.842695 0.326879
0.43473 0.84062 0.326787
0.562341 0.838453 0.334005
0.690105 0.833097 0.351263
0.808408 0.828489 0.377035
0.91165 0.829648 0.397543
1 0.833417 0.410742
0.0936446 0.952667 0.335439
0.201297 0.95668 0.338766
0.317098 0.957427 0.339269
0.446143 0.953262 0.337224
0.57113 0.94963 0.341283
0.697581 0.943038 0.352712
0.819684 0.934936 0.373526
0.928893 0.930571 0.396948
1 0.931472 0.414786
0 0.00268559 0.322652
0.105287 0.00296025 0.322621
0.218555 0.00157168 0.321279
0.34519 0 0.317968
0.465415 0 0.319356
0.585245 0 0.326619
0.703151 0 0.335683
0.819394 0 0.345052
0.935668 0 0.354986
0 0.110918 0.321401
0.104906 0.11194 0.321782
0.219516 0.111666 0.321538
0.347814 0.108339 0.319646
0.470268 0.108782 0.323735
0.593072 0.108736 0.33611
0.718273 0.106874 0.351843
0.842878 0.104829 0.366903
0.966293 0.103578 0.381399
0 0.223239 0.322103
0.107958 0.226719 0.324575
0.225193 0.229206 0.326589
0.356527 0.228519 0.327291
0.481468 0.231434 0.33547
0.609216 0.231937 0.352972
0.738781 0.231067 0.368826
0.865873 0.230091 0.38323
0.990738 0.229389 0.397208
0.00486763 0.342916 0.328908
0.117189 0.348898 0.333913
0.236774 0.353582 0.337957
0.36994 0.354574 0.340063
0.499321 0.356512 0.351064
0.630381 0.356741 0.365377
0.760311 0.355993 0.378714
0.887236 0.355108 0.391699
1 0.354803 0.404288
0.0218051 0.466758 0.343542
0.133516 0.474205 0.350118
0.253437 0.479072 0.354452
0.38645 0.479866 0.356252
0.51516 0.481712 0.36849
0.628397 0.489723 0.390036
0.757168 0.490684 0.400076
0.891737 0.487098 0.407416
1 0.484398 0.417334
0.0406348 0.590829 0.360113
0.15079 0.598856 0.367254
0.270939 0.60383 0.371725
0.404303 0.604868 0.373739
0.533028 0.607507 0.38117
0.658122 0.607797 0.407599
0.766522 0.616068 0.426581
0.87863 0.62063 0.440726
0.998779 0.620371 0.448768
0.0611734 0.716167 0.379339
0.170977 0.724025 0.38645
0.290608 0.72842 0.390433
0.423041 0.728527 0.391577
0.549905 0.730373 0.39675
0.679332 0.727489 0.413748
0.794018 0.727733 0.44062
0.8963 0.733471 0.456153
1 0.736965 0.468345
0.0818494 0.840482 0.399863
0.191363 0.846433 0.405112
0.309285 0.848981 0.407553
0.439445 0.847227 0.406744
0.563958 0.847105 0.409674
0.691417 0.843 0.419471
0.813519 0.836667 0.442329
0.918242 0.8365 0.464347
1 0.840085 0.477363
0.0982986 0.959045 0.416068
0.2065 0.962524 0.418814
0.322087 0.963058 0.419226
0.450248 0.959121 0.416587
0.572488 0.957275 0.417365
0.697658 0.952255 0.422995
0.821973 0.943862 0.438697
0.934432 0.937667 0.462547
1 0.938048 0.481514
0.0021973 0.00756847 0.405905
0.108965 0.00779736 0.405982
0.222339 0.00639353 0.404791
0.348943 0.00140383 0.401389
0.469963 0 0.401862
0.591302 0 0.403479
0.710353 0 0.408621
0.825254 0 0.416144
0.939712 0 0.426886
0.00161746 0.115953 0.404669
0.109056 0.117067 0.405417
0.223774 0.117067 0.405386
0.352377 0.114031 0.403693
0.475761 0.114748 0.406317
0.599756 0.116091 0.410864
0.722332 0.117082 0.421225
0.84361 0.117113 0.436255
0.964813 0.116823 0.453086
0.00318914 0.229023 0.405936
0.112963 0.232792 0.408804
0.230503 0.235508 0.411231
0.362005 0.235172 0.41207
0.488075 0.238468 0.417136
0.614008 0.242115 0.424414
0.738918 0.243915 0.43946
0.86305 0.24387 0.45687
0.986435 0.243366 0.473396
0.0107118 0.349554 0.413504
0.12311 0.355749 0.418738
0.242802 0.36054 0.423041
0.375937 0.361639 0.425147
0.502937 0.365805 0.430884
0.628901 0.369421 0.440467
0.756054 0.369284 0.457954
0.882521 0.368231 0.473487
1 0.36762 0.487984
0.0272068 0.474128 0.428733
0.139696 0.481178 0.434989
0.259571 0.485893 0.439384
0.392569 0.486809 0.441169
0.51957 0.490929 0.446586
0.649271 0.49247 0.458381
0.7794 0.491859 0.472786
0.905821 0.491402 0.484871
1 0.490593 0.497765
0.0460212 0.598169 0.44509
0.157076 0.605829 0.452018
0.277195 0.610803 0.456596
0.410513 0.611811 0.458534
0.537392 0.615717 0.463691
0.665354 0.616785 0.477623
0.776516 0.623301 0.497093
0.901625 0.622187 0.504768
1 0.616983 0.510506
0.0665446 0.723507 0.464195
0.177157 0.730861 0.471
0.29662 0.735119 0.474983
0.428855 0.735088 0.475929
0.554269 0.737621 0.479652
0.681132 0.737743 0.485939
0.800992 0.735348 0.510948
0.903914 0.740459 0.526223
1 0.741939 0.537636
0.0868391 0.847364 0.484215
0.19707 0.852644 0.489158
0.314641 0.855039 0.491463
0.444694 0.852995 0.490471
0.567849 0.853452 0.492134
0.691859 0.85211 0.494926
0.816999 0.845273 0.510643
0.924346 0.843168 0.534401
1 0.846448 0.547112
0.102663 0.965148 0.499687
0.211353 0.968078 0.502083
0.326726 0.968383 0.502419
0.454673 0.964294 0.499504
0.576013 0.962829 0.499428
0.698131 0.960128 0.500252
0.82269 0.952895 0.508736
0.93904 0.944945 0.531075
1 0.944289 0.551766
0.00564584 0.0121614 0.491096
0.11249 0.0123293 0.491188
0.225925 0.0109712 0.490043
0.352499 0.0061799 0.486671
0.47361 0.00466926 0.487297
0.595728 0.00354009 0.488228
0.717357 0.00244144 0.490074
0.833082 0.00354009 0.493187
0.947234 0.005066 0.500664
0.00527962 0.12076 0.490028
0.112932 0.122026 0.490944
0.227878 0.122301 0.491112
0.356817 0.119493 0.489784
0.480308 0.120607 0.492561
0.605295 0.122103 0.496193
0.729442 0.123888 0.50074
0.850004 0.12578 0.509789
0.968872 0.127581 0.523217
0.00770581 0.234623 0.492042
0.117769 0.238666 0.495155
0.235676 0.241611 0.497917
0.367269 0.241611 0.498939
0.493446 0.245136 0.504173
0.620401 0.248814 0.509651
0.746014 0.252003 0.516106
0.867475 0.254444 0.527825
0.987427 0.255695 0.543603
0.0162356 0.355978 0.500496
0.128756 0.362356 0.505821
0.248631 0.367178 0.510292
0.381613 0.368414 0.512383
0.508492 0.372595 0.518105
0.635447 0.376379 0.523552
0.760586 0.37937 0.530648
0.882414 0.380957 0.545174
1 0.381186 0.562402
0.0324254 0.481056 0.51632
0.14551 0.487816 0.522148
0.26537 0.492454 0.526543
0.398291 0.493507 0.528389
0.525246 0.497704 0.533898
0.652323 0.501793 0.539422
0.777401 0.504616 0.549035
0.901518 0.504311 0.565621
1 0.503273 0.580392
0.0510262 0.605188 0.532723
0.162982 0.612512 0.539223
0.283162 0.617411 0.543862
0.416266 0.618448 0.545693
0.543038 0.622278 0.550851
0.669444 0.625696 0.555611
0.797543 0.624994 0.566461
0.922576 0.622889 0.577707
1 0.620111 0.589197
0.0714885 0.730419 0.551797
0.182879 0.737316 0.558022
0.302266 0.741421 0.561898
0.434226 0.741268 0.562676
0.559457 0.743542 0.566323
0.683894 0.745174 0.569284
0.807568 0.742916 0.581811
0.913268 0.746349 0.59649
1 0.742 0.600931
0.091371 0.853773 0.571298
0.202197 0.858488 0.575647
0.319539 0.860685 0.577707
0.449363 0.858427 0.576577
0.572229 0.858701 0.578058
0.694652 0.858137 0.579141
0.817945 0.854292 0.582742
0.930343 0.849714 0.604761
1 0.852461 0.616846
0.106905 0.970657 0.58587
0.215763 0.973205 0.587884
0.331044 0.97322 0.588098
0.458656 0.969085 0.584955
0.579919 0.967437 0.584878
0.700679 0.965499 0.584421
0.822156 0.961257 0.585061
0.942321 0.952743 0.600061
1 0.950591 0.621958
0.00888075 0.016495 0.574624
0.115862 0.0166171 0.574731
0.229252 0.0154269 0.57351
0.355932 0.0107729 0.57026
0.47715 0.00949111 0.571054
0.599512 0.00860609 0.572259
0.721935 0.00767529 0.573587
0.84033 0.00828565 0.574685
0.955352 0.010544 0.578531
0.00895705 0.125246 0.573938
0.116655 0.126864 0.574823
0.231891 0.127413 0.575189
0.361074 0.124895 0.574121
0.484764 0.126329 0.577203
0.61001 0.128115 0.581109
0.735042 0.130007 0.584863
0.857084 0.132296 0.589731
0.976074 0.13518 0.598321
0.0121157 0.240085 0.576623
0.122621 0.244312 0.580011
0.240696 0.247639 0.582895
0.37258 0.247807 0.584237
0.498665 0.251621 0.589532
0.625818 0.255329 0.595209
0.752132 0.258518 0.600168
0.8748 0.261448 0.605997
0.993729 0.26424 0.615808
0.0215763 0.362234 0.58587
0.134356 0.368688 0.591333
0.254215 0.373648 0.595773
0.387243 0.374884 0.597986
0.513863 0.379141 0.603601
0.640833 0.382788 0.609094
0.766934 0.38587 0.61384
0.889357 0.388815 0.620096
1 0.391546 0.631876
0.038056 0.487495 0.601938
0.151186 0.494118 0.607706
0.270954 0.498833 0.611994
0.403922 0.499931 0.613977
0.530694 0.50425 0.619501
0.657847 0.508263 0.625101
0.783886 0.511482 0.62977
0.905669 0.514107 0.636683
1 0.515358 0.650706
0.0557412 0.611994 0.618784
0.168719 0.618906 0.624796
0.288884 0.623804 0.629358
0.421851 0.624811 0.631189
0.548333 0.628626 0.63624
0.674647 0.631876 0.64097
0.799542 0.633936 0.644541
0.919768 0.634485 0.652796
1 0.632136 0.667048
0.0761273 0.737118 0.637751
0.188357 0.743526 0.643336
0.307652 0.747433 0.647059
0.439277 0.747189 0.647623
0.564202 0.749264 0.651133
0.688457 0.750668 0.65391
0.811337 0.750576 0.655451
0.933333 0.746746 0.662974
1 0.741573 0.672419
0.096025 0.859693 0.65655
0.207034 0.864057 0.660334
0.324147 0.866056 0.66215
0.453696 0.863615 0.660838
0.576333 0.863661 0.662211
0.698543 0.862882 0.663081
0.819181 0.860914 0.662577
0.93611 0.855924 0.673732
1 0.857053 0.684825
0.111192 0.975708 0.670192
0.219989 0.977981 0.671992
0.334981 0.977874 0.671901
0.462364 0.973617 0.668635
0.583459 0.971862 0.668482
0.704158 0.969818 0.667964
0.82388 0.966781 0.666621
0.943175 0.960998 0.669627
1 0.956649 0.690776
0.0119326 0.0204471 0.655772
0.118868 0.020676 0.655787
0.232349 0.0195773 0.654597
0.359274 0.0149996 0.651621
0.480476 0.0140536 0.652522
0.60322 0.0133516 0.654108
0.725765 0.0128023 0.655573
0.846159 0.0127108 0.65742
0.9626 0.015198 0.658869
0.0122988 0.12958 0.655344
0.120241 0.131441 0.656367
0.235737 0.13228 0.656947
0.365118 0.130068 0.656153
0.489158 0.131716 0.659663
0.614542 0.133898 0.663691
0.739879 0.135943 0.667796
0.862562 0.138338 0.671794
0.982834 0.14136 0.677165
0.0163577 0.245304 0.658839
0.127199 0.24979 0.662455
0.245487 0.253422 0.665522
0.377523 0.253803 0.667094
0.50367 0.257801 0.672557
0.630869 0.261601 0.678294
0.757198 0.264805 0.683314
0.880491 0.267582 0.687861
1 0.270497 0.69337
0.0267033 0.368215 0.668879
0.139651 0.374777 0.674403
0.25951 0.379828 0.678828
0.392477 0.381064 0.681117
0.518898 0.385306 0.686687
0.645853 0.388968 0.692164
0.772015 0.392096 0.697002
0.895323 0.394965 0.701564
1 0.398199 0.707622
0.0433967 0.493584 0.685115
0.156466 0.500114 0.690745
0.27628 0.504891 0.695048
0.409232 0.506065 0.697154
0.535882 0.510445 0.702724
0.662989 0.514458 0.708293
0.788983 0.517601 0.712963
0.911757 0.520119 0.717006
1 0.522606 0.722835
0.0608377 0.618235 0.702098
0.174182 0.624979 0.707958
0.294224 0.629892 0.712413
0.4271 0.630808 0.714275
0.553277 0.634607 0.719219
0.679469 0.63769 0.723888
0.80412 0.639582 0.727245
0.925231 0.640436 0.729747
1 0.640925 0.734905
0.0808728 0.743267 0.721004
0.193576 0.749294 0.726238
0.312627 0.753094 0.729763
0.444038 0.752621 0.73022
0.568536 0.754604 0.733486
0.692683 0.755718 0.736202
0.815198 0.755489 0.737484
0.934051 0.754299 0.737835
1 0.752026 0.744137
0.100755 0.865034 0.739101
0.21149 0.86923 0.742565
0.328435 0.870985 0.744183
0.457633 0.868406 0.742641
0.580087 0.868193 0.743969
0.701991 0.867292 0.744579
0.822522 0.865141 0.743969
0.939727 0.862226 0.742641
1 0.856153 0.748882
0.115145 0.980362 0.75201
0.223774 0.982406 0.753597
0.338506 0.982177 0.753246
0.465827 0.977707 0.749981
0.586618 0.975952 0.749676
0.707271 0.973831 0.749111
0.827024 0.970687 0.747784
0.943481 0.96733 0.745785
1 0.962264 0.757687
0.0148928 0.0242466 0.735775
0.121767 0.024567 0.735821
0.235325 0.0236057 0.734737
0.362356 0.0191958 0.731929
0.483726 0.0185245 0.733059
0.606744 0.0180972 0.734905
0.729549 0.0178378 0.736614
0.850248 0.0180209 0.73875
0.968765 0.0197757 0.741039
0.0155642 0.133837 0.735622
0.123751 0.135927 0.736965
0.239689 0.13695 0.737926
0.369116 0.135164 0.737285
0.493355 0.137118 0.7411
0.618997 0.13959 0.745357
0.744533 0.141848 0.749645
0.867445 0.14432 0.753857
0.988266 0.147372 0.758343
0.020737 0.25034 0.740078
0.131716 0.255207 0.743923
0.250217 0.259098 0.747219
0.382361 0.259693 0.749004
0.508644 0.263752 0.754742
0.635752 0.26772 0.760388
0.762203 0.270848 0.765484
0.885283 0.27364 0.769848
1 0.276417 0.774273
0.0318303 0.374029 0.75079
0.144808 0.380713 0.756436
0.264652 0.38584 0.760891
0.397513 0.387076 0.763195
0.523873 0.391196 0.768856
0.650736 0.394995 0.774243
0.77705 0.398108 0.779217
0.900236 0.401083 0.783673
1 0.40415 0.788296
0.0486915 0.499428 0.767178
0.161639 0.505928 0.772778
0.281422 0.510826 0.777127
0.414359 0.512062 0.779324
0.540963 0.516442 0.785
0.667948 0.520455 0.790463
0.793957 0.523461 0.795132
0.916503 0.525948 0.798962
1 0.528161 0.80264
0.0661173 0.624186 0.784146
0.179461 0.630884 0.790082
0.299351 0.635782 0.794461
0.432059 0.636667 0.796277
0.558099 0.640314 0.801236
0.684047 0.643305 0.805676
0.80856 0.644938 0.808911
0.929366 0.64564 0.811109
1 0.645869 0.812894
0.0859388 0.749035 0.802838
0.198581 0.754864 0.808072
0.317342 0.758556 0.811383
0.448493 0.75787 0.811734
0.572625 0.759716 0.814786
0.696574 0.760586 0.817334
0.81883 0.760174 0.818402
0.93753 0.758724 0.818601
1 0.756985 0.818235
0.105211 0.870192 0.820356
0.215778 0.874128 0.823743
0.332525 0.875639 0.825208
0.461311 0.872953 0.823407
0.583474 0.872557 0.824582
0.705196 0.871489 0.82501
0.825696 0.869108 0.824399
0.942626 0.866194 0.822889
1 0.863111 0.821424
0.119005 0.98471 0.832685
0.227268 0.986633 0.834058
0.341817 0.986252 0.833555
0.468986 0.981643 0.830228
0.589563 0.979858 0.829831
0.710277 0.9776 0.829328
0.829892 0.974502 0.827863
0.94638 0.97113 0.825879
1 0.967956 0.824201
