src/luts/rounded/15.cube
TITLE "Generated by Resolve"
LUT_3D_SIZE 5
0 0 0.0950942
0.213733 0 0.104448
0.463401 0 0.113313
0.703822 0 0.121309
0.938231 0 0.128557
0 0.206332 0.0926375
0.211353 0.205905 0.114122
0.44036 0.215381 0.143374
0.703365 0.213703 0.160739
0.970336 0.206394 0.177142
0.00590524 0.444389 0.108751
0.239811 0.454368 0.126513
0.492393 0.454871 0.175265
0.712169 0.473838 0.212772
0.939376 0.484474 0.241856
0.0452583 0.693843 0.144579
0.2757 0.705577 0.15996
0.543084 0.699565 0.19411
0.772366 0.704768 0.247791
0.976135 0.717174 0.27715
0.0851301 0.940108 0.184375
0.310445 0.944747 0.191455
0.570703 0.932387 0.207355
0.812345 0.919509 0.252445
1 0.919081 0.291112
0 0 0.243214
0.214572 0 0.241733
0.459678 0 0.248707
0.699947 0 0.267536
0.935241 0 0.281575
0 0.217334 0.241947
0.219715 0.22266 0.245823
0.482612 0.21886 0.263951
0.743603 0.217166 0.292287
0.995041 0.216495 0.31664
0.0161898 0.459113 0.26186
0.246937 0.471931 0.273045
0.508049 0.471962 0.301671
0.734081 0.487999 0.33872
0.988067 0.487236 0.354589
0.0555581 0.708553 0.297749
0.28423 0.721447 0.309224
0.548135 0.720272 0.322499
0.786587 0.71989 0.373388
0.991531 0.730526 0.401373
0.0936446 0.952667 0.335439
0.317098 0.957427 0.339269
0.57113 0.94963 0.341283
0.819684 0.934936 0.373526
1 0.931472 0.414786
0.0021973 0.00756847 0.405905
0.222339 0.00639353 0.404791
0.469963 0 0.401862
0.710353 0 0.408621
0.939712 0 0.426886
0.00318914 0.229023 0.405936
0.230503 0.235508 0.411231
0.488075 0.238468 0.417136
0.738918 0.243915 0.43946
0.986435 0.243366 0.473396
0.0272068 0.474128 0.428733
0.259571 0.485893 0.439384
0.51957 0.490929 0.446586
0.7794 0.491859 0.472786
1 0.490593 0.497765
0.0665446 0.723507 0.464195
0.29662 0.735119 0.474983
0.554269 0.737621 0.479652
0.800992 0.735348 0.510948
1 0.741939 0.537636
0.102663 0.965148 0.499687
0.326726 0.968383 0.502419
0.576013 0.962829 0.499428
0.82269 0.952895 0.508736
1 0.944289 0.551766
0.00888075 0.016495 0.574624
0.229252 0.0154269 0.57351
0.47715 0.00949111 0.571054
0.721935 0.00767529 0.573587
0.955352 0.010544 0.578531
0.0121157 0.240085 0.576623
0.240696 0.247639 0.582895
0.498665 0.251621 0.589532
0.752132 0.258518 0.600168
0.993729 0.26424 0.615808
0.038056 0.487495 0.601938
0.270954 0.498833 0.611994
0.530694 0.50425 0.619501
0.783886 0.511482 0.62977
1 0.515358 0.650706
0.0761273 0.737118 0.637751
0.307652 0.747433 0.647059
0.564202 0.749264 0.651133
0.811337 0.750576 0.655451
1 0.741573 0.672419
0.111192 0.975708 0.670192
0.334981 0.977874 0.671901
0.583459 0.971862 0.668482
0.82388 0.966781 0.666621
1 0.956649 0.690776
0.0148928 0.0242466 0.735775
0.235325 0.0236057 0.734737
0.483726 0.0185245 0.733059
0.729549 0.0178378 0.736614
0.968765 0.0197757 0.741039
0.020737 0.25034 0.740078
0.250217 0.259098 0.747219
0.508644 0.263752 0.754742
0.762203 0.270848 0.765484
1 0.276417 0.774273
0.0486915 0.499428 0.767178
0.281422 0.510826 0.777127
0.540963 0.516442 0.785
0.793957 0.523461 0.795132
1 0.528161 0.80264
0.0859388 0.749035 0.802838
0.317342 0.758556 0.811383
0.572625 0.759716 0.814786
0.81883 0.760174 0.818402
1 0.756985 0.818235
0.119005 0.98471 0.832685
0.341817 0.986252 0.833555
0.589563 0.979858 0.829831
0.829892 0.974502 0.827863
1 0.967956 0.824201
