src/luts/rounded/2.cube
TITLE "33x33x33 Adobe/IRIDAS cube 3D LUT exported with GrossGrade v0.2.2 (beta) 64 bit"
DOMAIN_MIN 0 0 0
DOMAIN_MAX 1 1 1
LUT_3D_SIZE 5
0.009369040 0.021362601 0.018204000
0.136782005 0.048340600 0.031265698
0.418372005 0.088029303 0.084031403
0.706248999 0.143297002 0.146365002
0.743571997 0.145235002 0.154817998
0.036163900 0.110765003 0.071778402
0.161868006 0.159701005 0.064560898
0.420111001 0.149507999 0.091416799
0.717525005 0.176973999 0.144502997
0.794339001 0.189577997 0.159823000
0.085328497 0.270435989 0.182634994
0.146608993 0.330724001 0.156023994
0.456413001 0.391119003 0.153062999
0.744579017 0.359319001 0.179339007
0.845685005 0.376561999 0.196413994
0.161653996 0.497931987 0.320347995
0.218906000 0.552865028 0.311527997
0.501640022 0.626443982 0.242557004
0.745967984 0.613427997 0.245730996
0.873731971 0.607584000 0.256534994
0.235781997 0.697826028 0.437705010
0.302953005 0.739665985 0.436576009
0.575600982 0.792859018 0.349554002
0.772518992 0.790906012 0.312260985
0.873640001 0.769635022 0.310826004
0.014847000 0.030243400 0.093171597
0.153154999 0.052628402 0.145510003
0.429603010 0.090684399 0.152300000
0.709421992 0.143893003 0.201815993
0.741939008 0.146502003 0.221453995
0.050965101 0.152147993 0.157977000
0.168764994 0.198137999 0.197803006
0.445120990 0.168733999 0.186510995
0.736446023 0.181231007 0.204868004
0.800885022 0.192844003 0.227175996
0.112093002 0.342779011 0.303243011
0.170839995 0.389959991 0.303669989
0.472449988 0.454596996 0.245639995
0.760006011 0.399176002 0.239871994
0.867062986 0.409536988 0.252781004
0.178636998 0.543191016 0.431266010
0.229647994 0.586694002 0.434455007
0.510613024 0.669489980 0.406149000
0.770274997 0.650049984 0.305119008
0.904707015 0.641351998 0.312977999
0.241275996 0.713374972 0.531044006
0.317449003 0.758755028 0.558144987
0.597954988 0.814786017 0.563377976
0.798093021 0.825070977 0.422827005
0.907285988 0.805782974 0.386373997
0.039688699 0.095353603 0.241779000
0.068268903 0.046891000 0.263583988
0.432134986 0.099641398 0.333730012
0.685694993 0.143739998 0.346365005
0.709941030 0.148302004 0.382330000
0.087052703 0.251621008 0.318502009
0.112551004 0.245379999 0.340779990
0.474189013 0.189792007 0.435705990
0.740459025 0.194049001 0.407950014
0.789761007 0.211413994 0.440405995
0.140443996 0.420065999 0.432684988
0.178668007 0.443107009 0.445838004
0.504372001 0.513817012 0.506905019
0.799695015 0.440557986 0.462103993
0.896345019 0.445883989 0.468284011
0.189074993 0.572197974 0.528267026
0.233218998 0.611231029 0.549980998
0.550728977 0.699001014 0.613274992
0.813062012 0.691263974 0.534447014
0.935760021 0.682215989 0.507041991
0.240757003 0.717173994 0.614495993
0.302570999 0.759639978 0.643213987
0.614983976 0.826534986 0.703670025
0.828167975 0.854658008 0.640528023
0.934446990 0.841549993 0.598886013
0.101136997 0.271106988 0.464271009
0.122637004 0.270604014 0.485083997
0.218722999 0.097215198 0.508979976
0.635232985 0.148225993 0.517585993
0.676707029 0.157915995 0.559746981
0.135179996 0.385275006 0.508063972
0.166629001 0.397482008 0.537850022
0.257129997 0.340779990 0.628518999
0.757579982 0.270938993 0.679270983
0.813458025 0.314732999 0.718715012
0.170550004 0.499336004 0.566232026
0.212512001 0.533684015 0.602913976
0.392675996 0.568413973 0.673991024
0.833645999 0.535973012 0.753094018
0.897321999 0.555657029 0.769115984
0.203952000 0.606256008 0.623026013
0.250797004 0.654459000 0.661279976
0.506583989 0.727702975 0.732035995
0.848020017 0.741542995 0.775402009
0.945982993 0.751141012 0.780056000
0.240649998 0.718272984 0.681299984
0.289494008 0.759379983 0.715251029
0.586006999 0.836942017 0.789516985
0.865384996 0.880522013 0.829252005
0.962234020 0.883925021 0.821102977
0.140276000 0.375616014 0.595483005
0.167346001 0.377553999 0.621469021
0.299367011 0.305637985 0.741389990
0.732249975 0.232455999 0.729900002
0.736232996 0.196154997 0.689418018
0.165300995 0.460303992 0.617761016
0.205553994 0.485312998 0.662898004
0.309193999 0.474144012 0.787914991
0.836667001 0.490790993 0.852689028
0.868559003 0.472571999 0.844114006
0.191423997 0.545144022 0.652552009
0.240054995 0.587427020 0.702570975
0.393469006 0.625253975 0.805797994
0.838482976 0.647013009 0.895780981
0.917922020 0.664575994 0.902525008
0.218676999 0.632974982 0.695765972
0.270390004 0.682734013 0.742214024
0.488884002 0.751873016 0.824383974
0.830976009 0.780696988 0.922164023
0.950514972 0.798946977 0.937133014
0.247517005 0.725933015 0.741572976
0.299046010 0.770474017 0.784527004
0.565850019 0.849637985 0.861630976
0.861905992 0.893858016 0.918058991
0.971297979 0.905332983 0.943190992
