src/luts/rounded/2.cube
TITLE "33x33x33 Adobe/IRIDAS cube 3D LUT exported with GrossGrade v0.2.2 (beta) 64 bit"
DOMAIN_MIN 0 0 0
DOMAIN_MAX 1 1 1
LUT_3D_SIZE 33
0.009369040 0.021362601 0.018204000
0.011368000 0.022095099 0.019119600
0.025390999 0.026733801 0.021316901
0.041184101 0.031418301 0.023178499
0.057633299 0.035248298 0.023926100
0.073243298 0.038666401 0.024551800
0.092546001 0.042572699 0.025726700
0.112443998 0.045944899 0.027863000
0.136782005 0.048340600 0.031265698
0.164019004 0.050339501 0.035751902
0.192477003 0.052338399 0.040665299
0.222080007 0.054673102 0.045975398
0.257923007 0.058777802 0.052719899
0.296512991 0.064606696 0.060135800
0.336827993 0.071885303 0.067902602
0.378758997 0.080155604 0.076112002
0.418372005 0.088029303 0.084031403
0.457511008 0.095704600 0.092179798
0.499550015 0.103899002 0.101198003
0.539314985 0.111603998 0.109834000
0.575493991 0.118562996 0.117723003
0.611002028 0.125321999 0.125338003
0.647517025 0.132235005 0.133120000
0.679835021 0.138383999 0.140276000
0.706248999 0.143297002 0.146365002
0.714182973 0.143923000 0.148699000
0.719738007 0.144167006 0.150224999
0.724955976 0.144396007 0.151750997
0.729960978 0.144716993 0.153062999
0.734905005 0.145082995 0.154146999
0.738003016 0.145190001 0.154451996
0.740795016 0.145205006 0.154650003
0.743571997 0.145235002 0.154817998
0.010986500 0.025406299 0.020340299
0.016968001 0.027771400 0.021698300
0.026794801 0.032089699 0.023453100
0.040283799 0.036301199 0.024811201
0.056702498 0.040329602 0.025726700
0.072663501 0.043686599 0.026001399
0.092210300 0.047608100 0.026932200
0.112168998 0.051224500 0.028946400
0.136079997 0.053345501 0.031937100
0.162356004 0.055024002 0.036026601
0.190020993 0.056473602 0.040772099
0.217914000 0.057984300 0.045563400
0.252415001 0.061219200 0.051834900
0.289555013 0.066544600 0.058716699
0.329441994 0.073594302 0.066269897
0.370656997 0.081635803 0.074219897
0.410407007 0.089616202 0.081986703
0.448875010 0.097230501 0.089753598
0.490866989 0.105470002 0.098558001
0.530846000 0.113251999 0.107073002
0.567589998 0.120347999 0.114946000
0.603936970 0.127290994 0.122637004
0.640969992 0.134310007 0.130419001
0.673442006 0.140459001 0.137468994
0.702036977 0.145876005 0.143770993
0.713481009 0.147356004 0.146593004
0.719219029 0.147600994 0.148012996
0.724819005 0.147783995 0.151033998
0.729870021 0.148179993 0.152346000
0.734874010 0.148623005 0.153596997
0.737910986 0.148699000 0.153963998
0.740719020 0.148714006 0.154222995
0.743496001 0.148745000 0.154421002
0.013824700 0.035156801 0.026001399
0.021591499 0.039475098 0.029297300
0.028366501 0.043533999 0.031479400
0.042114899 0.047821801 0.032577999
0.058228400 0.052323200 0.033615600
0.076279797 0.055222400 0.032517001
0.096772701 0.058747198 0.032608502
0.116944999 0.061707500 0.033722401
0.139803007 0.062867202 0.035339899
0.164232999 0.063340202 0.038178101
0.190356001 0.063065499 0.041947100
0.215946004 0.062607802 0.045792300
0.247409999 0.064026900 0.051071901
0.283176988 0.068573996 0.057526499
0.322544992 0.075379603 0.064911902
0.363072991 0.083222702 0.072602399
0.402547985 0.091157399 0.080140397
0.441291004 0.098878503 0.087708898
0.482551008 0.106996000 0.096086100
0.523002982 0.114946000 0.104447998
0.560220003 0.122133002 0.112260997
0.597177029 0.129198000 0.119951002
0.634867013 0.136324003 0.127839997
0.667460024 0.142518997 0.134691000
0.697398007 0.148257002 0.141176000
0.712993026 0.150712997 0.144899994
0.719035983 0.150958002 0.146745995
0.724712014 0.151186004 0.150011003
0.729839027 0.151629001 0.151553005
0.734889984 0.152132004 0.153047994
0.737834990 0.152192995 0.153384000
0.740626991 0.152208999 0.153674006
0.743403971 0.152238995 0.153917998
0.017181700 0.046265401 0.032822199
0.023407299 0.050522599 0.035706099
0.031067399 0.054749399 0.038208600
0.045273501 0.059556000 0.039841302
0.060135800 0.063828498 0.040405899
0.079636797 0.067292303 0.039398801
0.100525998 0.070603497 0.038864698
0.121873997 0.072953403 0.038819000
0.145235002 0.074235097 0.039673500
0.169238001 0.074570797 0.041535102
0.194979995 0.074174099 0.044632599
0.220416993 0.073212802 0.048172701
0.250889003 0.073197499 0.052964099
0.284976989 0.075501598 0.058808301
0.322118014 0.079865701 0.065476499
0.359975994 0.085984603 0.072404101
0.396887004 0.093019001 0.079270601
0.434226006 0.100419998 0.086350799
0.475059003 0.108521998 0.094483897
0.515953004 0.116594002 0.102784999
0.553704023 0.123948999 0.110521004
0.591775000 0.131243005 0.118378997
0.630167007 0.138505995 0.126375005
0.663096011 0.144777998 0.133394003
0.693812013 0.150652006 0.140123993
0.713024020 0.153917998 0.144747004
0.719219029 0.154176995 0.146777004
0.724665999 0.154559001 0.148989007
0.729870021 0.155062005 0.151003003
0.734981000 0.155626997 0.152804002
0.737834990 0.155656993 0.153154999
0.740626991 0.155672997 0.153459996
0.743420005 0.155688003 0.153750002
0.020676000 0.057602800 0.039993901
0.026504900 0.061783802 0.042771000
0.034958400 0.066300496 0.045227699
0.047287699 0.071061298 0.046540000
0.061814301 0.075394802 0.046860501
0.082535997 0.079865701 0.046662100
0.104828998 0.082429200 0.044571601
0.127550006 0.084809601 0.043839201
0.150987998 0.086793303 0.044205401
0.175157994 0.087480001 0.045365099
0.200792998 0.086854398 0.047837000
0.226398006 0.085709900 0.051148199
0.256168008 0.084596001 0.055573400
0.288837999 0.084336601 0.060791899
0.324268997 0.086350799 0.066819303
0.359914988 0.090562299 0.073075503
0.395193011 0.096391201 0.079423197
0.431555986 0.103197001 0.086106703
0.471473008 0.111009002 0.093827702
0.512077987 0.119035996 0.101838998
0.549905002 0.126467004 0.109438002
0.588311970 0.133852005 0.117234997
0.626519978 0.141038999 0.125184998
0.659112990 0.147203997 0.132203996
0.690150023 0.153124005 0.139071003
0.713313997 0.157259002 0.144472003
0.719386995 0.157504007 0.146486998
0.724772990 0.157977000 0.148653001
0.729991972 0.158540994 0.150758997
0.735087991 0.159152001 0.152742997
0.737881005 0.159152001 0.153154999
0.740673006 0.159167007 0.153521001
0.743465006 0.159197003 0.153810993
0.024246600 0.069748998 0.047440302
0.029724600 0.074097797 0.050248001
0.037933901 0.078858599 0.052338399
0.048233800 0.084062003 0.053513400
0.062073700 0.088807501 0.053772800
0.081437401 0.093781903 0.053116702
0.104645997 0.098573297 0.050705701
0.130265996 0.102036998 0.049835999
0.155459002 0.103730999 0.049698599
0.180513993 0.103776999 0.050293699
0.206744000 0.103028998 0.052124798
0.233234003 0.101471998 0.055054601
0.262959003 0.099031098 0.059037201
0.296117008 0.097337298 0.063996300
0.331395000 0.097245701 0.069657400
0.366369009 0.099198900 0.075501598
0.401342988 0.103014000 0.081559502
0.438147992 0.108583003 0.088075101
0.475226998 0.115388997 0.094834797
0.513343990 0.122927003 0.101990998
0.549722016 0.130082995 0.109071001
0.586847007 0.137162998 0.116563998
0.623865008 0.144014999 0.124269001
0.656747997 0.150195003 0.131349996
0.688745975 0.156329006 0.138354003
0.716426015 0.161562994 0.144532993
0.724085987 0.162279993 0.146669999
0.731289029 0.163332999 0.148714006
0.738520980 0.164508000 0.150561005
0.745251000 0.165591002 0.152147993
0.747860014 0.165529996 0.152421996
0.750500023 0.165483996 0.152682006
0.753108978 0.165437996 0.152925998
0.028046099 0.082780197 0.054917201
0.033325698 0.087235801 0.057785898
0.040405899 0.092179798 0.059571199
0.048569500 0.097566202 0.060639400
0.061844800 0.102632001 0.060746200
0.080476098 0.108521998 0.059723798
0.103578001 0.114473000 0.056992400
0.132386997 0.119280003 0.054810401
0.158723995 0.121096000 0.054825701
0.184924006 0.121523000 0.055466499
0.212054998 0.120668001 0.056900900
0.239261001 0.119051002 0.059449200
0.268956006 0.116503000 0.063096099
0.301777989 0.114335999 0.067658499
0.336872995 0.112902001 0.072907597
0.371847004 0.112551004 0.078309298
0.406973004 0.114229001 0.084092498
0.444709003 0.117463998 0.090470701
0.481909990 0.122544996 0.097032100
0.520301998 0.128861994 0.104005001
0.557900012 0.135667995 0.111101002
0.596292019 0.142961994 0.118607998
0.633875012 0.150133997 0.126084998
0.667109013 0.156526998 0.132875994
0.698421001 0.162631005 0.139497995
0.727213979 0.168261006 0.145616993
0.735912025 0.169238001 0.147356004
0.743206024 0.170184001 0.149354994
0.750895977 0.171373993 0.151415005
0.758282006 0.172580004 0.153276995
0.760936975 0.172548994 0.153459996
0.763683975 0.172548994 0.153642997
0.766216993 0.172488004 0.153810993
0.032013401 0.096421801 0.063080803
0.037186202 0.101030000 0.066010498
0.043671299 0.106202997 0.067841597
0.050583702 0.111649998 0.068955503
0.062104199 0.117051996 0.068482503
0.078873903 0.123338997 0.066926099
0.100298002 0.129853994 0.064194702
0.132631004 0.137316003 0.059006602
0.161227003 0.140520006 0.060303699
0.189302996 0.141421005 0.061081901
0.217593998 0.141054004 0.062424701
0.245701000 0.139651000 0.064744003
0.276051015 0.137101993 0.068085797
0.308858007 0.134752005 0.072312497
0.343861997 0.132235005 0.077119097
0.378758997 0.130434006 0.082139298
0.413854986 0.129853994 0.087510496
0.452612996 0.130922005 0.093705699
0.489585996 0.133791000 0.099946603
0.528405011 0.138230994 0.106766999
0.566811979 0.143801004 0.113787003
0.605951011 0.150316998 0.121187001
0.643869996 0.157046005 0.128496006
0.677377999 0.163194999 0.135210007
0.708446026 0.169055000 0.141801998
0.737285018 0.174563006 0.148135006
0.749827981 0.176286995 0.150698006
0.757808983 0.177447006 0.152467996
0.766017973 0.179065004 0.154313996
0.773097992 0.180682003 0.155962005
0.775844991 0.180666998 0.156054005
0.778607011 0.180682003 0.156160995
0.781323016 0.180651993 0.156251997
0.036163900 0.110765003 0.071778402
0.041123100 0.115189999 0.074372500
0.046891000 0.120180003 0.075928897
0.052887801 0.125398993 0.076981798
0.062165301 0.130952999 0.076218799
0.077027500 0.137758002 0.074128300
0.097947702 0.145205006 0.070405103
0.128771007 0.153047994 0.065064497
0.161868006 0.159701005 0.064560898
0.191165000 0.161653996 0.066376701
0.220416993 0.161852002 0.067780599
0.250995994 0.160753995 0.070206799
0.282292008 0.158632994 0.073380597
0.315647990 0.156114995 0.077302203
0.350607008 0.153658003 0.081834100
0.385686994 0.151216999 0.086503401
0.420111001 0.149507999 0.091416799
0.458869010 0.148515999 0.097230501
0.495750010 0.149081007 0.103136003
0.534478009 0.151186004 0.109667003
0.573816001 0.154788002 0.116579004
0.614068985 0.159792006 0.123934001
0.652445018 0.165454000 0.131182000
0.686426997 0.171251997 0.137957007
0.717525005 0.176973999 0.144502997
0.746715009 0.182909995 0.151003003
0.762829006 0.185747996 0.154359996
0.770946980 0.187396005 0.156237006
0.778912008 0.188860998 0.158098996
0.786037982 0.190065995 0.159639999
0.788784981 0.189882994 0.159701005
0.791547000 0.189714998 0.159761995
0.794339001 0.189577997 0.159823000
0.040314302 0.125200003 0.080277704
0.045166701 0.129717007 0.082749702
0.050385300 0.134446993 0.084260300
0.055756502 0.139513001 0.085404702
0.062668800 0.144960999 0.084290802
0.075516902 0.152316004 0.081818901
0.095262103 0.160661995 0.077546403
0.126481995 0.169574007 0.072236203
0.161013007 0.177157000 0.070817098
0.190615997 0.181857005 0.071839496
0.223011002 0.183780000 0.073777400
0.254550993 0.183841005 0.076264597
0.286091000 0.182208002 0.079224803
0.321065009 0.179842994 0.083024301
0.356373996 0.176989004 0.087159500
0.391119003 0.174594000 0.091523603
0.425024986 0.172456995 0.096009798
0.463858992 0.170291007 0.101396002
0.501197994 0.169162005 0.106950000
0.539665997 0.169116005 0.113039002
0.579689980 0.170459002 0.119737998
0.620980978 0.173648000 0.127015993
0.659875989 0.177690998 0.134203002
0.694408000 0.182375997 0.141009003
0.725459993 0.187593997 0.147416994
0.755107999 0.193957001 0.154054999
0.774182022 0.197879001 0.158114001
0.781857014 0.200000003 0.159884006
0.789456010 0.202273995 0.161699995
0.795894980 0.204105005 0.163087994
0.798641980 0.203876004 0.163133994
0.801433980 0.203676999 0.163210005
0.804288030 0.203539997 0.163271993
0.044739500 0.140351996 0.089234799
0.049546000 0.144915000 0.091920301
0.054352600 0.149354994 0.093247898
0.059266001 0.154208004 0.094270200
0.065323897 0.159318998 0.092988499
0.074586101 0.166780993 0.089890897
0.092530698 0.176364005 0.085206397
0.124528997 0.186618000 0.079438500
0.159181997 0.194933996 0.077470101
0.190203995 0.201464996 0.077790499
0.224277005 0.206210002 0.080231898
0.257939011 0.207218006 0.082795501
0.288837999 0.206637993 0.085496299
0.324056000 0.205081001 0.089082196
0.360540003 0.202639997 0.093079999
0.395803988 0.199908003 0.097154200
0.429708987 0.197299004 0.101288997
0.468787998 0.194582999 0.106354997
0.506202996 0.192690998 0.111574002
0.544366002 0.191302001 0.117188998
0.584511995 0.190906003 0.123507001
0.625955999 0.191927999 0.130480006
0.664622009 0.194385007 0.137407005
0.699595988 0.197787002 0.144030005
0.730709016 0.201967999 0.150316998
0.761211991 0.207889006 0.156909004
0.782742023 0.212696001 0.161547005
0.791088998 0.215777993 0.163531005
0.798520029 0.218921006 0.165392995
0.804638982 0.221439004 0.166750997
0.807416022 0.221164003 0.166780993
0.810253978 0.221042007 0.166841999
0.813045979 0.220798001 0.166887999
0.049866501 0.157609999 0.100281999
0.054627299 0.162219003 0.103395000
0.059250802 0.166644007 0.104707003
0.063889503 0.171237007 0.105485998
0.069504797 0.176165000 0.103776999
0.077729501 0.183397993 0.101044998
0.092988499 0.193499997 0.095933497
0.121400997 0.205614999 0.088548101
0.157229006 0.214877993 0.085557297
0.189364001 0.222705007 0.085511602
0.224108994 0.230137005 0.087800398
0.260075003 0.233218998 0.090775900
0.293462008 0.234318003 0.093705699
0.328069001 0.233660996 0.096940599
0.365179002 0.231647000 0.100617997
0.401160002 0.229038000 0.104387000
0.436132997 0.226307005 0.108292997
0.475196004 0.222994998 0.112916999
0.512427986 0.220110998 0.117647000
0.549874008 0.217792004 0.122773997
0.589592993 0.215595007 0.128527001
0.631188989 0.214877993 0.135073006
0.669412971 0.215884998 0.141558006
0.704249978 0.217700005 0.147845000
0.735285997 0.221240997 0.153917998
0.765774012 0.226458997 0.160235003
0.788693011 0.231662005 0.165132999
0.799633980 0.235339999 0.167666003
0.806912005 0.239414006 0.169588998
0.812406003 0.241749004 0.170747995
0.815258980 0.241641998 0.170793995
0.818081975 0.241412997 0.170825005
0.820905030 0.241169006 0.170855001
0.055771701 0.176958993 0.113908999
0.060440999 0.181445003 0.117005996
0.064942397 0.185884997 0.118303001
0.069413297 0.190311000 0.118868001
0.074586101 0.194796994 0.116471998
0.081864700 0.201769993 0.113649003
0.094682202 0.212221995 0.108507000
0.119508997 0.225040004 0.100037999
0.154070005 0.235293999 0.094010800
0.188434005 0.243946001 0.093675099
0.223162994 0.252597988 0.095460400
0.260639012 0.258747011 0.098634303
0.297123998 0.262210995 0.102098003
0.331548005 0.262791008 0.105180003
0.367895007 0.261813998 0.108537003
0.404181004 0.259494990 0.111970998
0.440436006 0.256550014 0.115617998
0.480049014 0.252705008 0.119828999
0.517387986 0.249331996 0.124178000
0.554634988 0.245884001 0.128785998
0.594034016 0.242832005 0.134095997
0.635385990 0.240665004 0.140108004
0.673044980 0.240054995 0.146074995
0.707697988 0.240832999 0.152025998
0.738811016 0.243763000 0.157915995
0.769038975 0.248065993 0.163911998
0.794170976 0.253742009 0.169222996
0.806958020 0.258365989 0.172183007
0.813992977 0.261997014 0.173922002
0.819042981 0.264515013 0.174989998
0.821927011 0.264485002 0.175035998
0.824781001 0.264239997 0.175051004
0.827679992 0.264117986 0.175097004
0.062165301 0.197696000 0.129290000
0.066941299 0.202501997 0.132615998
0.071259603 0.206545994 0.133577004
0.075608499 0.210819006 0.133944005
0.080735497 0.215563998 0.131715998
0.087266304 0.222094998 0.128877997
0.098435998 0.232547000 0.123873003
0.117784001 0.245884001 0.113466002
0.148362994 0.257281989 0.103868000
0.187014997 0.266407013 0.102936998
0.223666996 0.275685012 0.104111999
0.260989994 0.284428000 0.107133999
0.298741013 0.290517002 0.110841997
0.335027009 0.292392999 0.114076003
0.371176004 0.293278009 0.117494002
0.406821012 0.292026997 0.120683998
0.443854004 0.289173990 0.123963997
0.484688014 0.285344005 0.127931997
0.522484004 0.280766010 0.131669998
0.559486985 0.276722014 0.135821000
0.598519981 0.272891998 0.140612006
0.639643013 0.269551009 0.146059006
0.676616013 0.267612994 0.151446000
0.710551977 0.267459989 0.156939000
0.741527021 0.268727005 0.162416995
0.771389008 0.272343010 0.168092996
0.798031986 0.278035015 0.173602000
0.812116027 0.282871991 0.176776007
0.819851995 0.287342995 0.178728998
0.824505985 0.289249986 0.179491997
0.827328980 0.289112985 0.179491997
0.830197990 0.289020985 0.179521993
0.833051026 0.288837999 0.179521993
0.069245398 0.220264003 0.146502003
0.074051999 0.225177005 0.150057003
0.078385599 0.229296997 0.150987998
0.082688600 0.233523995 0.151186004
0.087754600 0.238224000 0.148683995
0.093949802 0.244816005 0.146105006
0.104249999 0.255039006 0.141114995
0.119309999 0.267825991 0.131014004
0.145540997 0.280826986 0.119843997
0.184329003 0.291889995 0.114565000
0.224414006 0.301456988 0.114168003
0.262225986 0.310353011 0.116167001
0.298420995 0.319020003 0.119799003
0.337758005 0.323597997 0.123673998
0.375921011 0.325810999 0.127275005
0.410070986 0.325504988 0.130114004
0.446006000 0.323734999 0.133058995
0.486992002 0.319310009 0.136384994
0.526023984 0.314152986 0.139742002
0.562920988 0.309224010 0.143327996
0.602014005 0.304250002 0.147508994
0.642969012 0.299825013 0.152392000
0.679026008 0.296651006 0.157152995
0.712275982 0.296039999 0.162233993
0.743022978 0.296451986 0.167329997
0.772580028 0.298970014 0.172640994
0.799724996 0.304722995 0.178179994
0.816495001 0.310245991 0.181887999
0.824886978 0.315358013 0.183978006
0.829174995 0.317310989 0.184664994
0.831982970 0.317342013 0.184680000
0.834806025 0.317158997 0.184664994
0.837612987 0.317158997 0.184695005
0.076905496 0.244326994 0.164445996
0.081727304 0.249286994 0.167666003
0.086121902 0.253634989 0.168367997
0.090425000 0.257831991 0.168367997
0.095597804 0.262881994 0.166292995
0.101778001 0.269809991 0.164217994
0.111420996 0.279881001 0.159030005
0.124086000 0.291615009 0.149507999
0.144488007 0.305440009 0.137345999
0.180682003 0.318668991 0.128343999
0.223620996 0.328817010 0.126313999
0.264117986 0.337880999 0.127061993
0.300617993 0.346563011 0.129442006
0.335835993 0.353749990 0.132966995
0.378865987 0.358601987 0.137345999
0.414678991 0.358907014 0.140154004
0.450233012 0.358404011 0.143038005
0.488440990 0.355627000 0.145998001
0.527885973 0.350759000 0.148943007
0.565301001 0.345021993 0.151949003
0.604700029 0.338811010 0.155459002
0.645730972 0.333714992 0.159777001
0.680781007 0.330143988 0.163988993
0.713541985 0.327764004 0.168399006
0.743861973 0.327672005 0.173129007
0.773266017 0.329075992 0.178057998
0.800153017 0.333822012 0.183215007
0.821148992 0.339787990 0.187671006
0.829526007 0.345021993 0.189792007
0.833509028 0.346837997 0.190386996
0.836286008 0.346700013 0.190372005
0.839078009 0.346502006 0.190340996
0.841856003 0.346547991 0.190356001
0.085328497 0.270435989 0.182634994
0.090333402 0.275882989 0.185992002
0.094636500 0.280003011 0.186281994
0.099076800 0.284413010 0.186221004
0.104280002 0.289570004 0.184421003
0.110399000 0.296436995 0.182361007
0.119401999 0.306127012 0.176912993
0.130265996 0.316915005 0.167741999
0.146608993 0.330724001 0.156023994
0.176989004 0.345892012 0.143130004
0.222156003 0.356985003 0.139208004
0.266925991 0.366384000 0.139009997
0.304645985 0.374547988 0.140017003
0.338108987 0.381476015 0.142427996
0.377110988 0.388022006 0.146303996
0.417670012 0.391775012 0.150300995
0.456413001 0.391119003 0.153062999
0.492287010 0.389241993 0.155626997
0.529793024 0.385473013 0.158160001
0.566461027 0.379994988 0.160723001
0.605646014 0.373800009 0.163745001
0.646632016 0.367482990 0.167361006
0.681804001 0.363225996 0.171114996
0.714290023 0.360280991 0.175066993
0.744579017 0.359319001 0.179339007
0.773800015 0.359288990 0.183688000
0.800442994 0.363835990 0.188677996
0.825223029 0.370122999 0.193835005
0.833585024 0.375066996 0.195925996
0.837430000 0.376486003 0.196413994
0.840192020 0.376547009 0.196428999
0.842953980 0.376439989 0.196399003
0.845685005 0.376561999 0.196413994
0.094361797 0.298009008 0.201098993
0.099259898 0.303151011 0.203844994
0.103730999 0.307682991 0.204256997
0.108277999 0.312276006 0.204348996
0.113724999 0.317968011 0.203387007
0.119966000 0.325215995 0.201617002
0.128267005 0.333943993 0.195132002
0.137925997 0.343816012 0.186098993
0.153108999 0.357412010 0.176103994
0.175952002 0.373892009 0.160661995
0.219959006 0.386191010 0.153338000
0.269717991 0.396032989 0.152453005
0.309392005 0.404256999 0.152421996
0.342732996 0.410879999 0.153521001
0.379599005 0.417989999 0.156572998
0.418630987 0.423453003 0.160448998
0.461921006 0.425146997 0.164003998
0.498512000 0.423087001 0.166278005
0.534676015 0.420614988 0.168687999
0.569176972 0.415578991 0.170656994
0.607354999 0.409750998 0.173175007
0.647745013 0.402913988 0.176089004
0.683023989 0.398458987 0.179431006
0.715113997 0.394919008 0.182849005
0.745173991 0.392675996 0.186510995
0.774318993 0.392248005 0.190539002
0.800625980 0.395132005 0.194995001
0.825573981 0.400992006 0.199984998
0.837841988 0.406210005 0.202807993
0.841244996 0.407247990 0.203143001
0.843976021 0.407323986 0.203159004
0.846737981 0.407384992 0.203159004
0.849439025 0.407462001 0.203159004
0.103699997 0.326238006 0.219318002
0.108629003 0.331440985 0.221561000
0.113191001 0.336080015 0.222308993
0.117890999 0.340963006 0.222797006
0.123598002 0.347142994 0.222477004
0.129747003 0.354207993 0.220660999
0.137636006 0.362554014 0.213992998
0.146380007 0.371556997 0.204806998
0.160707995 0.384862989 0.195712000
0.180300996 0.401021987 0.181459993
0.218784004 0.415670991 0.168855995
0.272175014 0.426183999 0.166872993
0.313939005 0.434255987 0.165758997
0.348150015 0.440818012 0.165515006
0.383902013 0.447607994 0.167329997
0.420203000 0.453346014 0.170442998
0.464942008 0.457908005 0.174548000
0.504508972 0.456640989 0.177065998
0.541038990 0.454275995 0.179248005
0.573692977 0.450125992 0.180879995
0.609461010 0.444662988 0.182788000
0.648141980 0.438544005 0.185199007
0.682947993 0.433234006 0.187868997
0.714915991 0.429084003 0.190798998
0.744868994 0.426413000 0.194064006
0.773831010 0.424917996 0.197604001
0.799924016 0.426122993 0.201526001
0.824338019 0.431647003 0.206240997
0.841473997 0.437049001 0.209827006
0.844648004 0.437658995 0.210040003
0.847440004 0.437674999 0.210040003
0.850202024 0.437705010 0.210056007
0.852903008 0.437949002 0.210100994
0.113237001 0.354939997 0.237353995
0.118455999 0.360830009 0.239779994
0.123156004 0.365743011 0.241016001
0.128098994 0.371084005 0.242145002
0.134020001 0.377721995 0.242358997
0.139909998 0.384146005 0.239825994
0.147402003 0.391927987 0.232577994
0.155612007 0.400350988 0.224062994
0.169421002 0.413596004 0.215808004
0.187593997 0.428824008 0.202838004
0.220339999 0.445365012 0.185367003
0.274906993 0.456458002 0.181734994
0.318273008 0.464713991 0.180148005
0.354131013 0.471504003 0.179278001
0.390004992 0.478201985 0.179842994
0.424277008 0.483864009 0.181688994
0.467413992 0.489540011 0.185183004
0.510140002 0.491737008 0.188739002
0.547828972 0.488563001 0.190539002
0.580163002 0.484885991 0.191989005
0.613885999 0.480461001 0.193575993
0.649942994 0.474539995 0.195253998
0.683359981 0.469428986 0.197405994
0.714488029 0.465126008 0.199863002
0.744152009 0.461340994 0.202501997
0.773006976 0.458732009 0.205493003
0.798749030 0.459358007 0.209049001
0.823437989 0.463355005 0.213382006
0.844296992 0.468849003 0.217533007
0.848051012 0.469199985 0.217761993
0.851163983 0.469031990 0.217761993
0.853941023 0.469260991 0.217806995
0.856611013 0.469383001 0.217822999
0.123323001 0.384999990 0.255573004
0.128542006 0.390767992 0.257815987
