src/luts/rounded/3.cube
TITLE "33x33x33 Adobe/IRIDAS cube 3D LUT exported with GrossGrade v0.2.2 (beta) 64 bit"
DOMAIN_MIN 0 0 0
DOMAIN_MAX 1 1 1
LUT_3D_SIZE 33
0.025955601 0.023285300 0.035843398
0.045670301 0.030029800 0.039780300
0.064255700 0.034500599 0.040451702
0.080766000 0.037933901 0.040283799
0.096116602 0.040787399 0.039795499
0.114014998 0.043198299 0.040314302
0.132157996 0.045258299 0.041321401
0.153567001 0.047180898 0.042969398
0.175723001 0.048752598 0.045182001
0.196871996 0.050034299 0.047409799
0.218447998 0.051651798 0.050080098
0.242679000 0.054123800 0.053665999
0.268756986 0.057450201 0.057938501
0.296056002 0.061600700 0.062760398
0.326040000 0.066956602 0.068253599
0.357991993 0.073212802 0.074250400
0.393332005 0.080353998 0.081040703
0.429785997 0.087647803 0.088212401
0.465537012 0.094773799 0.095506199
0.498710990 0.101380996 0.102449000
0.526619017 0.106935002 0.108277999
0.551796973 0.111924998 0.113450997
0.575920999 0.116655000 0.118424997
0.599053979 0.121187001 0.123186000
0.621026993 0.125521004 0.127642006
0.641901016 0.129624993 0.131883994
0.660776973 0.133394003 0.135896996
0.679713011 0.137179002 0.140077993
0.695689023 0.140351996 0.143847004
0.708904028 0.142869994 0.147020996
0.713267982 0.143297002 0.148469999
0.717051983 0.143664002 0.149569005
0.720470011 0.144106001 0.150637001
0.024399200 0.027084799 0.035706099
0.041992798 0.032745901 0.039398801
0.061386999 0.037186202 0.039719202
0.077760004 0.040299099 0.039093599
0.092790097 0.042893101 0.038071301
0.110780001 0.045715999 0.038468000
0.128939003 0.047913302 0.039459798
0.150591001 0.049851201 0.041336700
0.172868997 0.051468700 0.043701801
0.194536999 0.052918300 0.046234801
0.215777993 0.054428902 0.048981499
0.240191996 0.056885600 0.052674100
0.266315997 0.060196798 0.057007700
0.293278009 0.064301498 0.061737999
0.322972000 0.069535397 0.067139700
0.354375988 0.075623699 0.072938100
0.389425009 0.082703903 0.079514802
0.425742000 0.090028197 0.086427100
0.460837990 0.097077899 0.093308903
0.493721008 0.103684999 0.099977098
0.521552980 0.109255001 0.105668999
0.546944022 0.114289999 0.110903002
0.571313024 0.119080998 0.115923002
0.594201982 0.123582996 0.120562002
0.616280973 0.127915993 0.125047997
0.637139976 0.132006004 0.129305005
0.656244993 0.135790005 0.133378997
0.675273001 0.139559001 0.137545004
0.692592025 0.143007994 0.141572997
0.706705987 0.145677999 0.144884005
0.712566018 0.146426007 0.146502003
0.716700971 0.146868005 0.147569999
0.720149994 0.147279993 0.148669004
0.023666700 0.032776400 0.036408000
0.039246202 0.037613500 0.039963402
0.059189700 0.042496402 0.040329602
0.075440601 0.045304000 0.039169900
0.090821698 0.047699701 0.037857600
0.109559998 0.051148199 0.038086500
0.127931997 0.053238701 0.038925800
0.149660006 0.055024002 0.040695801
0.172030002 0.056427900 0.042999901
0.193712994 0.057496000 0.045578700
0.214221001 0.058304701 0.048203200
0.238102004 0.060074799 0.051804401
0.263538986 0.062989198 0.056015901
0.290134996 0.066926099 0.060669899
0.319492996 0.072037801 0.065964803
0.350636989 0.078019403 0.071625903
0.385457993 0.085053802 0.078004099
0.421575993 0.092393398 0.084657103
0.456427991 0.099427797 0.091248997
0.489082009 0.106004000 0.097688302
0.516975999 0.111589000 0.103288002
0.542428017 0.116640002 0.108415000
0.566751003 0.121431001 0.113343999
0.589685023 0.125917003 0.117951997
0.611855984 0.130251005 0.122437999
0.632836998 0.134340003 0.126726002
0.651942015 0.138108999 0.130739003
0.670862973 0.141833007 0.134737000
0.688685000 0.145388007 0.138688996
0.703562975 0.148257002 0.141969994
0.711893976 0.149629995 0.144014999
0.716334999 0.150087997 0.145388007
0.719950974 0.150469005 0.147097006
0.024872201 0.044098601 0.042160701
0.038513798 0.048935700 0.044617400
0.057877500 0.053879600 0.044937801
0.075471103 0.056656700 0.043045700
0.092667997 0.058991399 0.041168801
0.112474002 0.061997399 0.040589001
0.130677998 0.063126601 0.040573701
0.151873007 0.063889503 0.041458800
0.173663005 0.063996300 0.043213598
0.194521993 0.063660599 0.045426100
0.214282006 0.063157097 0.047837000
0.235949993 0.063324898 0.050919399
0.260654986 0.065720603 0.055024002
0.287097991 0.069504797 0.059662800
0.316060007 0.074479297 0.064835601
0.347204000 0.080415003 0.070405103
0.381796002 0.087403700 0.076600298
0.417670012 0.094712697 0.082993798
0.452293009 0.101717003 0.089402601
0.484901011 0.108292997 0.095689297
0.512673020 0.113862999 0.101167001
0.538231015 0.118943997 0.106248997
0.562707007 0.123765998 0.111161999
0.585641026 0.128252000 0.115708999
0.607964993 0.132600993 0.120255999
0.629083991 0.136705995 0.124590002
0.648370981 0.140475005 0.128710002
0.667521000 0.144227996 0.132844999
0.685863018 0.147874996 0.137011006
0.701366007 0.150835007 0.140642002
0.712032020 0.152696997 0.143435001
0.716441989 0.153108999 0.144960999
0.720058024 0.153475001 0.146639004
0.026306599 0.055374999 0.048188001
0.038742699 0.060242601 0.050202198
0.056397300 0.065049201 0.050400499
0.075043902 0.068192601 0.048279501
0.093919300 0.071076497 0.046158500
0.115754999 0.073624797 0.044235900
0.134844005 0.074784502 0.043793399
0.156572998 0.075684696 0.044129100
0.178987995 0.075806797 0.045487098
0.200412005 0.075257502 0.047547098
0.221180007 0.074631900 0.050080098
0.242755994 0.074158803 0.053086098
0.266941011 0.075013399 0.056916200
0.292484999 0.077058099 0.061158199
0.319844007 0.080186203 0.065796897
0.348866999 0.084580801 0.070740797
0.381033003 0.090440199 0.076264597
0.414725006 0.097123697 0.082062997
0.448325008 0.103928998 0.088120803
0.480690002 0.110475004 0.094239697
0.508445978 0.116060004 0.099595599
0.534462988 0.121262997 0.104676999
0.558876991 0.126101002 0.109421998
0.582176983 0.130677998 0.114000000
0.604578018 0.135041997 0.118501998
0.625864029 0.139162004 0.122881003
0.645318985 0.142947003 0.127122998
0.664484978 0.146669999 0.131319001
0.683192015 0.150362000 0.135637000
0.699442983 0.153459996 0.139513001
0.712413013 0.155825004 0.142839998
0.716517985 0.156130001 0.144350007
0.720165014 0.156497002 0.145998001
0.030151799 0.071885303 0.059052400
0.041947100 0.076432399 0.060654599
0.057557002 0.081086397 0.061112400
0.075928897 0.084946997 0.059052400
0.095628299 0.088120803 0.055832800
0.119799003 0.090791203 0.051651798
0.141526997 0.092881702 0.050308999
0.163668007 0.093217403 0.049515501
0.186434999 0.092347600 0.049851201
0.208377004 0.091416799 0.051499199
0.229587004 0.090089299 0.053757500
0.251163989 0.088563398 0.056473602
0.275043994 0.087556303 0.059922200
0.299977005 0.087678298 0.063736901
0.326389998 0.088990599 0.067902602
0.354283988 0.091783002 0.072404101
0.385428011 0.096208103 0.077515803
0.418357015 0.101899996 0.082993798
0.451254994 0.108140998 0.088716000
0.482612014 0.114335999 0.094438098
0.509728014 0.119782999 0.099504098
0.534981012 0.124834001 0.104295000
0.558938026 0.129564002 0.108873002
0.581659019 0.134004995 0.113268003
0.603493989 0.138216004 0.117632002
0.624125004 0.142184004 0.121843003
0.643167973 0.145861000 0.125977993
0.661875010 0.149462000 0.130036995
0.680400014 0.153062999 0.134356007
0.697611988 0.156343997 0.138445005
0.712688029 0.159135997 0.142214000
0.716700971 0.159364998 0.143801004
0.721080005 0.159915000 0.145616993
0.035690900 0.089494199 0.069443800
0.046051700 0.094224498 0.070939198
0.058487799 0.099015802 0.071457997
0.073701099 0.103501998 0.070481397
0.093934499 0.108002998 0.067063399
0.120393999 0.112016000 0.061921101
0.146365002 0.114198998 0.057847001
0.169756994 0.113008000 0.055649702
0.192873999 0.111420996 0.055039302
0.215731993 0.109742999 0.056107402
0.237156004 0.107423998 0.057831701
0.259220004 0.104860000 0.060227402
0.283589005 0.102678001 0.063416503
0.308995008 0.101227999 0.066971801
0.335469991 0.100984000 0.070878200
0.363240987 0.101945996 0.075089604
0.394385010 0.104570001 0.079987802
0.427419990 0.108750999 0.085282698
0.459021986 0.113908999 0.090516500
0.488624007 0.119416997 0.095674098
0.514518976 0.124467999 0.100327998
0.538811028 0.129228994 0.104783997
0.562173009 0.133775994 0.109163001
0.584451020 0.138079002 0.113450997
0.605965972 0.142229006 0.117678002
0.626718998 0.146227002 0.121843003
0.646174014 0.150011003 0.125977993
0.665338993 0.153718993 0.130098000
0.684840024 0.157580003 0.134553999
0.703593016 0.161241993 0.138903007
0.720165014 0.164462000 0.142869994
0.726238012 0.165286005 0.144548997
0.731715977 0.166216999 0.146181002
0.041962299 0.109010004 0.081284799
0.050141100 0.114031002 0.083161697
0.060776699 0.118959002 0.083482102
0.073624797 0.123765998 0.082414001
0.093095303 0.128756002 0.079575799
0.119707003 0.133944005 0.073731601
0.147311002 0.137804002 0.067948401
0.174197003 0.137345999 0.064560898
0.199588001 0.135790005 0.062943503
0.223331004 0.133349001 0.062607802
0.244709000 0.130616993 0.063721702
0.266896009 0.127748996 0.065674797
0.291081011 0.125031993 0.068375699
0.316273987 0.122698002 0.071442701
0.343235999 0.120545998 0.074982800
0.371434987 0.119264998 0.078843400
0.403342009 0.119203001 0.083482102
0.437353998 0.120789997 0.088639699
0.469489992 0.123719998 0.093736202
0.499886006 0.127764001 0.098847903
0.526223004 0.131868005 0.103441000
0.550697982 0.136095002 0.107804999
0.574227989 0.140383005 0.112062000
0.596795976 0.144685999 0.116288997
0.618279994 0.148866996 0.120347999
0.638971984 0.152911007 0.124346003
0.658289015 0.156694993 0.128267005
0.677348018 0.160448998 0.132235005
0.696192980 0.164202005 0.136507004
0.714824021 0.167849004 0.140809998
0.730831027 0.170947000 0.144639999
0.738506019 0.172060996 0.146608993
0.744305015 0.172992006 0.148362994
0.047959100 0.128084004 0.093553104
0.054291598 0.132600993 0.095155299
0.062439900 0.137300998 0.095094196
0.073441699 0.142138004 0.093400501
0.092179798 0.148362994 0.090333402
0.117570996 0.154008999 0.084458701
0.144213006 0.158343002 0.077622600
0.174898997 0.160967007 0.071885303
0.202609003 0.160418004 0.070771299
0.227192000 0.157594994 0.069748998
0.249775007 0.154222995 0.069855802
0.273274004 0.151141003 0.071457997
0.297719002 0.148332998 0.073792599
0.323186010 0.145510003 0.076508701
0.350652009 0.142793998 0.079774201
0.379216999 0.140383005 0.083314300
0.411428988 0.138720006 0.087617300
0.445670009 0.138017997 0.092408597
0.477820992 0.138811007 0.097215198
0.508202016 0.140702993 0.102082998
0.534478009 0.143144995 0.106462002
0.559243023 0.146136001 0.110749997
0.583168983 0.149340004 0.114960998
0.605875015 0.152788997 0.119051002
0.627740979 0.156405002 0.123063996
0.648615003 0.159990996 0.127001002
0.668237984 0.163516000 0.130968004
0.687372983 0.167009994 0.134920001
0.706126988 0.170504004 0.139116004
0.724955976 0.174060002 0.143526003
0.741008997 0.177004993 0.147386998
0.751537025 0.178668007 0.149904996
0.757228971 0.180025995 0.151583001
0.053940602 0.147065997 0.105791003
0.059403401 0.151186004 0.107331999
0.065629102 0.155428007 0.107148997
0.076066203 0.160982996 0.105485998
0.090272397 0.167955995 0.102463998
0.117632002 0.174243003 0.096116602
0.144427001 0.179399997 0.087540999
0.174486995 0.182833999 0.080048800
0.202852994 0.183963001 0.077851497
0.229984000 0.182146996 0.077561602
0.254200011 0.179491997 0.077363200
0.278019011 0.176226005 0.078141503
0.302982986 0.172900006 0.079850502
0.328954011 0.169527993 0.082124099
0.356846988 0.166246995 0.085023299
0.385702014 0.163179994 0.088181898
0.417715997 0.160418004 0.092042401
0.452307999 0.158098996 0.096452303
0.484596014 0.157152995 0.100954004
0.514869988 0.156969994 0.105485998
0.541207016 0.157869995 0.109696999
0.566200972 0.159410998 0.113831997
0.590462983 0.161364004 0.117936999
0.613503993 0.163836002 0.121950001
0.635690987 0.166629001 0.125917003
0.656732976 0.169588998 0.129793003
0.676432014 0.172717005 0.133729994
0.695704997 0.175936997 0.137667000
0.714366019 0.179170996 0.141755998
0.733272016 0.182895005 0.146273002
0.749889016 0.186281994 0.150346994
0.763531029 0.188936993 0.153658003
0.768855989 0.189836994 0.155214995
0.059937399 0.165987998 0.118196003
0.065018699 0.169801995 0.119432002
0.070405103 0.173586994 0.119249001
0.079667397 0.179919004 0.117586002
0.093019001 0.186954007 0.114823997
0.117586002 0.194216996 0.108492002
0.143815994 0.199663997 0.099717699
0.173326999 0.203844994 0.088654898
0.201784998 0.205905005 0.084885903
0.230548993 0.206316993 0.084779099
0.257450014 0.204852000 0.084779099
0.281163007 0.201693997 0.085145302
0.306600004 0.197986007 0.086289801
0.332814991 0.194049001 0.087907203
0.361470997 0.190645993 0.090531804
0.390661001 0.186892003 0.093293697
0.422430992 0.183291003 0.096650600
0.457648993 0.180011004 0.100754999
0.490287989 0.177569002 0.104920998
0.520394027 0.175906003 0.109102003
0.546760976 0.175478995 0.113068998
0.571878016 0.175494000 0.117005996
0.596246004 0.176318005 0.120973997
0.619576991 0.177690998 0.124894999
0.642023027 0.179339007 0.128756002
0.663187981 0.181475997 0.132569999
0.682947993 0.184009001 0.136416003
0.702234983 0.186647996 0.140276000
0.720881999 0.189517006 0.144259006
0.739757001 0.193378001 0.148791000
0.757091999 0.197008997 0.153016999
0.772152007 0.200137004 0.156663999
0.777599990 0.201389000 0.158281997
0.066803999 0.186281994 0.131731004
0.071641102 0.189836994 0.132311001
0.076615497 0.193332002 0.131914005
0.085450500 0.200518996 0.131197006
0.098420702 0.207874000 0.128282994
0.117371999 0.215412006 0.121431001
0.143938005 0.221423998 0.113100000
0.172656000 0.225589007 0.101442002
0.201876998 0.229113996 0.094315998
0.231388003 0.231205001 0.092744298
0.259891987 0.230930001 0.093049496
0.284123003 0.229084000 0.093324199
0.309772998 0.225970998 0.094178699
0.336537987 0.222353995 0.095445201
0.366201013 0.218081996 0.097489901
0.396138996 0.213458002 0.099748202
0.427832007 0.209124997 0.102586001
0.462805986 0.204685003 0.106095999
0.495613009 0.201389000 0.109865002
0.525307000 0.198626995 0.113587998
0.551415026 0.196796000 0.117159002
0.576394022 0.195742995 0.120820999
0.600763023 0.195192993 0.124528997
0.624047995 0.195087001 0.128190994
0.646403015 0.195682004 0.131868005
0.667627990 0.196902007 0.135530993
0.687572002 0.198626995 0.139300004
0.706843972 0.200443000 0.143007994
0.725611985 0.202761993 0.146944001
0.744457006 0.206073001 0.151278004
0.763134003 0.209689006 0.155748993
0.779170990 0.213245004 0.159639999
0.785472989 0.215151995 0.161547005
0.074326701 0.207828000 0.145922005
0.079011202 0.211170003 0.145982996
0.084870704 0.215777993 0.145815000
0.092530698 0.222660005 0.145769000
0.102861002 0.230137005 0.142060995
0.119677000 0.237490997 0.135378003
0.143206000 0.244450003 0.127397999
0.173159003 0.248797998 0.115189999
0.202884004 0.252415001 0.105683997
0.231800005 0.255634010 0.102173999
0.259860992 0.257389009 0.101609997
0.288792014 0.257037997 0.102495000
0.313068986 0.255252987 0.103105001
0.339863986 0.252934009 0.104280002
0.369237989 0.248737007 0.105806001
0.399771005 0.243687004 0.107561000
0.432547003 0.238285005 0.109834000
0.467108995 0.232883006 0.112612002
0.500023007 0.228518993 0.115815997
0.529335022 0.224582002 0.118989997
0.555261016 0.221744001 0.122148000
0.579797029 0.219455004 0.125367999
0.604089022 0.217655003 0.128739998
0.627328992 0.216495007 0.132128000
0.649653018 0.215884998 0.135545999
0.671046019 0.216280997 0.139071003
0.691020012 0.216968000 0.142656997
0.710384011 0.218280002 0.146287993
0.729290009 0.220188007 0.150178999
0.748301983 0.222660005 0.154359996
0.766995013 0.226215005 0.158755004
0.782895029 0.229434997 0.162539005
0.792537987 0.231968001 0.165178999
0.082322396 0.230410993 0.161165997
0.086976402 0.233722001 0.160982996
0.093369998 0.239368007 0.161044002
0.100725003 0.245808005 0.160310999
0.109834000 0.252705008 0.157321006
0.123217002 0.260013998 0.149523005
0.142458007 0.267109007 0.141038999
0.172868997 0.272450000 0.128542006
0.204089001 0.276616007 0.116792999
0.232868001 0.279500008 0.112627000
0.261005998 0.282474995 0.111299001
0.289707989 0.284687996 0.111620001
0.317142993 0.284245014 0.112383001
0.343724996 0.282536000 0.113329001
0.371511012 0.279042006 0.114396997
0.401389003 0.274037004 0.115587004
0.434394002 0.268193007 0.117280997
0.469581008 0.261799008 0.119416997
0.502968013 0.256229013 0.121996000
0.532509029 0.251513988 0.124743000
0.558129013 0.247791007 0.127443001
0.582544029 0.244647995 0.130311996
0.606652975 0.242083997 0.133349001
0.629862010 0.239703998 0.136399999
0.652125001 0.238239005 0.139559001
0.673686028 0.237490997 0.142855003
0.693584025 0.237751007 0.146319002
0.713069022 0.238253996 0.149798006
0.732371986 0.239460006 0.153718993
0.751399994 0.241352007 0.157701999
0.769940019 0.244541004 0.161944002
0.786373973 0.247837007 0.165804997
0.799373984 0.251453012 0.169238001
0.091981404 0.256900996 0.178470001
0.096818499 0.260533005 0.178133994
0.103563003 0.267123997 0.178545997
0.111070000 0.273671001 0.177157000
0.119539000 0.280247003 0.174105003
0.130494997 0.287312001 0.166995004
0.149995998 0.295246989 0.159395993
0.176973999 0.301456988 0.146562994
0.207614005 0.306203008 0.133866996
0.237278000 0.309239000 0.126329005
0.265765995 0.312184006 0.123919003
0.292454004 0.314595014 0.123063996
0.319065988 0.315937996 0.123383999
0.347860008 0.315876991 0.124453001
0.375937015 0.312932014 0.125138998
0.405263990 0.309116989 0.126069993
0.437110007 0.303014010 0.126985997
0.471686989 0.295459986 0.128176004
0.505515993 0.288379997 0.129976004
0.535470009 0.282200009 0.132036000
0.560967028 0.277530998 0.134218007
0.585245013 0.273671001 0.136659995
0.609308004 0.269917011 0.139222994
0.632380009 0.266986996 0.141955003
0.654658020 0.264744014 0.144823000
0.676127017 0.263020009 0.147845000
0.696330011 0.262425005 0.151186004
0.716014028 0.262196004 0.154559001
0.735285997 0.262546986 0.158235997
0.754208028 0.263630003 0.161990002
0.772610009 0.266238987 0.166033000
0.789943993 0.269490004 0.169970006
0.805172980 0.273472011 0.173846006
0.103211999 0.287404001 0.197497994
0.108857997 0.292470008 0.197604001
0.115281999 0.298543006 0.197405994
0.122210003 0.304295003 0.195238993
0.130755007 0.310932994 0.191989005
0.141435996 0.318150997 0.185946003
0.155230001 0.327030987 0.177858993
0.183474004 0.333898008 0.166963995
0.213275000 0.338780999 0.155626997
0.243671000 0.342198998 0.146119997
0.272846997 0.345295995 0.139666006
0.297398001 0.347326010 0.136690006
0.322468996 0.348881990 0.135759994
0.348791003 0.349981010 0.136109993
0.380879998 0.349629998 0.137422994
0.411002010 0.346623987 0.138093993
0.440573990 0.340703011 0.138139993
0.473091006 0.332661986 0.138292998
0.506721973 0.324360996 0.139222994
0.537163019 0.316807985 0.140580997
0.562813997 0.311147004 0.142229006
0.587303996 0.305958986 0.144121006
0.611536026 0.301198006 0.146273002
0.634791017 0.296880007 0.148546994
0.657099009 0.293736011 0.151079997
0.678354979 0.290973991 0.153704002
0.698421001 0.289784014 0.156771004
0.717936993 0.288670003 0.159838006
0.737118006 0.288655013 0.163316995
0.755993009 0.288960010 0.166826993
0.774394989 0.290912986 0.170656994
0.792339981 0.293689996 0.174563006
0.807630002 0.297749013 0.178407997
0.116288997 0.322194010 0.219424993
0.122285999 0.327962011 0.219439998
0.128435001 0.333088994 0.217593998
0.135241002 0.338766009 0.215274006
0.143481001 0.345463991 0.212908998
0.154879004 0.353628010 0.207568005
0.170367002 0.362325013 0.200534001
0.191469997 0.369832993 0.187625006
0.222399995 0.375494003 0.177065998
0.253544003 0.379767001 0.165286005
0.282231003 0.382589012 0.158663005
0.306553990 0.384115010 0.154817998
0.329365999 0.385336012 0.151887998
0.354054987 0.386586994 0.150515005
0.383489996 0.386954010 0.150423005
0.416509986 0.385977000 0.151492000
0.446754009 0.380346000 0.151141003
0.476951003 0.373571008 0.150667995
0.508431017 0.365453988 0.150698006
0.538169980 0.357533991 0.151338995
0.564019024 0.350773990 0.152361006
0.588784993 0.344839007 0.153779998
0.613214016 0.338979006 0.155367002
0.636744022 0.334004998 0.157275006
0.658914983 0.329793006 0.159318998
0.680124998 0.325994015 0.161501005
0.700069010 0.323888004 0.164171994
0.719645977 0.321996003 0.166933998
0.738673985 0.321278989 0.170108005
0.757426977 0.321157008 0.173388004
0.775798976 0.321691006 0.176836997
0.793851018 0.324131995 0.180574998
0.809171021 0.327993006 0.184207007
0.131151006 0.360998005 0.242434993
0.136736006 0.365788996 0.241169006
0.142244995 0.369924009 0.238436997
0.150087997 0.376958996 0.237644002
0.159548000 0.384954989 0.236041993
0.170550004 0.393103004 0.231800005
0.184161007 0.402182013 0.223651007
0.209674001 0.409934014 0.213916004
0.239886999 0.416617006 0.203615993
0.272038013 0.420874000 0.192477003
0.294896007 0.423056006 0.182955995
0.317815006 0.424567014 0.176149994
0.340016991 0.425940007 0.171618000
0.362829000 0.426916987 0.168795004
0.389394999 0.427222013 0.166933998
0.419851989 0.426871002 0.166429996
0.453666002 0.423514009 0.166079000
0.484580994 0.416952997 0.165163994
0.513068974 0.408560008 0.164095998
0.540733993 0.400748014 0.163928002
0.565178990 0.393743992 0.164248005
0.589196980 0.387502998 0.165103003
0.613686979 0.381291986 0.166246995
0.637719989 0.375097007 0.167558998
0.660273015 0.369818002 0.169100001
0.681635976 0.365361989 0.170901000
0.701807976 0.362203002 0.173159003
0.721340001 0.359640002 0.175540000
0.740444005 0.358312011 0.178424001
0.759196997 0.357122004 0.181262001
0.777615011 0.356954008 0.184343994
0.795620978 0.358983994 0.187839001
0.812573016 0.362477988 0.191652998
0.145845994 0.398795009 0.263660997
0.151049003 0.402624995 0.261265010
0.158038005 0.408713013 0.260715991
0.166216999 0.415868998 0.260365009
0.175998002 0.424017996 0.259158999
0.188159004 0.432363987 0.253666013
0.205905005 0.441657007 0.247027993
0.229159996 0.450033993 0.236315995
0.261981994 0.456259996 0.227970004
0.286808997 0.460060000 0.216541007
0.308476001 0.462623000 0.204745993
0.331043988 0.464286000 0.196796000
0.353947997 0.465415001 0.192141995
0.376668990 0.466728002 0.188739002
0.400884986 0.467200994 0.185335994
0.427374989 0.467368990 0.183154002
0.459892005 0.465660006 0.182238996
0.493079990 0.460563004 0.181246996
0.522148013 0.452872992 0.179750994
0.548241019 0.445533007 0.178957999
0.570047021 0.439123988 0.178636998
0.592370987 0.432806998 0.178836003
0.615472972 0.426459014 0.179324001
0.638727009 0.420325011 0.180102006
0.661584973 0.414312989 0.181108996
0.683070004 0.409276992 0.182391003
0.703319013 0.405187994 0.184114993
0.722911000 0.401831001 0.186006993
0.741970003 0.399495989 0.188388005
0.760662019 0.397543013 0.190828994
0.779094994 0.396596998 0.193575993
0.797299027 0.396901995 0.196596995
0.814939022 0.400153011 0.200426996
0.159335002 0.432898015 0.281848997
0.165392995 0.437750995 0.280934006
0.173052996 0.444784999 0.281818986
0.182223007 0.452461004 0.281116992
0.193087995 0.460669994 0.278934985
0.206270993 0.469368011 0.274067014
0.224048004 0.479728013 0.266238987
0.253116995 0.487266004 0.258258998
0.280613005 0.493232995 0.250111014
0.302098006 0.496223003 0.240070000
0.324086010 0.499076992 0.229908004
0.346349001 0.501411021 0.220828995
0.369161993 0.503257990 0.213534996
0.391867012 0.504616022 0.208712995
0.415259004 0.504890978 0.204210997
0.439123988 0.504814029 0.200747997
0.466926008 0.504387021 0.198305994
0.500846982 0.502494991 0.197268993
0.531822979 0.496086001 0.196033001
0.557533979 0.488777012 0.194812000
0.578561008 0.482841015 0.194124997
0.598519981 0.477546006 0.193881005
0.619347990 0.471565008 0.193744004
0.640725970 0.465568006 0.193866000
0.662546992 0.459800005 0.194369003
0.683481991 0.454124004 0.195025995
0.703655005 0.449454010 0.196245998
0.723293006 0.444952995 0.197528005
0.742504001 0.441718012 0.199405000
0.761241972 0.438712001 0.201343000
0.779706001 0.436376989 0.203601003
0.797864020 0.434913009 0.206073001
0.815640986 0.437963992 0.209827006
0.170291007 0.461158007 0.296680987
0.177828997 0.468176991 0.298222005
