src/luts/rounded/3.cube
TITLE "33x33x33 Adobe/IRIDAS cube 3D LUT exported with GrossGrade v0.2.2 (beta) 64 bit"
DOMAIN_MIN 0 0 0
DOMAIN_MAX 1 1 1
LUT_3D_SIZE 5
0.025955601 0.023285300 0.035843398
0.175723001 0.048752598 0.045182001
0.393332005 0.080353998 0.081040703
0.621026993 0.125521004 0.127642006
0.720470011 0.144106001 0.150637001
0.047959100 0.128084004 0.093553104
0.202609003 0.160418004 0.070771299
0.411428988 0.138720006 0.087617300
0.627740979 0.156405002 0.123063996
0.757228971 0.180025995 0.151583001
0.116288997 0.322194010 0.219424993
0.222399995 0.375494003 0.177065998
0.446754009 0.380346000 0.151141003
0.658914983 0.329793006 0.159318998
0.809171021 0.327993006 0.184207007
0.214175999 0.566873014 0.358983994
0.337545007 0.623849988 0.334706992
0.514733016 0.642054021 0.269504994
0.679683030 0.623574972 0.250889003
0.807828009 0.594658971 0.253711998
0.285526991 0.727412999 0.467276990
0.454291999 0.774975002 0.451941997
0.595224023 0.789044023 0.393759012
0.711955011 0.793651998 0.337316006
0.825788021 0.780682027 0.327428013
0.022156101 0.027527301 0.133410007
0.174806997 0.052368999 0.194216996
0.413854986 0.089951903 0.186572000
0.647607982 0.133500993 0.194247007
0.723933995 0.148348004 0.212924004
0.075028598 0.204302996 0.226092994
0.217684999 0.237247005 0.266011000
0.477699012 0.167300001 0.220722005
0.681788027 0.167558998 0.202533007
0.768810987 0.182849005 0.216769993
0.148424998 0.404395014 0.353276998
0.267673999 0.449743986 0.367605001
0.461432993 0.443731993 0.256579995
0.690684021 0.363516003 0.216938004
0.839749992 0.352849990 0.233340994
0.228962004 0.602441013 0.465582997
0.364659995 0.652216017 0.502052009
0.538856983 0.674678028 0.454367995
0.695749998 0.662241995 0.312215000
0.839231014 0.626612008 0.311069995
0.304432988 0.750118017 0.560983002
0.466758013 0.786541998 0.599039018
0.629404008 0.811336994 0.583473980
0.740490019 0.818935990 0.513054013
0.854398012 0.813610971 0.444099009
0.065110199 0.144335002 0.307500005
0.132386997 0.073411196 0.338688999
0.380468011 0.106035002 0.396887004
0.635583997 0.149569005 0.392996013
0.688242972 0.158755004 0.401968002
0.117021002 0.306324989 0.386954010
0.165331006 0.325352997 0.448080987
0.524941027 0.301838994 0.554543018
0.721476972 0.229450002 0.482138991
0.801648021 0.264117986 0.491035014
0.172580004 0.469855994 0.486411989
0.219455004 0.494529992 0.501747012
0.521247983 0.544137001 0.562066019
0.753902018 0.448859006 0.511116028
0.878598988 0.434516013 0.496802986
0.236315995 0.626001000 0.567910016
0.363882005 0.676554978 0.607186973
0.590569973 0.715389013 0.642359018
0.718990028 0.708629012 0.550316989
0.891035020 0.665049016 0.467750013
0.304524004 0.759121001 0.645044982
0.482841015 0.800213993 0.680171013
0.647149980 0.828458011 0.714106977
0.767452002 0.844799995 0.680980027
0.874449015 0.844572008 0.609719992
0.134035006 0.313145995 0.508431017
0.157289997 0.232440993 0.560616016
0.470878005 0.205614999 0.631434023
0.684108019 0.216983005 0.669398010
0.776349008 0.280200988 0.724636018
0.166154996 0.415656000 0.540458977
0.213413000 0.438665986 0.612420976
0.555566013 0.468268991 0.741558015
0.772670984 0.435142010 0.763745010
0.857236981 0.473899007 0.779582977
0.204990000 0.533317983 0.597543001
0.247226998 0.555795014 0.624963999
0.543191016 0.634118974 0.729884982
0.790875018 0.628534019 0.790081978
0.904035985 0.638971984 0.793591022
0.245304003 0.650888979 0.650950015
0.306035012 0.685617983 0.684260011
0.570747972 0.742245018 0.738642991
0.775326014 0.774563015 0.783626974
0.925185025 0.753612995 0.772792995
0.294865012 0.759944975 0.706660986
0.431876004 0.804440022 0.748363018
0.642206013 0.841672003 0.785000026
0.793286026 0.871199012 0.816296995
0.899717987 0.879637003 0.789898992
0.180712998 0.402166992 0.641641974
0.253329992 0.363546014 0.745464027
0.587808013 0.361898005 0.794583023
0.790081978 0.373921990 0.812481999
0.826122999 0.376379013 0.813961983
0.209995002 0.495552003 0.668497980
0.255450994 0.487098008 0.748301983
0.558571994 0.538567007 0.849088013
0.790477991 0.527351975 0.859372973
0.877530992 0.561272979 0.874495029
0.237399995 0.583931983 0.698405027
0.302953005 0.610880017 0.755795002
0.530143976 0.651117980 0.850278020
0.770932019 0.670466006 0.897993028
0.912276030 0.700251997 0.913863003
0.266667008 0.675898015 0.735683024
0.350912005 0.723353982 0.790219009
0.581185997 0.766978979 0.841961980
0.744488001 0.786113977 0.901152015
0.920454979 0.803005993 0.938688993
0.296970993 0.764217973 0.778500021
0.394475996 0.814526975 0.827893019
0.629068017 0.856854975 0.867932975
0.785854995 0.884320974 0.898389995
0.913358986 0.899977028 0.933668971
