src/luts/rounded/4.cube
LUT_3D_SIZE 16
-0.014761 -0.008152 -0.009485
0.084411 0.015619 0.032330
0.160926 0.039983 0.052257
0.241225 0.055884 0.064931
0.327747 0.063144 0.073956
0.417888 0.067857 0.083132
0.509630 0.076845 0.095495
0.596924 0.098634 0.115248
0.673788 0.134410 0.144305
0.741462 0.172919 0.175585
0.792352 0.189976 0.189658
0.832024 0.191010 0.190509
0.872481 0.192890 0.192069
0.912862 0.194765 0.193658
0.953288 0.196713 0.195222
0.993724 0.198630 0.196853
-0.012644 0.056114 -0.006354
0.075153 0.063153 0.020378
0.154154 0.078300 0.048243
0.233845 0.093512 0.062761
0.319920 0.101904 0.072339
0.410149 0.106764 0.081479
0.502457 0.115028 0.093330
0.591221 0.135091 0.111889
0.669734 0.169837 0.140073
0.739208 0.209716 0.172359
0.791910 0.229368 0.188517
0.832133 0.230990 0.189832
0.872421 0.232831 0.191374
0.912940 0.234723 0.192924
0.953312 0.236620 0.194539
0.993745 0.238577 0.196162
-0.009701 0.101941 0.014552
0.054901 0.108219 0.007134
0.145429 0.128221 0.026705
0.226072 0.138813 0.053907
0.312142 0.144999 0.066916
0.402161 0.149429 0.077471
0.493311 0.155921 0.089568
0.582073 0.171621 0.106774
0.662599 0.203260 0.133415
0.734044 0.242604 0.166129
0.791235 0.267738 0.187196
0.832206 0.270639 0.189502
0.872480 0.272410 0.190864
0.912828 0.274361 0.192404
0.953244 0.276292 0.193938
0.993811 0.278253 0.195568
0.011991 0.159425 0.015648
0.055121 0.160570 0.015948
0.109872 0.177840 -0.006307
0.215494 0.193353 0.029032
0.298735 0.201372 0.051699
0.389969 0.201827 0.065886
0.483054 0.206026 0.080694
0.572697 0.220824 0.098164
0.653856 0.248428 0.122751
0.726926 0.283335 0.153768
0.790061 0.311888 0.180094
0.832384 0.314442 0.185615
0.872618 0.314945 0.188019
0.912993 0.316022 0.190143
0.953373 0.317157 0.192355
0.993938 0.319006 0.194008
0.016446 0.217547 0.038078
0.060722 0.218816 0.037615
0.095144 0.223228 0.036310
0.177750 0.248884 0.016205
0.288125 0.259984 0.041132
0.372610 0.267143 0.048153
0.464651 0.267204 0.063509
0.556468 0.275117 0.082319
0.640818 0.296192 0.105903
0.717190 0.326286 0.135223
0.787229 0.356805 0.164217
0.832912 0.362729 0.173009
0.872861 0.362866 0.176012
0.913402 0.363939 0.178404
0.953752 0.365084 0.180948
0.994343 0.366679 0.182512
0.021317 0.280528 0.057303
0.064332 0.281629 0.056721
0.103848 0.280347 0.055974
0.139908 0.302112 0.042296
0.261853 0.321701 0.048520
0.366357 0.330275 0.053180
0.447417 0.336548 0.050719
0.535444 0.338706 0.063219
0.622327 0.349604 0.083119
0.703252 0.370840 0.109287
0.778739 0.396716 0.137646
0.833231 0.407555 0.151949
0.873165 0.407634 0.155964
0.913671 0.408661 0.158841
0.954310 0.409721 0.161793
0.994912 0.411098 0.163302
0.028243 0.353312 0.073158
0.069748 0.354024 0.072678
0.110014 0.353173 0.071690
0.146059 0.359258 0.069429
0.220223 0.386784 0.063108
0.349241 0.398842 0.073288
0.444807 0.405670 0.068138
0.520651 0.408930 0.057804
0.602463 0.411906 0.063498
0.685306 0.421545 0.079911
0.765873 0.437790 0.102594
0.832131 0.449991 0.120344
0.873462 0.450666 0.126514
0.914070 0.451361 0.129993
0.954881 0.452084 0.133215
0.995782 0.453178 0.134759
0.035172 0.431720 0.094363
0.075727 0.432171 0.094140
0.115618 0.431666 0.093374
0.153588 0.428628 0.091665
0.199686 0.451531 0.091659
0.313795 0.471370 0.095319
0.430780 0.478337 0.096209
0.519391 0.482798 0.083633
0.591083 0.482275 0.064168
0.668067 0.483289 0.060047
0.750156 0.488552 0.070126
0.827386 0.495503 0.083836
0.874023 0.496050 0.091208
0.914674 0.495819 0.094599
0.955639 0.495911 0.097837
0.996832 0.496483 0.099304
0.040416 0.503743 0.112854
0.080909 0.504427 0.112766
0.120868 0.504578 0.112451
0.159945 0.503199 0.111622
0.199949 0.511982 0.112847
0.282521 0.536385 0.116140
0.403136 0.550659 0.120573
0.511423 0.557253 0.119154
0.593453 0.558684 0.098925
0.659684 0.554724 0.066273
0.735088 0.552136 0.051644
0.817645 0.551583 0.053961
0.875196 0.549870 0.059015
0.915536 0.548267 0.061545
0.956689 0.547330 0.064048
0.998099 0.547239 0.065071
0.044513 0.569270 0.123912
0.085355 0.570116 0.123929
0.125611 0.570579 0.123836
0.165346 0.570170 0.123518
0.203595 0.570314 0.123225
0.269756 0.594085 0.128252
0.376982 0.615544 0.136924
0.493079 0.629526 0.146316
0.593078 0.634884 0.145412
0.666199 0.632718 0.114984
0.728448 0.625680 0.065380
0.805922 0.620111 0.038041
0.875696 0.615629 0.035991
0.916309 0.612510 0.038708
0.957595 0.610510 0.039870
0.999054 0.609823 0.040156
0.048798 0.630932 0.128272
0.090058 0.631940 0.128508
0.130778 0.632721 0.128708
0.171163 0.632941 0.128835
0.209868 0.631826 0.128691
0.263306 0.645792 0.131622
0.358610 0.672927 0.143011
0.471117 0.693566 0.160012
0.581156 0.706370 0.176792
0.672000 0.709382 0.177042
0.737150 0.704535 0.133533
0.798566 0.696133 0.062035
0.872674 0.689661 0.013107
0.917153 0.685375 0.024623
0.958189 0.682758 0.025035
0.999693 0.681699 0.023919
0.053235 0.690169 0.128066
0.094772 0.691383 0.128459
0.135783 0.692340 0.128852
0.176600 0.692953 0.129235
0.216751 0.692679 0.129567
0.257803 0.694904 0.130266
0.344461 0.725238 0.141052
0.450332 0.750389 0.160701
0.562456 0.769338 0.188056
0.665603 0.779752 0.215054
0.747418 0.780535 0.218089
0.805807 0.774472 0.156967
0.867960 0.766917 0.050930
0.918187 0.762074 0.028838
0.958734 0.759354 0.033390
0.999906 0.758111 0.029322
0.056079 0.741563 0.126817
0.097806 0.743427 0.127213
0.139105 0.745134 0.127573
0.180259 0.746783 0.127945
0.221177 0.748007 0.128318
0.259485 0.747667 0.128336
0.328412 0.771157 0.134568
0.429781 0.802225 0.152706
0.540615 0.825634 0.183649
0.649231 0.842039 0.225572
0.746212 0.850173 0.269516
0.818015 0.849589 0.277979
0.869401 0.842616 0.186392
0.919267 0.837113 0.092498
0.959224 0.834511 0.086420
0.999741 0.833251 0.078983
0.056221 0.781254 0.126720
0.097956 0.783208 0.127102
0.139289 0.785030 0.127468
0.180527 0.786897 0.127824
0.221643 0.788731 0.128159
0.261597 0.789887 0.128331
0.312308 0.801229 0.130546
0.409443 0.836982 0.145244
0.518454 0.864369 0.172728
0.628465 0.885301 0.214287
0.731972 0.899511 0.269586
0.818635 0.907537 0.328663
0.875259 0.906895 0.320852
0.920480 0.902613 0.208552
0.960116 0.901130 0.193595
0.999798 0.900157 0.183458
0.056496 0.821477 0.126581
0.098215 0.823427 0.126966
0.139538 0.825268 0.127306
0.180767 0.827097 0.127673
0.221930 0.828919 0.128034
0.262491 0.830329 0.128294
0.305761 0.835707 0.129131
0.396799 0.870686 0.141227
0.504564 0.899708 0.166060
0.614953 0.921854 0.205105
0.720238 0.937296 0.258125
0.811945 0.946873 0.321564
0.874195 0.948221 0.339067
0.919565 0.943667 0.240244
0.960099 0.942740 0.207399
0.999775 0.942639 0.201832
0.058024 0.869202 0.129249
0.098805 0.871103 0.129566
0.137633 0.872955 0.129744
0.173701 0.874746 0.129879
0.205271 0.876668 0.129991
0.227469 0.878310 0.130014
0.226883 0.883869 0.130562
0.368318 0.918647 0.142167
0.487527 0.948285 0.166760
0.604247 0.970548 0.206467
0.714139 0.986299 0.261349
0.809727 0.996361 0.327586
0.874518 0.998282 0.351130
0.919974 0.993469 0.256890
0.960720 0.992273 0.216525
1.000182 0.992080 0.210030
-0.019684 -0.095861 0.056585
0.076410 -0.095922 0.066178
0.159502 -0.091862 0.086271
0.242155 -0.085523 0.102177
0.330690 -0.081162 0.111200
0.422401 -0.078482 0.120722
0.515279 -0.075148 0.133440
0.603337 -0.055966 0.153627
0.680023 0.082346 0.182813
0.746770 0.138648 0.213314
0.795978 0.159134 0.224469
0.833593 0.158720 0.220478
0.872590 0.160734 0.221664
0.912579 0.163750 0.228361
0.952932 0.166742 0.234007
0.993376 0.169391 0.236668
-0.008553 0.063260 0.072656
0.069366 0.063952 0.072767
0.151806 0.077821 0.090043
0.231879 0.093225 0.104314
0.317824 0.101895 0.113675
0.408033 0.106842 0.122124
0.500309 0.114928 0.133508
0.589215 0.134586 0.151773
0.668378 0.169040 0.179717
0.738288 0.209362 0.212295
0.791792 0.230195 0.229417
0.832157 0.232115 0.230976
0.872477 0.233938 0.232469
0.912813 0.235870 0.234072
0.953364 0.237767 0.235649
0.993799 0.239734 0.237265
-0.006776 0.104544 0.064859
0.051728 0.109394 0.061972
0.143809 0.127829 0.070385
0.224957 0.138624 0.094720
0.310896 0.145071 0.107424
0.401000 0.149548 0.118008
0.492167 0.156096 0.129980
0.581068 0.171969 0.147017
0.661781 0.203235 0.173566
0.733366 0.242275 0.206386
0.791111 0.268271 0.228231
0.832249 0.271431 0.230673
0.872469 0.273209 0.232029
0.912872 0.275121 0.233572
0.953288 0.277057 0.235130
0.993857 0.279020 0.236737
0.011880 0.159141 0.063260
0.055932 0.160160 0.063658
0.109028 0.177909 0.057547
0.214401 0.192956 0.072302
0.297790 0.201296 0.093105
0.388989 0.201947 0.106840
0.482125 0.206127 0.121457
0.571799 0.220805 0.138759
0.653203 0.248354 0.163143
0.726352 0.283363 0.194191
0.789954 0.312496 0.220954
0.832412 0.315303 0.226643
0.872652 0.315744 0.229081
0.913001 0.316834 0.231221
0.953384 0.318053 0.233370
0.993864 0.319902 0.235035
0.016321 0.217140 0.078810
0.061283 0.218383 0.079096
0.095444 0.223123 0.078682
0.176911 0.248663 0.064205
0.287023 0.259636 0.082881
0.371835 0.267046 0.090124
0.463855 0.267233 0.104798
0.555732 0.275113 0.123329
0.640251 0.296100 0.146729
0.716655 0.326219 0.175931
0.786848 0.357007 0.205110
0.832921 0.363388 0.214233
0.872879 0.363523 0.217187
0.913377 0.364597 0.219594
0.953772 0.365756 0.222174
0.994379 0.367349 0.223708
0.021310 0.279980 0.097146
0.064817 0.280983 0.097162
0.104027 0.279704 0.096442
0.139258 0.301926 0.084746
0.260631 0.321428 0.089948
0.365373 0.330046 0.094487
0.446731 0.336377 0.092762
0.534817 0.338647 0.104850
0.621783 0.349503 0.124376
0.702791 0.370753 0.150420
0.778329 0.396778 0.178832
0.833275 0.408099 0.193350
0.873174 0.408110 0.197394
0.913672 0.409163 0.200293
0.954308 0.410295 0.203163
0.994918 0.411601 0.204698
0.028134 0.352569 0.112731
0.070077 0.353065 0.113013
0.110029 0.352227 0.112133
0.146063 0.358592 0.110309
0.218831 0.386300 0.104191
0.348152 0.398615 0.114041
0.443905 0.405368 0.109235
0.520075 0.408729 0.099658
0.602009 0.411794 0.105302
0.684916 0.421488 0.121533
0.765429 0.437789 0.144098
0.832131 0.450272 0.162102
0.873450 0.451044 0.168268
0.914041 0.451768 0.171661
0.954882 0.452511 0.174864
0.995783 0.453576 0.176445
0.034996 0.430610 0.133786
0.076016 0.430953 0.134040
0.115596 0.430395 0.133256
0.153586 0.427403 0.131616
0.198685 0.450867 0.132122
0.312548 0.470896 0.135823
0.429815 0.478077 0.136851
0.518662 0.482532 0.124696
0.590586 0.482039 0.106006
0.667671 0.483051 0.102184
0.749708 0.488421 0.112114
0.827033 0.495604 0.125809
0.874017 0.496266 0.133254
0.914698 0.496040 0.136612
0.955637 0.496174 0.139828
0.996835 0.496703 0.141281
0.040249 0.502744 0.152207
0.081151 0.503392 0.152602
0.120756 0.503527 0.152302
0.159792 0.502129 0.151482
0.199668 0.511204 0.152903
0.281482 0.535739 0.156407
0.402067 0.550210 0.160959
0.510590 0.556944 0.159716
0.592783 0.558374 0.139987
0.659195 0.554470 0.108245
0.734650 0.551922 0.094304
0.817176 0.551475 0.096602
0.875235 0.549908 0.101538
0.915516 0.548293 0.104068
0.956672 0.547406 0.106442
0.998086 0.547318 0.107430
0.044342 0.568332 0.163339
0.085586 0.569165 0.163888
0.125446 0.569541 0.163781
0.165116 0.569120 0.163421
0.203302 0.569213 0.163142
0.268918 0.593356 0.168397
0.375926 0.614881 0.177147
0.492007 0.628964 0.186575
0.592234 0.634480 0.185787
0.665639 0.632400 0.155975
0.727980 0.625330 0.107629
0.805487 0.619846 0.082137
0.875647 0.615435 0.080232
0.916311 0.612338 0.082531
0.957591 0.610366 0.083562
0.999051 0.609677 0.083813
0.048540 0.629993 0.167835
0.090322 0.631099 0.168654
0.130588 0.631750 0.168783
0.170885 0.631964 0.168892
0.209563 0.630821 0.168726
0.262929 0.645085 0.171768
0.357651 0.672172 0.183164
0.469971 0.692846 0.200110
0.580321 0.705898 0.216785
0.671346 0.708941 0.217147
0.736763 0.704166 0.174467
0.798153 0.695811 0.104804
0.872602 0.689290 0.065812
0.917145 0.685110 0.071395
0.958187 0.682477 0.071696
0.999684 0.681426 0.070955
0.052948 0.689331 0.167705
0.095054 0.690624 0.168720
0.135601 0.691425 0.169037
0.176320 0.692014 0.169418
0.216418 0.691777 0.169731
0.257034 0.693735 0.170366
0.343733 0.724500 0.181260
0.449402 0.749717 0.200847
0.561488 0.768736 0.227929
0.664888 0.779327 0.254796
0.746917 0.780188 0.257933
0.805402 0.774157 0.197844
0.867798 0.766660 0.095104
0.918131 0.761712 0.074735
0.958737 0.758960 0.077691
0.999907 0.757742 0.074396
0.055835 0.740939 0.166470
0.098209 0.743013 0.167483
0.138999 0.744572 0.167771
0.180043 0.746136 0.168129
0.220909 0.747323 0.168518
0.259199 0.746969 0.168527
0.327953 0.770546 0.174808
0.429032 0.801682 0.193007
0.539719 0.825163 0.223630
0.648393 0.841599 0.265126
0.745510 0.849792 0.308457
0.817645 0.849339 0.317299
0.869138 0.842425 0.227139
0.919192 0.836761 0.133491
0.959189 0.834275 0.127385
0.999754 0.832999 0.120246
0.055985 0.780655 0.166366
0.098390 0.782864 0.167354
0.139201 0.784495 0.167629
0.180326 0.786303 0.167987
0.221390 0.788124 0.168335
0.261310 0.789279 0.168479
0.311710 0.800576 0.170742
0.408596 0.836422 0.185446
0.517381 0.863916 0.212684
0.627433 0.884922 0.253887
0.731162 0.899282 0.308611
0.818226 0.907479 0.367863
0.875119 0.907135 0.361981
0.920453 0.902701 0.249637
0.960106 0.901016 0.233262
0.999787 0.899997 0.223368
0.056258 0.820852 0.166226
0.098650 0.823056 0.167226
0.139452 0.824714 0.167505
0.180567 0.826544 0.167860
0.221682 0.828341 0.168202
0.262206 0.829749 0.168491
0.305343 0.835046 0.169302
0.395995 0.870140 0.181432
0.503599 0.899337 0.206189
0.613911 0.921534 0.244757
0.719326 0.937042 0.297259
0.811455 0.946743 0.360448
0.874034 0.948404 0.379520
0.919607 0.943739 0.282485
0.960100 0.942848 0.248330
0.999775 0.942663 0.242852
0.057891 0.868556 0.168543
0.099679 0.870770 0.169491
0.138319 0.872446 0.169629
0.174533 0.874172 0.169714
0.206305 0.876004 0.169738
0.228903 0.877626 0.169675
0.233891 0.883178 0.170193
0.367636 0.918046 0.181911
0.486508 0.947776 0.206544
0.603130 0.970202 0.245951
0.713120 0.986024 0.300427
0.809216 0.996165 0.366501
0.874501 0.998421 0.391530
0.919912 0.993564 0.299029
0.960721 0.992367 0.257413
1.000180 0.992207 0.250980
-0.014114 -0.093306 0.134340
0.048629 -0.093935 0.135970
0.148638 -0.091847 0.143924
0.234897 -0.085734 0.155648
0.324957 -0.080923 0.167677
0.418611 -0.078174 0.177144
0.512610 -0.074626 0.187676
0.601645 -0.054049 0.204745
0.679331 0.084363 0.230445
0.746415 0.139824 0.256981
0.796009 0.160599 0.267140
0.833687 0.159948 0.262643
0.872644 0.161803 0.263344
0.912507 0.164705 0.269527
0.952937 0.167550 0.274842
0.993395 0.170167 0.277469
0.012742 0.077654 0.138095
0.053938 0.075423 0.136987
0.141057 0.077591 0.143490
0.225569 0.092563 0.154470
0.313216 0.101537 0.165501
0.404974 0.106668 0.174009
0.498168 0.114856 0.183341
0.587842 0.134755 0.198522
0.667819 0.169340 0.223592
0.737900 0.209937 0.254931
0.791776 0.231113 0.271354
0.832227 0.232770 0.271891
0.872486 0.234510 0.272974
0.912855 0.236316 0.274235
0.953268 0.238206 0.275785
0.993833 0.240169 0.277405
0.014474 0.129237 0.135906
0.055129 0.126990 0.133685
0.133052 0.129017 0.134725
0.220347 0.138510 0.147378
0.306944 0.145598 0.158267
0.397829 0.149976 0.166565
0.489477 0.156640 0.176147
0.578661 0.173002 0.191136
0.659927 0.203191 0.215469
0.731984 0.241268 0.246391
0.790904 0.268953 0.268865
0.832275 0.272397 0.271391
0.872513 0.274236 0.272791
0.912917 0.276163 0.274350
0.953291 0.278111 0.275887
0.993856 0.280089 0.277526
0.014300 0.165056 0.123646
0.058472 0.164756 0.122676
0.098288 0.178571 0.116343
0.210765 0.192867 0.122474
0.295414 0.201428 0.139540
0.386889 0.202454 0.151261
0.480259 0.206401 0.163795
0.570203 0.220856 0.178957
0.651806 0.248243 0.202610
0.725239 0.283243 0.233311
0.789746 0.313494 0.260944
0.832527 0.316656 0.266899
0.872688 0.317049 0.269413
0.913069 0.318124 0.271560
0.953465 0.319298 0.273730
0.993888 0.321165 0.275393
0.016279 0.216455 0.121962
0.061432 0.217630 0.122210
0.096859 0.222548 0.123419
0.174487 0.248442 0.108685
0.285443 0.258997 0.124220
0.370572 0.266723 0.131044
0.462394 0.267270 0.145193
0.554360 0.275116 0.163541
0.639084 0.295926 0.186642
0.715703 0.325996 0.215658
0.786178 0.357084 0.244999
0.832905 0.364252 0.254665
0.872877 0.364427 0.257631
0.913399 0.365524 0.260041
0.953833 0.366699 0.262498
0.994402 0.368300 0.264031
0.021193 0.279050 0.136671
0.064707 0.280184 0.136498
0.104440 0.278758 0.136102
0.139107 0.301839 0.125793
0.259584 0.320749 0.130543
0.363965 0.329425 0.135100
0.445737 0.336117 0.134167
0.533809 0.338655 0.145871
0.620726 0.349459 0.164881
0.701957 0.370603 0.190699
0.777543 0.396717 0.218995
0.833293 0.408637 0.233947
0.873166 0.408708 0.237959
0.913680 0.409789 0.240855
0.954341 0.410930 0.243693
0.994955 0.412279 0.245115
0.027987 0.351463 0.152130
0.069938 0.352087 0.152257
0.110233 0.350912 0.151990
0.146238 0.358096 0.150490
0.218119 0.385756 0.144544
0.347084 0.398049 0.154219
0.442778 0.404818 0.149817
0.519279 0.408515 0.140985
0.601250 0.411676 0.146585
0.684190 0.421537 0.162489
0.764684 0.437869 0.184801
0.831950 0.450634 0.202923
0.873453 0.451534 0.209157
0.914074 0.452174 0.212449
0.954902 0.452937 0.215694
0.995818 0.454004 0.217186
0.034798 0.429277 0.173115
0.075825 0.429701 0.173098
0.115762 0.428861 0.172683
0.153558 0.425943 0.171186
0.198166 0.450409 0.172135
0.311988 0.470179 0.175842
0.428914 0.477601 0.177000
0.517728 0.482050 0.165329
0.589939 0.481772 0.147410
0.667021 0.483000 0.143748
0.748991 0.488451 0.153457
0.826624 0.495772 0.167097
0.874081 0.496622 0.174573
0.914743 0.496408 0.177772
0.955651 0.496538 0.181039
0.996870 0.497086 0.182421
0.040081 0.501654 0.191524
0.080971 0.502357 0.191667
0.120924 0.502330 0.191796
0.159734 0.500881 0.190944
0.199758 0.510968 0.192740
0.281374 0.535284 0.196326
0.401440 0.549646 0.200953
0.509820 0.556497 0.199797
0.592070 0.557927 0.180585
0.658691 0.554204 0.149819
0.734089 0.551793 0.136291
0.816655 0.551526 0.138465
0.875298 0.550083 0.143341
0.915514 0.548540 0.145801
0.956676 0.547698 0.148037
0.998099 0.547653 0.148968
0.044190 0.567313 0.202776
0.085391 0.568223 0.203026
0.125608 0.568511 0.203417
0.165036 0.568029 0.203033
0.203040 0.568029 0.202739
0.268903 0.593058 0.208344
0.375719 0.614261 0.217098
0.491420 0.628436 0.226485
0.591546 0.633998 0.225727
0.665026 0.631922 0.196535
0.727452 0.625101 0.149443
0.804951 0.619744 0.124993
0.875417 0.615443 0.122991
0.916326 0.612375 0.125077
0.957597 0.610454 0.126029
0.999060 0.609802 0.126249
0.048311 0.629035 0.207443
0.090066 0.630223 0.207928
0.130788 0.630800 0.208607
0.170795 0.630980 0.208676
0.209321 0.629773 0.208490
0.263406 0.645085 0.211763
0.357663 0.671697 0.223215
0.469622 0.692271 0.240024
0.579767 0.705357 0.256510
0.670736 0.708595 0.256870
0.736177 0.703787 0.215014
0.797603 0.695485 0.147075
0.872424 0.689030 0.111148
0.917152 0.684911 0.115181
0.958186 0.682398 0.115445
0.999681 0.681448 0.114798
0.052695 0.688440 0.207420
0.094771 0.689797 0.208086
0.135868 0.690611 0.208999
0.176249 0.691119 0.209312
0.216219 0.690791 0.209618
0.256563 0.692721 0.210231
0.343902 0.724177 0.221380
0.449220 0.749155 0.240926
0.560931 0.768156 0.267669
0.664340 0.778797 0.294195
0.746395 0.779824 0.297394
0.805000 0.773815 0.238342
0.867514 0.766377 0.138521
0.918105 0.761410 0.118305
0.958752 0.758781 0.120624
0.999916 0.757548 0.117696
0.055623 0.740301 0.206184
0.097971 0.742429 0.206841
0.139397 0.744182 0.207748
0.180087 0.745683 0.208063
0.220822 0.746752 0.208429
0.258990 0.746311 0.208437
0.328434 0.770626 0.214940
0.429178 0.801359 0.233308
0.539454 0.824833 0.263695
0.647911 0.841188 0.304602
0.745037 0.849328 0.347274
0.817169 0.848864 0.356036
0.868820 0.842050 0.267507
0.919135 0.836489 0.174031
0.959210 0.834061 0.168097
0.999764 0.832827 0.161035
0.055783 0.780020 0.206061
0.098160 0.782332 0.206709
0.139643 0.784194 0.207623
0.180390 0.785901 0.207912
0.221328 0.787664 0.208239
0.261160 0.788709 0.208400
0.311725 0.800411 0.210715
0.408736 0.836304 0.225716
0.517033 0.863779 0.252716
0.626859 0.884675 0.293534
0.730522 0.899029 0.347738
0.817808 0.907390 0.406802
0.875154 0.907186 0.402645
0.920311 0.902548 0.290276
0.960101 0.900772 0.272404
0.999775 0.899839 0.262789
0.056056 0.820233 0.205916
0.098420 0.822550 0.206557
0.139891 0.824435 0.207491
0.180653 0.826088 0.207775
0.221622 0.827805 0.208124
0.262072 0.829229 0.208395
0.305222 0.834588 0.209237
0.396210 0.869989 0.221659
0.503313 0.899116 0.246308
0.613317 0.921287 0.284452
0.718733 0.936930 0.336505
0.811014 0.946628 0.399338
0.874046 0.948433 0.419658
0.919558 0.943822 0.324315
0.960105 0.943001 0.288966
0.999776 0.942811 0.283548
0.057644 0.867876 0.207510
0.099865 0.870155 0.208157
0.139989 0.872086 0.208982
0.176394 0.873722 0.209003
0.208591 0.875514 0.208935
0.232316 0.877057 0.208693
0.244980 0.882771 0.208998
0.368691 0.918020 0.220798
0.486385 0.947486 0.245282
0.602639 0.969887 0.284431
0.712705 0.985793 0.338822
0.808780 0.995991 0.404779
0.874351 0.998293 0.430954
0.919872 0.993490 0.339842
0.960725 0.992337 0.297092
1.000171 0.992101 0.290712
0.009428 -0.085921 0.203692
0.056152 -0.087057 0.201875
0.112236 -0.088100 0.206256
0.222282 -0.084172 0.214510
0.314675 -0.078884 0.224891
0.410990 -0.074902 0.237247
0.507616 -0.070635 0.249995
0.598777 -0.042217 0.268125
0.678631 0.095229 0.295184
0.746578 0.151875 0.324825
0.796421 0.173703 0.334883
0.834014 0.171205 0.327280
0.872989 0.172089 0.325843
0.912737 0.174026 0.329373
0.953133 0.175790 0.332258
0.993577 0.178375 0.334631
0.018375 0.091160 0.202700
0.061819 0.089899 0.200446
0.104924 0.086886 0.203418
0.213615 0.094567 0.210800
0.303525 0.103450 0.220643
0.397973 0.109401 0.232236
0.493479 0.117358 0.243771
0.585080 0.137919 0.260246
0.666898 0.173994 0.286186
0.738035 0.216848 0.317605
0.792113 0.239365 0.333147
0.832544 0.239703 0.330289
0.872736 0.240658 0.329456
0.913021 0.242020 0.329373
0.953514 0.243363 0.329285
0.993924 0.245327 0.330694
0.020109 0.147064 0.204415
0.063434 0.145370 0.202393
0.098958 0.142696 0.201226
0.207562 0.140569 0.205720
0.298147 0.148073 0.215498
0.391729 0.151962 0.225901
0.485355 0.157815 0.236235
0.576061 0.174670 0.250742
0.658903 0.205811 0.274508
0.731879 0.245857 0.305290
0.791092 0.275403 0.326850
0.832526 0.277784 0.325932
0.872688 0.278855 0.325219
0.913100 0.280380 0.325403
0.953484 0.281825 0.325459
0.993907 0.283823 0.326979
0.021537 0.198488 0.202113
0.064647 0.196290 0.200029
0.099762 0.193238 0.196218
0.195888 0.193985 0.197271
0.289743 0.201845 0.206336
0.382541 0.204925 0.215472
0.476885 0.208927 0.225655
0.567259 0.223436 0.239270
0.649964 0.251217 0.260299
0.724252 0.286562 0.288101
0.789676 0.318585 0.314089
0.832720 0.321196 0.316420
0.872780 0.320681 0.316564
0.913095 0.321344 0.317428
0.953438 0.321966 0.318260
0.993996 0.323859 0.319846
0.020808 0.229837 0.187028
0.064121 0.228935 0.186106
0.102155 0.227107 0.184573
0.146594 0.248693 0.180847
0.278265 0.260137 0.187227
0.366698 0.267868 0.194625
0.460033 0.268991 0.204486
0.552424 0.276925 0.218462
0.637653 0.297351 0.237717
0.714654 0.326990 0.263167
0.785334 0.358218 0.289725
0.832987 0.365563 0.296138
0.872940 0.365303 0.297506
0.913453 0.366513 0.299943
0.953855 0.367745 0.302465
0.994496 0.369398 0.303935
0.021755 0.278214 0.186580
0.065109 0.278999 0.186456
0.105721 0.277396 0.185569
0.137613 0.299853 0.187333
0.249333 0.321033 0.183908
0.359934 0.330083 0.185770
0.443677 0.336365 0.184328
0.532293 0.339027 0.192613
0.619360 0.349600 0.208000
0.700689 0.370305 0.230135
0.776435 0.396346 0.258387
0.833298 0.409177 0.274230
0.873206 0.409348 0.278291
0.913681 0.410507 0.281227
0.954409 0.411568 0.283940
0.994997 0.412960 0.285324
0.027758 0.348435 0.195285
0.069756 0.349175 0.195266
0.110148 0.348241 0.194773
0.147108 0.355896 0.195405
0.214209 0.384744 0.189028
0.344911 0.397295 0.195456
0.441189 0.403757 0.189796
0.518095 0.407900 0.181600
0.600142 0.411427 0.187387
0.683094 0.421366 0.203118
0.763528 0.437719 0.225191
0.831691 0.450978 0.243490
0.873461 0.451964 0.249775
0.914148 0.452650 0.252969
0.954877 0.453424 0.256164
0.995836 0.454483 0.257595
0.034526 0.427280 0.212470
0.075615 0.427837 0.212322
0.115564 0.427363 0.211534
0.153680 0.424083 0.210269
0.197779 0.449622 0.211549
0.311429 0.469055 0.215350
0.427738 0.476670 0.216727
