src/luts/rounded/4.cube
LUT_3D_SIZE 6
-0.014761 -0.008152 -0.009485
0.241225 0.055884 0.064931
0.509630 0.076845 0.095495
0.741462 0.172919 0.175585
0.872481 0.192890 0.192069
0.993724 0.198630 0.196853
0.011991 0.159425 0.015648
0.215494 0.193353 0.029032
0.483054 0.206026 0.080694
0.726926 0.283335 0.153768
0.872618 0.314945 0.188019
0.993938 0.319006 0.194008
0.028243 0.353312 0.073158
0.146059 0.359258 0.069429
0.444807 0.405670 0.068138
0.685306 0.421545 0.079911
0.873462 0.450666 0.126514
0.995782 0.453178 0.134759
0.044513 0.569270 0.123912
0.165346 0.570170 0.123518
0.376982 0.615544 0.136924
0.666199 0.632718 0.114984
0.875696 0.615629 0.035991
0.999054 0.609823 0.040156
0.056079 0.741563 0.126817
0.180259 0.746783 0.127945
0.328412 0.771157 0.134568
0.649231 0.842039 0.225572
0.869401 0.842616 0.186392
0.999741 0.833251 0.078983
0.058024 0.869202 0.129249
0.173701 0.874746 0.129879
0.226883 0.883869 0.130562
0.604247 0.970548 0.206467
0.874518 0.998282 0.351130
1.000182 0.992080 0.210030
0.009428 -0.085921 0.203692
0.222282 -0.084172 0.214510
0.507616 -0.070635 0.249995
0.746578 0.151875 0.324825
0.872989 0.172089 0.325843
0.993577 0.178375 0.334631
0.021537 0.198488 0.202113
0.195888 0.193985 0.197271
0.476885 0.208927 0.225655
0.724252 0.286562 0.288101
0.872780 0.320681 0.316564
0.993996 0.323859 0.319846
0.027758 0.348435 0.195285
0.147108 0.355896 0.195405
0.441189 0.403757 0.189796
0.683094 0.421366 0.203118
0.873461 0.451964 0.249775
0.995836 0.454483 0.257595
0.043982 0.566043 0.242120
0.165038 0.566701 0.242461
0.375456 0.613382 0.256790
0.664189 0.631308 0.236876
0.875309 0.615381 0.165170
0.999068 0.609936 0.168206
0.055399 0.739651 0.245855
0.180311 0.745172 0.247927
0.329492 0.770936 0.255172
0.647543 0.840613 0.344040
0.868543 0.841704 0.307636
0.999773 0.832609 0.201807
0.057352 0.867155 0.245967
0.179097 0.873358 0.247826
0.254863 0.882353 0.247284
0.602627 0.969444 0.322579
0.874309 0.998063 0.469714
1.000153 0.991911 0.329120
0.031348 0.055790 0.412631
0.153669 0.040450 0.402985
0.466013 0.076151 0.445847
0.745637 0.240268 0.543365
0.875328 0.279234 0.561257
0.995559 0.284306 0.567961
0.034719 0.233189 0.411823
0.161236 0.232552 0.405730
0.437418 0.239760 0.419884
0.723954 0.333484 0.499147
0.874561 0.389801 0.540476
0.995174 0.393014 0.542689
0.048066 0.409524 0.403843
0.167119 0.405208 0.400087
0.399783 0.418904 0.406449
0.685948 0.443592 0.429076
0.873769 0.482550 0.465437
0.995379 0.484236 0.466977
0.039210 0.528775 0.369367
0.159505 0.531481 0.370682
0.333429 0.595681 0.402941
0.658436 0.632734 0.404703
0.874816 0.615691 0.339676
0.999066 0.611216 0.336132
0.052153 0.728063 0.374418
0.176360 0.734263 0.375843
0.326268 0.764242 0.384021
0.642624 0.837040 0.462607
0.866698 0.839370 0.426536
0.999802 0.831082 0.320869
0.055714 0.862655 0.361279
0.180620 0.869105 0.363803
0.291434 0.882320 0.360803
0.602013 0.966929 0.433173
0.873702 0.995412 0.584574
1.000012 0.988801 0.439860
0.040717 0.110926 0.586823
0.165102 0.110006 0.584402
0.290966 0.117783 0.599246
0.704113 0.254340 0.713288
0.863388 0.308130 0.729035
0.989421 0.322685 0.736472
0.045013 0.254432 0.589108
0.170323 0.256161 0.587065
0.283419 0.255884 0.579468
0.678802 0.360709 0.683288
0.868758 0.442033 0.722820
0.993697 0.454895 0.727739
0.067546 0.437297 0.607803
0.185903 0.434673 0.604082
0.336109 0.439997 0.604776
0.663585 0.490752 0.659197
0.876968 0.594485 0.727664
0.997715 0.602729 0.732397
0.062797 0.557029 0.544379
0.180619 0.556925 0.544072
0.306814 0.573428 0.557518
0.632273 0.644024 0.626974
0.874268 0.660873 0.635339
0.996829 0.657933 0.632193
0.037326 0.631641 0.482387
0.158489 0.638611 0.486318
0.282570 0.676715 0.507462
0.567038 0.809351 0.598911
0.865372 0.843138 0.637861
0.999801 0.830167 0.558466
0.040731 0.776357 0.482704
0.162210 0.789513 0.489908
0.281025 0.809554 0.497677
0.540219 0.942822 0.569934
0.868600 0.996868 0.713934
1.001006 0.994016 0.626851
0.042033 0.124618 0.707627
0.166513 0.125846 0.707424
0.283501 0.130435 0.703089
0.666264 0.240103 0.837321
0.843825 0.292323 0.859441
0.969021 0.302512 0.863644
0.046499 0.255414 0.714382
0.171834 0.257956 0.715168
0.292550 0.257406 0.704476
0.612217 0.342497 0.814818
0.843788 0.422044 0.857355
0.971322 0.432336 0.861643
0.074476 0.433574 0.752404
0.192312 0.431390 0.751345
0.331887 0.430938 0.741645
0.532059 0.457376 0.791978
0.854023 0.565117 0.860857
0.980449 0.572650 0.864164
0.114628 0.610696 0.766325
0.233591 0.609516 0.766651
0.369910 0.608067 0.765232
0.530429 0.624271 0.796277
0.865664 0.718137 0.865144
0.993766 0.731073 0.869161
0.070464 0.663819 0.653923
0.186198 0.659962 0.649385
0.301258 0.656409 0.644943
0.467614 0.763980 0.735549
0.841283 0.847759 0.834839
0.997741 0.857194 0.838116
0.044578 0.741905 0.600055
0.160579 0.737253 0.594751
0.273319 0.731348 0.586553
0.372092 0.863178 0.681480
0.806761 0.987399 0.816937
1.001615 1.003559 0.850884
0.037359 0.116043 0.822987
0.162814 0.117545 0.822855
0.281821 0.123207 0.816567
0.654036 0.235539 0.952137
0.845597 0.291474 0.977082
0.966650 0.299738 0.978873
0.046669 0.255150 0.832025
0.171573 0.257598 0.832913
0.293227 0.257384 0.822889
0.598615 0.337182 0.930616
0.840560 0.420152 0.975782
0.968883 0.430379 0.979995
0.074091 0.431335 0.870547
0.192107 0.429629 0.869678
0.331290 0.429277 0.859269
0.514469 0.450889 0.905566
0.850811 0.562160 0.978990
0.977912 0.569214 0.982206
0.116302 0.611329 0.888649
0.235174 0.609949 0.888599
0.371051 0.607530 0.885876
0.517875 0.618544 0.913348
0.855638 0.705229 0.983584
0.987825 0.716085 0.986996
0.093289 0.697064 0.811965
0.212989 0.698404 0.813911
0.337399 0.703631 0.821468
0.485778 0.768979 0.883906
0.781113 0.837856 0.974945
0.995136 0.868307 0.995242
0.084757 0.800570 0.793480
0.203102 0.800016 0.792843
0.320525 0.799403 0.792188
0.448815 0.856350 0.838882
0.683104 0.972560 0.951522
0.995701 1.000341 0.998859
