src/luts/rounded/5.cube
LUT_3D_SIZE 16
0.000000 0.000000 0.000000
0.045910 0.000000 0.000000
0.102110 0.000000 0.000731
0.154807 0.000000 0.001133
0.215289 0.000000 0.000921
0.276565 0.000000 0.000670
0.346825 0.000000 0.001288
0.420013 0.000000 0.000768
0.499376 0.000596 0.000000
0.581326 0.001727 0.000000
0.672089 0.000000 0.000552
0.760604 0.001456 0.000526
0.852187 0.000000 0.001288
0.944212 0.001676 0.000406
0.988438 0.000000 0.000000
1.000020 0.000000 0.000000
0.000745 0.059917 0.002190
0.044955 0.057991 0.000517
0.099847 0.056656 0.000761
0.153593 0.056130 0.000000
0.212458 0.057586 0.000000
0.275671 0.059753 0.000793
0.342514 0.061816 0.000673
0.416934 0.062170 0.000727
0.496991 0.061661 0.000000
0.582808 0.063149 0.000554
0.668648 0.060467 0.000000
0.759777 0.057647 0.000747
0.849143 0.053001 0.000933
0.940706 0.049012 0.000811
0.988373 0.043244 0.000529
1.000020 0.041979 0.000000
0.001567 0.120511 0.003046
0.040732 0.119916 0.000000
0.095715 0.121372 0.000000
0.153116 0.120712 0.000450
0.211973 0.122222 0.000713
0.274708 0.122226 0.000670
0.340818 0.125837 0.000407
0.418139 0.125993 0.000753
0.496297 0.127425 0.000380
0.580013 0.130091 0.000925
0.664916 0.127986 0.000000
0.756142 0.128402 0.000532
0.846700 0.127019 0.000502
0.935925 0.123247 0.000709
0.987271 0.117872 0.000000
0.999946 0.109676 0.000000
0.000000 0.183667 0.002131
0.040491 0.185403 0.000712
0.093616 0.185778 0.000535
0.152002 0.185187 0.000544
0.212450 0.186243 0.001740
0.278181 0.189636 0.000326
0.348266 0.192076 0.000000
0.422140 0.194020 0.000376
0.502623 0.196112 0.000313
0.587095 0.198109 0.001611
0.674488 0.197972 0.000000
0.762952 0.198021 0.000486
0.853724 0.197228 0.000468
0.941707 0.195613 0.000632
0.987911 0.192753 0.000000
1.000031 0.190690 0.000000
0.001194 0.249454 0.000000
0.036007 0.250663 0.000650
0.092919 0.249803 0.001638
0.152386 0.249782 0.000722
0.214544 0.250160 0.000921
0.277564 0.252464 0.000532
0.349468 0.254837 0.001242
0.424713 0.258155 0.000633
0.504084 0.259864 0.000814
0.589471 0.263404 0.001663
0.673373 0.263949 0.000000
0.764833 0.265490 0.000000
0.856482 0.265345 0.000771
0.945252 0.264417 0.000366
0.989171 0.263695 0.000611
1.000038 0.260816 0.001496
0.000000 0.314530 0.000000
0.034734 0.316644 0.001694
0.089032 0.316271 0.000658
0.153895 0.316245 0.000869
0.219622 0.318204 0.000532
0.282946 0.318466 0.000695
0.350681 0.320185 0.000000
0.423523 0.322784 0.000544
0.505972 0.325702 0.001288
0.586712 0.327503 0.000643
0.673457 0.329982 0.000540
0.760933 0.330769 0.001175
0.852348 0.330469 0.000864
0.937708 0.332986 0.002296
0.988064 0.329888 0.000357
1.000038 0.327601 0.003503
0.000000 0.394087 0.000000
0.034618 0.392172 0.000337
0.084241 0.391216 0.000334
0.158586 0.391202 0.001317
0.224424 0.393728 0.000855
0.293095 0.391304 0.001548
0.361749 0.392704 0.000456
0.434610 0.392412 0.000478
0.515068 0.393598 0.002130
0.596609 0.394780 0.001104
0.679369 0.397667 0.000897
0.766912 0.398309 0.001607
0.854679 0.398880 0.000000
0.941707 0.399545 0.000000
0.988348 0.399891 0.000735
1.000006 0.396325 0.000691
0.000000 0.457314 0.001212
0.035306 0.457205 0.000658
0.076700 0.458735 0.000000
0.155602 0.458735 0.000000
0.225146 0.459359 0.000856
0.295068 0.459144 0.000862
0.367579 0.457307 0.000000
0.440453 0.459191 0.000000
0.514606 0.459143 0.000000
0.597867 0.461245 0.000846
0.682288 0.462597 0.000866
0.767641 0.464618 0.000868
0.856006 0.465638 0.001144
0.943869 0.465156 0.000794
0.988811 0.465788 0.001147
1.000038 0.463427 0.000810
0.001627 0.523178 0.000000
0.034936 0.524024 0.000687
0.076128 0.525510 0.001459
0.151933 0.528587 0.000655
0.227385 0.525643 0.001168
0.295067 0.522278 0.000762
0.371814 0.523381 0.002387
0.441411 0.523895 0.000000
0.518600 0.523128 0.000000
0.598384 0.523885 0.000000
0.682899 0.527388 0.000236
0.765432 0.527901 0.000303
0.853755 0.528109 0.000413
0.942693 0.527273 0.001365
0.987510 0.528123 0.000570
1.000038 0.524505 0.001673
0.001047 0.597454 0.000000
0.034281 0.598094 0.001359
0.073485 0.598289 0.000522
0.152594 0.595477 0.001560
0.230394 0.596277 0.000833
0.302894 0.596259 0.000419
0.377262 0.594689 0.000447
0.451151 0.594860 0.000000
0.528751 0.594510 0.000000
0.608081 0.593731 0.000000
0.689857 0.591323 0.000000
0.774117 0.591769 0.000000
0.860115 0.591612 0.000786
0.945023 0.590431 0.000000
0.988224 0.589462 0.000000
0.999922 0.587590 0.000000
0.000000 0.659588 0.002679
0.035642 0.661249 0.000838
0.069312 0.662362 0.000526
0.146165 0.660610 0.002610
0.227903 0.661879 0.000896
0.302842 0.661427 0.000000
0.377539 0.660770 0.000000
0.452763 0.659921 0.000510
0.532831 0.659137 0.000000
0.612233 0.658322 0.000527
0.693537 0.657142 0.000923
0.775305 0.655507 0.000000
0.862452 0.656052 0.000000
0.947451 0.655337 0.000000
0.988938 0.653228 0.001272
1.000038 0.650788 0.000372
0.003589 0.718851 0.002601
0.035684 0.721212 0.000833
0.068810 0.721427 0.000501
0.132756 0.722704 0.000512
0.219946 0.720820 0.000586
0.295781 0.724618 0.000000
0.374737 0.721829 0.000000
0.451568 0.718735 0.001228
0.529137 0.718705 0.000478
0.611061 0.718911 0.000743
0.693138 0.717404 0.000625
0.777076 0.716425 0.000507
0.860529 0.714878 0.000000
0.946251 0.711970 0.000000
0.988306 0.711594 0.001087
1.000007 0.710734 0.000811
0.002084 0.779584 0.000000
0.034011 0.781435 0.000762
0.069014 0.781142 0.000816
0.118737 0.783720 0.000816
0.212241 0.781581 0.000600
0.295578 0.780759 0.000000
0.369121 0.781100 0.000584
0.450164 0.779861 0.000741
0.528503 0.778666 0.000852
0.607554 0.777375 0.000737
0.689112 0.777367 0.000435
0.775126 0.776268 0.000463
0.862520 0.774866 0.000762
0.945446 0.772210 0.000337
0.988501 0.770953 0.000652
0.999974 0.769097 0.000000
0.000483 0.835675 0.002337
0.034011 0.839269 0.000344
0.069679 0.838503 0.001779
0.104205 0.839780 0.000000
0.202845 0.838870 0.000000
0.287104 0.838321 0.000486
0.367075 0.837767 0.001606
0.447174 0.835550 0.002029
0.526639 0.835371 0.002232
0.606013 0.836780 0.001247
0.687368 0.835370 0.001098
0.772514 0.834167 0.000322
0.861238 0.832721 0.001608
0.948929 0.833975 0.002339
0.989350 0.832335 0.001145
0.999969 0.832484 0.000143
0.000776 0.892286 0.001824
0.035022 0.892795 0.000632
0.068570 0.893787 0.001165
0.105658 0.893048 0.001222
0.177442 0.893905 0.000710
0.278099 0.891754 0.001253
0.355950 0.892246 0.000652
0.436604 0.893225 0.000000
0.517302 0.892341 0.000703
0.598811 0.891091 0.000000
0.685433 0.890384 0.000000
0.770785 0.889459 0.000649
0.858404 0.888093 0.001253
0.947524 0.887754 0.000764
0.989089 0.887307 0.000755
1.000038 0.885570 0.000326
0.002895 0.974366 0.002414
0.034908 0.970718 0.000294
0.068570 0.974296 0.000544
0.105044 0.969003 0.000548
0.157660 0.974105 0.000284
0.259532 0.964032 0.002388
0.348812 0.967028 0.000991
0.428311 0.968426 0.000987
0.512404 0.969013 0.000112
0.599737 0.965549 0.000688
0.690235 0.959859 0.001264
0.777384 0.963218 0.000989
0.869737 0.959808 0.001923
0.954924 0.963254 0.000999
0.991253 0.961337 0.001274
1.000038 0.955905 0.000334
0.000569 0.000677 0.045998
0.047148 0.000000 0.045864
0.102510 0.000000 0.043229
0.155453 0.000000 0.045351
0.211905 0.000951 0.042475
0.274953 0.000807 0.041805
0.345664 0.001152 0.040590
0.419324 0.000911 0.039626
0.497896 0.000000 0.037792
0.582912 0.000000 0.035729
0.669046 0.000850 0.035729
0.759180 0.000854 0.035729
0.848694 0.000637 0.036222
0.939785 0.001018 0.035822
0.987909 0.000000 0.035729
0.999960 0.000000 0.036232
0.001251 0.059714 0.045748
0.046030 0.057328 0.044484
0.097894 0.058756 0.044351
0.153020 0.059158 0.044977
0.211015 0.060803 0.044368
0.275230 0.060306 0.042858
0.341981 0.060056 0.041540
0.418310 0.060939 0.039876
0.497933 0.060251 0.036771
0.580593 0.056472 0.035849
0.666256 0.054309 0.035729
0.756907 0.048542 0.035729
0.847367 0.044895 0.036218
0.937406 0.042894 0.036465
0.987137 0.042252 0.036311
1.000022 0.044023 0.035885
0.000000 0.118355 0.042353
0.042851 0.121097 0.044187
0.097070 0.120567 0.044386
0.152353 0.120877 0.043473
0.210925 0.120940 0.041157
0.276792 0.122685 0.040668
0.341253 0.123347 0.038871
0.416807 0.126303 0.038093
0.495412 0.127077 0.036608
0.577305 0.125905 0.036011
0.664069 0.125133 0.036305
0.750942 0.122121 0.035874
0.840420 0.119323 0.035729
0.930723 0.113684 0.036984
0.985607 0.105261 0.036351
0.999945 0.097291 0.036502
0.000593 0.182276 0.042142
0.040082 0.186596 0.043198
0.095179 0.185591 0.040054
0.152921 0.183210 0.039290
0.212818 0.186541 0.039053
0.277398 0.187710 0.040408
0.349363 0.189683 0.037748
0.422515 0.191581 0.036245
0.502950 0.193582 0.037088
0.587556 0.194311 0.037114
0.670299 0.193785 0.035996
0.759276 0.194614 0.036597
0.848986 0.192862 0.035729
0.937730 0.191001 0.036072
0.987324 0.188740 0.035933
0.999932 0.187832 0.036223
0.000580 0.248662 0.036841
0.036421 0.248931 0.036887
0.090852 0.248197 0.037091
0.151806 0.248942 0.036860
0.214990 0.249618 0.036124
0.278250 0.251913 0.035996
0.348728 0.253843 0.035956
0.423462 0.257099 0.036311
0.504021 0.259506 0.035813
0.584635 0.259700 0.036197
0.670862 0.262215 0.037276
0.760091 0.262812 0.036255
0.850072 0.262230 0.036134
0.940102 0.261182 0.036196
0.987412 0.259833 0.035729
1.000038 0.256858 0.036254
0.000515 0.315480 0.036549
0.036175 0.313702 0.036009
0.085599 0.315966 0.035882
0.150472 0.316508 0.036502
0.215473 0.317221 0.036094
0.279347 0.317234 0.036298
0.347686 0.317711 0.036709
0.424683 0.320168 0.036657
0.504103 0.323560 0.037773
0.583769 0.323658 0.037996
0.669024 0.325955 0.036521
0.756844 0.327744 0.037175
0.847225 0.326129 0.035951
0.933331 0.328595 0.035911
0.985846 0.326687 0.036228
0.999973 0.323104 0.037168
0.001031 0.389742 0.036534
0.034212 0.387731 0.035987
0.079873 0.387878 0.035904
0.152800 0.387357 0.038108
0.221520 0.388798 0.035789
0.287949 0.389645 0.035790
0.357453 0.387606 0.035853
0.431707 0.388397 0.036659
0.510223 0.391775 0.037187
0.591721 0.392646 0.035729
0.675192 0.394234 0.036145
0.762902 0.395964 0.036052
0.850854 0.395554 0.036081
0.939712 0.395559 0.037378
0.987401 0.394721 0.036126
0.999992 0.393267 0.036228
0.001459 0.453695 0.036158
0.034229 0.455088 0.036281
0.077497 0.455291 0.036042
0.148922 0.455442 0.036014
0.223356 0.455187 0.036775
0.291600 0.455437 0.036296
0.364626 0.455350 0.035989
0.436800 0.456225 0.035934
0.514466 0.455894 0.036393
0.594248 0.458411 0.036105
0.678953 0.460423 0.035937
0.766958 0.461885 0.036252
0.856023 0.463288 0.036024
0.944998 0.461970 0.035904
0.988248 0.461639 0.036413
1.000038 0.460006 0.037760
0.000706 0.519189 0.036430
0.034526 0.523098 0.035969
0.071626 0.522230 0.035982
0.146414 0.522481 0.035923
0.222392 0.520713 0.036172
0.293728 0.521867 0.036015
0.367856 0.521353 0.036006
0.438819 0.520622 0.036267
0.514575 0.520901 0.035905
0.595077 0.520409 0.036343
0.676440 0.521867 0.035729
0.760421 0.524883 0.035850
0.847565 0.524306 0.036208
0.937548 0.524258 0.036258
0.986424 0.523769 0.035883
1.000038 0.521903 0.036984
0.000517 0.593212 0.035729
0.034334 0.594093 0.037099
0.070214 0.593852 0.036513
0.142347 0.593480 0.036205
0.223812 0.593227 0.036650
0.299037 0.591398 0.036072
0.373579 0.590490 0.036226
0.448165 0.592266 0.036160
0.525044 0.591275 0.036806
0.604167 0.589590 0.036287
0.684069 0.588655 0.035905
0.768814 0.588509 0.036247
0.854557 0.589171 0.036325
0.941425 0.588166 0.036316
0.987246 0.587726 0.035729
0.999810 0.585186 0.035729
0.001409 0.656684 0.036452
0.034494 0.657966 0.037019
0.069254 0.656496 0.036211
0.135921 0.659722 0.036647
0.223102 0.659083 0.037147
0.299557 0.658875 0.036576
0.374269 0.657724 0.035867
0.450464 0.657001 0.036124
0.528778 0.656505 0.035729
0.607942 0.656474 0.036261
0.690558 0.656355 0.035729
0.772605 0.654752 0.035979
0.858636 0.653946 0.036482
0.944165 0.652756 0.035979
0.988203 0.651540 0.036221
0.999857 0.648616 0.035738
0.001374 0.716343 0.037732
0.034418 0.717800 0.035729
0.069044 0.718530 0.036201
0.125057 0.718530 0.035979
0.214738 0.719946 0.037809
0.295909 0.719322 0.035884
0.369775 0.718183 0.035905
0.447653 0.717180 0.036087
0.526774 0.717848 0.035819
0.607901 0.715888 0.036275
0.689817 0.715328 0.036261
0.773620 0.714256 0.036258
0.857733 0.710957 0.036577
0.943886 0.708947 0.036784
0.987684 0.710249 0.036000
1.000038 0.707400 0.035777
0.000000 0.778775 0.036758
0.034936 0.778994 0.035729
0.069288 0.779564 0.036750
0.105364 0.779100 0.036344
0.206470 0.779212 0.036547
0.288535 0.777419 0.035988
0.367629 0.777415 0.036143
0.445197 0.777125 0.036283
0.524236 0.776268 0.036876
0.605264 0.776570 0.035875
0.686710 0.775012 0.035836
0.771801 0.773173 0.035849
0.859714 0.773062 0.036383
0.943245 0.770464 0.035996
0.987652 0.769190 0.035851
0.999920 0.766478 0.036908
0.000000 0.835384 0.036209
0.034106 0.836176 0.036028
0.069254 0.838834 0.036324
0.104294 0.837286 0.036805
0.196761 0.836626 0.035866
0.280209 0.838234 0.035856
0.364367 0.836357 0.035923
0.441946 0.834732 0.035992
0.522100 0.835671 0.035790
0.603558 0.835607 0.035785
0.685870 0.834103 0.037323
0.771521 0.833175 0.035729
0.860853 0.832273 0.036165
0.946636 0.831175 0.035891
0.989113 0.828833 0.036239
1.000038 0.826894 0.036005
0.001296 0.890706 0.037193
0.034011 0.892534 0.035922
0.069897 0.891359 0.036737
0.104486 0.891379 0.036413
0.171562 0.891873 0.036494
0.274164 0.891961 0.037410
0.353666 0.891330 0.036248
0.434909 0.890756 0.035936
0.515702 0.890185 0.036590
0.597828 0.889432 0.036504
0.682370 0.889436 0.036198
0.769158 0.889001 0.035858
0.856027 0.888168 0.035953
0.943658 0.887744 0.037224
0.989257 0.886412 0.036238
1.000033 0.884746 0.035794
0.000739 0.959842 0.035842
0.034317 0.962403 0.037445
0.069469 0.963401 0.035821
0.108094 0.962026 0.036749
0.153506 0.966687 0.035930
0.254975 0.967378 0.037152
0.342774 0.963276 0.035804
0.429331 0.964761 0.035981
0.510302 0.963775 0.036699
0.597027 0.963955 0.035737
0.686579 0.959596 0.035781
0.775360 0.958500 0.036128
0.868637 0.959434 0.037415
0.955748 0.956079 0.037665
0.992236 0.954413 0.036593
1.000038 0.953941 0.035738
0.000000 0.001727 0.095101
0.045744 0.000000 0.095481
0.099146 0.000930 0.093465
0.155001 0.001199 0.094801
0.212217 0.001045 0.094484
0.274802 0.000825 0.093487
0.344055 0.000419 0.091453
0.419461 0.000000 0.088173
0.498774 0.001116 0.085748
0.584725 0.000000 0.082251
0.671951 0.000000 0.077989
0.760033 0.000000 0.075004
0.850159 0.000000 0.072868
0.940529 0.000000 0.072124
0.988339 0.000000 0.072040
1.000020 0.000000 0.071835
0.001462 0.055400 0.092379
0.045050 0.058068 0.094448
0.096899 0.059112 0.093966
0.152382 0.058351 0.094140
0.212306 0.058578 0.093363
0.277006 0.056493 0.092977
0.344812 0.053235 0.090807
0.418135 0.052068 0.088126
0.499448 0.046987 0.083127
0.581610 0.045422 0.080150
0.667624 0.043565 0.076806
0.755367 0.042238 0.073780
0.848314 0.042268 0.073143
0.939717 0.042369 0.073202
0.987365 0.042141 0.072074
1.000013 0.043132 0.075080
0.001567 0.118971 0.091663
0.044347 0.121093 0.094038
0.095073 0.120521 0.094130
0.154023 0.119686 0.094018
0.212571 0.121552 0.092780
0.276612 0.121547 0.092201
0.343328 0.121734 0.090086
0.419243 0.120088 0.087049
0.496063 0.118452 0.083624
0.579756 0.117022 0.080933
0.664984 0.113879 0.076513
0.751840 0.110007 0.073353
0.840677 0.105644 0.072571
0.930529 0.100030 0.071960
0.984843 0.095507 0.072322
0.999765 0.091383 0.072791
0.000000 0.183940 0.090813
0.039411 0.183973 0.091663
0.094213 0.184412 0.091862
0.153279 0.185015 0.090715
0.213511 0.184806 0.091824
0.277940 0.186081 0.089870
0.349219 0.187878 0.087399
0.424573 0.190410 0.083958
0.503058 0.191392 0.079238
0.586727 0.191217 0.077411
0.673452 0.189496 0.074164
0.762117 0.189982 0.072305
0.851462 0.187475 0.072115
0.942413 0.184231 0.071947
0.988437 0.179190 0.072465
1.000038 0.175499 0.072402
0.000000 0.250047 0.087404
0.034658 0.248643 0.084793
0.089326 0.249858 0.087860
0.154217 0.248919 0.085907
0.213613 0.250659 0.085129
0.279496 0.251546 0.083792
0.348897 0.255001 0.081900
0.424023 0.255001 0.079368
0.503597 0.256545 0.075839
0.586517 0.257737 0.073209
0.671651 0.258197 0.072927
0.761422 0.259359 0.072024
0.850783 0.258602 0.072111
0.941442 0.257158 0.072130
0.988014 0.253773 0.073188
1.000038 0.251265 0.072140
0.000573 0.313924 0.080083
0.034548 0.315682 0.078237
0.081917 0.316278 0.079611
0.149404 0.315588 0.078490
0.216558 0.316502 0.076959
0.282325 0.317277 0.076525
0.350454 0.319007 0.075065
0.425807 0.321471 0.075453
0.503734 0.322772 0.072808
0.583754 0.323111 0.072064
0.669158 0.323000 0.072054
0.756927 0.323885 0.072028
0.846362 0.324300 0.072429
0.935472 0.324970 0.072561
0.986019 0.323547 0.072138
0.999884 0.321081 0.072014
0.000000 0.390066 0.074382
0.034277 0.389761 0.072604
0.077414 0.388964 0.072341
0.148226 0.389711 0.073164
0.221108 0.390183 0.072012
0.289602 0.390002 0.072492
0.362202 0.390550 0.072010
0.435624 0.389819 0.071988
0.513303 0.390780 0.072843
0.595372 0.392051 0.072891
0.677869 0.393176 0.072620
0.764770 0.393929 0.072122
0.853379 0.394523 0.072407
0.941329 0.395188 0.072631
0.987763 0.393839 0.072020
0.999975 0.392086 0.072288
0.002820 0.454343 0.073166
0.035717 0.455785 0.072665
0.071408 0.457104 0.072651
0.146984 0.456022 0.073083
0.221023 0.457385 0.072929
0.291614 0.457496 0.072380
0.364744 0.456171 0.071961
0.439330 0.455772 0.072139
0.515972 0.457008 0.071946
0.596795 0.458545 0.072174
0.680057 0.459678 0.072292
0.768468 0.462060 0.072380
0.856684 0.461311 0.072187
0.943919 0.461911 0.072452
0.988487 0.461401 0.072379
1.000038 0.459196 0.072153
0.000585 0.520991 0.072429
0.034372 0.520735 0.072062
0.069992 0.523377 0.072429
0.141649 0.523401 0.072058
0.219136 0.522024 0.072593
0.293923 0.523254 0.072043
0.364812 0.522860 0.072015
0.442023 0.521855 0.072717
0.516214 0.521485 0.072989
0.596432 0.520318 0.072088
0.679429 0.522408 0.071878
0.764910 0.524813 0.072354
0.851806 0.523789 0.071912
0.942373 0.521716 0.071971
0.987146 0.523110 0.071948
1.000004 0.523089 0.072087
0.001502 0.592436 0.073040
0.034585 0.594843 0.071832
0.069280 0.595021 0.072248
0.135764 0.592941 0.073036
0.222094 0.594147 0.072008
0.297756 0.593079 0.072009
0.372289 0.594917 0.072902
0.448075 0.593062 0.072265
0.525301 0.592267 0.072088
0.604484 0.592288 0.071996
0.684905 0.590160 0.072113
0.769767 0.589987 0.072322
0.857080 0.590017 0.072676
0.942587 0.588396 0.072788
0.987840 0.586776 0.071832
0.999992 0.584393 0.072892
0.000000 0.657629 0.071832
0.034275 0.660068 0.072073
0.068933 0.660704 0.073019
0.125409 0.659081 0.072634
0.219785 0.659430 0.072252
0.296247 0.659841 0.072391
0.373505 0.659589 0.071951
0.449708 0.657842 0.072561
0.529366 0.657467 0.072470
0.610327 0.657792 0.072612
0.692140 0.656500 0.072179
0.774930 0.654618 0.071832
0.861545 0.654132 0.073323
0.946393 0.653560 0.072056
0.988944 0.651675 0.072213
1.000038 0.649527 0.074314
0.000000 0.719521 0.071832
0.034191 0.721103 0.072070
0.069862 0.720343 0.072429
0.106441 0.720950 0.072103
0.210964 0.719045 0.073262
0.290546 0.720953 0.072397
0.369495 0.718784 0.071945
0.447331 0.719112 0.072070
0.527106 0.717751 0.072024
0.608479 0.717233 0.072116
0.688870 0.716272 0.072018
0.774209 0.715080 0.072016
0.859412 0.712635 0.071832
0.942352 0.712190 0.072066
0.987991 0.711021 0.072070
1.000009 0.707817 0.072332
0.000898 0.779169 0.071832
0.034590 0.779046 0.073153
0.069464 0.780150 0.072401
0.105110 0.780991 0.071907
0.201274 0.779453 0.072580
0.286236 0.779671 0.072382
0.364533 0.779378 0.072071
0.445465 0.777422 0.073398
0.523893 0.777395 0.072118
0.605550 0.776744 0.072294
0.688435 0.775672 0.072928
0.773023 0.774380 0.072136
0.859777 0.774417 0.072126
0.945926 0.772739 0.072241
0.987988 0.769829 0.072074
0.999984 0.766705 0.072050
0.000410 0.837451 0.071832
0.035685 0.838146 0.073779
0.069699 0.839168 0.072403
0.106139 0.840048 0.071933
0.186943 0.837477 0.072402
0.278483 0.838511 0.072361
0.359490 0.837939 0.071929
0.441397 0.837428 0.072481
0.524557 0.835596 0.073505
0.605065 0.835093 0.073350
0.686132 0.835366 0.073428
0.772108 0.833701 0.072700
0.860619 0.833150 0.071923
0.948172 0.831378 0.071832
0.989262 0.830466 0.072173
1.000038 0.828426 0.072970
0.000734 0.890435 0.072120
0.034562 0.892330 0.072222
0.068925 0.892614 0.072126
0.105021 0.893265 0.073657
0.165196 0.892840 0.072059
0.270040 0.891219 0.072738
0.351075 0.892121 0.072121
0.432845 0.891466 0.072019
0.516397 0.891959 0.071961
0.596994 0.890411 0.072451
0.681535 0.889496 0.072015
0.769034 0.889054 0.072334
0.858916 0.888073 0.072016
0.946551 0.887356 0.072434
0.989052 0.886553 0.072424
1.000038 0.885349 0.071907
0.000329 0.964957 0.072570
0.035998 0.964543 0.072853
0.069305 0.968809 0.072433
0.103977 0.966390 0.072444
0.148645 0.966009 0.071835
0.250012 0.964138 0.073997
0.340539 0.967262 0.071873
0.424784 0.962818 0.071834
0.510334 0.961740 0.073351
0.597103 0.960878 0.072734
0.687042 0.959758 0.073087
0.777412 0.959572 0.073035
0.867493 0.957195 0.072788
0.953849 0.956797 0.072371
0.992484 0.955191 0.072717
1.000038 0.952947 0.072469
0.001371 0.000000 0.150027
0.042896 0.000501 0.148795
0.099840 0.000620 0.149392
0.157887 0.002541 0.150992
0.214302 0.001325 0.147649
0.278243 0.000000 0.149699
0.346788 0.000000 0.148783
0.420868 0.000935 0.148043
0.503143 0.001462 0.144769
0.589532 0.000000 0.139482
0.676039 0.001139 0.135990
0.764406 0.000000 0.131460
0.853366 0.000000 0.125668
0.945496 0.000000 0.119106
0.989491 0.000000 0.113544
1.000023 0.000000 0.108568
0.001177 0.054866 0.145924
0.045863 0.057093 0.147314
0.098374 0.060011 0.148561
0.153877 0.059288 0.146842
0.214340 0.057290 0.147318
0.278579 0.054381 0.148646
0.349826 0.046064 0.149330
0.420479 0.042691 0.144960
0.501712 0.041972 0.141390
0.586028 0.042163 0.136328
0.672218 0.042304 0.133346
0.760308 0.042323 0.128975
0.850299 0.042125 0.125088
0.941784 0.042240 0.119657
0.988499 0.042714 0.111754
1.000033 0.043056 0.109644
0.001371 0.117545 0.147256
0.040723 0.120844 0.147185
0.096745 0.119644 0.146953
0.153461 0.119704 0.144548
0.214060 0.119375 0.145578
0.276580 0.117601 0.144647
0.347654 0.115522 0.146262
0.422026 0.106293 0.141352
0.502658 0.102662 0.141440
0.581716 0.099552 0.138364
0.670100 0.096450 0.134460
0.758561 0.093552 0.127876
0.848425 0.088463 0.123412
0.939482 0.084125 0.115394
0.987003 0.084445 0.109652
1.000012 0.084049 0.108539
0.000522 0.183561 0.146254
0.038902 0.183231 0.144137
0.093324 0.184772 0.146969
0.151142 0.184576 0.145484
0.215024 0.183858 0.146824
0.279289 0.185687 0.142962
0.351967 0.185024 0.143006
0.427762 0.184809 0.142156
0.507050 0.184575 0.140502
0.591052 0.183643 0.136218
0.678297 0.180022 0.133568
0.767299 0.178423 0.128214
0.856423 0.174201 0.120215
0.946351 0.168352 0.114403
0.989080 0.163836 0.111546
1.000038 0.155479 0.112018
0.000465 0.250438 0.141079
0.034221 0.249339 0.140877
0.080190 0.251440 0.141444
0.152385 0.248814 0.142742
0.213982 0.250898 0.140696
0.282165 0.250454 0.140310
0.353411 0.251513 0.139621
0.426574 0.254008 0.137864
0.508509 0.254264 0.136303
0.589803 0.253466 0.132001
0.676390 0.254004 0.126995
0.764142 0.254061 0.120012
0.855389 0.251803 0.114181
0.942652 0.249376 0.110843
0.988113 0.247922 0.111126
1.000026 0.243925 0.108750
0.000431 0.317158 0.135748
0.034240 0.315785 0.135648
0.074453 0.316950 0.136967
0.146376 0.316426 0.136557
0.215165 0.317256 0.136556
0.281967 0.317437 0.134800
0.354170 0.318379 0.131842
0.428222 0.320254 0.133499
0.507272 0.321847 0.129444
0.588117 0.320595 0.123944
0.673313 0.321871 0.117728
0.760655 0.323559 0.113921
0.848610 0.322362 0.110327
0.937007 0.319762 0.110140
0.987162 0.318815 0.108703
0.999966 0.317011 0.111561
0.001446 0.392750 0.128173
0.034118 0.388951 0.128392
0.068766 0.391800 0.127162
0.142335 0.390878 0.129532
0.218053 0.390471 0.129135
0.287287 0.389578 0.125937
0.361517 0.388560 0.123830
0.436465 0.390174 0.119901
0.514172 0.392176 0.115699
0.596610 0.391908 0.112276
0.681025 0.393150 0.111448
0.769528 0.393590 0.110128
0.855701 0.392817 0.109585
0.943241 0.392677 0.109314
0.988299 0.390677 0.109815
0.999989 0.388591 0.109088
0.002359 0.455012 0.111836
0.034140 0.456399 0.113246
0.071995 0.456713 0.112984
0.134622 0.456994 0.115516
0.217984 0.458064 0.114143
0.289582 0.456633 0.112211
0.363329 0.457014 0.112584
0.439923 0.456326 0.111027
