src/luts/rounded/5.cube
LUT_3D_SIZE 6
0.000000 0.000000 0.000000
0.154807 0.000000 0.001133
0.346825 0.000000 0.001288
0.581326 0.001727 0.000000
0.852187 0.000000 0.001288
1.000020 0.000000 0.000000
0.000000 0.183667 0.002131
0.152002 0.185187 0.000544
0.348266 0.192076 0.000000
0.587095 0.198109 0.001611
0.853724 0.197228 0.000468
1.000031 0.190690 0.000000
0.000000 0.394087 0.000000
0.158586 0.391202 0.001317
0.361749 0.392704 0.000456
0.596609 0.394780 0.001104
0.854679 0.398880 0.000000
1.000006 0.396325 0.000691
0.001047 0.597454 0.000000
0.152594 0.595477 0.001560
0.377262 0.594689 0.000447
0.608081 0.593731 0.000000
0.860115 0.591612 0.000786
0.999922 0.587590 0.000000
0.002084 0.779584 0.000000
0.118737 0.783720 0.000816
0.369121 0.781100 0.000584
0.607554 0.777375 0.000737
0.862520 0.774866 0.000762
0.999974 0.769097 0.000000
0.002895 0.974366 0.002414
0.105044 0.969003 0.000548
0.348812 0.967028 0.000991
0.599737 0.965549 0.000688
0.869737 0.959808 0.001923
1.000038 0.955905 0.000334
0.001371 0.000000 0.150027
0.157887 0.002541 0.150992
0.346788 0.000000 0.148783
0.589532 0.000000 0.139482
0.853366 0.000000 0.125668
1.000023 0.000000 0.108568
0.000522 0.183561 0.146254
0.151142 0.184576 0.145484
0.351967 0.185024 0.143006
0.591052 0.183643 0.136218
0.856423 0.174201 0.120215
1.000038 0.155479 0.112018
0.001446 0.392750 0.128173
0.142335 0.390878 0.129532
0.361517 0.388560 0.123830
0.596610 0.391908 0.112276
0.855701 0.392817 0.109585
0.999989 0.388591 0.109088
0.000000 0.594745 0.108404
0.114828 0.593609 0.108704
0.368217 0.593744 0.108634
0.606148 0.590818 0.108702
0.857613 0.589079 0.108809
1.000029 0.583429 0.108705
0.000797 0.780056 0.108404
0.106717 0.780030 0.109164
0.360607 0.779105 0.109106
0.602557 0.776511 0.109005
0.861143 0.775304 0.109931
0.999999 0.768128 0.109009
0.001252 0.968909 0.109161
0.104594 0.959176 0.108702
0.336099 0.961593 0.108585
0.594647 0.963378 0.108509
0.866673 0.961309 0.110209
1.000038 0.959156 0.109474
0.002887 0.000000 0.330042
0.158878 0.000510 0.328721
0.352043 0.001674 0.328719
0.589880 0.000561 0.337776
0.857202 0.000000 0.334455
1.000022 0.000351 0.316721
0.000429 0.179490 0.332910
0.148583 0.178642 0.333118
0.355661 0.172544 0.333900
0.594480 0.146725 0.333290
0.860496 0.126101 0.326970
1.000038 0.125596 0.312982
0.000427 0.388380 0.332838
0.107960 0.388387 0.332600
0.361426 0.386659 0.330919
0.599743 0.383064 0.325205
0.861853 0.377707 0.317921
0.999967 0.372364 0.309028
0.000471 0.594876 0.314486
0.104020 0.594516 0.313456
0.353910 0.590828 0.310246
0.604940 0.588799 0.306332
0.863469 0.584847 0.303334
1.000038 0.576092 0.298634
0.000000 0.778461 0.277836
0.105340 0.779401 0.283010
0.336733 0.776955 0.285971
0.596627 0.775452 0.278689
0.858066 0.773162 0.268199
1.000038 0.766717 0.257895
0.000000 0.965393 0.222581
0.107390 0.959999 0.222251
0.296785 0.968767 0.222253
0.580418 0.963890 0.223043
0.862506 0.956363 0.222650
1.000038 0.956118 0.221639
0.001074 0.000000 0.560824
0.160822 0.001015 0.560266
0.368773 0.000000 0.558495
0.599559 0.000681 0.556950
0.855129 0.000749 0.557698
1.000038 0.000000 0.557463
0.001473 0.172500 0.560443
0.135250 0.169379 0.563143
0.364463 0.157778 0.562706
0.600371 0.129053 0.560994
0.858740 0.125588 0.558687
1.000038 0.125398 0.551998
0.000000 0.384268 0.560657
0.104837 0.382029 0.562906
0.351956 0.379316 0.561018
0.602747 0.373187 0.556961
0.864768 0.362618 0.553634
0.999972 0.354419 0.545107
0.000754 0.591197 0.560062
0.105006 0.592273 0.561522
0.333706 0.590832 0.555079
0.602188 0.585274 0.550324
0.861217 0.579979 0.545941
1.000038 0.572908 0.541443
0.000817 0.776934 0.536502
0.104547 0.778928 0.541899
0.306407 0.777637 0.543953
0.586522 0.776318 0.537419
0.859009 0.772161 0.532592
1.000038 0.763850 0.530746
0.002325 0.962458 0.524519
0.103888 0.964159 0.524754
0.254075 0.969200 0.519836
0.571132 0.964213 0.520968
0.856768 0.961233 0.517776
1.000038 0.956948 0.507065
0.001232 0.000000 0.820083
0.154869 0.000000 0.823166
0.376868 0.000000 0.815813
0.605561 0.000907 0.817425
0.860919 0.000000 0.811469
1.000028 0.000000 0.800426
0.000000 0.154051 0.817479
0.111777 0.151920 0.817771
0.364261 0.129522 0.818761
0.604818 0.126554 0.816237
0.861214 0.125789 0.814847
1.000030 0.125679 0.801204
0.001341 0.369977 0.820529
0.104806 0.368974 0.819832
0.343571 0.367517 0.819794
0.598199 0.359959 0.815608
0.864305 0.345593 0.813031
1.000038 0.337131 0.800039
0.000938 0.581963 0.817287
0.105090 0.581368 0.820447
0.300352 0.579105 0.816988
0.587221 0.576961 0.815106
0.859747 0.572977 0.810775
1.000021 0.575016 0.798671
0.000000 0.778313 0.809193
0.103940 0.778447 0.812768
0.294778 0.776603 0.814606
0.586583 0.774095 0.806972
0.853946 0.771029 0.807527
0.999852 0.768999 0.809943
0.000338 0.962764 0.790461
0.104132 0.967804 0.797582
0.315763 0.962818 0.800440
0.586872 0.959980 0.802175
0.850815 0.960582 0.800470
1.000038 0.961340 0.798242
0.000000 0.001700 0.989301
0.138285 0.001418 0.991701
0.369315 0.000432 0.989765
0.602261 0.001009 0.989297
0.851087 0.000133 0.988580
1.000021 0.000204 0.988256
0.001265 0.125708 0.990175
0.108732 0.129627 0.989309
0.357185 0.127788 0.989949
0.593981 0.125389 0.989166
0.849935 0.125586 0.989130
1.000038 0.125715 0.989950
0.000107 0.354225 0.990161
0.105990 0.356088 0.990734
0.327905 0.357057 0.991463
0.587156 0.344203 0.991117
0.847286 0.327216 0.989412
1.000038 0.311861 0.990571
0.000360 0.565413 0.989082
0.104115 0.564274 0.989322
0.248512 0.565753 0.990011
0.568980 0.565900 0.989443
0.841902 0.563123 0.989150
1.000006 0.564942 0.990400
0.000285 0.766317 0.990580
0.104462 0.765343 0.991034
0.241796 0.765342 0.991397
0.571715 0.765170 0.990593
0.841736 0.766036 0.990126
0.999899 0.766445 0.989856
0.000342 0.982323 0.989354
0.104099 0.999793 0.991312
0.218008 0.999793 0.990598
0.570746 0.976838 0.992020
0.849220 0.980187 0.991075
1.000020 0.982795 0.993959
