src/luts/rounded/6.cube
LUT_3D_SIZE 16
0.023432 0.023401 0.023132
0.088622 0.059921 0.059000
0.151068 0.092183 0.090278
0.211074 0.109206 0.106522
0.274917 0.109369 0.106509
0.338421 0.126420 0.122513
0.398794 0.149877 0.144382
0.454888 0.172153 0.164897
0.506041 0.193107 0.183827
0.553674 0.213289 0.201580
0.599497 0.232972 0.218886
0.641979 0.250951 0.235098
0.683077 0.268887 0.251021
0.725007 0.287722 0.267406
0.769767 0.308667 0.285195
0.811179 0.328779 0.302044
0.057395 0.084528 0.057275
0.090438 0.087404 0.060554
0.151932 0.111912 0.090935
0.212032 0.127589 0.106872
0.276336 0.130333 0.106725
0.337218 0.145292 0.122308
0.396517 0.166099 0.143768
0.453257 0.187213 0.164474
0.505977 0.207773 0.183868
0.554662 0.227974 0.202009
0.600187 0.247441 0.219223
0.644446 0.266506 0.236176
0.686143 0.283880 0.252316
0.726247 0.300893 0.268008
0.768245 0.319589 0.284701
0.812093 0.340861 0.302529
0.086513 0.143902 0.088005
0.109304 0.140120 0.085136
0.153905 0.148145 0.092362
0.215662 0.162599 0.107794
0.280157 0.166904 0.107191
0.339516 0.179720 0.123454
0.396609 0.196813 0.143944
0.450267 0.214917 0.163433
0.503401 0.233840 0.183008
0.554731 0.253329 0.202191
0.602872 0.272707 0.220432
0.649724 0.292088 0.238425
0.694134 0.310808 0.255650
0.734343 0.326867 0.271390
0.773787 0.343090 0.287078
0.814157 0.361506 0.303611
0.105020 0.206174 0.108483
0.121270 0.204080 0.105655
0.165920 0.201459 0.104890
0.217750 0.211569 0.108274
0.283993 0.216318 0.107664
0.342051 0.225456 0.124506
0.396847 0.238963 0.144131
0.450469 0.254808 0.163653
0.501574 0.271543 0.182607
0.550705 0.288194 0.201029
0.599608 0.305479 0.219555
0.647939 0.323484 0.238043
0.694178 0.341760 0.255916
0.737826 0.359172 0.273045
0.779745 0.375766 0.289676
0.818898 0.392583 0.306041
0.107063 0.273036 0.113690
0.122536 0.274640 0.109976
0.166342 0.270869 0.108563
0.225824 0.269137 0.108562
0.287198 0.278630 0.108974
0.352007 0.284459 0.128888
0.407413 0.293604 0.148599
0.457553 0.304505 0.166830
0.506649 0.317246 0.184939
0.554584 0.331544 0.202873
0.602583 0.346815 0.221005
0.649594 0.362240 0.238923
0.693588 0.377240 0.255887
0.736488 0.393394 0.272716
0.778602 0.410265 0.289490
0.818985 0.427229 0.306371
0.117184 0.339591 0.125627
0.133493 0.339384 0.121127
0.173113 0.349379 0.122990
0.227913 0.344034 0.120634
0.296078 0.340116 0.120025
0.356658 0.350313 0.132020
0.416125 0.355542 0.152770
0.467240 0.361968 0.171096
0.514306 0.370719 0.188265
0.560987 0.381892 0.205632
0.607493 0.394773 0.223113
0.651693 0.406591 0.239889
0.694910 0.419147 0.256548
0.737527 0.433298 0.273282
0.779957 0.448961 0.290144
0.820458 0.466097 0.307275
0.138594 0.402422 0.146049
0.153542 0.401058 0.142176
0.186999 0.412130 0.143236
0.233615 0.419607 0.144660
0.298554 0.414705 0.143486
0.363100 0.413775 0.143540
0.417603 0.418956 0.154002
0.472923 0.424072 0.173681
0.521052 0.429795 0.191204
0.567003 0.437189 0.208144
0.611225 0.444937 0.224707
0.654295 0.454332 0.241009
0.696960 0.465138 0.257506
0.739812 0.477245 0.274213
0.782471 0.491585 0.291254
0.823953 0.509406 0.309200
0.159072 0.464072 0.166080
0.172211 0.462139 0.162817
0.201664 0.470363 0.164167
0.242729 0.477620 0.163207
0.298369 0.476040 0.162163
0.370416 0.473357 0.161848
0.421214 0.476851 0.163149
0.474176 0.481698 0.174643
0.525837 0.486810 0.193292
0.571320 0.491840 0.209991
0.614570 0.497406 0.226147
0.657571 0.504762 0.242454
0.699932 0.513557 0.258798
0.743252 0.524673 0.275692
0.787866 0.539523 0.293460
0.827745 0.555768 0.311397
0.179188 0.525816 0.186313
0.190734 0.523277 0.183701
0.215710 0.528583 0.185711
0.255551 0.535618 0.184346
0.308657 0.535880 0.180723
0.376115 0.529612 0.178911
0.429801 0.533498 0.180329
0.476184 0.536223 0.181310
0.525013 0.539967 0.193301
0.574369 0.544830 0.211325
0.618961 0.550372 0.227975
0.661267 0.556123 0.244032
0.704612 0.564367 0.260707
0.749588 0.576338 0.278333
0.794204 0.590082 0.296066
0.831844 0.605612 0.314075
0.198666 0.587520 0.206337
0.209401 0.585750 0.205234
0.232635 0.591309 0.208249
0.268891 0.595068 0.205574
0.316432 0.595546 0.199379
0.381431 0.590811 0.197379
0.438565 0.590922 0.197636
0.482853 0.592005 0.197993
0.525465 0.593229 0.198377
0.573191 0.597280 0.211107
0.621584 0.602888 0.229101
0.667532 0.610614 0.246453
0.713054 0.620209 0.264002
0.757349 0.631278 0.281407
0.801636 0.643495 0.299149
0.835598 0.656849 0.316721
0.217753 0.648433 0.225320
0.228012 0.647063 0.224852
0.250340 0.652839 0.228413
0.283186 0.658007 0.229939
0.325341 0.654941 0.219265
0.375629 0.650392 0.214878
0.438189 0.648353 0.214640
0.489038 0.648643 0.214756
0.531353 0.649141 0.214894
0.573782 0.650810 0.215263
0.622717 0.657237 0.229631
0.673428 0.665996 0.248771
0.720594 0.676246 0.267047
0.765348 0.685984 0.284635
0.808118 0.696476 0.301850
0.838597 0.707643 0.318751
0.236318 0.707681 0.242997
0.246586 0.706887 0.243258
0.267397 0.711399 0.246087
0.298085 0.719473 0.252317
0.337377 0.719513 0.248049
0.387095 0.715234 0.235566
0.435046 0.705948 0.231326
0.490167 0.706597 0.231684
0.538645 0.707078 0.231776
0.580644 0.708349 0.232066
0.626199 0.713255 0.233321
0.677237 0.722286 0.250257
0.725700 0.730397 0.269023
0.770789 0.739240 0.286903
0.812742 0.748841 0.304076
0.840228 0.758490 0.319982
0.254338 0.765386 0.259968
0.264662 0.764786 0.260720
0.283347 0.767950 0.262973
0.312304 0.775075 0.268285
0.348100 0.780518 0.271565
0.403225 0.781166 0.260020
0.449797 0.773377 0.251824
0.496711 0.767351 0.249209
0.546849 0.768901 0.249528
0.591518 0.769738 0.249659
0.634916 0.773311 0.250604
0.680749 0.777395 0.251674
0.729422 0.785039 0.270620
0.774762 0.792108 0.288642
0.815510 0.800745 0.305570
0.840956 0.809193 0.320740
0.272135 0.822967 0.276652
0.282631 0.822509 0.277941
0.300335 0.825416 0.280231
0.326197 0.830264 0.283861
0.360240 0.837029 0.288036
0.410200 0.837895 0.277918
0.459568 0.835720 0.270002
0.507613 0.828764 0.266963
0.554510 0.830867 0.267221
0.601023 0.832050 0.267375
0.645961 0.833773 0.267686
0.689150 0.835738 0.268180
0.732803 0.838514 0.272101
0.777575 0.845308 0.290026
0.816676 0.852400 0.306369
0.839758 0.861177 0.321068
0.289598 0.880154 0.292890
0.301051 0.881062 0.295589
0.317630 0.883162 0.297280
0.341783 0.887601 0.300818
0.371738 0.894616 0.306143
0.414103 0.899702 0.306078
0.467025 0.896781 0.289662
0.516361 0.891008 0.284966
0.564109 0.890974 0.284293
0.611153 0.892102 0.284263
0.655424 0.892966 0.284379
0.698552 0.893543 0.284489
0.739609 0.894644 0.284857
0.779738 0.898023 0.291102
0.815056 0.905662 0.306394
0.834073 0.921229 0.325227
0.309818 0.945965 0.312926
0.321915 0.947390 0.316084
0.338524 0.949413 0.318412
0.361048 0.953510 0.321655
0.389250 0.959733 0.326692
0.423793 0.968104 0.333522
0.478462 0.967640 0.325816
0.528625 0.964092 0.309218
0.577079 0.956373 0.303410
0.623566 0.956563 0.302549
0.668802 0.957397 0.302512
0.709641 0.957427 0.302508
0.749525 0.958496 0.303007
0.785044 0.961883 0.304716
0.810928 0.973625 0.314880
0.833675 0.981660 0.335509
0.042027 -0.048820 0.060293
0.087512 -0.026159 0.060431
0.152636 0.071811 0.090121
0.213568 0.090423 0.105542
0.277653 0.086767 0.104608
0.339747 0.108194 0.121014
0.399250 0.135605 0.149489
0.454006 0.160435 0.173067
0.505328 0.183529 0.192449
0.553526 0.205270 0.209646
0.599137 0.225606 0.225967
0.640409 0.243434 0.240880
0.679846 0.260875 0.255382
0.721645 0.279824 0.270853
0.766331 0.300734 0.287212
0.808313 0.321124 0.302877
0.059462 0.089538 0.088087
0.090865 0.090035 0.088460
0.154833 0.112404 0.108590
0.214906 0.124944 0.121012
0.277724 0.126904 0.122092
0.338386 0.143790 0.137355
0.397066 0.164986 0.156597
0.452290 0.186025 0.175260
0.504391 0.206905 0.193360
0.553615 0.227937 0.210885
0.600425 0.248245 0.227865
0.645978 0.267881 0.244671
0.687537 0.284749 0.260227
0.727966 0.301775 0.275645
0.769192 0.320355 0.291686
0.812113 0.341289 0.308837
0.088217 0.148515 0.111395
0.109787 0.144584 0.109601
0.155163 0.149466 0.111574
0.218491 0.161156 0.123374
0.281259 0.163423 0.123483
0.341065 0.177564 0.139020
0.398377 0.195299 0.157428
0.451378 0.213734 0.175132
0.502792 0.232598 0.192933
0.554603 0.252703 0.211369
0.603741 0.272728 0.229267
0.649596 0.291543 0.246299
0.693379 0.310003 0.262852
0.734045 0.326327 0.278346
0.773421 0.342610 0.293643
0.813744 0.361245 0.309798
0.105509 0.209110 0.129723
0.119976 0.203827 0.126310
0.162204 0.198335 0.122730
0.216226 0.209393 0.124425
0.285528 0.213727 0.125020
0.344502 0.222362 0.140569
0.399008 0.236636 0.157850
0.451853 0.253179 0.175606
0.503541 0.270441 0.193695
0.554601 0.287913 0.211972
0.606087 0.306181 0.230680
0.653937 0.324383 0.248360
0.698459 0.342538 0.265226
0.741680 0.360619 0.281770
0.781743 0.376123 0.297325
0.819603 0.392395 0.312880
0.107031 0.275015 0.138689
0.120874 0.275648 0.136887
0.160485 0.268602 0.131874
0.221870 0.265670 0.128356
0.286187 0.276161 0.129033
0.352868 0.281665 0.145559
0.408575 0.289822 0.162526
0.459914 0.301852 0.179432
0.510170 0.316003 0.196912
0.559535 0.331257 0.214561
0.607534 0.346792 0.232000
0.654454 0.363019 0.249241
0.700041 0.380539 0.266317
0.744123 0.398492 0.283222
0.785973 0.416005 0.299595
0.823901 0.432545 0.315827
0.117696 0.341110 0.152361
0.133067 0.341845 0.151161
0.164668 0.345483 0.150353
0.222402 0.343428 0.143899
0.296369 0.339462 0.141834
0.355807 0.349823 0.151478
0.416471 0.355279 0.168886
0.470897 0.361292 0.185724
0.519131 0.369874 0.201504
0.566675 0.381581 0.217911
0.612909 0.395052 0.234515
0.658779 0.409658 0.251307
0.703621 0.425062 0.268104
0.746527 0.440301 0.284552
0.788056 0.455786 0.300745
0.825473 0.472411 0.317156
0.139107 0.404427 0.170808
0.154088 0.404632 0.168987
0.183309 0.410708 0.169908
0.229504 0.419486 0.168650
0.294228 0.415258 0.163417
0.362043 0.414593 0.162985
0.418272 0.422779 0.172362
0.476526 0.428332 0.189863
0.527486 0.432124 0.205600
0.573772 0.438569 0.221126
0.618948 0.448514 0.237179
0.663618 0.460348 0.253518
0.706879 0.472163 0.269600
0.748723 0.484347 0.285651
0.789944 0.497977 0.301767
0.827164 0.513832 0.318366
0.159792 0.466197 0.188970
0.173493 0.466121 0.187733
0.200576 0.471974 0.191153
0.241748 0.479573 0.188379
0.292554 0.483148 0.183757
0.362771 0.482417 0.181949
0.422160 0.482757 0.181970
0.477374 0.486577 0.190726
0.532345 0.491026 0.207971
0.580767 0.496343 0.224235
0.624975 0.503025 0.239843
0.668083 0.511158 0.255491
0.709870 0.520256 0.271047
0.751235 0.530967 0.286836
0.792650 0.543381 0.302983
0.829253 0.558307 0.319728
0.179462 0.526744 0.207403
0.191652 0.525406 0.206063
0.214873 0.528164 0.208988
0.252345 0.537408 0.211452
0.298761 0.538663 0.201207
0.358539 0.539870 0.196549
0.425441 0.539458 0.196566
0.479107 0.540957 0.196579
0.532805 0.546352 0.208483
0.585619 0.552332 0.226284
0.630638 0.557696 0.242105
0.672366 0.563300 0.257301
0.713848 0.570686 0.272739
0.754762 0.580212 0.288370
0.796803 0.592090 0.304853
0.832886 0.607696 0.322309
0.198797 0.587921 0.226414
0.209970 0.586579 0.225672
0.230133 0.585874 0.226315
0.263701 0.596207 0.233498
0.306865 0.597907 0.227694
0.367134 0.598319 0.214508
0.428755 0.593195 0.210579
0.486285 0.597066 0.211836
0.533076 0.600624 0.212629
0.584309 0.606018 0.226192
0.633011 0.611169 0.243153
0.676924 0.617553 0.259104
0.718459 0.624440 0.274643
0.759938 0.633239 0.290577
0.803221 0.645093 0.307646
0.836278 0.658742 0.324921
0.218059 0.649298 0.244320
0.228761 0.648296 0.244233
0.249266 0.649367 0.247030
0.281058 0.657384 0.253856
0.318378 0.658347 0.250894
0.375535 0.658983 0.236087
0.436673 0.653377 0.227754
0.494001 0.653812 0.227589
0.539992 0.656840 0.228243
0.582898 0.658881 0.228558
0.631295 0.663962 0.242848
0.678711 0.669811 0.259970
0.723050 0.678022 0.276584
0.766668 0.687418 0.293402
0.809024 0.698152 0.310319
0.838915 0.709277 0.326943
0.236634 0.708587 0.260923
0.247453 0.708314 0.261715
0.268044 0.709864 0.265270
0.298510 0.716668 0.272208
0.333737 0.720807 0.274150
0.382302 0.717458 0.256812
0.434900 0.713722 0.244858
0.494689 0.711437 0.243540
0.546099 0.713248 0.243919
0.588271 0.714958 0.244201
0.630804 0.716914 0.244468
0.679314 0.723513 0.260355
0.726891 0.731083 0.278206
0.771505 0.740234 0.295619
0.813158 0.750020 0.312543
0.840456 0.759836 0.328374
0.254622 0.766128 0.276889
0.265628 0.766308 0.278389
0.285810 0.767919 0.282194
0.314971 0.774059 0.288674
0.348542 0.782287 0.296289
0.392114 0.782652 0.290973
0.445242 0.779411 0.268497
0.491054 0.769871 0.260105
0.546890 0.771218 0.260034
0.595602 0.772864 0.260144
0.637070 0.774394 0.260404
0.681732 0.777753 0.261483
0.730060 0.785487 0.279827
0.775197 0.792842 0.297470
0.815649 0.801565 0.314121
0.840746 0.810570 0.329520
0.272453 0.823861 0.292729
0.283607 0.824047 0.294799
0.303231 0.825614 0.299086
0.329598 0.830316 0.304405
0.362698 0.839012 0.312195
0.402294 0.846472 0.317106
0.458843 0.844691 0.303006
0.506221 0.840651 0.284423
0.552727 0.831899 0.277334
0.603295 0.832727 0.276717
0.647737 0.833767 0.276710
0.690144 0.835816 0.277279
0.733331 0.838776 0.281443
0.777756 0.845939 0.298996
0.816031 0.853391 0.314835
0.836817 0.866980 0.333740
0.289808 0.880761 0.308209
0.301998 0.882627 0.311736
0.321338 0.884446 0.316529
0.346448 0.888806 0.321995
0.376607 0.895638 0.328050
0.415763 0.905253 0.334176
0.467433 0.903296 0.323334
0.517272 0.903383 0.307885
0.564109 0.896151 0.297517
0.612891 0.892897 0.293724
0.657657 0.893174 0.293396
0.699839 0.893527 0.293411
0.740155 0.894776 0.293958
0.779931 0.898655 0.300289
0.811896 0.911094 0.318026
0.831879 0.924000 0.345708
0.309917 0.946292 0.327893
0.323039 0.949450 0.332657
0.343105 0.952192 0.338641
0.367550 0.956148 0.344473
0.395481 0.961897 0.349908
0.429376 0.969834 0.357375
0.477602 0.972190 0.355769
0.527816 0.967677 0.335817
0.573361 0.967548 0.323676
0.623744 0.960214 0.315022
0.669564 0.959217 0.312723
0.710495 0.958670 0.312211
0.749666 0.959597 0.312803
0.783093 0.965301 0.317402
0.806270 0.975249 0.337399
0.834372 0.984701 0.359153
0.084157 0.064772 0.135019
0.104634 0.061611 0.129833
0.155595 0.074612 0.134917
0.221523 0.091432 0.146228
0.281653 0.086630 0.141242
0.340027 0.107579 0.134309
0.401307 0.135771 0.166666
0.456406 0.160859 0.190983
0.507282 0.183861 0.210102
0.555174 0.205797 0.226500
0.601227 0.226640 0.241679
0.641935 0.243801 0.254533
0.681142 0.260893 0.267457
0.722845 0.279933 0.281427
0.766013 0.300148 0.295345
0.807801 0.320541 0.309488
0.088950 0.115112 0.145668
0.111007 0.114265 0.144181
0.151396 0.117229 0.144940
0.221218 0.128009 0.155006
0.284500 0.127391 0.154247
0.343230 0.145115 0.166400
0.400069 0.165799 0.181454
0.454128 0.186732 0.196955
0.504899 0.207765 0.212906
0.554209 0.229309 0.228656
0.602872 0.251361 0.244791
0.649293 0.271787 0.260555
0.690306 0.287854 0.274469
0.729466 0.302869 0.287939
0.769598 0.320479 0.302604
0.812299 0.343093 0.319636
0.091103 0.155867 0.149545
0.108363 0.153659 0.148717
0.152541 0.155666 0.149954
0.221669 0.164775 0.156738
0.284495 0.161341 0.153748
0.343008 0.176483 0.166271
0.399091 0.195040 0.181306
0.451612 0.214294 0.196516
0.502200 0.234561 0.212767
0.552672 0.255573 0.229926
0.603494 0.276502 0.246971
0.651572 0.296280 0.263129
0.696380 0.315459 0.278922
0.736803 0.331451 0.293281
0.775503 0.347490 0.307575
0.814917 0.366223 0.322950
0.106340 0.213933 0.165732
0.119655 0.214397 0.164374
0.160613 0.205818 0.162570
0.219383 0.213243 0.161256
0.288231 0.217322 0.160645
0.346521 0.223691 0.170137
0.400486 0.237204 0.182731
0.453429 0.253858 0.197566
0.505183 0.272068 0.214224
0.555973 0.290674 0.231073
0.606287 0.308989 0.247840
0.655304 0.327571 0.264646
0.699951 0.345506 0.280513
0.743415 0.364194 0.296369
0.783781 0.380601 0.311412
0.821200 0.397587 0.326416
0.107014 0.278901 0.176772
0.121102 0.280527 0.174758
0.156829 0.268604 0.171610
0.215262 0.262022 0.165573
0.285088 0.275149 0.165455
0.352006 0.283864 0.177424
0.408497 0.290530 0.189816
0.460775 0.302237 0.202443
0.511755 0.317203 0.217693
0.562013 0.333239 0.233694
0.610844 0.349184 0.249832
0.658363 0.366131 0.266119
0.703614 0.384037 0.282343
0.747995 0.403042 0.298675
0.790183 0.422221 0.314883
0.826202 0.438676 0.330315
0.119273 0.345625 0.190271
0.134513 0.346173 0.189052
0.163644 0.347691 0.191617
0.213901 0.342718 0.185499
0.288478 0.337299 0.178161
0.353620 0.349929 0.184479
0.413313 0.356661 0.197390
0.469052 0.361273 0.210289
0.519969 0.370367 0.223094
0.569203 0.383211 0.237218
0.616897 0.397232 0.252629
0.662831 0.412480 0.268308
0.707486 0.428973 0.284351
0.751692 0.446374 0.300729
0.794170 0.464418 0.317160
0.829927 0.482260 0.333552
0.140618 0.408838 0.206544
0.154882 0.408185 0.204424
0.181773 0.411512 0.209092
0.221053 0.417046 0.214292
0.284261 0.414385 0.202386
0.360967 0.415958 0.197231
0.415779 0.423926 0.203839
0.473085 0.430307 0.216556
0.528820 0.435610 0.229053
0.576993 0.441583 0.241472
0.622830 0.451580 0.255732
0.667899 0.463772 0.270909
0.712162 0.477413 0.286545
0.755482 0.492567 0.302788
0.797422 0.508069 0.318895
0.831571 0.523749 0.334974
0.161189 0.470295 0.222974
0.174295 0.468926 0.220345
0.200396 0.473520 0.226944
0.237254 0.479758 0.232844
0.284945 0.482527 0.227575
0.356731 0.482240 0.216026
0.421044 0.485226 0.214188
0.474310 0.491449 0.220720
0.532624 0.498340 0.233428
0.584849 0.502670 0.245850
0.629714 0.507989 0.259053
0.673589 0.516837 0.273586
0.716841 0.528135 0.288815
0.758763 0.540284 0.304343
0.800076 0.553128 0.320090
0.833274 0.567555 0.336330
0.180569 0.529992 0.239275
0.192601 0.528382 0.236707
0.217165 0.532828 0.242651
0.252981 0.540821 0.250743
0.295810 0.541934 0.245653
0.352913 0.544095 0.236184
0.422298 0.547638 0.229463
0.478548 0.549636 0.227556
0.533046 0.553594 0.232820
0.588322 0.558958 0.247091
0.636677 0.565078 0.261645
0.680052 0.571990 0.276293
0.721956 0.580367 0.291223
0.762709 0.589840 0.306184
0.803789 0.601375 0.321941
0.835370 0.614509 0.338087
0.199503 0.589881 0.255128
0.210636 0.588438 0.253445
0.231754 0.589268 0.255346
0.266650 0.598008 0.265443
0.305807 0.601227 0.266562
0.356932 0.599394 0.252041
0.419729 0.602661 0.240351
0.482509 0.604879 0.238016
0.534582 0.605751 0.235462
0.588672 0.611757 0.246457
0.640258 0.618413 0.262808
0.684711 0.625296 0.278021
0.726101 0.632500 0.292905
0.766665 0.640724 0.307992
0.807309 0.650804 0.323642
0.837188 0.662314 0.339630
0.218728 0.651041 0.271234
0.229317 0.649628 0.269823
0.248417 0.648861 0.270886
0.280171 0.653061 0.278206
0.317292 0.660374 0.286091
0.362594 0.659415 0.279884
0.425903 0.660039 0.257158
0.485276 0.656524 0.248357
0.542162 0.660826 0.248026
0.589065 0.664877 0.248247
0.639428 0.670729 0.262635
0.685933 0.676194 0.278718
0.729149 0.683566 0.294256
0.770415 0.691550 0.309679
0.810471 0.700839 0.325343
0.839315 0.711748 0.341515
0.237278 0.710290 0.286107
0.247937 0.709453 0.285610
0.267934 0.710237 0.288772
0.298689 0.713361 0.296260
0.334435 0.720579 0.304529
0.374162 0.721151 0.302011
0.433885 0.720683 0.281657
0.493893 0.717166 0.264964
0.550455 0.717769 0.262263
0.596351 0.721258 0.262723
0.638156 0.722284 0.262782
0.685338 0.728189 0.278819
0.730438 0.734034 0.295065
0.772972 0.742061 0.311089
0.813509 0.751708 0.327295
0.840236 0.762248 0.343180
0.255241 0.767953 0.300506
0.266065 0.767390 0.300820
0.286632 0.769179 0.305283
0.317108 0.772494 0.313471
0.351597 0.780069 0.322391
0.389404 0.784714 0.324513
0.441863 0.780161 0.303612
0.493481 0.779172 0.283392
0.552917 0.775900 0.277812
0.603001 0.777780 0.277454
0.644262 0.778504 0.277572
0.685599 0.780051 0.279213
0.731469 0.786524 0.295955
0.775492 0.793803 0.312700
0.814950 0.803288 0.328711
0.838307 0.815275 0.347140
0.272841 0.825124 0.314783
0.284053 0.825193 0.316187
0.304935 0.827684 0.321748
0.334263 0.831075 0.329875
0.367970 0.838683 0.338989
0.403736 0.848013 0.347504
0.452117 0.847974 0.341336
0.502881 0.842686 0.312923
0.549118 0.836478 0.296606
0.605169 0.834589 0.293094
0.652063 0.835356 0.292731
0.692017 0.836316 0.293128
0.733712 0.839102 0.297424
0.777709 0.847118 0.314378
0.812911 0.857631 0.331813
0.832668 0.870728 0.360866
0.290093 0.881698 0.329216
0.302430 0.883729 0.332430
0.322952 0.886600 0.338302
0.351428 0.890045 0.346769
0.383275 0.896697 0.355397
0.419906 0.907789 0.364670
0.463509 0.913436 0.368849
0.517428 0.908626 0.355162
0.562359 0.903841 0.330962
0.611332 0.895083 0.311413
0.659628 0.893439 0.308685
0.701138 0.893584 0.308761
0.740450 0.895199 0.309545
0.778241 0.900823 0.316334
0.804407 0.914387 0.344608
0.831611 0.929817 0.374680
0.310300 0.947329 0.348168
0.323492 0.950492 0.352701
0.345117 0.954579 0.360201
0.373032 0.958589 0.369070
0.404163 0.964195 0.378225
0.438775 0.972175 0.386229
0.481809 0.976871 0.391107
0.530971 0.974128 0.380054
0.575786 0.971243 0.366655
0.619523 0.969428 0.349471
0.668636 0.964343 0.333914
0.711649 0.960434 0.329271
0.748872 0.962587 0.331088
0.778393 0.970990 0.344542
0.804377 0.978366 0.368809
0.835318 0.987423 0.389863
0.103629 0.090528 0.190726
0.122665 0.092468 0.191516
0.163873 0.089827 0.187257
0.223051 0.092849 0.190960
0.283601 0.087842 0.191585
0.338467 0.107195 0.194491
0.393008 0.131405 0.200288
0.452650 0.158688 0.216425
0.508605 0.184360 0.234760
0.557398 0.206466 0.250243
0.602872 0.226776 0.263781
0.643253 0.244108 0.274541
0.683001 0.261531 0.285374
0.724300 0.280234 0.296744
0.766689 0.300142 0.308371
0.809136 0.321069 0.321449
0.105629 0.134051 0.198527
0.124078 0.133239 0.197704
0.159392 0.135617 0.196419
0.216340 0.136339 0.198408
0.285938 0.135400 0.203970
0.346049 0.149855 0.209836
0.401253 0.168479 0.218764
0.455187 0.189511 0.230813
0.505999 0.209935 0.242851
0.555973 0.230902 0.255481
0.605623 0.252803 0.268744
0.652417 0.273713 0.282107
0.692874 0.289865 0.293671
0.731410 0.304542 0.305148
0.770645 0.321334 0.318024
0.813554 0.345060 0.334226
0.106090 0.173855 0.202065
0.122089 0.171813 0.200863
0.159225 0.173456 0.199028
0.208185 0.174862 0.200598
0.287327 0.173216 0.202259
0.347919 0.183921 0.208570
0.400177 0.199967 0.218462
0.451701 0.217774 0.229334
0.502517 0.237211 0.242156
0.552576 0.257701 0.257180
0.603800 0.278923 0.272014
0.653653 0.300679 0.286494
0.699231 0.321271 0.300869
0.739798 0.337963 0.313958
0.777521 0.353208 0.326572
0.815773 0.372012 0.341054
0.107531 0.222435 0.209157
0.121206 0.222880 0.209014
0.154193 0.217322 0.207393
0.212891 0.225059 0.213810
0.286707 0.224780 0.208997
0.348457 0.227245 0.211190
0.399954 0.240840 0.219576
0.453033 0.257788 0.231007
0.505199 0.275880 0.244887
0.556618 0.294724 0.259802
0.606596 0.313567 0.274762
0.654492 0.332688 0.289260
0.700078 0.351690 0.303130
0.745314 0.371759 0.318049
0.786314 0.388182 0.331914
0.823202 0.406054 0.346353
0.106958 0.285324 0.221960
0.121766 0.286606 0.221597
0.151425 0.286053 0.221941
0.209708 0.275486 0.221431
0.285748 0.284334 0.215496
0.352595 0.294658 0.222087
0.407505 0.298072 0.229146
0.459453 0.306150 0.236920
0.511331 0.319727 0.248178
0.562785 0.336618 0.261614
0.612161 0.353812 0.275489
0.659459 0.371729 0.289913
0.704907 0.390200 0.304541
0.748921 0.408922 0.319656
0.791763 0.429035 0.335495
0.827541 0.446569 0.350596
0.121306 0.351912 0.235991
0.136233 0.352262 0.234958
0.164662 0.352581 0.235232
0.208794 0.344236 0.236961
0.277974 0.336047 0.225006
0.349783 0.351801 0.224537
0.410438 0.363950 0.236314
0.464254 0.369359 0.246337
0.517736 0.374724 0.253713
0.569757 0.386643 0.264057
0.618077 0.402050 0.277306
0.664880 0.418144 0.291598
0.710131 0.434736 0.306590
0.754290 0.452508 0.322282
0.797125 0.471464 0.338425
0.832168 0.490825 0.354973
0.142506 0.414737 0.250574
0.156386 0.413520 0.247951
0.182524 0.414166 0.249978
0.220062 0.418665 0.258537
0.273413 0.412388 0.253098
0.349674 0.410693 0.240231
0.411877 0.422411 0.242849
0.467041 0.431927 0.254568
0.521690 0.438047 0.262188
0.575774 0.444593 0.269473
0.624415 0.455402 0.280750
0.670413 0.468115 0.294222
0.714972 0.482629 0.309060
0.758518 0.498697 0.324759
0.801491 0.515808 0.340891
0.834568 0.533579 0.357543
0.162608 0.474422 0.263800
0.175721 0.473097 0.261434
0.200300 0.474239 0.264156
0.236830 0.482585 0.273237
0.279436 0.484691 0.278670
0.343433 0.480539 0.267110
0.417436 0.483958 0.257647
0.469873 0.490523 0.262048
