src/luts/rounded/6.cube
LUT_3D_SIZE 6
0.023432 0.023401 0.023132
0.211074 0.109206 0.106522
0.398794 0.149877 0.144382
0.553674 0.213289 0.201580
0.683077 0.268887 0.251021
0.811179 0.328779 0.302044
0.105020 0.206174 0.108483
0.217750 0.211569 0.108274
0.396847 0.238963 0.144131
0.550705 0.288194 0.201029
0.694178 0.341760 0.255916
0.818898 0.392583 0.306041
0.138594 0.402422 0.146049
0.233615 0.419607 0.144660
0.417603 0.418956 0.154002
0.567003 0.437189 0.208144
0.696960 0.465138 0.257506
0.823953 0.509406 0.309200
0.198666 0.587520 0.206337
0.268891 0.595068 0.205574
0.438565 0.590922 0.197636
0.573191 0.597280 0.211107
0.713054 0.620209 0.264002
0.835598 0.656849 0.316721
0.254338 0.765386 0.259968
0.312304 0.775075 0.268285
0.449797 0.773377 0.251824
0.591518 0.769738 0.249659
0.729422 0.785039 0.270620
0.840956 0.809193 0.320740
0.309818 0.945965 0.312926
0.361048 0.953510 0.321655
0.478462 0.967640 0.325816
0.623566 0.956563 0.302549
0.749525 0.958496 0.303007
0.833675 0.981660 0.335509
0.103629 0.090528 0.190726
0.223051 0.092849 0.190960
0.393008 0.131405 0.200288
0.557398 0.206466 0.250243
0.683001 0.261531 0.285374
0.809136 0.321069 0.321449
0.107531 0.222435 0.209157
0.212891 0.225059 0.213810
0.399954 0.240840 0.219576
0.556618 0.294724 0.259802
0.700078 0.351690 0.303130
0.823202 0.406054 0.346353
0.142506 0.414737 0.250574
0.220062 0.418665 0.258537
0.411877 0.422411 0.242849
0.575774 0.444593 0.269473
0.714972 0.482629 0.309060
0.834568 0.533579 0.357543
0.200915 0.593814 0.290530
0.270437 0.603145 0.300812
0.415372 0.604492 0.292450
0.582680 0.617800 0.280348
0.730674 0.638826 0.317303
0.838084 0.670270 0.362765
0.255958 0.769867 0.329041
0.316574 0.772497 0.339128
0.435673 0.786692 0.356479
0.606887 0.779650 0.300261
0.734510 0.789894 0.319579
0.833350 0.820720 0.381140
0.310915 0.949054 0.372656
0.376078 0.961627 0.394137
0.489316 0.979269 0.425784
0.620103 0.973494 0.397133
0.743948 0.969643 0.365608
0.835885 0.989732 0.425337
0.142688 0.137050 0.376647
0.227153 0.132803 0.373072
0.367538 0.123810 0.358005
0.527643 0.191887 0.353674
0.675461 0.258930 0.374108
0.808594 0.322181 0.394076
0.140275 0.272868 0.371073
0.230593 0.251663 0.379279
0.386270 0.257948 0.375603
0.545747 0.295088 0.371828
0.692017 0.366513 0.410089
0.817839 0.421804 0.431213
0.150406 0.434423 0.389165
0.222247 0.429353 0.388855
0.406354 0.447022 0.399277
0.561040 0.469688 0.402810
0.699480 0.514777 0.434766
0.826266 0.579082 0.483888
0.206211 0.607822 0.412170
0.268313 0.605367 0.410511
0.403846 0.615028 0.427002
0.568975 0.617939 0.420592
0.710502 0.659722 0.453503
0.831436 0.714964 0.501054
0.259832 0.779536 0.434010
0.317854 0.778475 0.434360
0.449540 0.797155 0.464706
0.592780 0.797718 0.462160
0.714226 0.811816 0.469761
0.834562 0.861528 0.517535
0.314911 0.958297 0.463357
0.383412 0.969798 0.479283
0.510323 0.982648 0.513562
0.636923 0.986359 0.524368
0.748378 0.989024 0.511141
0.838036 0.994514 0.531067
0.208294 0.208748 0.521725
0.270749 0.201979 0.515147
0.381483 0.198859 0.510772
0.531664 0.194353 0.495047
0.674465 0.259980 0.498218
0.803425 0.325140 0.524155
0.203710 0.325611 0.514401
0.279379 0.305643 0.519605
0.414849 0.297528 0.527512
0.540013 0.292857 0.507400
0.679691 0.356410 0.512503
0.817837 0.435741 0.544688
0.208234 0.470744 0.518946
0.270649 0.472481 0.520287
0.422624 0.478262 0.525400
0.559415 0.484889 0.517386
0.696579 0.520090 0.535560
0.832013 0.606049 0.580544
0.213001 0.623107 0.525341
0.277301 0.617685 0.522970
0.407965 0.625620 0.526129
0.585684 0.656722 0.545032
0.713220 0.693456 0.563380
0.834585 0.761233 0.605783
0.264374 0.790349 0.542175
0.325137 0.790330 0.543201
0.455118 0.806175 0.555719
0.602132 0.814269 0.575121
0.715181 0.825684 0.575071
0.837600 0.887750 0.614916
0.322875 0.972272 0.567166
0.398843 0.982191 0.576342
0.525810 0.988341 0.596114
0.662510 0.993199 0.620003
0.763487 0.996359 0.622793
0.841542 0.997612 0.626225
0.263793 0.271271 0.628061
0.323225 0.263853 0.624657
0.434946 0.263981 0.624044
0.564816 0.260478 0.615738
0.691298 0.273028 0.615442
0.819105 0.341470 0.634617
0.263319 0.379462 0.628870
0.351412 0.375937 0.638456
0.459609 0.364485 0.637651
0.570748 0.356043 0.625457
0.696718 0.378314 0.626519
0.826856 0.461677 0.646092
0.263712 0.506495 0.626260
0.328322 0.520073 0.629750
0.481014 0.536140 0.643500
0.603337 0.524965 0.649001
0.706021 0.540995 0.633599
0.832274 0.619494 0.660541
0.267507 0.650289 0.630973
0.330740 0.655980 0.631679
0.461239 0.676604 0.636615
0.614349 0.703146 0.643479
0.713927 0.712816 0.645258
0.835771 0.771598 0.672914
0.274634 0.806242 0.638698
0.348225 0.813714 0.640077
0.476043 0.820328 0.643695
0.614443 0.832650 0.652267
0.733085 0.857045 0.660011
0.840455 0.912320 0.685714
0.338523 0.987856 0.659365
0.424268 0.990679 0.664383
0.547774 0.993864 0.673731
0.674337 0.996750 0.683240
0.776982 0.998358 0.690070
0.844319 0.998873 0.691207
0.317448 0.333242 0.709859
0.376183 0.324200 0.709810
0.476177 0.326817 0.711434
0.598759 0.331486 0.710269
0.723684 0.341968 0.715553
0.832277 0.360475 0.724627
0.318951 0.433365 0.713032
0.422196 0.447211 0.729657
0.514806 0.438395 0.728808
0.623956 0.438855 0.724282
0.741472 0.455077 0.729475
0.835749 0.492327 0.725290
0.319093 0.548680 0.711828
0.392529 0.573238 0.715798
0.542257 0.612345 0.726637
0.651360 0.603337 0.729852
0.748319 0.611873 0.724767
0.837551 0.637887 0.727483
0.325484 0.690489 0.716441
0.399896 0.708751 0.719507
0.532785 0.738388 0.725137
0.671612 0.777978 0.730027
0.762354 0.779260 0.729651
0.838953 0.785687 0.732230
0.338664 0.849086 0.723098
0.422603 0.858455 0.725212
0.547386 0.875618 0.729993
0.673628 0.898106 0.735152
0.773578 0.916396 0.735148
0.841119 0.920436 0.738714
0.360312 0.992844 0.731588
0.454561 0.994450 0.735178
0.571791 0.996056 0.738197
0.683392 0.997285 0.738456
0.777749 0.998126 0.740143
0.845454 0.998954 0.746826
