src/luts/rounded/7.cube
LUT_3D_SIZE 16
-0.002935 -0.002180 -0.001112
0.053860 -0.002195 -0.000752
0.122495 0.005016 -0.000197
0.196849 0.009435 0.000159
0.275040 0.012316 0.000463
0.354022 0.013232 0.000435
0.433717 0.012595 0.000160
0.514354 0.011676 -0.000063
0.596371 0.010997 -0.000029
0.678354 0.010380 0.000083
0.737411 0.010123 0.000091
0.785400 0.010089 0.000103
0.834028 0.010042 0.000114
0.882686 0.009994 0.000125
0.931327 0.009947 0.000137
0.979541 0.009910 0.000146
-0.002048 0.050338 0.002923
0.039460 0.051063 -0.002576
0.118834 0.052562 -0.001687
0.192465 0.056428 -0.000202
0.270492 0.059452 0.000429
0.349637 0.060431 0.000467
0.429626 0.060320 0.000198
0.510509 0.059712 -0.000080
0.592575 0.059265 -0.000036
0.676391 0.058817 0.000109
0.737900 0.058576 0.000113
0.785908 0.058563 0.000115
0.834508 0.058512 0.000126
0.883190 0.058461 0.000138
0.931835 0.058409 0.000149
0.980034 0.058363 0.000158
-0.000879 0.113847 0.011889
0.040161 0.113584 0.010137
0.109503 0.115213 -0.002354
0.191414 0.116518 0.000546
0.269114 0.117798 0.000870
0.347401 0.116663 0.000643
0.425818 0.113505 0.000342
0.505127 0.109376 -0.000061
0.586513 0.107478 -0.000110
0.670610 0.105905 0.000095
0.738247 0.105374 0.000109
0.786251 0.105966 0.000122
0.834885 0.106274 0.000130
0.883586 0.106413 0.000145
0.932225 0.106473 0.000158
0.980427 0.106461 0.000168
-0.004826 0.177359 0.010746
0.040628 0.176589 0.010442
0.080767 0.177392 0.003349
0.186464 0.178425 0.001077
0.265494 0.182395 0.001447
0.345253 0.182221 0.001049
0.424737 0.179915 0.000682
0.504394 0.176803 0.000431
0.584850 0.173646 0.000382
0.667247 0.170213 0.000327
0.742209 0.166058 0.000301
0.788870 0.161307 0.000238
0.836940 0.159150 0.000210
0.885111 0.157315 0.000185
0.933384 0.155797 0.000176
0.981505 0.155491 0.000182
0.010823 0.241365 0.003244
0.057369 0.240766 0.003469
0.103786 0.239623 0.003449
0.179185 0.240974 0.000543
0.259565 0.245173 0.002056
0.338604 0.250968 0.001652
0.419579 0.249848 0.001243
0.500096 0.246947 0.000972
0.581056 0.244037 0.000818
0.663254 0.241142 0.000689
0.746022 0.237734 0.000559
0.794652 0.233297 0.000520
0.842508 0.230485 0.000492
0.890708 0.228556 0.000470
0.938995 0.226849 0.000451
0.987073 0.226276 0.000441
0.043693 0.305473 0.003889
0.090105 0.304953 0.003833
0.134973 0.303596 0.003735
0.190400 0.303693 0.002823
0.256147 0.306927 0.001485
0.331085 0.315940 0.002563
0.411290 0.321854 0.002371
0.492689 0.320300 0.001742
0.574356 0.316873 0.001330
0.656832 0.313522 0.001004
0.741539 0.310130 0.000745
0.798691 0.305924 0.000692
0.846253 0.302755 0.000680
0.894608 0.300820 0.000664
0.942913 0.299096 0.000649
0.991014 0.298360 0.000636
0.065682 0.371671 0.007133
0.112217 0.371142 0.006952
0.157969 0.370009 0.006635
0.205816 0.369195 0.006158
0.264592 0.370359 0.002417
0.329112 0.377285 0.001700
0.403545 0.388859 0.004011
0.483430 0.393922 0.003551
0.565083 0.391709 0.002187
0.648027 0.387760 0.001448
0.733032 0.383822 0.001046
0.801065 0.379647 0.000856
0.848539 0.375997 0.000836
0.896891 0.373935 0.000815
0.945327 0.372147 0.000794
0.993393 0.371232 0.000781
0.085274 0.439004 0.018796
0.131830 0.438623 0.018351
0.177917 0.437733 0.017588
0.222792 0.435930 0.016255
0.277803 0.437269 0.013109
0.338018 0.439709 0.003589
0.402136 0.450223 0.003577
0.475114 0.461833 0.005770
0.554832 0.465908 0.004425
0.637565 0.463429 0.002352
0.722576 0.459051 0.001447
0.799691 0.454552 0.001177
0.849833 0.450463 0.001148
0.898133 0.448269 0.001105
0.946609 0.446336 0.001061
0.994777 0.445213 0.001035
0.104631 0.506811 0.037280
0.151182 0.506461 0.036843
0.197435 0.505766 0.036064
0.242838 0.504256 0.034573
0.292303 0.504699 0.033325
0.350893 0.505518 0.023048
0.410834 0.510855 0.009551
0.473614 0.523199 0.005283
0.545851 0.534277 0.007231
0.626613 0.538231 0.005190
0.710978 0.535589 0.002786
0.794323 0.530776 0.001658
0.850455 0.526158 0.001607
0.898530 0.523773 0.001576
0.947151 0.521742 0.001515
0.995287 0.520331 0.001470
0.123458 0.575045 0.058723
0.170036 0.574718 0.058303
0.216318 0.574066 0.057557
0.262069 0.572824 0.056230
0.307793 0.571556 0.054892
0.363784 0.573455 0.050718
0.423479 0.574489 0.035528
0.482269 0.583070 0.018037
0.544287 0.596479 0.007683
0.616951 0.607337 0.009324
0.699008 0.611219 0.006235
0.785142 0.608096 0.002971
0.850289 0.603160 0.002194
0.898045 0.600243 0.002269
0.946689 0.598091 0.002159
0.994808 0.596504 0.002078
0.141592 0.644481 0.082267
0.188121 0.644106 0.081806
0.234475 0.643522 0.081145
0.280444 0.642376 0.079895
0.325700 0.640553 0.078053
0.376597 0.642134 0.077911
0.435451 0.641919 0.067231
0.495133 0.645298 0.051439
0.552720 0.656426 0.029175
0.614400 0.670395 0.011933
0.687934 0.680827 0.010355
0.772006 0.684586 0.007204
0.848392 0.681003 0.003817
0.896726 0.677618 0.003663
0.945280 0.675372 0.003456
0.993535 0.673530 0.003225
0.159133 0.717064 0.108160
0.205631 0.716655 0.107666
0.251968 0.715960 0.106950
0.298068 0.714838 0.105836
0.343656 0.712933 0.104023
0.389692 0.711641 0.102761
0.446860 0.713250 0.098704
0.506898 0.712943 0.086717
0.565778 0.718656 0.070229
0.621771 0.731314 0.041679
0.683353 0.745428 0.014367
0.759042 0.755686 0.012649
0.841049 0.758519 0.011591
0.894525 0.755237 0.009279
0.942828 0.753039 0.008317
0.991105 0.751173 0.007511
0.168857 0.780455 0.123613
0.215815 0.780948 0.123928
0.262768 0.781419 0.124193
0.309720 0.781779 0.124438
0.356339 0.781609 0.124193
0.402393 0.780812 0.123562
0.454952 0.784990 0.124856
0.514825 0.784313 0.116048
0.575367 0.787971 0.106739
0.633785 0.796836 0.089359
0.689199 0.810269 0.054951
0.751956 0.823397 0.022125
0.828625 0.831743 0.024468
0.891597 0.831624 0.024111
0.939507 0.829612 0.022320
0.987847 0.827762 0.020953
0.169412 0.828150 0.124556
0.216409 0.828747 0.124925
0.263391 0.829252 0.125239
0.310383 0.829806 0.125616
0.357403 0.830310 0.126000
0.404248 0.830699 0.126317
0.453559 0.834278 0.128463
0.512912 0.836932 0.124217
0.574206 0.840791 0.117188
0.635013 0.849930 0.108359
0.693049 0.864062 0.086378
0.751073 0.881010 0.049857
0.818665 0.894204 0.031551
0.887046 0.900108 0.048647
0.934497 0.898941 0.046938
0.982689 0.897726 0.045435
0.170388 0.876566 0.126110
0.217382 0.877118 0.126475
0.264359 0.877612 0.126801
0.311331 0.878160 0.127156
0.358314 0.878686 0.127491
0.405216 0.879063 0.127764
0.452933 0.881092 0.129187
0.510770 0.885031 0.127082
0.571928 0.887638 0.119700
0.632954 0.895766 0.112119
0.691690 0.908733 0.093785
0.749058 0.925363 0.058777
0.813887 0.939407 0.030982
0.884027 0.946538 0.046891
0.934031 0.947221 0.050193
0.981761 0.947422 0.050440
0.175421 0.930305 0.130678
0.222400 0.930867 0.131012
0.269291 0.931373 0.131370
0.316010 0.931917 0.131700
0.362431 0.932423 0.132059
0.408439 0.932903 0.132335
0.454759 0.934793 0.133610
0.510710 0.938998 0.131884
0.570368 0.941485 0.124402
0.630221 0.949559 0.116906
0.689042 0.962280 0.099689
0.746896 0.978892 0.065600
0.811243 0.993546 0.034664
0.882783 1.001192 0.048524
0.933791 1.002158 0.052648
0.981491 1.002418 0.053582
-0.052691 -0.069163 0.007474
-0.005907 -0.069272 0.007434
0.046568 -0.069376 0.007302
0.171445 -0.069398 0.007168
0.266198 -0.069331 0.007052
0.350093 -0.069489 0.006893
0.432381 -0.070183 0.006836
0.514591 -0.071225 0.007552
0.597657 -0.072620 0.009340
0.680473 -0.075082 0.012251
0.739863 -0.078901 0.017344
0.787423 -0.083426 0.025029
0.835391 -0.087366 0.031874
0.883181 -0.089648 0.032581
0.931548 -0.090418 0.031164
0.979718 -0.090554 0.030718
-0.001806 0.052435 0.051744
0.039280 0.051830 0.049453
0.117820 0.052791 0.048185
0.192157 0.056450 0.048238
0.270173 0.059141 0.048234
0.349131 0.060147 0.048137
0.429031 0.060208 0.047889
0.509872 0.059712 0.047859
0.591922 0.059347 0.047985
0.675940 0.058971 0.048199
0.738155 0.058735 0.048248
0.786155 0.058731 0.048276
0.834784 0.058685 0.048287
0.883456 0.058638 0.048299
0.932084 0.058591 0.048311
0.980297 0.058555 0.048320
-0.000720 0.113789 0.059108
0.040465 0.113486 0.057600
0.107769 0.115155 0.045343
0.190936 0.116321 0.048353
0.268750 0.117572 0.048361
0.347166 0.116513 0.048230
0.425659 0.113507 0.048037
0.505028 0.109842 0.047943
0.586292 0.107766 0.048003
0.670225 0.105842 0.048187
0.738542 0.105394 0.048250
0.786463 0.105997 0.048280
0.835089 0.106310 0.048286
0.883835 0.106452 0.048299
0.932506 0.106510 0.048311
0.980698 0.106497 0.048321
-0.004269 0.177128 0.058590
0.041113 0.176363 0.058255
0.080462 0.177265 0.051245
0.185562 0.178222 0.048592
0.265202 0.182185 0.049075
0.344995 0.182013 0.048745
0.424498 0.179755 0.048461
0.504123 0.176711 0.048318
0.584554 0.173683 0.048362
0.666947 0.170351 0.048424
0.742405 0.166254 0.048463
0.789204 0.161546 0.048420
0.837239 0.159313 0.048384
0.885336 0.157455 0.048359
0.933703 0.156091 0.048351
0.981831 0.155810 0.048354
0.007495 0.241232 0.050966
0.054125 0.240540 0.051217
0.100417 0.239478 0.051112
0.178165 0.240878 0.048429
0.259085 0.244871 0.049420
0.338370 0.250773 0.049353
0.419273 0.249649 0.049103
0.499805 0.246778 0.048903
0.580745 0.243939 0.048848
0.662866 0.241102 0.048802
0.745765 0.237762 0.048773
0.794788 0.233335 0.048738
0.842632 0.230528 0.048712
0.890855 0.228614 0.048689
0.939164 0.226913 0.048666
0.987231 0.226372 0.048653
0.042340 0.305300 0.051421
0.088650 0.304667 0.051419
0.133484 0.303382 0.051357
0.189240 0.303518 0.050418
0.255565 0.306723 0.048865
0.330824 0.315688 0.049765
0.411038 0.321651 0.050087
0.492398 0.320142 0.049726
0.574000 0.316738 0.049434
0.656436 0.313442 0.049192
0.741242 0.310082 0.049006
0.798735 0.305908 0.048972
0.846271 0.302710 0.048954
0.894632 0.300751 0.048934
0.943052 0.299056 0.048906
0.991068 0.298355 0.048894
0.064717 0.371405 0.054598
0.111144 0.370785 0.054443
0.156921 0.369703 0.054156
0.204845 0.368903 0.053700
0.263865 0.370105 0.050220
0.328754 0.377021 0.048996
0.403356 0.388603 0.051076
0.483208 0.393692 0.051243
0.564804 0.391533 0.050298
0.647730 0.387610 0.049695
0.732642 0.383689 0.049349
0.801077 0.379468 0.049202
0.848606 0.375865 0.049165
0.896969 0.373851 0.049135
0.945406 0.372068 0.049114
0.993480 0.371144 0.049099
0.084530 0.438703 0.065871
0.130974 0.438180 0.065447
0.177064 0.437341 0.064702
0.221940 0.435598 0.063408
0.277050 0.436950 0.060455
0.337491 0.439418 0.051631
0.401887 0.449983 0.050661
0.474914 0.461593 0.052833
0.554628 0.465709 0.052171
0.637300 0.463238 0.050579
0.722238 0.458874 0.049825
0.799659 0.454422 0.049558
0.849885 0.450276 0.049516
0.898189 0.448112 0.049470
0.946665 0.446209 0.049426
0.994842 0.445095 0.049398
0.104017 0.506514 0.084120
0.150466 0.506047 0.083628
0.196739 0.505396 0.082874
0.242128 0.503902 0.081446
0.291578 0.504366 0.080266
0.350273 0.505198 0.070274
0.410495 0.510581 0.056994
0.473434 0.523005 0.052303
0.545715 0.534119 0.054235
0.626435 0.538028 0.052930
0.710738 0.535411 0.051103
0.794134 0.530571 0.050134
0.850524 0.525996 0.049989
0.898584 0.523539 0.049939
0.947138 0.521568 0.049878
0.995295 0.520167 0.049835
0.122963 0.574768 0.105438
0.169415 0.574332 0.104957
0.215717 0.573717 0.104243
0.261475 0.572462 0.102911
0.307116 0.571181 0.101600
0.363216 0.573133 0.097543
0.422982 0.574184 0.082615
0.481991 0.582769 0.065254
0.544155 0.596300 0.054670
0.616844 0.607191 0.056373
0.698753 0.611022 0.054060
0.784922 0.607928 0.051395
0.850410 0.602975 0.050609
0.898072 0.600038 0.050591
0.946690 0.597915 0.050474
0.994927 0.596314 0.050395
0.141101 0.644144 0.128847
0.187578 0.643700 0.128359
0.233957 0.643145 0.127723
0.279913 0.642030 0.126502
0.325194 0.640217 0.124681
0.376058 0.641800 0.124583
0.434945 0.641556 0.113965
0.494718 0.644949 0.098346
0.552527 0.656167 0.076184
0.614291 0.670238 0.058871
0.687861 0.680714 0.057438
0.771777 0.684424 0.055049
0.848521 0.680870 0.052237
0.896803 0.677319 0.051953
0.945346 0.675171 0.051721
0.993629 0.673341 0.051502
0.158738 0.716720 0.154770
0.205163 0.716187 0.154213
0.251516 0.715542 0.153515
0.297613 0.714449 0.152411
0.343193 0.712528 0.150598
0.389125 0.711171 0.149288
0.446427 0.712851 0.145293
0.506512 0.712582 0.133423
0.565481 0.718312 0.117047
0.621630 0.731074 0.088557
0.683272 0.745307 0.061211
0.758891 0.755480 0.059688
0.841061 0.758333 0.059246
0.894679 0.755063 0.057139
0.942937 0.752906 0.056206
0.991253 0.750919 0.055437
0.168659 0.780376 0.170479
0.215625 0.780885 0.170852
0.262562 0.781322 0.171109
0.309484 0.781695 0.171376
0.356116 0.781503 0.171085
0.402139 0.780681 0.170453
0.454687 0.784779 0.171677
0.514555 0.784197 0.162931
0.575150 0.787758 0.153634
0.633633 0.796491 0.136243
0.689161 0.809981 0.101766
0.751829 0.823168 0.069113
0.828481 0.831506 0.071640
0.891765 0.831487 0.071526
0.939643 0.829490 0.069743
0.987987 0.827648 0.068408
0.169221 0.828109 0.171451
0.216229 0.828728 0.171886
0.263179 0.829164 0.172213
0.310165 0.829695 0.172547
0.357204 0.830280 0.172925
0.404035 0.830609 0.173234
0.453317 0.834146 0.175348
0.512668 0.836853 0.171195
0.573959 0.840646 0.164206
0.634889 0.849808 0.155492
0.693074 0.864072 0.133680
0.751048 0.881074 0.097311
0.818534 0.894178 0.079046
0.887105 0.900041 0.096481
0.934643 0.898785 0.094572
0.982890 0.897592 0.093057
0.170205 0.876533 0.172989
0.217197 0.877108 0.173439
0.264147 0.877609 0.173756
0.311118 0.878098 0.174075
0.358094 0.878644 0.174404
0.405008 0.878981 0.174684
0.452732 0.880992 0.176080
0.510513 0.884940 0.174040
0.571690 0.887507 0.166674
0.632796 0.895643 0.159185
0.691634 0.908590 0.141091
0.749072 0.925351 0.106228
0.813743 0.939438 0.078663
0.883898 0.946522 0.094599
0.934154 0.947256 0.098110
0.981879 0.947458 0.098350
0.175223 0.930249 0.177564
0.222218 0.930843 0.177980
0.269085 0.931350 0.178298
0.315771 0.931819 0.178619
0.362152 0.932382 0.178987
0.408111 0.932802 0.179279
0.454394 0.934672 0.180488
0.510339 0.938937 0.178846
0.570076 0.941363 0.171382
0.630057 0.949387 0.163993
0.689002 0.962271 0.146914
0.746916 0.978886 0.113036
0.811257 0.993540 0.082290
0.882649 1.001171 0.096197
0.933839 1.002149 0.100580
0.981512 1.002458 0.101499
-0.052624 -0.069004 0.054615
-0.006051 -0.069119 0.055269
0.044783 -0.069249 0.055398
0.170917 -0.069451 0.054919
0.269279 -0.069590 0.054640
0.353531 -0.069755 0.054400
0.435306 -0.070325 0.054196
0.516634 -0.071272 0.054693
0.598634 -0.072605 0.056224
0.680540 -0.075052 0.058878
0.740249 -0.078890 0.063922
0.787820 -0.083427 0.071590
0.835691 -0.087362 0.078418
0.883471 -0.089645 0.079048
0.931787 -0.090420 0.077562
0.979947 -0.090558 0.077093
-0.001120 0.057156 0.104234
0.039847 0.056968 0.104747
0.113268 0.055558 0.105825
0.191730 0.054829 0.104357
0.272115 0.055065 0.103150
0.351628 0.056901 0.102566
0.431037 0.058337 0.101558
0.510956 0.058921 0.099803
0.592166 0.059133 0.097773
0.676022 0.058925 0.097467
0.738590 0.058705 0.096989
0.786452 0.058705 0.096524
0.835064 0.058658 0.096358
0.883629 0.058611 0.096196
0.932344 0.058563 0.096202
0.980545 0.058526 0.096201
-0.000354 0.116017 0.111273
0.041849 0.115421 0.110226
0.084221 0.117049 0.105390
0.189492 0.116127 0.104055
0.269203 0.116031 0.101832
0.347686 0.115111 0.099883
0.425890 0.113015 0.098558
0.505084 0.110563 0.097894
0.585839 0.108230 0.097366
0.669019 0.105628 0.096721
0.738805 0.105458 0.096382
0.786720 0.106073 0.096305
0.835412 0.106420 0.096357
0.884069 0.106572 0.096378
0.932770 0.106637 0.096394
0.980999 0.106636 0.096403
-0.003039 0.177113 0.112114
0.042720 0.176373 0.111091
0.079669 0.177566 0.104165
0.182490 0.178310 0.098691
0.264750 0.181683 0.098954
0.344541 0.181529 0.097951
0.423978 0.179470 0.097091
0.503535 0.176788 0.096289
0.583920 0.174097 0.096238
0.666233 0.171032 0.096361
0.742834 0.167100 0.096533
0.789590 0.162436 0.096486
0.837597 0.160093 0.096472
0.885766 0.158290 0.096450
0.934137 0.156990 0.096442
0.982251 0.156841 0.096445
-0.008650 0.240986 0.099554
0.038313 0.240321 0.099956
0.083473 0.239236 0.099893
0.176076 0.240629 0.096496
0.258299 0.244367 0.096791
0.337764 0.250368 0.096842
0.418692 0.249446 0.096784
0.499158 0.246714 0.096716
0.580064 0.243979 0.096771
0.662248 0.241277 0.096813
0.745282 0.238095 0.096899
0.795046 0.233752 0.096852
0.842853 0.231038 0.096849
0.891074 0.229170 0.096824
0.939452 0.227548 0.096793
0.987534 0.227106 0.096780
0.040551 0.304904 0.098832
0.086995 0.304315 0.098782
0.131643 0.302923 0.098834
0.187942 0.303132 0.097854
0.254843 0.306367 0.096149
0.330325 0.315172 0.096947
0.410540 0.321273 0.097692
0.491885 0.319965 0.097598
0.573447 0.316729 0.097431
0.655838 0.313530 0.097261
0.740636 0.310271 0.097152
0.798836 0.306156 0.097145
0.846448 0.303002 0.097138
0.894742 0.301082 0.097109
0.943199 0.299459 0.097082
0.991199 0.298836 0.097070
0.063550 0.370951 0.101996
0.110040 0.370379 0.101814
0.155690 0.369175 0.101535
0.203753 0.368466 0.101128
0.263109 0.369699 0.097689
0.328320 0.376652 0.096162
0.402963 0.388188 0.098117
0.482815 0.393414 0.098894
0.564334 0.391370 0.098271
0.647221 0.387546 0.097777
0.732015 0.383736 0.097547
0.801030 0.379605 0.097430
0.848718 0.375962 0.097394
0.897067 0.374034 0.097369
0.945508 0.372205 0.097346
0.993539 0.371379 0.097330
0.083643 0.438272 0.112853
0.130143 0.437793 0.112420
0.176053 0.436762 0.111653
0.220912 0.435088 0.110455
0.276275 0.436551 0.107654
0.336915 0.439088 0.099273
0.401582 0.449635 0.097725
0.474641 0.461293 0.099867
0.554274 0.465445 0.099816
0.636899 0.463111 0.098600
0.721738 0.458820 0.098021
0.799542 0.454367 0.097815
0.849960 0.450253 0.097785
0.898210 0.448192 0.097742
0.946725 0.446269 0.097697
0.994815 0.445192 0.097669
0.103321 0.506121 0.130883
0.149796 0.505698 0.130373
0.195899 0.504888 0.129558
0.241314 0.503436 0.128177
0.290914 0.503966 0.127139
0.349707 0.504849 0.117258
0.410087 0.510264 0.104308
0.473225 0.522756 0.099288
0.545488 0.533847 0.101216
0.626094 0.537798 0.100592
0.710353 0.535257 0.099189
0.793889 0.530467 0.098404
0.850621 0.525952 0.098259
0.898649 0.523531 0.098204
0.947196 0.521592 0.098142
0.995358 0.520261 0.098103
0.122420 0.574411 0.152091
0.168852 0.573970 0.151573
0.215038 0.573217 0.150784
0.260770 0.571996 0.149488
0.306355 0.570678 0.148157
0.362746 0.572731 0.144126
0.422511 0.573840 0.129487
0.481696 0.582476 0.112350
0.543983 0.596049 0.101642
0.616631 0.606915 0.103394
0.698484 0.610832 0.101741
0.784568 0.607750 0.099575
0.850524 0.602844 0.098852
0.898141 0.599923 0.098792
0.946801 0.597843 0.098690
0.994995 0.596267 0.098616
0.140621 0.643782 0.175411
0.187113 0.643377 0.174933
0.233318 0.642636 0.174127
0.279334 0.641574 0.172982
0.324599 0.639773 0.171191
0.375662 0.641420 0.171060
0.434531 0.641191 0.160525
0.494366 0.644598 0.145103
0.552283 0.655875 0.123068
0.614186 0.670029 0.105767
0.687637 0.680475 0.104511
0.771482 0.684204 0.102780
0.848543 0.680643 0.100370
0.896858 0.677183 0.100061
0.945494 0.675032 0.099829
0.993656 0.673283 0.099628
0.158300 0.716328 0.201314
0.204739 0.715799 0.200749
0.250973 0.714983 0.199913
0.297091 0.713890 0.198844
0.342677 0.712031 0.197036
0.388598 0.710659 0.195748
0.446088 0.712417 0.191731
0.506157 0.712177 0.179955
0.565162 0.717925 0.163715
0.621509 0.730793 0.135291
0.683175 0.745048 0.107969
0.758706 0.755315 0.106695
0.841054 0.758126 0.106894
0.894807 0.754857 0.104924
0.943115 0.752696 0.104036
0.991335 0.750833 0.103367
0.168459 0.780294 0.217389
0.215436 0.780819 0.217729
0.262363 0.781268 0.218045
0.309281 0.781585 0.218252
0.355883 0.781362 0.217959
0.401866 0.780538 0.217255
0.454562 0.784570 0.218356
0.514379 0.783970 0.209659
0.575001 0.787573 0.200447
0.633428 0.796150 0.182939
0.689011 0.809720 0.148379
0.751731 0.822840 0.115957
0.828417 0.831242 0.118607
0.891934 0.831319 0.118911
0.939801 0.829359 0.117142
0.988141 0.827494 0.115824
0.169028 0.828033 0.218333
0.216046 0.828625 0.218768
0.263007 0.829202 0.219160
0.309981 0.829679 0.219507
0.357002 0.830228 0.219878
0.403837 0.830577 0.220164
0.453223 0.834100 0.222226
0.512525 0.836755 0.218085
0.573825 0.840577 0.211179
0.634833 0.849735 0.202578
0.693063 0.863995 0.180988
0.751068 0.881143 0.144659
0.818320 0.894170 0.126443
0.887112 0.899925 0.144012
0.934805 0.898528 0.142000
0.983044 0.897424 0.140513
0.169999 0.876444 0.219889
0.217017 0.877039 0.220310
0.263988 0.877624 0.220715
0.310943 0.878033 0.220999
0.357914 0.878571 0.221350
0.404807 0.878932 0.221603
0.452668 0.881007 0.223013
0.510406 0.884815 0.220899
0.571571 0.887472 0.213606
0.632670 0.895538 0.206209
0.691648 0.908575 0.188274
0.749107 0.925341 0.153639
0.813728 0.939410 0.126283
0.883806 0.946521 0.142202
0.934198 0.947325 0.145975
0.981890 0.947523 0.146199
0.175038 0.930155 0.224430
0.222039 0.930751 0.224804
0.268945 0.931336 0.225211
0.315644 0.931796 0.225528
0.361995 0.932344 0.225839
0.407895 0.932758 0.226133
0.454187 0.934674 0.227379
0.510105 0.938793 0.225603
0.569722 0.941301 0.218251
0.629719 0.949390 0.210932
0.688756 0.962255 0.193977
0.746668 0.978893 0.160287
0.811039 0.993602 0.129553
0.882305 1.001143 0.143698
0.933836 1.002185 0.148374
0.981497 1.002489 0.149290
-0.052569 -0.068430 0.104005
-0.006041 -0.068472 0.106598
0.042196 -0.068666 0.110736
0.121231 -0.069029 0.108932
0.266365 -0.069584 0.108448
0.353914 -0.069909 0.108727
0.436743 -0.070488 0.109052
0.519011 -0.071388 0.110232
0.602030 -0.072667 0.112772
0.684503 -0.075086 0.116476
0.744180 -0.078917 0.121393
0.791179 -0.083449 0.133234
0.838794 -0.087386 0.154374
0.886297 -0.089664 0.151981
0.934254 -0.090434 0.143332
0.982371 -0.090580 0.133638
-0.000291 0.062909 0.159232
0.041997 0.062819 0.160400
0.102352 0.061989 0.166746
0.184377 0.059844 0.165468
0.270308 0.053679 0.164486
0.352727 0.052561 0.164647
0.433086 0.054726 0.165016
0.513886 0.056445 0.165142
0.595664 0.057820 0.164998
0.679135 0.058348 0.164383
0.741780 0.058272 0.161584
0.789020 0.058393 0.157692
0.837422 0.058401 0.156115
0.885763 0.058395 0.154663
0.934173 0.058378 0.153484
0.982326 0.058350 0.153134
-0.000080 0.119685 0.165453
0.043929 0.119061 0.164772
0.080522 0.121199 0.166544
0.180387 0.118338 0.166589
0.267896 0.113936 0.164744
0.349214 0.109565 0.162233
0.428077 0.107448 0.161139
0.507658 0.106912 0.160726
0.588380 0.105965 0.160127
0.671361 0.104558 0.159051
0.741241 0.104953 0.156826
0.788543 0.105704 0.153415
0.837007 0.106124 0.152258
0.885489 0.106332 0.151124
0.933954 0.106426 0.150118
0.982147 0.106432 0.149924
-0.000151 0.179138 0.171050
0.046000 0.178328 0.170228
0.082972 0.179216 0.167971
0.164612 0.181281 0.163756
0.263394 0.181207 0.164526
0.345626 0.179074 0.161231
0.425201 0.176375 0.158681
0.504481 0.174574 0.157125
0.584651 0.173335 0.156017
0.666640 0.171306 0.154451
0.744298 0.167989 0.152443
0.790736 0.163416 0.149073
0.838537 0.160940 0.148096
0.886592 0.159238 0.147361
0.934815 0.157738 0.146753
0.983015 0.157787 0.146796
-0.008437 0.241442 0.166227
0.038229 0.240791 0.165692
0.081770 0.239898 0.163840
0.157478 0.242019 0.158505
0.254165 0.244914 0.154846
0.338064 0.249798 0.155820
0.418906 0.248428 0.154096
0.499060 0.245894 0.152059
0.579704 0.243691 0.150201
0.661591 0.241432 0.148584
0.744816 0.238548 0.147280
0.795299 0.234359 0.145095
0.843073 0.231625 0.144790
0.891379 0.229872 0.144789
0.939764 0.228341 0.144781
0.987820 0.228087 0.144802
0.024104 0.304943 0.155515
0.071154 0.304365 0.155149
0.116391 0.303016 0.154668
0.177505 0.303307 0.152854
0.250885 0.306253 0.148067
0.329695 0.314748 0.146655
0.410095 0.320818 0.148014
0.491250 0.319607 0.147583
0.572629 0.316550 0.146320
0.654950 0.313511 0.144882
0.739590 0.310332 0.145054
0.799040 0.306379 0.145209
0.846579 0.303265 0.145240
0.894882 0.301474 0.145243
0.943321 0.299913 0.145223
0.991336 0.299423 0.145211
0.059122 0.370241 0.152208
0.105783 0.369672 0.151856
0.151724 0.368568 0.151364
0.200254 0.367810 0.150607
0.261358 0.369171 0.146363
0.327502 0.375997 0.143433
0.402308 0.387420 0.144964
0.482126 0.392852 0.146361
0.563588 0.391056 0.146083
0.646432 0.387419 0.145792
0.731152 0.383690 0.145703
0.800950 0.379694 0.145613
0.848712 0.376091 0.145576
0.897052 0.374202 0.145570
0.945498 0.372500 0.145545
0.993654 0.371759 0.145529
0.082394 0.437579 0.159903
0.128912 0.437124 0.159446
0.175005 0.436176 0.158556
0.219735 0.434329 0.157285
0.275297 0.435865 0.154634
