src/luts/rounded/7.cube
LUT_3D_SIZE 6
-0.002935 -0.002180 -0.001112
0.196849 0.009435 0.000159
0.433717 0.012595 0.000160
0.678354 0.010380 0.000083
0.834028 0.010042 0.000114
0.979541 0.009910 0.000146
-0.004826 0.177359 0.010746
0.186464 0.178425 0.001077
0.424737 0.179915 0.000682
0.667247 0.170213 0.000327
0.836940 0.159150 0.000210
0.981505 0.155491 0.000182
0.065682 0.371671 0.007133
0.205816 0.369195 0.006158
0.403545 0.388859 0.004011
0.648027 0.387760 0.001448
0.848539 0.375997 0.000836
0.993393 0.371232 0.000781
0.123458 0.575045 0.058723
0.262069 0.572824 0.056230
0.423479 0.574489 0.035528
0.616951 0.607337 0.009324
0.850289 0.603160 0.002194
0.994808 0.596504 0.002078
0.168857 0.780455 0.123613
0.309720 0.781779 0.124438
0.454952 0.784990 0.124856
0.633785 0.796836 0.089359
0.828625 0.831743 0.024468
0.987847 0.827762 0.020953
0.175421 0.930305 0.130678
0.316010 0.931917 0.131700
0.454759 0.934793 0.133610
0.630221 0.949559 0.116906
0.811243 0.993546 0.034664
0.981491 1.002418 0.053582
-0.052569 -0.068430 0.104005
0.121231 -0.069029 0.108932
0.436743 -0.070488 0.109052
0.684503 -0.075086 0.116476
0.838794 -0.087386 0.154374
0.982371 -0.090580 0.133638
-0.000151 0.179138 0.171050
0.164612 0.181281 0.163756
0.425201 0.176375 0.158681
0.666640 0.171306 0.154451
0.838537 0.160940 0.148096
0.983015 0.157787 0.146796
0.059122 0.370241 0.152208
0.200254 0.367810 0.150607
0.402308 0.387420 0.144964
0.646432 0.387419 0.145792
0.848712 0.376091 0.145576
0.993654 0.371759 0.145529
0.121643 0.573856 0.198529
0.259942 0.571345 0.195860
0.421893 0.573351 0.176205
0.616310 0.606549 0.150395
0.850570 0.602669 0.146995
0.994982 0.596262 0.146800
0.168235 0.780201 0.264221
0.309064 0.781531 0.265123
0.454506 0.784286 0.264956
0.633166 0.795690 0.229420
0.828276 0.830988 0.165427
0.988274 0.827419 0.163271
0.174838 0.930104 0.271247
0.315591 0.931820 0.272293
0.454346 0.934746 0.274110
0.629622 0.949362 0.257562
0.810816 0.993639 0.175637
0.981370 1.002439 0.196537
-0.052326 -0.063704 0.341029
0.091352 -0.062104 0.350200
0.406944 -0.065296 0.355842
0.678668 -0.075198 0.383957
0.838992 -0.087521 0.381763
0.983945 -0.090713 0.377849
-0.000071 0.193246 0.347704
0.131689 0.194583 0.352063
0.404808 0.185592 0.359300
0.663439 0.161661 0.370695
0.840845 0.152793 0.366422
0.986215 0.150533 0.362932
-0.004723 0.376923 0.359755
0.133885 0.373131 0.355793
0.384471 0.386160 0.359635
0.645559 0.384632 0.360661
0.850102 0.374987 0.352019
0.994993 0.372098 0.349147
0.092951 0.568720 0.353893
0.232149 0.566255 0.350978
0.406646 0.569918 0.341040
0.615707 0.605729 0.308623
0.851679 0.601488 0.318220
0.995779 0.596054 0.315446
0.164345 0.778415 0.406903
0.305339 0.779644 0.407403
0.451760 0.781743 0.405721
0.631647 0.792844 0.369206
0.827016 0.829069 0.304911
0.988765 0.826429 0.304979
0.173968 0.929747 0.411323
0.314780 0.931374 0.412390
0.455791 0.934818 0.413903
0.630582 0.949184 0.395814
0.810863 0.993557 0.292856
0.981968 1.002516 0.331914
-0.041078 -0.044800 0.525036
0.103589 -0.035088 0.531879
0.372790 0.042885 0.550379
0.627051 -0.037557 0.558062
0.800970 -0.079430 0.572392
0.951345 -0.086640 0.574868
-0.004030 0.210439 0.531898
0.133309 0.213225 0.535036
0.356384 0.221250 0.548493
0.618841 0.205357 0.551059
0.814376 0.170739 0.568112
0.963969 0.163479 0.568952
-0.000006 0.394995 0.552519
0.139999 0.391907 0.549320
0.317884 0.399532 0.560493
0.625082 0.396341 0.570200
0.845015 0.370054 0.581216
0.990642 0.366183 0.578368
0.035388 0.589185 0.568976
0.171637 0.585436 0.565103
0.332540 0.579537 0.557778
0.601795 0.598348 0.564963
0.853108 0.597622 0.570819
0.997153 0.593746 0.567145
0.129691 0.777609 0.571227
0.271284 0.777823 0.570593
0.416767 0.776381 0.566772
0.616898 0.784302 0.551672
0.826559 0.827729 0.517639
0.990826 0.825598 0.522388
0.147124 0.927687 0.570688
0.289367 0.928788 0.570430
0.432142 0.930376 0.569403
0.621915 0.944243 0.556653
0.815665 0.991337 0.515454
0.985629 1.001910 0.538910
-0.018940 -0.043515 0.667609
0.159555 -0.026590 0.677034
0.360717 0.053308 0.698088
0.611709 0.069194 0.711554
0.767380 0.044139 0.710289
0.909754 0.019664 0.709409
0.011527 0.216032 0.684980
0.161264 0.220222 0.689996
0.339507 0.227848 0.702434
0.599464 0.240390 0.717619
0.771370 0.231867 0.713179
0.915857 0.230603 0.714014
0.000000 0.403632 0.717747
0.139457 0.401821 0.716783
0.308722 0.410442 0.727879
0.582371 0.423638 0.745114
0.792511 0.414840 0.741337
0.937455 0.410499 0.740733
0.034500 0.604180 0.755529
0.171756 0.601854 0.754107
0.325808 0.602032 0.755800
0.550421 0.607616 0.762882
0.823992 0.609895 0.776089
0.972308 0.603792 0.776509
0.108542 0.806802 0.780500
0.248174 0.804585 0.777513
0.386681 0.797200 0.769730
0.558921 0.790406 0.761696
0.815515 0.817311 0.771588
0.991289 0.821550 0.778786
0.117125 0.949880 0.771270
0.258084 0.948537 0.768248
0.398389 0.946078 0.762764
0.571192 0.946146 0.753810
0.810491 0.983748 0.766165
0.985175 0.998882 0.792880
-0.015621 -0.059473 0.799924
0.162312 -0.050476 0.809929
0.354805 0.030133 0.831349
0.608484 0.063790 0.848168
0.767507 0.049100 0.845078
0.908119 0.036623 0.842079
0.014437 0.216030 0.826164
0.163191 0.220432 0.831179
0.336575 0.227610 0.842827
0.594843 0.241947 0.859906
0.770135 0.234305 0.855383
0.914053 0.233510 0.855459
0.000000 0.402428 0.858244
0.139169 0.401033 0.857589
0.309488 0.410245 0.868845
0.575253 0.422598 0.885764
0.789419 0.416342 0.883048
0.932489 0.412971 0.881463
0.030180 0.601565 0.896180
0.167990 0.599673 0.895347
0.324476 0.601161 0.898943
0.541267 0.606411 0.907092
0.807584 0.616523 0.918965
0.950696 0.612938 0.917458
0.108582 0.812527 0.937155
0.247900 0.810779 0.936104
0.386308 0.805509 0.932989
0.547987 0.804329 0.933669
0.794368 0.816777 0.946831
0.972071 0.821398 0.953915
0.117536 0.963610 0.943258
0.258292 0.963424 0.943022
0.399008 0.963214 0.942765
0.561873 0.965516 0.942711
0.789248 0.981755 0.956115
0.978855 0.992530 0.982175
