src/luts/rounded/8.cube
LUT_3D_SIZE 16
0.049349 0.049346 0.049346
0.094619 0.076078 0.074155
0.152261 0.097948 0.093290
0.209964 0.112153 0.104919
0.263589 0.125083 0.114008
0.312522 0.140486 0.126592
0.357755 0.155948 0.139506
0.400907 0.171457 0.152934
0.444365 0.188687 0.168096
0.486796 0.207010 0.183503
0.528633 0.226151 0.199530
0.569414 0.244825 0.216142
0.607816 0.263789 0.232099
0.645576 0.282370 0.248381
0.683619 0.300002 0.263411
0.726426 0.317922 0.276831
0.085986 0.081999 0.074093
0.109021 0.091457 0.082217
0.155734 0.105857 0.095655
0.211447 0.118329 0.105945
0.263969 0.130433 0.115126
0.312637 0.144741 0.127815
0.357863 0.159368 0.140843
0.401207 0.174744 0.154148
0.444592 0.191626 0.169375
0.487042 0.209620 0.184764
0.528930 0.228412 0.200794
0.569728 0.247098 0.217221
0.608228 0.265834 0.233305
0.645791 0.284099 0.249607
0.684006 0.301503 0.264534
0.726649 0.319327 0.277833
0.130061 0.109439 0.088928
0.143233 0.114024 0.092802
0.177079 0.125379 0.102141
0.218769 0.135654 0.110041
0.267210 0.146500 0.118981
0.314852 0.159706 0.131341
0.359977 0.173121 0.144444
0.402548 0.187239 0.159069
0.445599 0.202797 0.174371
0.487974 0.219749 0.189819
0.530250 0.238127 0.205588
0.570970 0.256205 0.221790
0.609214 0.273929 0.238242
0.647019 0.291078 0.254589
0.685367 0.308146 0.268968
0.728050 0.325131 0.281884
0.176252 0.134102 0.098501
0.184002 0.136764 0.100388
0.208022 0.145011 0.106223
0.242650 0.156485 0.114309
0.279156 0.168165 0.124393
0.321313 0.181404 0.136267
0.364811 0.194688 0.149856
0.406808 0.208734 0.165826
0.449180 0.223611 0.181391
0.491100 0.239551 0.197412
0.532884 0.255856 0.213735
0.573142 0.272482 0.230449
0.611876 0.289158 0.247432
0.649867 0.305584 0.263321
0.688112 0.321121 0.276964
0.730699 0.336041 0.289731
0.230848 0.157379 0.101567
0.235690 0.159342 0.102641
0.251767 0.165920 0.107848
0.275214 0.176657 0.118272
0.303621 0.190978 0.131183
0.334953 0.205108 0.143267
0.373912 0.221039 0.156857
0.414778 0.236420 0.172539
0.455755 0.251054 0.189188
0.496922 0.266165 0.206273
0.537968 0.281795 0.223973
0.577847 0.297512 0.242411
0.616284 0.312291 0.259954
0.654119 0.326215 0.275435
0.692722 0.340101 0.288848
0.735707 0.354642 0.302011
0.277504 0.182960 0.105241
0.280705 0.184564 0.106617
0.292490 0.190588 0.112358
0.310101 0.200087 0.122788
0.332265 0.212969 0.137116
0.359961 0.229649 0.153001
0.389523 0.245946 0.166309
0.426696 0.264524 0.179672
0.465961 0.282495 0.196392
0.506189 0.298104 0.215223
0.545959 0.312972 0.235034
0.585207 0.327311 0.254778
0.623592 0.341183 0.273080
0.661520 0.354783 0.289807
0.700008 0.367578 0.304973
0.742817 0.379182 0.318129
0.326543 0.212214 0.111609
0.328899 0.213729 0.112946
0.337862 0.219018 0.118289
0.352555 0.227272 0.128098
0.369896 0.238763 0.142055
0.390296 0.253323 0.159533
0.416139 0.271340 0.177755
0.443159 0.288822 0.191457
0.479225 0.310451 0.205287
0.518335 0.329674 0.223276
0.557319 0.345551 0.244300
0.595677 0.360322 0.265583
0.633346 0.374511 0.285460
0.670805 0.388394 0.304297
0.708906 0.400968 0.321517
0.751359 0.412308 0.337617
0.374556 0.245368 0.118770
0.376294 0.246391 0.119953
0.383308 0.250498 0.124890
0.395389 0.257913 0.134579
0.409701 0.268116 0.147447
0.426652 0.281235 0.164676
0.446628 0.297267 0.185069
0.471211 0.316109 0.205739
0.497124 0.333282 0.220598
0.532731 0.355210 0.234044
0.571402 0.376709 0.252010
0.608751 0.394809 0.273284
0.645366 0.410477 0.295418
0.682198 0.425215 0.316942
0.720071 0.438050 0.336327
0.761965 0.449714 0.354353
0.421753 0.280331 0.126561
0.423236 0.281367 0.127778
0.429152 0.285576 0.132973
0.439163 0.292425 0.142294
0.452319 0.301423 0.155553
0.467099 0.312974 0.172277
0.484037 0.327140 0.192448
0.503782 0.343464 0.214839
0.527608 0.361466 0.237190
0.552921 0.378625 0.253125
0.586729 0.401800 0.266368
0.623944 0.425567 0.282165
0.660405 0.446501 0.302468
0.696375 0.463060 0.324942
0.733128 0.475966 0.345951
0.773607 0.486797 0.366084
0.472427 0.321407 0.139334
0.473637 0.322409 0.140714
0.478293 0.325579 0.145456
0.486687 0.331007 0.154105
0.498074 0.338685 0.166908
0.511072 0.348122 0.182908
0.525783 0.360152 0.202148
0.542596 0.374456 0.224447
0.561810 0.390804 0.248221
0.584042 0.409185 0.270742
0.608249 0.427207 0.286911
0.640519 0.451398 0.299160
0.675750 0.476710 0.311815
0.711474 0.496522 0.328717
0.747009 0.509540 0.349480
0.785970 0.520436 0.371728
0.523267 0.363813 0.153763
0.524127 0.364404 0.154872
0.528090 0.366945 0.159515
0.535402 0.371788 0.168707
0.545133 0.378150 0.180835
0.557028 0.386344 0.196360
0.570306 0.396690 0.214430
0.585495 0.409547 0.235862
0.601831 0.424681 0.259527
0.619586 0.441485 0.283599
0.640079 0.460276 0.305561
0.663608 0.479477 0.321809
0.693557 0.501231 0.331555
0.727560 0.522384 0.339343
0.762178 0.538527 0.351207
0.797549 0.550582 0.372737
0.576302 0.409843 0.173635
0.577085 0.410445 0.174828
0.580396 0.412753 0.179802
0.586422 0.416493 0.187887
0.595051 0.421661 0.199492
0.605554 0.428534 0.213605
0.617558 0.436987 0.229565
0.631275 0.448062 0.248480
0.645315 0.461707 0.270482
0.660259 0.477700 0.294303
0.676797 0.494562 0.318234
0.695795 0.511224 0.339838
0.718898 0.527194 0.355267
0.748062 0.544101 0.362326
0.778866 0.561695 0.365505
0.806411 0.579144 0.378341
0.630147 0.459404 0.195456
0.630890 0.459739 0.196311
0.633437 0.461118 0.199943
0.638666 0.463886 0.207110
0.646150 0.468078 0.217694
0.655383 0.473649 0.229746
0.666144 0.480816 0.244142
0.677925 0.489504 0.260477
0.690522 0.501110 0.279952
0.703975 0.513990 0.302111
0.718068 0.527703 0.326287
0.733557 0.541410 0.350587
0.751181 0.554563 0.372035
0.772328 0.567767 0.387902
0.793438 0.584167 0.400406
0.811341 0.606738 0.417205
0.679017 0.509116 0.211404
0.679491 0.509369 0.212257
0.681724 0.510431 0.215884
0.686081 0.512361 0.222842
0.692088 0.515050 0.231207
0.699858 0.518543 0.242441
0.708825 0.523396 0.255034
0.718632 0.529476 0.269923
0.729133 0.537011 0.287277
0.740448 0.546682 0.308176
0.751666 0.557743 0.332602
0.763314 0.570498 0.361164
0.775460 0.584695 0.392574
0.788074 0.600581 0.425232
0.800871 0.623244 0.465680
0.814079 0.653614 0.516550
0.713739 0.554201 0.225885
0.714175 0.554302 0.226530
0.715782 0.554649 0.229311
0.718937 0.555287 0.234899
0.723665 0.556342 0.243525
0.729834 0.558535 0.254687
0.736841 0.561762 0.268331
0.744554 0.566971 0.285960
0.752813 0.574004 0.307869
0.761368 0.583685 0.334975
0.770093 0.597381 0.369674
0.778636 0.614693 0.411847
0.787216 0.635716 0.459861
0.795798 0.658827 0.510769
0.804161 0.681819 0.558594
0.815544 0.712665 0.612662
0.732423 0.599230 0.250892
0.732803 0.599306 0.251882
0.734307 0.599590 0.256306
0.737061 0.600265 0.265019
0.741096 0.603013 0.280071
0.746419 0.607294 0.300999
0.752307 0.614592 0.330028
0.758467 0.625376 0.367092
0.764559 0.640946 0.410692
0.771054 0.658831 0.457952
0.778074 0.678252 0.506890
0.785300 0.699429 0.555758
0.792516 0.721835 0.600997
0.799726 0.742843 0.640408
0.806930 0.762963 0.674318
0.816864 0.774604 0.691252
0.065078 0.068052 0.069710
0.098590 0.084113 0.085409
0.154831 0.102037 0.099988
0.211974 0.115165 0.109969
0.265616 0.127344 0.117822
0.313754 0.142085 0.129256
0.358725 0.157186 0.141542
0.401671 0.172571 0.154822
0.444952 0.189613 0.169608
0.487285 0.207850 0.184704
0.529112 0.226883 0.200588
0.569744 0.245400 0.216967
0.608177 0.264356 0.232867
0.645645 0.282863 0.249060
0.683912 0.300468 0.264026
0.726412 0.318241 0.277340
0.083872 0.089043 0.081179
0.105833 0.097307 0.089423
0.155593 0.111562 0.103065
0.212456 0.123746 0.112649
0.265828 0.135012 0.120569
0.314055 0.148612 0.132138
0.359153 0.162651 0.144485
0.402515 0.178158 0.157781
0.445637 0.194733 0.172492
0.487873 0.212470 0.187501
0.529724 0.231054 0.203323
0.570387 0.249455 0.219333
0.608747 0.267936 0.235316
0.646331 0.285949 0.251465
0.684358 0.303066 0.266197
0.726997 0.320630 0.279171
0.120268 0.112737 0.091411
0.135353 0.118732 0.097362
0.172074 0.129767 0.107684
0.218294 0.139862 0.115866
0.268204 0.150345 0.124094
0.315947 0.163064 0.135562
0.361067 0.176194 0.148248
0.403615 0.190413 0.162854
0.446467 0.205746 0.177562
0.488805 0.222635 0.192613
0.531057 0.240699 0.208050
0.571552 0.258460 0.223972
0.609961 0.275983 0.240312
0.647419 0.292845 0.256461
0.685791 0.309801 0.270521
0.728287 0.326380 0.283250
0.171730 0.136882 0.100133
0.181442 0.141213 0.103711
0.206736 0.149448 0.110490
0.242339 0.160325 0.118974
0.279779 0.171534 0.128978
0.321824 0.184284 0.140720
0.365478 0.197792 0.154372
0.407607 0.211623 0.169508
0.449917 0.226302 0.184568
0.491738 0.241969 0.200199
0.533470 0.258061 0.216187
0.573668 0.274571 0.232846
0.612345 0.291148 0.249508
0.650365 0.307327 0.265113
0.688593 0.322532 0.278533
0.731024 0.337207 0.291096
0.230317 0.159742 0.102757
0.234882 0.163222 0.105196
0.250124 0.169810 0.111334
0.272926 0.180432 0.122528
0.302542 0.194323 0.135839
0.334970 0.208169 0.148020
0.374085 0.223625 0.161283
0.415157 0.238715 0.176282
0.456167 0.253225 0.192384
0.497415 0.268237 0.209054
0.538442 0.283879 0.226682
0.578360 0.299360 0.244782
0.616707 0.313909 0.261971
0.654477 0.327631 0.277113
0.693205 0.341643 0.290481
0.736019 0.355797 0.303407
0.275560 0.184694 0.106090
0.279599 0.187810 0.108704
0.291881 0.194151 0.115241
0.309931 0.203637 0.126444
0.332419 0.216388 0.141299
0.360034 0.232630 0.157196
0.389824 0.248642 0.170443
0.426866 0.266637 0.183546
0.466156 0.284395 0.199817
0.506443 0.299844 0.218347
0.546205 0.314584 0.237758
0.585521 0.328829 0.257096
0.623894 0.342609 0.275086
0.661845 0.356129 0.291624
0.700283 0.368755 0.306574
0.742898 0.380206 0.319522
0.326330 0.213790 0.112574
0.329760 0.216815 0.115209
0.338701 0.222174 0.120956
0.353436 0.230430 0.131411
0.370491 0.241831 0.145746
0.390686 0.256175 0.163388
0.415964 0.273927 0.181356
0.443287 0.291190 0.194987
0.479251 0.312248 0.208751
0.518409 0.331138 0.226546
0.557417 0.346865 0.247157
0.595896 0.361623 0.267955
0.633435 0.375760 0.287437
0.670990 0.389640 0.306222
0.709147 0.402068 0.323285
0.751453 0.413157 0.339163
0.373752 0.246520 0.119482
0.376039 0.248735 0.121769
0.383140 0.253002 0.127065
0.395427 0.260682 0.137317
0.409901 0.270952 0.150819
0.426842 0.283969 0.168358
0.446764 0.299780 0.188624
0.471187 0.318239 0.208970
0.497202 0.335258 0.223762
0.532711 0.356830 0.237026
0.571333 0.378065 0.254865
0.608810 0.395956 0.275803
0.645537 0.411619 0.297659
0.682322 0.426262 0.318932
0.720127 0.439019 0.338059
0.762141 0.450552 0.355934
0.421570 0.281450 0.127391
0.423783 0.283729 0.129890
0.429663 0.288003 0.135396
0.439597 0.294907 0.145029
0.452725 0.303938 0.158759
0.467379 0.315343 0.175703
0.484207 0.329357 0.195886
0.503853 0.345445 0.218046
0.527615 0.363182 0.240108
0.552797 0.380230 0.255828
0.586715 0.403237 0.268920
0.623926 0.426942 0.284576
0.660382 0.447754 0.304826
0.696400 0.464023 0.326974
0.733203 0.476818 0.347825
0.773758 0.487549 0.367683
0.472358 0.322498 0.140347
0.474310 0.324767 0.143265
0.478893 0.327756 0.147953
0.487221 0.333184 0.156830
0.498352 0.340767 0.169668
0.511164 0.350077 0.185880
0.525776 0.362047 0.205235
0.542626 0.376253 0.227486
0.561731 0.392547 0.251071
0.583931 0.410647 0.273289
0.608260 0.428656 0.289248
0.640440 0.452724 0.301285
0.675613 0.477886 0.313855
0.711310 0.497462 0.330758
0.746931 0.510256 0.351361
0.785998 0.521121 0.373523
0.523037 0.364599 0.154484
0.524409 0.365982 0.156785
0.528359 0.368670 0.161644
0.535637 0.373525 0.171167
0.545337 0.379928 0.183446
0.557183 0.388057 0.199149
0.570371 0.398336 0.217277
0.585563 0.411211 0.238692
0.601748 0.426154 0.262182
0.619568 0.442946 0.286070
0.639873 0.461547 0.307688
0.663484 0.480747 0.323890
0.693455 0.502262 0.333566
0.727441 0.523352 0.341283
0.762242 0.539388 0.353144
0.797481 0.551297 0.374470
0.576113 0.410604 0.174498
0.577341 0.412009 0.177024
0.580639 0.414394 0.182144
0.586658 0.418044 0.190191
0.595286 0.423202 0.201988
0.605734 0.430084 0.216107
0.617700 0.438465 0.232170
0.631273 0.449502 0.250917
0.645211 0.463219 0.272883
0.660163 0.479049 0.296639
0.676587 0.495809 0.320419
0.695678 0.512307 0.341980
0.718562 0.528172 0.357198
0.747839 0.545007 0.364153
0.778716 0.562576 0.367228
0.806292 0.579774 0.380168
0.630095 0.460057 0.196005
0.630909 0.460916 0.197811
0.633599 0.462391 0.201505
0.638773 0.465241 0.208824
0.646219 0.469495 0.219581
0.655388 0.475059 0.231774
0.666084 0.482200 0.246311
0.677996 0.490902 0.262742
0.690518 0.502367 0.282146
0.703854 0.515215 0.304261
0.717845 0.528715 0.328303
0.733378 0.542410 0.352534
0.750856 0.555450 0.373902
0.772399 0.568703 0.389649
0.793389 0.584975 0.402094
0.811288 0.607406 0.418789
0.678903 0.509718 0.212047
0.679608 0.510492 0.213863
0.681810 0.511561 0.217561
0.685971 0.513558 0.224550
0.692034 0.516157 0.232967
0.699874 0.519615 0.244325
0.708780 0.524462 0.256929
0.718552 0.530552 0.271883
0.729009 0.538049 0.289290
0.740362 0.547602 0.310100
0.751414 0.558686 0.334520
0.763115 0.571413 0.363175
0.775436 0.585587 0.394317
0.787965 0.601338 0.426763
0.800833 0.623765 0.466867
0.814092 0.654129 0.517557
0.713745 0.554716 0.226287
0.714269 0.555120 0.227608
0.715962 0.555520 0.230488
0.718992 0.556148 0.236110
0.723805 0.557238 0.244929
0.729864 0.559480 0.256233
0.736897 0.562646 0.270057
0.744625 0.567780 0.287778
0.752835 0.574918 0.309700
0.761379 0.584585 0.336851
0.770060 0.598119 0.371349
0.778610 0.615437 0.413425
0.787198 0.636414 0.461269
0.795770 0.659256 0.511845
0.804143 0.682137 0.559384
0.815540 0.712815 0.613164
0.732386 0.599710 0.251354
0.732932 0.600024 0.253178
0.734486 0.600354 0.257601
0.737260 0.600958 0.266399
0.741376 0.603893 0.281559
0.746594 0.607950 0.302466
0.752402 0.615351 0.331504
0.758371 0.625852 0.368470
0.764636 0.641637 0.412028
0.771069 0.659363 0.459263
0.778167 0.678701 0.507774
0.785369 0.699824 0.556699
0.792484 0.721904 0.601609
0.799765 0.742986 0.640863
0.806939 0.763291 0.674607
0.816860 0.774779 0.691549
0.076424 0.086969 0.094595
0.094324 0.096098 0.105280
0.153578 0.113631 0.121338
0.216362 0.124305 0.126821
0.271006 0.134598 0.130682
0.318247 0.148407 0.139605
0.362650 0.162612 0.150405
0.404769 0.176838 0.162216
0.447250 0.193234 0.175466
0.489102 0.211070 0.189503
0.530783 0.229849 0.204871
0.570984 0.247759 0.220391
0.609072 0.266601 0.236002
0.646541 0.284879 0.251850
0.684504 0.302173 0.266396
0.726899 0.319569 0.279461
0.083112 0.100740 0.102751
0.099193 0.109733 0.111360
0.149253 0.122653 0.123354
0.212731 0.132582 0.129138
0.268645 0.142287 0.133926
0.317543 0.154884 0.143106
0.362619 0.167869 0.153790
0.405166 0.182464 0.165219
0.447700 0.198389 0.178368
0.489649 0.215821 0.192363
0.531394 0.233888 0.207595
0.571572 0.251818 0.222856
0.609775 0.270179 0.238531
0.647107 0.287947 0.254301
0.684990 0.304744 0.268566
0.727591 0.321980 0.281312
0.103421 0.124780 0.108653
0.118784 0.129470 0.113846
0.159116 0.139890 0.124751
0.212823 0.150384 0.133760
0.267372 0.160452 0.140786
0.317905 0.172674 0.150547
0.363889 0.185438 0.161758
0.406364 0.198969 0.174134
0.448900 0.213943 0.187211
0.491422 0.230594 0.200853
0.533352 0.247599 0.215488
0.573422 0.264767 0.230907
0.611546 0.281643 0.246677
0.648946 0.297855 0.262191
0.687032 0.314037 0.275108
0.729306 0.329724 0.287303
0.150780 0.145164 0.109006
0.161550 0.149774 0.114470
0.191326 0.160165 0.125929
0.231905 0.170567 0.135799
0.275880 0.181161 0.145756
0.321918 0.193279 0.156464
0.366989 0.206212 0.168217
0.409487 0.219533 0.180974
0.451762 0.233515 0.194427
0.493859 0.248903 0.209027
0.535401 0.264693 0.224416
0.575420 0.280726 0.240249
0.613934 0.296678 0.255914
0.651654 0.312038 0.270502
0.689821 0.326524 0.283264
0.732038 0.340476 0.295316
0.207103 0.167664 0.110454
0.213877 0.171207 0.113742
0.235875 0.180736 0.124231
0.265057 0.191350 0.136717
0.299403 0.204342 0.150860
0.334735 0.217262 0.163144
0.374731 0.231434 0.175361
0.416045 0.245479 0.188309
0.457346 0.259818 0.202797
0.499046 0.274810 0.218656
0.539973 0.289848 0.235357
0.579625 0.304529 0.252307
0.617954 0.318431 0.268266
0.655760 0.331743 0.282618
0.694390 0.345672 0.295502
0.737005 0.358952 0.307764
0.268392 0.191346 0.109975
0.273507 0.194747 0.113482
0.289547 0.204781 0.125400
0.309019 0.214389 0.138708
0.332590 0.226893 0.154981
0.359803 0.241974 0.170911
0.389937 0.256921 0.183625
0.426955 0.273408 0.195850
0.466518 0.290054 0.211218
0.507096 0.305023 0.228660
0.547164 0.319353 0.246751
0.586514 0.333168 0.264709
0.624724 0.346675 0.281565
0.662819 0.360043 0.297531
0.701184 0.372078 0.311677
0.743744 0.383176 0.323928
0.323550 0.219788 0.116576
0.326207 0.222908 0.119655
0.335606 0.230996 0.129265
0.351141 0.239835 0.141859
0.368747 0.251407 0.157862
0.389663 0.265589 0.176174
0.415398 0.282437 0.193462
0.443413 0.298829 0.206570
0.479321 0.318136 0.220299
0.518337 0.335696 0.237392
0.557569 0.350965 0.256688
0.596198 0.365436 0.275850
0.633987 0.379437 0.294361
0.671613 0.393033 0.312525
0.709746 0.405019 0.328930
0.751940 0.415520 0.344076
0.370513 0.251132 0.122524
0.373073 0.253515 0.125212
0.382081 0.260998 0.134488
0.394928 0.269481 0.146605
0.410142 0.279930 0.162203
0.427164 0.292800 0.180626
0.446942 0.307971 0.200554
0.471239 0.325446 0.219942
0.497514 0.341692 0.234397
0.532693 0.362103 0.247046
0.571143 0.382430 0.264220
0.608741 0.399520 0.284224
0.645555 0.414917 0.305271
0.682581 0.429333 0.325734
0.720507 0.441773 0.344149
0.762262 0.452867 0.361041
0.420813 0.285972 0.130944
0.423112 0.288364 0.133794
0.430850 0.296014 0.143649
0.440666 0.302939 0.154287
0.453823 0.312170 0.169543
0.468206 0.323213 0.187211
0.484595 0.336609 0.207215
0.503784 0.351833 0.228771
0.527262 0.369049 0.249825
0.552656 0.385838 0.265010
0.586520 0.408039 0.277541
0.623574 0.431244 0.292776
0.660031 0.451297 0.312688
0.696215 0.467082 0.334058
0.733269 0.479335 0.354022
0.773778 0.489632 0.373195
0.471181 0.326221 0.143580
0.472879 0.328300 0.146372
0.478478 0.333472 0.154200
0.486897 0.339220 0.164213
0.498232 0.347209 0.178549
0.511311 0.356653 0.195776
0.525886 0.368447 0.215601
0.542516 0.382230 0.237704
0.561517 0.398131 0.260639
0.583458 0.415728 0.281936
0.608090 0.433457 0.297242
0.640134 0.457419 0.308812
0.675216 0.481676 0.320887
0.710940 0.500390 0.338099
0.746740 0.512739 0.358032
0.785841 0.523306 0.379475
0.522218 0.367626 0.157602
0.523665 0.369179 0.160077
0.528776 0.374027 0.168586
0.536095 0.379375 0.179235
0.545730 0.385685 0.192094
0.557554 0.393939 0.208563
0.570566 0.403945 0.226808
0.585532 0.416679 0.248130
0.601568 0.431288 0.271234
0.619188 0.447683 0.294457
0.639343 0.466070 0.315376
0.662886 0.484922 0.331303
0.693067 0.505970 0.340596
0.727000 0.526435 0.348072
0.761675 0.542065 0.359762
0.797319 0.553528 0.380507
0.575634 0.413759 0.178196
0.576862 0.415159 0.180882
0.581140 0.419666 0.189604
0.587110 0.423169 0.197870
0.595599 0.428319 0.210239
0.605927 0.435167 0.224231
0.617567 0.443682 0.240415
0.630950 0.454714 0.259235
0.644730 0.468249 0.281059
0.659588 0.483675 0.304531
0.675976 0.499930 0.328053
0.694912 0.515985 0.348948
0.718244 0.531691 0.363708
0.747445 0.548124 0.370280
0.778521 0.565445 0.373041
0.805997 0.582006 0.386405
0.629262 0.462575 0.198366
0.630148 0.463555 0.200231
0.633505 0.466581 0.206564
0.638485 0.469591 0.214446
0.645910 0.474130 0.225709
0.655066 0.479692 0.238499
0.665679 0.486804 0.253543
0.677378 0.495478 0.270211
0.689965 0.506652 0.289527
0.703139 0.519058 0.311583
0.717208 0.532330 0.335437
0.732752 0.545691 0.359391
0.750236 0.558457 0.380204
0.771878 0.571797 0.395774
0.793029 0.587681 0.407595
0.811065 0.609684 0.423841
0.678267 0.512336 0.214827
0.679019 0.513163 0.216710
0.681660 0.515481 0.223072
0.685875 0.517462 0.230125
0.691925 0.520081 0.238914
0.699771 0.523374 0.250679
0.708558 0.528145 0.263366
0.718354 0.534186 0.278556
0.728782 0.541423 0.296051
0.739834 0.550887 0.316910
0.751108 0.562004 0.341364
0.762638 0.574562 0.369663
0.774889 0.588455 0.400403
0.787712 0.603832 0.432205
0.800810 0.626008 0.471201
0.814074 0.655832 0.520569
0.713247 0.556737 0.228039
0.713827 0.557185 0.229471
0.716025 0.558424 0.234092
0.719012 0.559051 0.240164
0.723677 0.560287 0.249573
0.729901 0.562577 0.261358
0.736863 0.565590 0.275799
0.744460 0.570775 0.293729
0.752748 0.577876 0.315835
0.761243 0.587419 0.342893
0.769932 0.600803 0.377092
0.778543 0.617854 0.418626
0.787107 0.638452 0.465859
0.795698 0.660884 0.515339
0.804143 0.683422 0.561953
0.815522 0.714054 0.615128
0.732435 0.601602 0.253257
0.732778 0.601891 0.255104
0.734580 0.602805 0.261527
0.737382 0.603361 0.270564
0.741455 0.606203 0.285896
0.746848 0.610225 0.306890
0.752419 0.617526 0.336091
0.758598 0.627919 0.372976
0.764548 0.643578 0.416244
0.771217 0.661116 0.463001
0.778204 0.680307 0.511071
0.785391 0.701251 0.559572
0.792564 0.723116 0.603622
0.799793 0.743859 0.642391
0.806927 0.764207 0.675958
0.816838 0.775501 0.692521
0.084205 0.104949 0.117283
0.093301 0.111371 0.126001
0.139453 0.124273 0.141952
0.213975 0.140401 0.156963
0.275000 0.149862 0.156802
0.325435 0.160529 0.159300
0.368718 0.171534 0.165489
0.409839 0.184214 0.174496
0.451669 0.200233 0.185653
0.493120 0.217490 0.198350
0.533880 0.234905 0.212309
0.573186 0.252000 0.226572
0.610912 0.270665 0.241697
0.648045 0.288625 0.256987
0.685770 0.305227 0.270761
0.727860 0.322183 0.283535
0.087285 0.114162 0.123551
0.097385 0.122806 0.133574
0.134432 0.134440 0.147571
0.203477 0.147587 0.159313
0.268657 0.155778 0.160105
0.322570 0.165673 0.163056
0.367723 0.176361 0.169255
0.409919 0.190189 0.177785
0.451890 0.205480 0.188719
0.493470 0.222003 0.201227
0.534349 0.238693 0.214978
0.573647 0.256100 0.229235
0.611467 0.274218 0.244346
0.648681 0.291625 0.259448
0.686171 0.307668 0.272874
0.728331 0.324567 0.285459
0.093984 0.133812 0.133305
0.103012 0.140123 0.139930
0.136363 0.151995 0.152119
0.195780 0.163752 0.163056
0.262056 0.171948 0.166223
0.318814 0.182615 0.171112
0.366853 0.194191 0.178402
0.409985 0.206776 0.187269
0.452334 0.220619 0.197867
0.494618 0.236125 0.209915
0.535865 0.252480 0.223436
0.575347 0.269193 0.237940
0.613122 0.285706 0.252951
0.650326 0.301239 0.267250
0.688159 0.316938 0.279639
0.730323 0.332366 0.291633
0.117455 0.159274 0.136174
0.127332 0.163263 0.140789
0.162169 0.172728 0.151440
0.212442 0.183645 0.162488
0.266615 0.194030 0.171272
0.319283 0.205687 0.179699
0.367958 0.218105 0.188568
0.412366 0.230982 0.198397
0.454799 0.244634 0.209934
0.497067 0.259434 0.223218
0.538234 0.274576 0.237445
0.578069 0.289803 0.251727
0.616389 0.304454 0.265673
0.653977 0.318823 0.278921
0.691593 0.332278 0.290828
0.733365 0.345139 0.301900
0.170831 0.178807 0.127613
0.179482 0.182369 0.132134
0.208413 0.192962 0.145782
0.245696 0.204990 0.160868
0.287582 0.217381 0.174391
0.329936 0.229596 0.185704
0.373957 0.242604 0.196113
0.417397 0.256143 0.206751
0.459169 0.270006 0.219574
0.501125 0.284291 0.234085
0.541907 0.298426 0.249241
0.581562 0.312103 0.264070
0.619939 0.325304 0.278349
0.657911 0.338420 0.291491
0.696102 0.351432 0.303490
0.738398 0.363436 0.314529
0.237584 0.201536 0.122174
0.243519 0.204976 0.126511
0.263147 0.215167 0.140283
0.290746 0.228112 0.159259
0.321169 0.240987 0.176460
0.354259 0.255279 0.191887
0.388379 0.269228 0.203933
0.426931 0.284049 0.215137
0.466925 0.298756 0.229407
0.507832 0.312911 0.245299
0.548273 0.326524 0.261060
0.587825 0.339877 0.276831
0.626287 0.353028 0.292219
0.664176 0.365692 0.307029
0.702311 0.376933 0.319931
0.744650 0.387316 0.331293
0.303639 0.228582 0.123810
0.307960 0.231723 0.127415
0.322021 0.240717 0.139362
0.343774 0.254074 0.159388
0.364737 0.266177 0.178063
0.387993 0.280222 0.197110
0.414565 0.295850 0.213182
0.443614 0.310873 0.225409
0.479242 0.327237 0.238786
0.518256 0.342921 0.254357
0.557877 0.357425 0.271341
0.596815 0.371479 0.288656
0.634667 0.385073 0.305958
0.672224 0.398007 0.323114
0.710447 0.409389 0.338329
0.752466 0.419077 0.352086
0.364633 0.259410 0.128832
0.367871 0.262118 0.132240
0.378300 0.270676 0.143935
0.394053 0.283279 0.162972
0.409706 0.294024 0.181514
0.426408 0.306445 0.200621
0.446078 0.320547 0.219964
0.470204 0.336340 0.238001
