src/luts/rounded/8.cube
LUT_3D_SIZE 6
0.049349 0.049346 0.049346
0.209964 0.112153 0.104919
0.357755 0.155948 0.139506
0.486796 0.207010 0.183503
0.607816 0.263789 0.232099
0.726426 0.317922 0.276831
0.176252 0.134102 0.098501
0.242650 0.156485 0.114309
0.364811 0.194688 0.149856
0.491100 0.239551 0.197412
0.611876 0.289158 0.247432
0.730699 0.336041 0.289731
0.326543 0.212214 0.111609
0.352555 0.227272 0.128098
0.416139 0.271340 0.177755
0.518335 0.329674 0.223276
0.633346 0.374511 0.285460
0.751359 0.412308 0.337617
0.472427 0.321407 0.139334
0.486687 0.331007 0.154105
0.525783 0.360152 0.202148
0.584042 0.409185 0.270742
0.675750 0.476710 0.311815
0.785970 0.520436 0.371728
0.630147 0.459404 0.195456
0.638666 0.463886 0.207110
0.666144 0.480816 0.244142
0.703975 0.513990 0.302111
0.751181 0.554563 0.372035
0.811341 0.606738 0.417205
0.732423 0.599230 0.250892
0.737061 0.600265 0.265019
0.752307 0.614592 0.330028
0.771054 0.658831 0.457952
0.792516 0.721835 0.600997
0.816864 0.774604 0.691252
0.084205 0.104949 0.117283
0.213975 0.140401 0.156963
0.368718 0.171534 0.165489
0.493120 0.217490 0.198350
0.610912 0.270665 0.241697
0.727860 0.322183 0.283535
0.117455 0.159274 0.136174
0.212442 0.183645 0.162488
0.367958 0.218105 0.188568
0.497067 0.259434 0.223218
0.616389 0.304454 0.265673
0.733365 0.345139 0.301900
0.303639 0.228582 0.123810
0.343774 0.254074 0.159388
0.414565 0.295850 0.213182
0.518256 0.342921 0.254357
0.634667 0.385073 0.305958
0.752466 0.419077 0.352086
0.467666 0.332288 0.148758
0.486146 0.349486 0.177504
0.525787 0.378768 0.233137
0.582836 0.424483 0.296771
0.674273 0.487459 0.334124
0.785458 0.526760 0.389823
0.627608 0.467527 0.203035
0.637859 0.477275 0.224239
0.664930 0.494763 0.266031
0.702026 0.525798 0.324267
0.748950 0.564211 0.391773
0.810916 0.613637 0.432201
0.732111 0.605281 0.257014
0.737527 0.607927 0.277495
0.752434 0.621130 0.343291
0.771273 0.664191 0.469306
0.792621 0.725081 0.607359
0.816782 0.776649 0.694471
0.095130 0.149648 0.176203
0.156597 0.174577 0.213833
0.379953 0.228789 0.240454
0.517024 0.257986 0.243685
0.623547 0.297037 0.273851
0.732196 0.339546 0.310772
0.098688 0.181255 0.202341
0.140640 0.214216 0.242886
0.343777 0.256752 0.270058
0.511222 0.290136 0.272637
0.625638 0.325297 0.299063
0.736879 0.360323 0.330315
0.143384 0.264724 0.228760
0.218232 0.289379 0.256216
0.377487 0.333003 0.294772
0.517467 0.372000 0.324334
0.637046 0.408206 0.360206
0.752777 0.431654 0.388786
0.406791 0.357863 0.184610
0.438438 0.377712 0.221000
0.508317 0.422031 0.305617
0.574487 0.464145 0.365865
0.669625 0.512700 0.398872
0.782531 0.541175 0.445852
0.614701 0.493111 0.226003
0.626303 0.505034 0.251730
0.656754 0.530715 0.321843
0.693600 0.558452 0.389254
0.741501 0.592604 0.451192
0.809765 0.634119 0.477228
0.730469 0.626747 0.268681
0.735759 0.630153 0.291344
0.751166 0.641281 0.369076
0.770691 0.679005 0.497496
0.792419 0.734491 0.625460
0.816426 0.782946 0.704431
0.096799 0.187606 0.230355
0.108342 0.206485 0.254874
0.347117 0.265715 0.299339
0.522376 0.314564 0.326101
0.638630 0.344920 0.347427
0.734093 0.375609 0.378554
0.097176 0.208453 0.247279
0.118492 0.237687 0.286304
0.296902 0.287701 0.342777
0.499592 0.331793 0.362249
0.636240 0.366095 0.372850
0.736999 0.394140 0.398947
0.111329 0.280611 0.314539
0.155871 0.303741 0.343479
0.303604 0.350458 0.393961
0.494482 0.393836 0.413183
0.638902 0.432646 0.432698
0.748801 0.456679 0.455059
0.203054 0.378690 0.341276
0.257681 0.396766 0.361778
0.409689 0.448445 0.409309
0.544326 0.495979 0.452825
0.662824 0.533828 0.487466
0.774364 0.551266 0.517983
0.497515 0.510802 0.287989
0.525353 0.524069 0.306097
0.603940 0.561471 0.371116
0.672343 0.597489 0.469393
0.726943 0.629731 0.533900
0.806643 0.658823 0.550299
0.722077 0.661241 0.298279
0.728777 0.664388 0.315352
0.746219 0.674861 0.386288
0.767615 0.699354 0.517792
0.791499 0.748174 0.649843
0.816208 0.792482 0.719957
0.098831 0.227652 0.287302
0.103962 0.241987 0.304671
0.268856 0.293093 0.362630
0.510057 0.346401 0.425344
0.643899 0.387435 0.476408
0.749378 0.423011 0.518643
0.100182 0.246024 0.305424
0.110740 0.268354 0.335207
0.240518 0.310794 0.401024
0.482731 0.353286 0.464448
0.640272 0.398992 0.503477
0.752235 0.436870 0.534043
0.113789 0.300976 0.357086
0.148351 0.320822 0.387558
0.260094 0.365992 0.463818
0.446060 0.408368 0.533546
0.634503 0.447376 0.554206
0.758510 0.484752 0.568014
0.184659 0.399830 0.474371
0.227294 0.415603 0.494948
0.340271 0.458245 0.542383
0.488576 0.504945 0.573293
0.654423 0.542006 0.597294
0.772659 0.566842 0.610912
0.301619 0.520845 0.490757
0.336148 0.533325 0.503028
0.445283 0.571273 0.534037
0.591541 0.621897 0.575175
0.702122 0.657106 0.626489
0.799441 0.673424 0.646352
0.613731 0.719237 0.401530
0.630288 0.722387 0.413051
0.683661 0.728687 0.451934
0.746358 0.736104 0.533170
0.787610 0.764557 0.665091
0.815065 0.803311 0.741795
0.104606 0.278559 0.364325
0.108800 0.287842 0.378347
0.188834 0.330435 0.444310
0.498215 0.375645 0.558274
0.670785 0.410100 0.622312
0.781048 0.443156 0.665802
0.106366 0.294937 0.384284
0.112830 0.308883 0.408668
0.186688 0.346452 0.474471
0.471897 0.386227 0.587449
0.660882 0.418637 0.645917
0.782281 0.453704 0.681739
0.128930 0.340837 0.436144
0.154764 0.357245 0.465286
0.228551 0.392543 0.533826
0.425409 0.436598 0.631879
0.636870 0.464855 0.693625
0.783729 0.492982 0.714691
0.197152 0.429278 0.546484
0.231499 0.441895 0.564311
0.324101 0.476522 0.608757
0.437982 0.511668 0.671327
0.634312 0.550769 0.725817
0.792733 0.566617 0.737522
0.314192 0.548611 0.678552
0.345227 0.558480 0.687640
0.434217 0.587776 0.710809
0.549388 0.627836 0.731121
0.671403 0.662497 0.741994
0.804819 0.674761 0.756696
0.442558 0.731870 0.612690
0.464693 0.738426 0.617305
0.532928 0.758988 0.633456
0.634242 0.784273 0.661638
0.750479 0.798648 0.713803
0.813762 0.816295 0.775687
