src/luts/rounded/9.cube
TITLE "Generated by Resolve"
LUT_3D_SIZE 33
0 0 0.0303349
0 0 0.0301366
0 0 0.0302434
0 0 0.0302434
0.0291752 0 0.0299535
0.0734722 0 0.0292058
0.121111 0 0.0278477
0.172641 0 0.0258488
0.226505 0 0.0231937
0.28043 0 0.0200656
0.333471 0 0.0166629
0.384085 0 0.0132143
0.426169 0 0.00993362
0.468772 0 0.00662242
0.511696 0 0.00328069
0.554421 0 6.10361e-05
0.59646 0 0
0.637247 0 0
0.676295 0 0
0.71339 0 0
0.748592 0 0
0.781964 0 0
0.813779 0 0
0.844526 0 0
0.874632 0 0
0.904494 0 0
0.934554 0 0
0.965438 0 0
0.996017 0 0
1 0 0
1 0 0.000228885
1 0 0.00213626
1 0 0.00418097
0 0.014786 0.0302892
0 0.0148318 0.0303197
0 0.0148623 0.0303349
0 0.0148013 0.0303044
0.0222934 0.0144808 0.0300145
0.0660716 0.0137026 0.0293278
0.11313 0.0122683 0.0280613
0.163989 0.010132 0.0261845
0.217853 0.00729381 0.0236667
0.271855 0.00387579 0.0206455
0.325231 0.00015259 0.0173495
0.376532 0 0.0140078
0.419776 0 0.0108186
0.462425 0 0.00766003
0.505516 0 0.00448615
0.548531 0 0.00141909
0.590936 0 0
0.632212 0 0
0.671855 0 0
0.70956 0 0
0.745403 0 0
0.779431 0 0
0.811856 0 0
0.843153 0 0
0.873732 0 0
0.904021 0 0
0.934432 0 0
0.965393 0 0
0.996674 0 0.00164797
1 0 0.00364691
1 0 0.00578317
1 0 0.00807202
1 0 0.0104982
0 0.0395056 0.0303349
0 0.0394903 0.0303349
0 0.0394903 0.0303349
0 0.0394446 0.0303044
0.0154574 0.0391699 0.0300755
0.0588235 0.0385138 0.0294804
0.105409 0.0372473 0.0283665
0.155688 0.0353246 0.0266575
0.209522 0.0326848 0.0243381
0.263645 0.0294804 0.0215
0.317388 0.0259403 0.0183719
0.369299 0.0223239 0.0151675
0.41387 0.0188907 0.0121309
0.456641 0.0155642 0.00920119
0.499931 0.0122225 0.00624094
0.543267 0.00900282 0.00340276
0.586099 0.00607309 0.000808728
0.627924 0.00358587 0
0.668223 0.00170901 0
0.70663 0.000549325 0
0.74316 9.15541e-05 0
0.77789 0.000320439 0
0.810956 0.00120546 0
0.842817 0.00260929 0
0.873899 0.00442512 0
0.904616 0.00654612 0.00122072
0.935409 0.00883497 0.00323491
0.966674 0.0112001 0.0053254
0.998428 0.0136263 0.00747692
1 0.0163119 0.00984207
1 0.0191501 0.0123598
1 0.0221408 0.0150149
1 0.0252689 0.0177768
0 0.0641489 0.0302739
0 0.0641489 0.0302739
0 0.0641642 0.0302739
0 0.0641794 0.0302892
0.00875868 0.0640269 0.0301671
0.0518502 0.0635386 0.0297398
0.098024 0.062501 0.0288243
0.147829 0.0608225 0.0273289
0.201602 0.0584878 0.0252689
0.255894 0.0555428 0.0226749
0.310033 0.0522621 0.0197604
0.362539 0.0488899 0.0167849
0.408515 0.0456703 0.0139467
0.451469 0.0426642 0.0112764
0.495018 0.0396429 0.00859083
0.538735 0.0367437 0.00604257
0.582071 0.0341497 0.00375372
0.624491 0.0319982 0.00184634
0.665476 0.0304265 0.000457771
0.704601 0.0295567 0
0.741833 0.0294041 0
0.777264 0.0299535 4.57771e-05
0.810987 0.0311742 0.00111391
0.843427 0.0329442 0.00268559
0.875029 0.0351415 0.00462348
0.906218 0.0376593 0.00683604
0.937407 0.0403754 0.00924697
0.968994 0.0431678 0.0117189
1 0.0460059 0.0142214
1 0.0490883 0.0169528
1 0.0522927 0.019791
1 0.0556191 0.0227359
1 0.0590524 0.0257725
0 0.0890669 0.0298619
0 0.089128 0.0299077
0 0.0892195 0.0299992
0 0.0893416 0.0300908
0.00189212 0.0893568 0.0301061
0.0448157 0.0890974 0.0298772
0.0906844 0.0883497 0.029221
0.140169 0.0869917 0.0280156
0.19379 0.0849928 0.0262608
0.248341 0.0823987 0.0239567
0.302907 0.0794385 0.0213474
0.356054 0.0763714 0.0186313
0.403464 0.0734722 0.0160678
0.446723 0.0708324 0.0137331
0.490608 0.0682078 0.0114137
0.534737 0.0656901 0.00920119
0.578561 0.0634623 0.00721752
0.621576 0.0616465 0.00561532
0.663249 0.0603952 0.00450141
0.703105 0.0598459 0.00401312
0.741054 0.0600137 0.00416571
0.777188 0.0608835 0.00494392
0.811597 0.0624399 0.00631724
0.844648 0.0645762 0.00819409
0.876799 0.067155 0.0104829
0.908461 0.0700694 0.0130617
0.940032 0.0731975 0.0158236
0.971923 0.0763867 0.0186618
1 0.0795605 0.0214542
1 0.0829633 0.0244602
1 0.0864424 0.0275425
1 0.0900282 0.0303349
1 0.0936751 0.0334936
0 0.114611 0.0289616
0 0.114794 0.0291295
0 0.115038 0.0293278
0 0.115312 0.029572
0.00132753 0.115496 0.0297398
0.0374304 0.115496 0.0297398
0.0830854 0.115099 0.0293889
0.132372 0.114122 0.0285191
0.185794 0.11252 0.0271153
0.240742 0.110353 0.0251926
0.295796 0.107805 0.0229496
0.34966 0.10515 0.0205997
0.398566 0.102617 0.0183566
0.442191 0.100359 0.0163729
0.486397 0.098146 0.0144045
0.530938 0.0960403 0.0125429
0.575265 0.0941787 0.0108949
0.61886 0.0927138 0.00959792
0.661219 0.0917983 0.0087892
0.701793 0.0915694 0.00859083
0.74049 0.0920577 0.00901808
0.77734 0.0932784 0.0100862
0.812451 0.0951705 0.0117647
0.846113 0.0976577 0.013962
0.878782 0.100587 0.016556
0.910857 0.103838 0.0194247
0.942763 0.107271 0.0224765
0.974868 0.11078 0.0255741
1 0.114214 0.0286107
1 0.117845 0.0313726
1 0.121538 0.034638
1 0.125292 0.0379644
1 0.129091 0.0413062
0 0.141146 0.0273747
0 0.141512 0.0277104
0 0.141939 0.0280919
0 0.142428 0.0285191
3.0518e-05 0.142855 0.0289006
0.0364843 0.143114 0.0291295
0.0749218 0.143099 0.029099
0.124086 0.142565 0.0286412
0.177401 0.141466 0.0276646
0.232822 0.139788 0.0261845
0.288396 0.137697 0.0243381
0.342962 0.13547 0.0223545
0.393439 0.133303 0.0204623
0.437491 0.131456 0.0188144
0.482017 0.129671 0.0172427
0.526955 0.127962 0.0157321
0.571771 0.126482 0.0144198
0.615961 0.125399 0.0134585
0.658976 0.124819 0.0129549
0.700298 0.124926 0.0130465
0.739727 0.12575 0.0137789
0.777279 0.12726 0.0151064
0.813046 0.129442 0.0170443
0.847242 0.132204 0.0194705
0.880354 0.135393 0.0222934
0.912795 0.138888 0.025391
0.944945 0.142565 0.0286412
0.977234 0.146304 0.0315099
1 0.14992 0.034699
1 0.153704 0.0380407
1 0.157519 0.0414282
1 0.161364 0.0448157
1 0.16524 0.0482338
0 0.168994 0.024979
0 0.169604 0.0255131
0 0.170291 0.0261387
0 0.171069 0.0268101
0 0.171801 0.0274662
0.0347143 0.172396 0.027985
0.0736248 0.172717 0.028275
0.115099 0.172656 0.0282139
0.168261 0.172076 0.0276951
0.224201 0.170901 0.0266728
0.280293 0.169284 0.0252384
0.335607 0.167483 0.0236362
0.3879 0.165728 0.0220951
0.432303 0.164279 0.020798
0.477134 0.162921 0.0196078
0.522469 0.161639 0.0184787
0.567788 0.160555 0.0175326
0.612543 0.159838 0.0168917
0.656199 0.159609 0.0166781
0.698222 0.159991 0.0170291
0.738308 0.161074 0.0179751
0.776486 0.162814 0.0195163
0.812818 0.165194 0.021622
0.847517 0.168139 0.0242161
0.88101 0.171511 0.0272068
0.913725 0.175174 0.0303349
0.946075 0.179004 0.0333867
0.978439 0.182895 0.03682
1 0.186618 0.040116
1 0.190463 0.0435187
1 0.194339 0.0469368
1 0.198199 0.0503548
1 0.20206 0.0537575
0 0.198413 0.0218814
0 0.199344 0.0226902
0 0.200366 0.0236057
0 0.201495 0.0245975
0 0.202579 0.0255589
0.0322576 0.20351 0.0263828
0.0716564 0.204196 0.026978
0.113603 0.204486 0.0272374
0.158343 0.204395 0.0271611
0.214786 0.203754 0.0265812
0.271412 0.202625 0.0255894
0.327474 0.201266 0.0243992
0.38143 0.199939 0.0232242
0.426566 0.198871 0.0222782
0.471717 0.197971 0.0214847
0.517433 0.197101 0.0207218
0.56318 0.196399 0.0200961
0.608438 0.195987 0.0197299
0.652644 0.196017 0.0197604
0.695262 0.196612 0.0202792
0.735927 0.197848 0.0213779
0.77467 0.199741 0.0230564
0.811505 0.202243 0.0252537
0.846616 0.205295 0.0279545
0.880415 0.208759 0.0305791
0.913359 0.212512 0.0338903
0.94583 0.216434 0.0373541
0.978225 0.220386 0.0408331
1 0.224231 0.0442359
1 0.227985 0.0475624
1 0.23183 0.0509499
1 0.235615 0.0543069
1 0.239368 0.0576333
0 0.229679 0.0182345
0 0.230945 0.0193484
0 0.232334 0.0205844
0 0.233799 0.0218814
0 0.235248 0.0231479
0.0290532 0.236545 0.0243076
0.0689403 0.237568 0.0252232
0.111391 0.238239 0.025803
0.156603 0.238514 0.0260471
0.204547 0.238376 0.0259251
0.261723 0.237751 0.0253758
0.318547 0.236866 0.0245975
0.373449 0.235966 0.0237888
0.420203 0.235264 0.0231632
0.465614 0.23476 0.0227207
0.51162 0.234241 0.0222629
0.557717 0.233814 0.0218967
0.603372 0.233646 0.0217441
0.648051 0.23386 0.0219272
0.691188 0.234577 0.0225681
0.732357 0.23592 0.023743
0.771557 0.237858 0.0254826
0.808835 0.240391 0.0277104
0.844297 0.243458 0.0303349
0.878355 0.246921 0.0330663
0.911452 0.25066 0.0363928
0.943969 0.254551 0.0398413
0.976333 0.258457 0.0433051
1 0.262272 0.0466926
1 0.265904 0.0499275
1 0.269612 0.0532235
1 0.273259 0.0564584
1 0.276875 0.059678
0 0.262623 0.0142214
0 0.26424 0.0156558
0 0.26598 0.0172122
0 0.267811 0.0188296
0 0.269612 0.0204318
0.0253605 0.27126 0.0218967
0.0657511 0.272663 0.0231479
0.108705 0.273701 0.0240635
0.154421 0.274342 0.0246281
0.20293 0.274586 0.0248417
0.251408 0.274449 0.0247349
0.308934 0.273991 0.0243229
0.364691 0.273442 0.0238346
0.413153 0.27303 0.0234684
0.458778 0.272816 0.0232853
0.504997 0.272572 0.0230564
0.551339 0.272374 0.0228733
0.597314 0.272358 0.0228733
0.642344 0.272679 0.0231479
0.685908 0.273442 0.0238346
0.72752 0.274784 0.0250248
0.767117 0.276707 0.0267491
0.804746 0.279194 0.0289464
0.840497 0.282185 0.0311742
0.874739 0.285573 0.0341955
0.907927 0.289219 0.0374456
0.940444 0.293004 0.0408179
0.972702 0.296803 0.0441901
1 0.300496 0.0474708
1 0.303975 0.0505837
1 0.307622 0.0538491
1 0.311315 0.057145
1 0.315053 0.0604715
0 0.297108 0.0103151
0 0.299092 0.0120699
0 0.301183 0.0139467
0 0.30338 0.0158999
0 0.305531 0.0178225
0.0218814 0.307561 0.0196384
0.0627756 0.309331 0.02121
0.106218 0.310704 0.022446
0.152361 0.311681 0.0233005
0.201328 0.312215 0.0237888
0.250248 0.312367 0.0239261
0.298955 0.312261 0.0238193
0.355459 0.311986 0.0235904
0.405661 0.311788 0.0234073
0.451484 0.311788 0.0234073
0.497795 0.311727 0.0233463
0.54432 0.311666 0.0233005
0.590509 0.311742 0.0233616
0.635828 0.312078 0.0236667
0.679728 0.312825 0.0243229
0.721691 0.314092 0.0254673
0.761608 0.315923 0.0271
0.799527 0.318288 0.0292058
0.835492 0.321126 0.0312963
0.869871 0.324346 0.0341802
0.903059 0.327825 0.0372931
0.935515 0.331441 0.040528
0.967697 0.335149 0.0438392
1 0.338857 0.0471504
1 0.342443 0.05037
1 0.346197 0.0537118
1 0.349966 0.0570993
1 0.35375 0.0604868
0 0.332952 0.00695811
0 0.335302 0.00906386
0 0.337758 0.0112612
0 0.340307 0.0135348
0 0.342809 0.0157778
0.0191653 0.345144 0.0178683
0.0604562 0.347189 0.0196994
0.104265 0.348837 0.0211795
0.150744 0.350057 0.0222629
0.200076 0.35082 0.0229496
0.249302 0.351171 0.02327
0.298268 0.351247 0.023331
0.346075 0.351186 0.0232853
0.398032 0.351125 0.0232242
0.443992 0.351247 0.023331
0.490333 0.351293 0.0233768
0.536919 0.351293 0.0233768
0.583246 0.351385 0.0234531
0.628748 0.351675 0.0237278
0.672892 0.352331 0.0243076
0.715145 0.35346 0.0253147
0.755306 0.355108 0.0267948
0.793423 0.357259 0.0287175
0.829557 0.359869 0.0306096
0.864027 0.362921 0.0333562
0.897383 0.366339 0.0364233
0.930007 0.370001 0.0397192
0.962325 0.3738 0.043122
0.994736 0.377615 0.04654
1 0.381262 0.0498207
1 0.385031 0.0532387
1 0.388769 0.0566415
1 0.392523 0.0600595
0 0.369955 0.00460822
0 0.372625 0.00700389
0 0.375387 0.00947585
0 0.37821 0.0120089
0 0.380957 0.0144808
0.0175174 0.38352 0.0168002
0.0591135 0.385763 0.0188296
0.103197 0.387564 0.0204776
0.149905 0.388937 0.0217288
0.199466 0.389838 0.0225528
0.24889 0.390311 0.0229801
0.298024 0.390494 0.0231479
0.345937 0.390524 0.0231785
0.390539 0.390524 0.0231785
0.436591 0.390677 0.0233158
0.482856 0.390768 0.0233921
0.529442 0.390753 0.0233921
0.575799 0.390768 0.0234073
0.621393 0.390951 0.0235752
0.66569 0.391424 0.0240024
0.708141 0.392325 0.0248112
0.748501 0.393729 0.0260929
0.786908 0.395727 0.0279088
0.823407 0.398276 0.0302281
0.858228 0.401343 0.032578
0.891829 0.404776 0.0356909
0.924636 0.408453 0.0390326
0.957046 0.412268 0.0424964
0.989471 0.416083 0.0459754
1 0.41973 0.0492866
1 0.423499 0.0527047
1 0.427253 0.0561227
1 0.430991 0.0595254
0 0.407431 0.00349432
0 0.410315 0.00611887
0 0.413275 0.00880446
0 0.416266 0.0115206
0 0.419165 0.0141604
0.017258 0.421881 0.0166323
0.0590677 0.424262 0.0187839
0.103319 0.4262 0.0205539
0.150164 0.42768 0.0218967
0.199832 0.428672 0.022797
0.249317 0.429206 0.0232853
0.298482 0.429419 0.0234836
0.346395 0.429465 0.0235294
0.390906 0.429465 0.0235142
0.429557 0.429557 0.0236057
0.475654 0.429618 0.0236515
0.522133 0.429511 0.0235752
0.568444 0.429404 0.0234684
0.614054 0.429404 0.0234531
0.658503 0.42974 0.0237583
0.701305 0.430564 0.0245212
0.742107 0.431998 0.0258335
0.780926 0.434012 0.0276493
0.817823 0.436576 0.029984
0.852964 0.439643 0.0323339
0.886793 0.443091 0.035462
0.919738 0.446769 0.0388037
0.952209 0.450599 0.0422827
0.984619 0.454429 0.0457618
1 0.458152 0.0491646
1 0.461799 0.0524605
1 0.465507 0.0558328
1 0.469184 0.0591745
0 0.445533 0.00306706
0 0.4486 0.00585946
0 0.451713 0.00868238
0 0.454841 0.0115206
0 0.457862 0.0142672
0.0175479 0.46067 0.0168154
0.0594644 0.463127 0.0190433
0.103777 0.46511 0.0208591
0.150683 0.466621 0.0222171
0.200336 0.467613 0.0231327
0.24979 0.468132 0.0236057
0.298878 0.46833 0.0237736
0.346716 0.468315 0.0237583
0.391089 0.468223 0.0236973
0.429633 0.468223 0.023682
0.468162 0.468162 0.023621
0.514488 0.467964 0.0234531
0.560845 0.467826 0.0233158
0.606683 0.467872 0.0233768
0.651484 0.468269 0.0237278
0.694682 0.469108 0.0244907
0.735897 0.470527 0.0257877
0.775097 0.472511 0.0275883
0.812345 0.475044 0.0298772
0.847761 0.478065 0.0321813
0.881788 0.481468 0.0352789
0.914839 0.485115 0.0385901
0.947341 0.488899 0.0420386
0.979675 0.492699 0.0454871
1 0.496391 0.0488441
1 0.499931 0.0520638
1 0.503548 0.0553445
1 0.507118 0.0585946
0 0.484291 0.00282292
0 0.487465 0.00570687
0 0.490669 0.00862135
0 0.493858 0.0115206
0 0.496925 0.014313
0.0176394 0.499748 0.0168765
0.0595407 0.50219 0.0191043
0.103838 0.504173 0.0208896
0.150668 0.505623 0.0222171
0.200229 0.506554 0.0230564
0.249577 0.506996 0.0234531
0.298543 0.507073 0.0235294
0.346242 0.506935 0.0234073
0.390616 0.506767 0.0232548
0.42916 0.506752 0.0232395
0.467735 0.506752 0.0232395
0.506691 0.506691 0.0231937
0.553185 0.506645 0.0231479
0.599237 0.506752 0.0232395
0.644312 0.507149 0.0235904
0.687861 0.507958 0.0243381
0.729427 0.509331 0.0255741
0.768963 0.511238 0.0273136
0.806531 0.51368 0.0295262
0.842206 0.516609 0.031754
0.876387 0.519921 0.0347601
0.909514 0.523476 0.037995
0.942 0.527184 0.0413519
0.974243 0.530892 0.0447395
1 0.534493 0.0480049
1 0.537911 0.0511177
1 0.54139 0.0542763
1 0.544793 0.0573739
0 0.523323 0.0027924
0 0.526543 0.00570687
0 0.529747 0.00863661
0 0.532937 0.0115358
0 0.535973 0.0142977
0.0175326 0.53875 0.0168154
0.0593423 0.541131 0.018967
0.103502 0.543008 0.020676
0.150179 0.54435 0.0218967
0.199603 0.545159 0.0226444
0.24889 0.545541 0.0229801
0.297902 0.545632 0.0230716
0.345739 0.545586 0.0230259
0.390311 0.545525 0.0229648
0.428931 0.545586 0.0230259
0.467582 0.545663 0.0231022
0.5066 0.545663 0.0231022
0.545678 0.545678 0.0231022
0.591882 0.545785 0.023209
0.637156 0.546151 0.0235294
0.68101 0.546883 0.0242161
0.722896 0.54815 0.0253605
0.762722 0.54995 0.0269932
0.800549 0.552254 0.0290837
0.836439 0.555047 0.0311742
0.870741 0.558221 0.0340581
0.903914 0.561639 0.037171
0.936355 0.565209 0.0404059
0.968475 0.56878 0.0436561
1 0.572244 0.0468147
1 0.575494 0.0497597
1 0.57879 0.0527504
1 0.581994 0.0556802
0 0.56231 0.00302129
0 0.565484 0.00590524
0 0.568643 0.00877394
0 0.57174 0.0115969
0 0.57467 0.0142672
0.0173342 0.577325 0.0166781
0.0589914 0.579599 0.0187381
0.10312 0.581445 0.0204166
0.149844 0.582834 0.0216831
0.19942 0.583749 0.0225223
0.248844 0.584237 0.0229496
0.297963 0.584421 0.0231174
0.345876 0.584436 0.0231327
0.390478 0.584421 0.0231327
0.429145 0.584543 0.0232242
0.467842 0.584649 0.023331
0.506874 0.584665 0.0233463
0.545953 0.58468 0.0233616
0.584741 0.584741 0.0234226
0.630182 0.585031 0.023682
0.674266 0.585672 0.0242618
0.716426 0.58677 0.0252689
0.756497 0.588403 0.0267491
0.794553 0.590539 0.028687
0.830625 0.593133 0.0306096
0.865019 0.596124 0.0333104
0.898192 0.599359 0.0362707
0.930556 0.602747 0.0393378
0.962509 0.606134 0.0424201
0.994461 0.60943 0.0454108
1 0.612467 0.0481727
1 0.615518 0.0509499
1 0.618479 0.0536355
0 0.60087 0.00354009
0 0.603922 0.00633249
0 0.606958 0.00909438
0 0.609995 0.011841
0 0.612924 0.0145113
0.017792 0.615641 0.016968
0.0596017 0.618021 0.0191348
0.103853 0.619959 0.0209049
0.150698 0.621424 0.0222324
0.200336 0.6224 0.0231327
0.24979 0.622934 0.0236057
0.298924 0.623148 0.0238041
0.346822 0.623194 0.0238499
0.391272 0.623209 0.0238499
0.429953 0.623316 0.0239567
0.46862 0.623423 0.0240482
0.507637 0.623423 0.0240482
0.546685 0.623392 0.0240177
0.585428 0.623407 0.024033
0.623575 0.623575 0.0241855
0.667811 0.624048 0.0246128
0.710185 0.624964 0.025452
0.750469 0.626383 0.0267491
0.788693 0.62829 0.0284733
0.824918 0.63064 0.0303349
0.859373 0.633402 0.0326848
0.892515 0.636408 0.0354162
0.924758 0.639551 0.0382696
0.956512 0.642725 0.0411536
0.98819 0.645777 0.0439307
1 0.648554 0.0464485
1 0.651347 0.0489815
1 0.654002 0.0514076
0 0.638773 0.00451667
0 0.641855 0.00732433
0 0.644984 0.0101625
0 0.648112 0.0130007
0 0.651133 0.0157473
0.0198062 0.653925 0.0182803
0.0616922 0.656367 0.0205081
0.10602 0.658351 0.0223087
0.152926 0.659861 0.023682
0.202533 0.660853 0.0245823
0.251896 0.661402 0.0250706
0.300938 0.661616 0.0252689
0.34873 0.661646 0.0252995
0.392828 0.661616 0.0252689
0.431464 0.661692 0.0253452
0.470085 0.661738 0.0253758
0.509041 0.661662 0.0253147
0.547997 0.661555 0.0252232
0.586648 0.661479 0.0251469
0.624689 0.66154 0.0252079
0.661799 0.661799 0.0254368
0.704356 0.66247 0.0260471
0.744793 0.663645 0.0271153
0.783154 0.665278 0.0285954
0.819486 0.667353 0.0303349
0.853956 0.669825 0.0322881
0.887037 0.672557 0.0347753
0.919127 0.675425 0.0373693
0.950652 0.678294 0.0399939
0.98201 0.681086 0.0425116
1 0.68365 0.0448463
1 0.686015 0.0469978
1 0.688365 0.049134
0 0.676493 0.00671397
0 0.679667 0.00958267
0 0.682857 0.0124819
0 0.686046 0.0153811
0 0.689113 0.0181735
0.0235599 0.691936 0.020737
0.0654917 0.694392 0.0229648
0.109804 0.696376 0.0247807
0.156756 0.697871 0.0261387
0.20618 0.698848 0.0270237
0.25536 0.699367 0.0274815
0.304219 0.699535 0.0276341
0.351797 0.699504 0.0276188
0.395315 0.699413 0.0275273
0.43386 0.699397 0.027512
0.472389 0.699336 0.0274662
0.511223 0.699153 0.0272984
0.550057 0.698924 0.0270848
0.588586 0.698726 0.0269017
0.626459 0.698619 0.0268254
0.663417 0.698726 0.0269017
0.699077 0.699077 0.0272374
0.739635 0.699947 0.0280156
0.778088 0.701259 0.029221
0.814496 0.703014 0.0303655
0.848951 0.70515 0.0323033
0.881926 0.707546 0.0344854
0.913832 0.710079 0.0367895
0.945083 0.712627 0.0391089
0.976089 0.715099 0.0413519
1 0.717372 0.0434119
1 0.719417 0.0452735
1 0.721447 0.0471199
0 0.713924 0.0102998
0 0.717128 0.0132143
0 0.720348 0.0161288
0 0.723552 0.0190433
0 0.726604 0.0218204
0.0291752 0.729412 0.0243687
0.071046 0.731853 0.0265812
0.115328 0.733806 0.0283665
0.162249 0.735241 0.0296788
0.211353 0.736156 0.0303349
0.260243 0.736599 0.030457
0.308797 0.736675 0.0305333
0.356039 0.736538 0.0304112
0.398764 0.736339 0.0303349
0.437186 0.736187 0.0303349
0.475563 0.736004 0.0303349
0.51426 0.735668 0.0300603
0.552926 0.735271 0.0296941
0.591272 0.73489 0.0293431
0.628962 0.7346 0.0290837
0.665705 0.734493 0.0289769
0.701152 0.73463 0.0291142
0.735103 0.735103 0.0295415
0.773587 0.736049 0.0303349
0.81001 0.737423 0.0312047
0.844419 0.739178 0.0328069
0.877272 0.741192 0.034638
0.90898 0.743374 0.0366217
0.939971 0.745602 0.0386358
0.970672 0.747753 0.0406043
1 0.749737 0.0424048
1 0.751476 0.0439765
1 0.753201 0.0455482
0 0.750912 0.0151369
0 0.754116 0.0180514
0 0.757305 0.0209506
0 0.760479 0.0238346
0 0.7635 0.0265812
0.036408 0.766247 0.0290837
0.0781872 0.768612 0.0307927
0.122347 0.770489 0.0324865
0.169223 0.771832 0.0337072
0.217823 0.772641 0.0344396
0.266331 0.772961 0.0347295
0.314473 0.7729 0.0346838
0.361303 0.772625 0.0344244
0.403021 0.772259 0.0341039
0.441276 0.771954 0.033814
0.479484 0.771572 0.0334783
0.517968 0.771054 0.03299
0.556435 0.770443 0.0324407
0.594553 0.769833 0.0318914
0.632013 0.769314 0.0314183
0.668513 0.768963 0.0310979
0.7037 0.768841 0.0309911
0.737362 0.769024 0.0311589
0.769512 0.769512 0.0316014
0.80592 0.770489 0.0324865
0.840314 0.771847 0.0337224
0.873045 0.773495 0.0352178
0.904585 0.775341 0.0368811
0.935332 0.777234 0.0386206
0.965728 0.77908 0.0402991
0.99617 0.780774 0.0418402
1 0.782193 0.043122
1 0.783627 0.044419
0 0.78732 0.0210575
0 0.790478 0.0239261
0 0.793622 0.0267796
0 0.796719 0.0295872
0.00518807 0.799649 0.0318151
0.0449989 0.802304 0.034226
0.0866255 0.804562 0.0362707
0.130617 0.806302 0.0378729
0.177386 0.807523 0.0389715
0.225345 0.808179 0.0395666
0.273396 0.808331 0.039704
0.321035 0.808103 0.0395056
0.36733 0.807645 0.0390784
0.407935 0.807065 0.0385595
0.445975 0.806546 0.0380865
0.483955 0.805951 0.0375372
0.52221 0.805173 0.0368353
0.560403 0.804318 0.0360571
0.59826 0.803433 0.0352636
0.635447 0.80264 0.0345312
0.671656 0.801999 0.0339513
0.706569 0.801602 0.0335851
0.73994 0.801511 0.0335088
0.771817 0.801724 0.0336919
0.802228 0.802228 0.0341497
0.836591 0.803189 0.0350347
0.86923 0.804486 0.0362097
0.900603 0.805982 0.0375677
0.931136 0.807553 0.0390021
0.961242 0.809094 0.0404059
0.991333 0.810498 0.0416724
1 0.811627 0.0426947
1 0.812757 0.0437324
0 0.823041 0.0279088
0 0.826108 0.0303349
0 0.829145 0.0330053
0 0.83212 0.0357214
0.0151064 0.834928 0.0382696
0.0547189 0.837446 0.0405585
0.0961318 0.839536 0.0424659
0.139879 0.841123 0.0439002
0.18645 0.842161 0.0448463
0.233677 0.842618 0.0452735
0.281147 0.842573 0.0452125
0.328206 0.84213 0.0448157
0.373907 0.841428 0.0441749
0.413306 0.84062 0.0434424
0.451087 0.839826 0.0427253
0.488792 0.838956 0.0419318
0.526757 0.837903 0.0409857
0.564675 0.836759 0.0399329
0.602243 0.835599 0.03888
0.639155 0.834531 0.0379034
0.67509 0.8336 0.0370642
0.709712 0.832929 0.0364538
0.742824 0.832563 0.0361181
0.774426 0.832502 0.0360571
0.804547 0.832731 0.0362707
0.833249 0.833249 0.0367437
0.865812 0.83418 0.037583
0.897047 0.835325 0.0386358
0.927367 0.836576 0.039765
0.957198 0.837827 0.0408942
0.986954 0.838941 0.0419318
1 0.83978 0.0426795
1 0.84062 0.0434424
0 0.857969 0.0349889
0 0.860899 0.0376593
0 0.863798 0.0402838
0 0.866621 0.0428473
0.0258183 0.869245 0.045243
0.0651713 0.871565 0.0473487
0.10631 0.873472 0.0490883
0.149798 0.874846 0.0503243
0.195956 0.875654 0.0510719
0.242405 0.875898 0.0512703
0.28925 0.875578 0.0509957
0.335653 0.874876 0.0503548
0.380682 0.873899 0.0494698
0.418845 0.872816 0.0484779
0.456336 0.871733 0.0475013
0.493767 0.870588 0.0464637
0.531456 0.869261 0.045243
0.5691 0.867826 0.0439612
0.606394 0.866407 0.042649
0.64303 0.865049 0.0414282
0.678676 0.863859 0.0403449
0.713039 0.862913 0.0394751
0.745876 0.862272 0.0388952
0.777203 0.861936 0.0385901
0.807065 0.861906 0.0385595
0.835508 0.86215 0.0387884
0.862654 0.862654 0.0392462
0.893767 0.863462 0.0399786
0.923888 0.864393 0.0408179
0.953475 0.865339 0.0416876
0.982895 0.866178 0.0424506
1 0.866835 0.0430457
1 0.867353 0.0435035
0 0.892073 0.0428016
0 0.894835 0.045304
0 0.897536 0.0477607
0 0.900145 0.0501411
0.0367437 0.902571 0.0523384
0.0757763 0.904677 0.0542458
0.116579 0.90634 0.0557565
0.159808 0.907454 0.0567788
0.20531 0.907988 0.0572671
