src/luts/rounded/9.cube
TITLE "Generated by Resolve"
LUT_3D_SIZE 9
0 0 0.0303349
0.0291752 0 0.0299535
0.226505 0 0.0231937
0.426169 0 0.00993362
0.59646 0 0
0.748592 0 0
0.874632 0 0
0.996017 0 0
1 0 0.00418097
0 0.0890669 0.0298619
0.00189212 0.0893568 0.0301061
0.19379 0.0849928 0.0262608
0.403464 0.0734722 0.0160678
0.578561 0.0634623 0.00721752
0.741054 0.0600137 0.00416571
0.876799 0.067155 0.0104829
1 0.0795605 0.0214542
1 0.0936751 0.0334936
0 0.198413 0.0218814
0 0.202579 0.0255589
0.158343 0.204395 0.0271611
0.38143 0.199939 0.0232242
0.56318 0.196399 0.0200961
0.735927 0.197848 0.0213779
0.880415 0.208759 0.0305791
1 0.224231 0.0442359
1 0.239368 0.0576333
0 0.332952 0.00695811
0 0.342809 0.0157778
0.150744 0.350057 0.0222629
0.346075 0.351186 0.0232853
0.536919 0.351293 0.0233768
0.715145 0.35346 0.0253147
0.864027 0.362921 0.0333562
0.994736 0.377615 0.04654
1 0.392523 0.0600595
0 0.484291 0.00282292
0 0.496925 0.014313
0.150668 0.505623 0.0222171
0.346242 0.506935 0.0234073
0.506691 0.506691 0.0231937
0.687861 0.507958 0.0243381
0.842206 0.516609 0.031754
0.974243 0.530892 0.0447395
1 0.544793 0.0573739
0 0.638773 0.00451667
0 0.651133 0.0157473
0.152926 0.659861 0.023682
0.34873 0.661646 0.0252995
0.509041 0.661662 0.0253147
0.661799 0.661799 0.0254368
0.819486 0.667353 0.0303349
0.950652 0.678294 0.0399939
1 0.688365 0.049134
0 0.78732 0.0210575
0.00518807 0.799649 0.0318151
0.177386 0.807523 0.0389715
0.36733 0.807645 0.0390784
0.52221 0.805173 0.0368353
0.671656 0.801999 0.0339513
0.802228 0.802228 0.0341497
0.931136 0.807553 0.0390021
1 0.812757 0.0437324
0 0.925292 0.0505684
0.0473335 0.934829 0.0592355
0.214023 0.939132 0.0631418
0.391928 0.935134 0.0595102
0.540307 0.928298 0.0532998
0.685389 0.92076 0.0464485
0.811704 0.916716 0.042771
0.917006 0.917006 0.0430304
1 0.918288 0.0442054
0 1 0.0750591
0.0788281 1 0.0797284
0.23827 1 0.0796979
0.405921 1 0.0722515
0.550439 1 0.062501
0.692134 1 0.0525673
0.815702 1 0.0464179
0.918959 1 0.0448157
1 1 0.0446632
0 0 0.117571
0.00196841 0 0.117632
0.19173 0 0.112383
0.399054 0 0.0995346
0.569787 0 0.0867018
0.726848 0 0.0787213
0.856611 0 0.0795911
0.978286 0 0.0850996
1 0 0.0927443
0 0.0891127 0.117372
0.00222782 0.089601 0.1178
0.194659 0.0856489 0.114305
0.404669 0.0747082 0.104631
0.580438 0.0653849 0.0963912
0.743603 0.062623 0.0939498
0.880049 0.0704814 0.100908
1 0.0834669 0.112367
1 0.0979477 0.12517
0 0.199649 0.11043
0 0.204379 0.114611
0.161608 0.206775 0.116732
0.384726 0.203021 0.11342
0.566827 0.200137 0.110872
0.739986 0.202029 0.112535
0.884703 0.213169 0.122377
1 0.228656 0.136065
1 0.243595 0.149294
0 0.33611 0.097261
0 0.346487 0.106538
0.156374 0.354101 0.113359
0.351141 0.355459 0.11458
0.541238 0.355673 0.114763
0.719341 0.357717 0.116609
0.868162 0.367102 0.125017
0.999023 0.381949 0.138354
1 0.396841 0.151904
0 0.488548 0.0941634
0 0.501228 0.105684
0.156603 0.509834 0.113512
0.351141 0.511025 0.114595
0.510933 0.510933 0.114504
0.69218 0.512276 0.115724
0.846464 0.520867 0.123537
0.978347 0.534997 0.13637
1 0.548623 0.14876
0 0.642924 0.0957504
0 0.655406 0.107103
0.159014 0.664164 0.115053
0.353841 0.665904 0.11664
0.513176 0.665797 0.116548
0.665721 0.665721 0.116472
0.823056 0.670924 0.121202
0.95375 0.681392 0.130724
1 0.690929 0.139376
0 0.791547 0.112367
0.0108797 0.803723 0.12343
0.182773 0.811353 0.130373
0.37145 0.811154 0.13019
0.525307 0.808286 0.127581
0.674296 0.804639 0.124269
0.804425 0.804425 0.124071
0.93283 0.809232 0.128435
1 0.813947 0.132723
0 0.928679 0.141558
0.0514382 0.937774 0.149813
0.21735 0.941619 0.153323
0.393973 0.937179 0.149294
0.541924 0.929915 0.142687
0.686595 0.92195 0.135439
0.812497 0.91751 0.131411
0.917494 0.917494 0.13138
1 0.918502 0.132311
0 1 0.164691
0.0808728 1 0.168963
0.239628 1 0.168551
0.406607 1 0.160769
0.550835 1 0.150774
0.692317 1 0.140642
0.815732 1 0.134356
0.918914 1 0.132677
1 1 0.132509
0 0 0.221027
3.0518e-05 0 0.220966
0.15523 0 0.217243
0.368383 0 0.205188
0.541405 0 0.192432
0.702983 0 0.183566
0.837018 0 0.183703
0.958892 0 0.189487
1 0 0.19733
0 0.0878309 0.220829
0.000839246 0.0885786 0.221485
0.158694 0.0862745 0.219471
0.375601 0.0764019 0.210788
0.552758 0.0673075 0.202747
0.720546 0.0636606 0.199527
0.861295 0.0707103 0.205768
0.98967 0.0839399 0.217426
1 0.0984665 0.230167
0 0.199695 0.215106
0 0.20499 0.21976
0.163272 0.207996 0.222385
0.386587 0.204959 0.21973
0.569268 0.202655 0.2177
0.742794 0.204913 0.219684
0.887663 0.21622 0.229603
1 0.231678 0.243259
1 0.246387 0.256535
0 0.338125 0.203708
0 0.348943 0.213397
0.160266 0.356893 0.220462
0.35465 0.35845 0.221851
0.544213 0.358679 0.222049
0.722148 0.360571 0.223728
0.871015 0.369985 0.23212
1 0.384924 0.245594
1 0.399802 0.259403
0 0.491524 0.201526
0 0.504189 0.213031
0.160571 0.512642 0.220661
0.354513 0.513832 0.221744
0.513878 0.513878 0.221775
0.695155 0.515251 0.223011
0.849378 0.523781 0.230701
0.981064 0.537697 0.243366
1 0.551019 0.25568
0 0.645792 0.203021
0 0.658366 0.214435
0.16321 0.66714 0.222354
0.357305 0.668818 0.22385
0.515938 0.668559 0.223621
0.668238 0.668238 0.223346
0.825193 0.67306 0.22768
0.955352 0.683009 0.236698
1 0.691997 0.244892
0 0.794415 0.219577
0.0146181 0.806394 0.230396
0.186145 0.813764 0.237064
0.373861 0.813199 0.236561
0.52694 0.809903 0.233555
0.675471 0.805814 0.229862
0.805158 0.805158 0.229267
0.933043 0.809445 0.233143
1 0.813657 0.236957
0 0.930587 0.247868
0.0534676 0.939223 0.255879
0.218708 0.942626 0.259037
0.394537 0.937758 0.254505
0.542062 0.930053 0.247364
0.686305 0.921675 0.239689
0.811856 0.916869 0.23534
0.916564 0.916564 0.23505
1 0.917342 0.235752
0 1 0.2701
0.0808423 1 0.274067
0.239078 1 0.273274
0.405859 1 0.265034
0.549828 1 0.254566
0.691112 1 0.244083
0.814404 1 0.237644
0.91751 1 0.23592
1 1 0.235752
0 0 0.355077
0 0 0.35494
0.149935 0 0.351019
0.330968 0 0.34078
0.510414 0 0.327642
0.675944 0 0.317739
0.814725 0 0.317006
0.937438 0 0.32311
1 0 0.331472
0 0.0841993 0.355016
0 0.0852369 0.355978
0.15465 0.0833295 0.354208
0.339147 0.0757305 0.347158
0.522484 0.0668956 0.339025
0.694316 0.0625315 0.334997
0.839826 0.0686503 0.340627
0.968963 0.0819409 0.352926
1 0.0965591 0.366567
0 0.197498 0.350301
0 0.203387 0.355764
0.161868 0.206973 0.359106
0.352087 0.205158 0.357412
0.539773 0.203037 0.355444
0.717174 0.20441 0.356725
0.866575 0.214542 0.366171
0.997635 0.229816 0.380591
1 0.24445 0.394812
0 0.337896 0.340185
0 0.349142 0.350713
0.160922 0.357366 0.35845
0.355367 0.35906 0.360052
0.544793 0.359274 0.360265
0.72253 0.360937 0.361837
0.871534 0.37052 0.370977
1 0.385534 0.385489
1 0.400381 0.400381
0 0.492134 0.338704
0 0.504753 0.350668
0.161105 0.513024 0.358572
0.355108 0.514336 0.359854
0.514473 0.514473 0.359976
0.695766 0.515862 0.361303
0.849867 0.524269 0.369421
0.981323 0.537957 0.382742
1 0.550942 0.395712
0 0.646342 0.3402
0 0.658991 0.352209
0.16405 0.667735 0.360586
0.357885 0.669306 0.362097
0.516243 0.668864 0.361669
0.668284 0.668284 0.36112
0.824811 0.672679 0.365347
0.954452 0.682094 0.374456
1 0.690562 0.382696
0 0.794842 0.357488
0.0149233 0.806622 0.368811
0.186038 0.813687 0.375677
0.373342 0.812757 0.374762
0.526024 0.809003 0.371115
0.674113 0.804456 0.366735
0.803357 0.803357 0.365667
0.930739 0.807141 0.369314
1 0.810864 0.372915
0 0.929976 0.38674
0.0519875 0.938155 0.394949
0.216678 0.941115 0.397894
0.392584 0.935805 0.392584
0.539696 0.927687 0.384451
0.683528 0.918883 0.375845
0.808743 0.913756 0.370871
0.913191 0.913191 0.370321
1 0.913741 0.37084
0 1 0.409216
0.0773175 1 0.413077
0.235218 1 0.411826
0.40264 1 0.40264
0.546365 1 0.39115
0.68748 1 0.379705
0.810681 1 0.372747
0.913741 1 0.37084
1 1 0.370703
0 0 0.505119
0 0 0.504921
0.143999 0 0.500877
0.325994 0 0.490257
0.478813 0 0.478813
0.647562 0 0.467658
0.791455 0 0.465858
0.915694 0 0.472328
1 0 0.481559
0 0.0801099 0.505318
0 0.0814832 0.506645
0.150118 0.0800183 0.505241
0.335912 0.0729839 0.49839
0.49163 0.066041 0.49163
0.666773 0.0611276 0.48687
0.817395 0.0662089 0.491798
0.947951 0.0793622 0.504601
1 0.0941329 0.518959
0 0.194965 0.5019
0 0.201419 0.508171
0.160006 0.205615 0.512245
0.351171 0.204379 0.51104
0.509667 0.202945 0.509667
0.690211 0.203616 0.510307
0.84448 0.212436 0.518883
0.97673 0.227329 0.533364
1 0.241962 0.547616
0 0.337301 0.493126
0 0.348913 0.504555
0.160922 0.357366 0.512886
0.355459 0.359136 0.514641
0.514824 0.359319 0.514824
0.695491 0.360098 0.515587
0.849424 0.368444 0.523827
0.981735 0.383169 0.538369
1 0.398016 0.553246
0 0.492226 0.492226
0 0.504738 0.504738
0.160906 0.512886 0.512886
0.355123 0.514351 0.514351
0.514549 0.514549 0.514549
0.695811 0.515908 0.515908
0.849775 0.524178 0.524178
0.980972 0.537606 0.537606
1 0.55021 0.55021
0 0.646403 0.493767
0 0.659068 0.506447
0.164126 0.667781 0.51516
0.357778 0.669215 0.516594
0.515953 0.668574 0.515953
0.667704 0.667704 0.515068
0.823758 0.671626 0.519005
0.952865 0.680507 0.527886
1 0.688426 0.535805
0 0.794705 0.511727
0.0143893 0.806226 0.523262
0.185046 0.81297 0.530007
0.37203 0.811643 0.528664
0.524453 0.807416 0.524453
0.672099 0.802441 0.519463
0.8009 0.8009 0.517937
0.927779 0.804181 0.521202
1 0.807416 0.524453
0 0.928679 0.540688
0.049546 0.936416 0.548424
0.213748 0.938933 0.550942
0.38999 0.933196 0.545205
0.53666 0.924651 0.53666
0.680095 0.91545 0.527459
0.805005 0.910033 0.522042
0.909224 0.909224 0.521233
1 0.90956 0.521569
0 1 0.561669
0.0728618 1 0.565118
0.230518 1 0.563516
0.39881 1 0.55404
0.542336 1 0.542336
0.683284 1 0.530663
0.806394 1 0.52343
0.909438 1 0.521447
1 1 0.52134
0 0 0.653651
0 0 0.653437
0.138399 0 0.6495
0.321324 0 0.639094
0.475334 0 0.62797
0.618555 0 0.618555
0.767803 0 0.615671
0.89427 0 0.621912
1 0 0.63151
0 0.0763104 0.654261
0 0.0780499 0.65594
0.14612 0.0771038 0.655024
0.33312 0.0706188 0.648722
0.489891 0.0642557 0.642527
0.63859 0.0602121 0.63859
0.794568 0.0641489 0.64242
0.927245 0.0769665 0.654902
1 0.0919051 0.669413
0 0.192813 0.65243
0 0.199863 0.659297
0.158694 0.204654 0.663951
0.350683 0.203952 0.663264
0.509606 0.202899 0.662242
0.662593 0.203265 0.662593
0.821958 0.210712 0.669825
0.956085 0.22501 0.683742
1 0.239689 0.698024
0 0.337026 0.645472
0 0.348974 0.657237
0.161242 0.357595 0.665751
0.355795 0.359411 0.667536
0.514992 0.359503 0.667628
0.667811 0.359686 0.667811
0.826886 0.36672 0.674754
0.961151 0.380941 0.688792
1 0.395834 0.7037
0 0.49247 0.64509
0 0.504829 0.657465
0.161074 0.512993 0.665629
0.355413 0.514595 0.667231
0.514839 0.514839 0.66746
0.668208 0.515572 0.668208
0.827161 0.522393 0.675029
0.960159 0.535195 0.687816
1 0.547662 0.700298
0 0.646647 0.646647
0 0.659342 0.659342
0.164385 0.667979 0.667979
0.357839 0.669261 0.669261
0.515755 0.668376 0.668376
0.667185 0.667185 0.667185
0.822751 0.670619 0.670619
0.951308 0.678965 0.678965
1 0.686351 0.686351
0 0.794659 0.664317
0.013962 0.805936 0.675578
0.184131 0.812314 0.681971
0.370748 0.810544 0.680201
0.522896 0.805875 0.675532
0.670115 0.800458 0.670115
0.798489 0.798489 0.668132
0.924849 0.801251 0.670909
1 0.804059 0.673716
0 0.927428 0.692058
0.0471656 0.934707 0.699351
0.210864 0.936782 0.701411
0.387533 0.930617 0.695247
0.533654 0.921645 0.68629
0.676738 0.912093 0.676738
0.801373 0.906386 0.671031
0.905364 0.905364 0.670008
1 0.905531 0.670176
0 1 0.711574
0.0684825 1 0.714611
0.225925 1 0.712673
0.395087 1 0.702953
0.538415 1 0.691035
0.679255 1 0.679255
0.802289 1 0.671946
0.905348 1 0.669978
1 1 0.669932
0 0 0.781491
0 0 0.781308
0.135134 0 0.777508
0.318746 0 0.767346
0.473594 0 0.756573
0.617304 0 0.747646
0.745052 0 0.745052
0.874464 0 0.750866
1 0 0.760815
0 0.0742809 0.78262
0 0.0764172 0.78471
0.14464 0.0760204 0.784314
0.332525 0.0701152 0.778576
0.489982 0.064332 0.772946
0.639246 0.0608835 0.769589
0.77261 0.0639963 0.77261
0.908141 0.0762493 0.784543
1 0.0913405 0.799207
0 0.192523 0.782498
0 0.200168 0.789929
0.15993 0.205554 0.795163
0.35227 0.205325 0.794934
0.511269 0.204608 0.794247
0.664424 0.205158 0.794781
0.800305 0.210834 0.800305
0.937026 0.224338 0.813428
1 0.239063 0.827771
0 0.338521 0.777295
0 0.350729 0.789319
0.163882 0.359503 0.797971
0.358007 0.361303 0.799741
0.516716 0.361242 0.79968
0.669535 0.36144 0.799878
0.805203 0.366842 0.805203
0.942153 0.380346 0.818555
1 0.39527 0.833463
0 0.494301 0.777264
0 0.506477 0.789441
0.163592 0.514778 0.797757
0.357626 0.516457 0.799435
0.516716 0.516716 0.79968
0.670008 0.517388 0.800351
0.805402 0.522423 0.805402
0.940932 0.534356 0.817334
1 0.5467 0.829679
0 0.648539 0.778881
0 0.661204 0.791547
0.166888 0.669734 0.800076
0.359716 0.670848 0.80119
0.517052 0.669688 0.800031
0.668147 0.668147 0.798489
0.800488 0.67013 0.800488
0.931456 0.677531 0.807874
1 0.684749 0.815091
0 0.796155 0.796155
0.0156252 0.807126 0.807126
0.185275 0.813138 0.813138
0.37116 0.81091 0.81091
0.52282 0.805783 0.805783
0.669581 0.799924 0.799924
0.797528 0.797528 0.797528
0.9234 0.799802 0.799802
1 0.802213 0.802213
0 0.927611 0.822599
0.0468147 0.934462 0.82945
0.209949 0.936095 0.831083
0.386481 0.929503 0.824491
0.532143 0.920134 0.815106
0.674891 0.910246 0.805234
0.799268 0.90428 0.799268
0.903059 0.903059 0.798047
1 0.90309 0.798077
0 1 0.84065
0.0661784 1 0.84329
0.223316 1 0.841062
0.392905 1 0.831098
0.536065 1 0.819028
0.676783 1 0.807141
0.799786 1 0.799786
0.902861 0.999435 0.797848
0.999481 0.999481 0.797894
0 0 0.885847
0 0 0.885725
0.134508 0 0.882094
0.318547 0 0.872206
0.473838 0 0.86183
0.618067 0 0.853422
0.746365 0 0.851392
0.856397 0 0.856397
0.982254 0 0.866651
0 0.0742504 0.887617
0 0.0768597 0.89015
0.145998 0.0770123 0.890303
0.334386 0.0716869 0.885115
0.492088 0.0664988 0.880064
0.641947 0.0636606 0.877302
0.775769 0.0672313 0.880781
0.890745 0.0774701 0.890745
1 0.0926528 0.905516
0 0.194308 0.889235
0 0.202548 0.897261
0.164004 0.208515 0.903059
0.356207 0.208713 0.903243
0.514824 0.20827 0.902815
0.668132 0.208957 0.903487
0.803998 0.214649 0.90901
0.919646 0.225574 0.919646
1 0.24033 0.93402
0 0.34197 0.88571
0 0.354406 0.897963
0.169146 0.363256 0.906691
0.362341 0.365011 0.908415
0.52018 0.364752 0.908171
0.673136 0.365087 0.908492
0.808896 0.370581 0.913924
0.924849 0.381628 0.924849
1 0.396506 0.939727
0 0.497902 0.885893
0 0.509972 0.897948
0.168734 0.51841 0.906401
0.362036 0.52018 0.908156
0.520409 0.520409 0.9084
0.673609 0.520989 0.908965
0.808804 0.525841 0.913817
0.923369 0.535378 0.923369
1 0.547539 0.935531
0 0.652262 0.887617
0 0.664866 0.900236
0.171878 0.673274 0.908629
0.363653 0.674159 0.909529
0.520088 0.672724 0.90808
0.670802 0.670802 0.906157
0.802686 0.672343 0.907698
0.913298 0.677928 0.913298
1 0.684932 0.920287
0 0.799374 0.904402
0.0196841 0.810025 0.915038
0.188754 0.815625 0.920653
0.373541 0.81294 0.917952
0.524407 0.807385 0.912398
0.670741 0.801083 0.906096
0.79826 0.79826 0.903273
0.904601 0.799588 0.904601
1 0.801846 0.906859
0 0.929488 0.929488
0.0488136 0.935897 0.935897
0.211292 0.937102 0.937102
0.38703 0.930083 0.930083
0.532326 0.920317 0.920317
0.674769 0.91014 0.91014
0.798917 0.903929 0.903929
0.902541 0.902541 0.902541
1 0.902449 0.902449
0 1 0.946105
0.0662699 1 0.948379
0.223041 1 0.945876
0.392477 1 0.935699
0.535485 1 0.923476
0.676143 1 0.911498
0.799115 1 0.904143
0.902235 0.99881 0.902235
0.998978 0.998978 0.902388
0 0 0.982361
0 0 0.982345
0.134874 0 0.978927
0.319265 0 0.96936
0.474845 0 0.959426
0.619623 0 0.951568
0.748486 0 0.950088
0.859098 0 0.955673
0.964782 0 0.964782
0 0.0749981 0.984924
0 0.0780957 0.98793
0.14847 0.0788281 0.988632
0.337209 0.0740826 0.984024
0.494987 0.0694896 0.979568
0.645411 0.0672313 0.977356
0.77966 0.0712291 0.981247
0.894911 0.0817578 0.991485
1 0.0946822 1
0 0.196918 0.988357
0 0.205768 0.996963
0.169146 0.212253 1
0.360952 0.212833 1
0.519066 0.212634 1
0.67245 0.213413 1
0.80827 0.219043 1
0.92372 0.22977 1
1 0.242313 1
0 0.346151 0.986404
0.00181582 0.358755 0.998825
0.175235 0.367636 1
0.367315 0.369284 1
0.524285 0.368917 1
0.677394 0.36939 1
0.813214 0.374945 1
0.929152 0.385962 1
1 0.398428 1
0 0.502052 0.986618
0.00163272 0.514138 0.998703
0.174792 0.522698 1
0.367132 0.524498 1
0.524681 0.524681 1
0.67776 0.525124 1
0.812741 0.529778 1
0.927016 0.53904 1
1 0.54905 1
0 0.656565 0.98851
0.00492866 0.669108 1
0.177646 0.677363 1
0.36817 0.678004 1
0.523613 0.676234 1
0.673915 0.673915 1
0.805341 0.674998 1
0.915511 0.68014 1
1 0.685786 1
0 0.803113 1
0.0244144 0.813413 1
0.192844 0.81857 1
0.376455 0.815427 1
0.526452 0.80943 1
0.672358 0.802701 1
0.799451 0.799451 1
0.905409 0.800397 1
1 0.802152 1
0 0.931823 1
0.0514687 0.937789 1
0.21326 0.938567 1
0.388022 0.931121 1
0.533013 0.921004 1
0.675181 0.910536 1
0.7991 0.904128 1
0.902586 0.902586 0.999161
0.9991 0.902525 0.9991
0 1 1
0.0670787 1 1
0.223468 1 1
0.392615 1 1
0.535485 1 1
0.676081 1 1
0.799069 1 1
0.902251 0.998825 0.998825
0.999115 0.999115 0.999115
