src/luts/rounded/9.cube
TITLE "Generated by Resolve"
LUT_3D_SIZE 5
0 0 0.0303349
0.226505 0 0.0231937
0.59646 0 0
0.874632 0 0
1 0 0.00418097
0 0.198413 0.0218814
0.158343 0.204395 0.0271611
0.56318 0.196399 0.0200961
0.880415 0.208759 0.0305791
1 0.239368 0.0576333
0 0.484291 0.00282292
0.150668 0.505623 0.0222171
0.506691 0.506691 0.0231937
0.842206 0.516609 0.031754
1 0.544793 0.0573739
0 0.78732 0.0210575
0.177386 0.807523 0.0389715
0.52221 0.805173 0.0368353
0.802228 0.802228 0.0341497
1 0.812757 0.0437324
0 1 0.0750591
0.23827 1 0.0796979
0.550439 1 0.062501
0.815702 1 0.0464179
1 1 0.0446632
0 0 0.221027
0.15523 0 0.217243
0.541405 0 0.192432
0.837018 0 0.183703
1 0 0.19733
0 0.199695 0.215106
0.163272 0.207996 0.222385
0.569268 0.202655 0.2177
0.887663 0.21622 0.229603
1 0.246387 0.256535
0 0.491524 0.201526
0.160571 0.512642 0.220661
0.513878 0.513878 0.221775
0.849378 0.523781 0.230701
1 0.551019 0.25568
0 0.794415 0.219577
0.186145 0.813764 0.237064
0.52694 0.809903 0.233555
0.805158 0.805158 0.229267
1 0.813657 0.236957
0 1 0.2701
0.239078 1 0.273274
0.549828 1 0.254566
0.814404 1 0.237644
1 1 0.235752
0 0 0.505119
0.143999 0 0.500877
0.478813 0 0.478813
0.791455 0 0.465858
1 0 0.481559
0 0.194965 0.5019
0.160006 0.205615 0.512245
0.509667 0.202945 0.509667
0.84448 0.212436 0.518883
1 0.241962 0.547616
0 0.492226 0.492226
0.160906 0.512886 0.512886
0.514549 0.514549 0.514549
0.849775 0.524178 0.524178
1 0.55021 0.55021
0 0.794705 0.511727
0.185046 0.81297 0.530007
0.524453 0.807416 0.524453
0.8009 0.8009 0.517937
1 0.807416 0.524453
0 1 0.561669
0.230518 1 0.563516
0.542336 1 0.542336
0.806394 1 0.52343
1 1 0.52134
0 0 0.781491
0.135134 0 0.777508
0.473594 0 0.756573
0.745052 0 0.745052
1 0 0.760815
0 0.192523 0.782498
0.15993 0.205554 0.795163
0.511269 0.204608 0.794247
0.800305 0.210834 0.800305
1 0.239063 0.827771
0 0.494301 0.777264
0.163592 0.514778 0.797757
0.516716 0.516716 0.79968
0.805402 0.522423 0.805402
1 0.5467 0.829679
0 0.796155 0.796155
0.185275 0.813138 0.813138
0.52282 0.805783 0.805783
0.797528 0.797528 0.797528
1 0.802213 0.802213
0 1 0.84065
0.223316 1 0.841062
0.536065 1 0.819028
0.799786 1 0.799786
0.999481 0.999481 0.797894
0 0 0.982361
0.134874 0 0.978927
0.474845 0 0.959426
0.748486 0 0.950088
0.964782 0 0.964782
0 0.196918 0.988357
0.169146 0.212253 1
0.519066 0.212634 1
0.80827 0.219043 1
1 0.242313 1
0 0.502052 0.986618
0.174792 0.522698 1
0.524681 0.524681 1
0.812741 0.529778 1
1 0.54905 1
0 0.803113 1
0.192844 0.81857 1
0.526452 0.80943 1
0.799451 0.799451 1
1 0.802152 1
0 1 1
0.223468 1 1
0.535485 1 1
0.799069 1 1
0.999115 0.999115 0.999115
