src/luts/warm/1.cube
LUT_3D_SIZE 6
0.008301 0.018138 0.027702
0.177267 0.018138 0.027702
0.393357 0.018138 0.027702
0.637825 0.018138 0.027702
0.843607 0.018138 0.027702
0.989097 0.018138 0.027702
0.008301 0.145258 0.027702
0.177267 0.145258 0.027702
0.393357 0.176389 0.027702
0.637825 0.200483 0.027702
0.843607 0.205272 0.027702
0.989097 0.196774 0.027702
0.008301 0.343073 0.027702
0.213291 0.343073 0.027702
0.393357 0.343073 0.027702
0.637825 0.392769 0.027702
0.843607 0.402692 0.027702
0.989097 0.385135 0.027702
0.008301 0.589753 0.027702
0.240513 0.589753 0.027702
0.444251 0.589753 0.027702
0.637825 0.589753 0.027702
0.843607 0.604879 0.027702
0.989097 0.578019 0.027702
0.008301 0.810200 0.027702
0.245880 0.810200 0.027702
0.454296 0.810200 0.027702
0.652254 0.810200 0.027702
0.843607 0.810200 0.027702
0.989097 0.773969 0.027702
0.008301 0.971528 0.027702
0.236362 0.971528 0.027702
0.436487 0.971528 0.027702
0.626583 0.971528 0.027702
0.810389 0.971528 0.027702
0.989097 0.971528 0.027702
0.008301 0.018138 0.143331
0.177267 0.018138 0.143331
0.393357 0.018138 0.172405
0.637825 0.018138 0.195052
0.843607 0.018138 0.199574
0.989097 0.018138 0.191561
0.008301 0.145258 0.143331
0.177267 0.145258 0.143331
0.393357 0.145258 0.143331
0.637825 0.145258 0.143331
0.843607 0.145258 0.143331
0.989097 0.145258 0.143331
0.008301 0.343073 0.172405
0.177267 0.343073 0.143331
0.393357 0.343073 0.143331
0.637825 0.380838 0.143331
0.843607 0.386469 0.143331
0.989097 0.369732 0.143331
0.008301 0.589753 0.195052
0.177267 0.589754 0.143331
0.432089 0.589754 0.143331
0.637825 0.589754 0.143331
0.843607 0.599252 0.143331
0.989097 0.571096 0.143331
0.008301 0.810200 0.199574
0.177267 0.810200 0.143331
0.437882 0.810200 0.143331
0.646909 0.810200 0.143331
0.843607 0.810200 0.143331
0.989097 0.771189 0.143331
0.008301 0.971528 0.191561
0.177267 0.971528 0.143331
0.420784 0.971528 0.143331
0.619923 0.971528 0.143331
0.807885 0.971528 0.143331
0.989097 0.971528 0.143331
0.008301 0.018138 0.331072
0.213291 0.018138 0.331072
0.393357 0.018138 0.331072
0.637825 0.018138 0.379143
0.843607 0.018138 0.388741
0.989097 0.018138 0.371682
0.008301 0.176389 0.331072
0.177267 0.145258 0.331072
0.393357 0.145258 0.331072
0.637825 0.145258 0.367544
0.843607 0.145258 0.373053
0.989097 0.145258 0.356838
0.008301 0.343073 0.331072
0.177267 0.343073 0.331072
0.393357 0.343073 0.331072
0.637825 0.343073 0.331072
0.843607 0.343073 0.331072
0.989097 0.343073 0.331072
0.008301 0.589753 0.379143
0.177267 0.589754 0.367544
0.393357 0.589753 0.331072
0.637825 0.589753 0.331072
0.843607 0.585381 0.331072
0.989097 0.559745 0.331072
0.008301 0.810200 0.388741
0.177267 0.810200 0.373053
0.393357 0.810200 0.331072
0.633646 0.810200 0.331072
0.843607 0.810200 0.331072
0.989097 0.766763 0.331072
0.008301 0.971528 0.371682
0.177267 0.971528 0.356838
0.393357 0.971528 0.331072
0.609034 0.971528 0.331072
0.803817 0.971528 0.331072
0.989097 0.971528 0.331072
0.008301 0.018138 0.572034
0.240513 0.018138 0.572034
0.444251 0.018138 0.572034
0.637825 0.018138 0.572034
0.843607 0.018138 0.586953
0.989097 0.018138 0.560410
0.008301 0.200483 0.572034
0.177267 0.145258 0.572034
0.432089 0.145258 0.572034
0.637825 0.145258 0.572034
0.843607 0.145258 0.581419
0.989097 0.145258 0.553604
0.008301 0.392769 0.572034
0.177267 0.380838 0.572034
0.393357 0.343073 0.572034
0.637825 0.343073 0.572034
0.843607 0.343073 0.567705
0.989097 0.343073 0.542399
0.008301 0.589753 0.572034
0.177267 0.589754 0.572034
0.393357 0.589753 0.572034
0.637825 0.589753 0.572034
0.843607 0.589753 0.572034
0.989097 0.589753 0.572034
0.008301 0.810200 0.586953
0.177267 0.810200 0.581419
0.393357 0.810200 0.567705
0.637825 0.810200 0.572034
0.843607 0.810200 0.572034
0.989097 0.778643 0.572034
0.008301 0.971528 0.560410
0.177267 0.971528 0.553604
0.393357 0.971528 0.542399
0.637825 0.971528 0.572034
0.814769 0.971528 0.572034
0.989097 0.971528 0.572034
0.008301 0.018138 0.791443
0.245880 0.018138 0.791443
0.454296 0.018138 0.791443
0.652254 0.018138 0.791443
0.843607 0.018138 0.791443
0.989097 0.018138 0.755112
0.008301 0.205272 0.791443
0.177267 0.145258 0.791443
0.437882 0.145258 0.791443
0.646909 0.145258 0.791443
0.843607 0.145258 0.791443
0.989097 0.145258 0.752392
0.008301 0.402692 0.791443
0.177267 0.386469 0.791443
0.393357 0.343073 0.791443
0.633646 0.343073 0.791443
0.843607 0.343073 0.791443
0.989097 0.343073 0.747945
0.008301 0.604879 0.791443
0.177267 0.599252 0.791443
0.393357 0.585381 0.791443
0.637825 0.589753 0.791443
0.843607 0.589753 0.791443
0.989097 0.589753 0.759822
0.008301 0.810200 0.791443
0.177267 0.810200 0.791443
0.393357 0.810200 0.791443
0.637825 0.810200 0.791443
0.843607 0.810200 0.791443
0.989097 0.810200 0.791443
0.008301 0.971528 0.755112
0.177267 0.971528 0.752392
0.393357 0.971528 0.747945
0.637825 0.971528 0.759822
0.843607 0.971528 0.791443
0.989097 0.971528 0.791443
0.008301 0.018138 0.953807
0.236362 0.018138 0.953807
0.436487 0.018138 0.953807
0.626583 0.018138 0.953807
0.810389 0.018138 0.953807
0.989097 0.018138 0.953807
0.008301 0.196774 0.953807
0.177267 0.145258 0.953807
0.420784 0.145258 0.953807
0.619923 0.145258 0.953807
0.807885 0.145258 0.953807
0.989097 0.145258 0.953807
0.008301 0.385135 0.953807
0.177267 0.369732 0.953807
0.393357 0.343073 0.953807
0.609034 0.343073 0.953807
0.803817 0.343073 0.953807
0.989097 0.343073 0.953807
0.008301 0.578019 0.953807
0.177267 0.571096 0.953807
0.393357 0.559745 0.953807
0.637825 0.589753 0.953807
0.814769 0.589753 0.953807
0.989097 0.589753 0.953807
0.008301 0.773969 0.953807
0.177267 0.771189 0.953807
0.393357 0.766763 0.953807
0.637825 0.778643 0.953807
0.843607 0.810200 0.953807
0.989097 0.810200 0.953807
0.008301 0.971528 0.953807
0.177267 0.971528 0.953807
0.393357 0.971528 0.953807
0.637825 0.971528 0.953807
0.843607 0.971528 0.953807
0.989097 0.971528 0.953807
