src/luts/warm/1.cube
LUT_3D_SIZE 16
0.008301 0.018138 0.027702
0.065316 0.018138 0.027702
0.119576 0.018138 0.027702
0.177267 0.018138 0.027702
0.241824 0.018138 0.027702
0.314637 0.018138 0.027702
0.393357 0.018138 0.027702
0.475104 0.018138 0.027702
0.557425 0.018138 0.027702
0.637825 0.018138 0.027702
0.713831 0.018138 0.027702
0.783089 0.018138 0.027702
0.843607 0.018138 0.027702
0.896777 0.018138 0.027702
0.944683 0.018138 0.027702
0.989097 0.018138 0.027702
0.008301 0.055896 0.027702
0.065316 0.055896 0.027702
0.119576 0.057140 0.027702
0.177267 0.059225 0.027702
0.241824 0.062144 0.027702
0.314637 0.065661 0.027702
0.393357 0.069170 0.027702
0.475104 0.072306 0.027702
0.557425 0.074898 0.027702
0.637825 0.076859 0.027702
0.713831 0.078102 0.027702
0.783089 0.078611 0.027702
0.843607 0.078388 0.027702
0.896777 0.077654 0.027702
0.944683 0.076690 0.027702
0.989097 0.075672 0.027702
0.008301 0.097540 0.027702
0.067020 0.097540 0.027702
0.119576 0.097540 0.027702
0.177267 0.101809 0.027702
0.241824 0.107793 0.027702
0.314637 0.115012 0.027702
0.393357 0.122218 0.027702
0.475104 0.128652 0.027702
0.557425 0.133994 0.027702
0.637825 0.138010 0.027702
0.713831 0.140573 0.027702
0.783089 0.141623 0.027702
0.843607 0.141158 0.027702
0.896777 0.139645 0.027702
0.944683 0.137671 0.027702
0.989097 0.135571 0.027702
0.008301 0.145258 0.027702
0.069861 0.145258 0.027702
0.124882 0.145258 0.027702
0.177267 0.145258 0.027702
0.241824 0.154381 0.027702
0.314637 0.165411 0.027702
0.393357 0.176389 0.027702
0.475104 0.186220 0.027702
0.557425 0.194343 0.027702
0.637825 0.200483 0.027702
0.713831 0.204403 0.027702
0.783089 0.205987 0.027702
0.843607 0.205272 0.027702
0.896777 0.202979 0.027702
0.944683 0.199968 0.027702
0.989097 0.196774 0.027702
0.008301 0.201661 0.027702
0.073797 0.201661 0.027702
0.132276 0.201661 0.027702
0.187939 0.201661 0.027702
0.241824 0.201661 0.027702
0.314637 0.216538 0.027702
0.393357 0.231384 0.027702
0.475104 0.244628 0.027702
0.557425 0.255632 0.027702
0.637825 0.263910 0.027702
0.713831 0.269193 0.027702
0.783089 0.271350 0.027702
0.843607 0.270405 0.027702
0.896777 0.267283 0.027702
0.944683 0.263216 0.027702
0.989097 0.258878 0.027702
0.008301 0.268230 0.027702
0.078514 0.268230 0.027702
0.141120 0.268230 0.027702
0.200689 0.268230 0.027702
0.258366 0.268230 0.027702
0.314637 0.268230 0.027702
0.393357 0.286948 0.027702
0.475104 0.303664 0.027702
0.557425 0.317584 0.027702
0.637825 0.328040 0.027702
0.713831 0.334753 0.027702
0.783089 0.337417 0.027702
0.843607 0.336208 0.027702
0.896777 0.332301 0.027702
0.944683 0.327155 0.027702
0.989097 0.321707 0.027702
0.008301 0.343073 0.027702
0.083166 0.343073 0.027702
0.149853 0.343073 0.027702
0.213291 0.343073 0.027702
0.274710 0.343073 0.027702
0.334590 0.343073 0.027702
0.393357 0.343073 0.027702
0.475104 0.363356 0.027702
0.557425 0.380131 0.027702
0.637825 0.392769 0.027702
0.713831 0.400830 0.027702
0.783089 0.404146 0.027702
0.843607 0.402692 0.027702
0.896777 0.397911 0.027702
0.944683 0.391661 0.027702
0.989097 0.385135 0.027702
0.008301 0.423368 0.027702
0.087294 0.423368 0.027702
0.157586 0.423368 0.027702
0.224462 0.423368 0.027702
0.289161 0.423368 0.027702
0.352294 0.423368 0.027702
0.414227 0.423368 0.027702
0.475104 0.423368 0.027702
0.557425 0.443105 0.027702
0.637825 0.457969 0.027702
0.713831 0.467513 0.027702
0.783089 0.471363 0.027702
0.843607 0.469635 0.027702
0.896777 0.464042 0.027702
0.944683 0.456721 0.027702
0.989097 0.448958 0.027702
0.008301 0.506581 0.027702
0.090698 0.506581 0.027702
0.163955 0.506581 0.027702
0.233645 0.506581 0.027702
0.301088 0.506581 0.027702
0.366903 0.506581 0.027702
0.431373 0.506581 0.027702
0.494847 0.506581 0.027702
0.557425 0.506581 0.027702
0.637825 0.523680 0.027702
0.713831 0.534565 0.027702
0.783089 0.539053 0.027702
0.843607 0.537058 0.027702
0.896777 0.530665 0.027702
0.944683 0.522200 0.027702
0.989097 0.513301 0.027702
0.008301 0.589753 0.027702
0.093238 0.589753 0.027702
0.168707 0.589753 0.027702
0.240513 0.589753 0.027702
0.309987 0.589753 0.027702
0.377761 0.589753 0.027702
0.444251 0.589753 0.027702
0.509629 0.589753 0.027702
0.574131 0.589753 0.027702
0.637825 0.589753 0.027702
0.713831 0.602099 0.027702
0.783089 0.607184 0.027702
0.843607 0.604879 0.027702
0.896777 0.597613 0.027702
0.944683 0.588104 0.027702
0.989097 0.578019 0.027702
0.008301 0.669924 0.027702
0.094851 0.669924 0.027702
0.171742 0.669924 0.027702
0.244895 0.669924 0.027702
0.315667 0.669924 0.027702
0.384721 0.669924 0.027702
0.452424 0.669924 0.027702
0.519063 0.669924 0.027702
0.584694 0.669924 0.027702
0.649607 0.669924 0.027702
0.713831 0.669924 0.027702
0.783089 0.675522 0.027702
0.843607 0.672943 0.027702
0.896777 0.664879 0.027702
0.944683 0.654302 0.027702
0.989097 0.642999 0.027702
0.008301 0.744302 0.027702
0.095524 0.744302 0.027702
0.172989 0.744302 0.027702
0.246670 0.744302 0.027702
0.317975 0.744302 0.027702
0.387519 0.744302 0.027702
0.455775 0.744302 0.027702
0.522866 0.744302 0.027702
0.589028 0.744302 0.027702
0.654428 0.744302 0.027702
0.718967 0.744302 0.027702
0.783089 0.744302 0.027702
0.843607 0.741636 0.027702
0.896777 0.732576 0.027702
0.944683 0.720777 0.027702
0.989097 0.708412 0.027702
0.008301 0.810200 0.027702
0.095220 0.810200 0.027702
0.172439 0.810200 0.027702
0.245880 0.810200 0.027702
0.316958 0.810200 0.027702
0.386257 0.810200 0.027702
0.454296 0.810200 0.027702
0.521143 0.810200 0.027702
0.587122 0.810200 0.027702
0.652254 0.810200 0.027702
0.716600 0.810200 0.027702
0.780572 0.810200 0.027702
0.843607 0.810200 0.027702
0.896777 0.800419 0.027702
0.944683 0.787616 0.027702
0.989097 0.773969 0.027702
0.008301 0.868727 0.027702
0.094283 0.868727 0.027702
0.170654 0.868727 0.027702
0.243300 0.868727 0.027702
0.313647 0.868727 0.027702
0.382203 0.868727 0.027702
0.449475 0.868727 0.027702
0.515607 0.868727 0.027702
0.580900 0.868727 0.027702
0.645325 0.868727 0.027702
0.709058 0.868727 0.027702
0.772210 0.868727 0.027702
0.834663 0.868727 0.027702
0.896777 0.868727 0.027702
0.944683 0.854789 0.027702
0.989097 0.839988 0.027702
0.008301 0.921914 0.027702
0.093020 0.921914 0.027702
0.168323 0.921914 0.027702
0.239931 0.921914 0.027702
0.309244 0.921914 0.027702
0.376867 0.921914 0.027702
0.443145 0.921914 0.027702
0.508349 0.921914 0.027702
0.572685 0.921914 0.027702
0.636254 0.921914 0.027702
0.699079 0.921914 0.027702
0.761274 0.921914 0.027702
0.822905 0.921914 0.027702
0.884159 0.921914 0.027702
0.944683 0.921914 0.027702
0.989097 0.905892 0.027702
0.008301 0.971528 0.027702
0.091691 0.971528 0.027702
0.165829 0.971528 0.027702
0.236362 0.971528 0.027702
0.304583 0.971528 0.027702
0.371173 0.971528 0.027702
0.436487 0.971528 0.027702
0.500677 0.971528 0.027702
0.563985 0.971528 0.027702
0.626583 0.971528 0.027702
0.688440 0.971528 0.027702
0.749727 0.971528 0.027702
0.810389 0.971528 0.027702
0.870716 0.971528 0.027702
0.930304 0.971528 0.027702
0.989097 0.971528 0.027702
0.008301 0.018138 0.061379
0.065316 0.018138 0.061379
0.119576 0.018138 0.062502
0.177267 0.018138 0.064384
0.241824 0.018138 0.067015
0.314637 0.018138 0.070201
0.393357 0.018138 0.073382
0.475104 0.018138 0.076219
0.557425 0.018138 0.078578
0.637825 0.018138 0.080354
0.713831 0.018138 0.081490
0.783089 0.018138 0.081956
0.843607 0.018138 0.081748
0.896777 0.018138 0.081083
0.944683 0.018138 0.080205
0.989097 0.018138 0.079276
0.008301 0.055896 0.061379
0.065316 0.055896 0.061379
0.119576 0.055896 0.061379
0.177267 0.055896 0.061379
0.241824 0.055896 0.061379
0.314637 0.055896 0.061379
0.393357 0.055896 0.061379
0.475104 0.055896 0.061379
0.557425 0.055896 0.061379
0.637825 0.055896 0.061379
0.713831 0.055896 0.061379
0.783089 0.055896 0.061379
0.843607 0.055896 0.061379
0.896777 0.055896 0.061379
0.944683 0.055896 0.061379
0.989097 0.055896 0.061379
0.008301 0.097540 0.062502
0.065316 0.097540 0.061379
0.119576 0.097540 0.061379
0.177267 0.100976 0.061379
0.241824 0.105908 0.061379
0.314637 0.111960 0.061379
0.393357 0.118070 0.061379
0.475104 0.123569 0.061379
0.557425 0.128157 0.061379
0.637825 0.131624 0.061379
0.713831 0.133842 0.061379
0.783089 0.134731 0.061379
0.843607 0.134300 0.061379
0.896777 0.132967 0.061379
0.944683 0.131235 0.061379
0.989097 0.129396 0.061379
0.008301 0.145258 0.064384
0.065316 0.145258 0.061379
0.123852 0.145258 0.061379
0.177267 0.145258 0.061379
0.241824 0.153714 0.061379
0.314637 0.164020 0.061379
0.393357 0.174331 0.061379
0.475104 0.183569 0.061379
0.557425 0.191244 0.061379
0.637825 0.197075 0.061379
0.713831 0.200729 0.061379
0.783089 0.202208 0.061379
0.843607 0.201501 0.061379
0.896777 0.199301 0.061379
0.944683 0.196384 0.061379
0.989097 0.193337 0.061379
0.008301 0.201661 0.067015
0.065316 0.201661 0.061379
0.129963 0.201661 0.061379
0.187159 0.201661 0.061379
0.241824 0.201661 0.061379
0.314637 0.215983 0.061379
0.393357 0.230316 0.061379
0.475104 0.243121 0.061379
0.557425 0.253763 0.061379
0.637825 0.261780 0.061379
0.713831 0.266886 0.061379
0.783089 0.268925 0.061379
0.843607 0.267946 0.061379
0.896777 0.264878 0.061379
0.944683 0.260859 0.061379
0.989097 0.256620 0.061379
0.008301 0.268230 0.070201
0.065316 0.268230 0.061379
0.137389 0.268230 0.061379
0.199113 0.268230 0.061379
0.257769 0.268230 0.061379
0.314637 0.268230 0.061379
0.393357 0.286510 0.061379
0.475104 0.302863 0.061379
0.557425 0.316443 0.061379
0.637825 0.326676 0.061379
0.713831 0.333190 0.061379
0.783089 0.335799 0.061379
0.843607 0.334529 0.061379
0.896777 0.330597 0.061379
0.944683 0.325494 0.061379
0.989097 0.320067 0.061379
0.008301 0.343073 0.073382
0.065316 0.343073 0.061379
0.144830 0.343073 0.061379
0.210946 0.343073 0.061379
0.273556 0.343073 0.061379
0.334148 0.343073 0.061379
0.393357 0.343073 0.061379
0.475104 0.362931 0.061379
0.557425 0.379447 0.061379
0.637825 0.391865 0.061379
0.713831 0.399769 0.061379
0.783089 0.402969 0.061379
0.843607 0.401427 0.061379
0.896777 0.396690 0.061379
0.944683 0.390456 0.061379
0.989097 0.383903 0.061379
0.008301 0.423368 0.076219
0.065316 0.423368 0.061379
0.151488 0.423368 0.061379
0.221474 0.423368 0.061379
0.287534 0.423368 0.061379
0.351440 0.423368 0.061379
0.413878 0.423368 0.061379
0.475104 0.423368 0.061379
0.557425 0.442824 0.061379
0.637825 0.457474 0.061379
0.713831 0.466785 0.061379
0.783089 0.470536 0.061379
0.843607 0.468723 0.061379
0.896777 0.463125 0.061379
0.944683 0.455801 0.061379
0.989097 0.448049 0.061379
0.008301 0.506581 0.078578
0.065316 0.506581 0.061379
0.156978 0.506581 0.061379
0.230141 0.506581 0.061379
0.299058 0.506581 0.061379
0.365685 0.506581 0.061379
0.430694 0.506581 0.061379
0.494555 0.506581 0.061379
0.557425 0.506581 0.061379
0.637825 0.523427 0.061379
0.713831 0.534203 0.061379
0.783089 0.538488 0.061379
0.843607 0.536443 0.061379
0.896777 0.529959 0.061379
0.944683 0.521541 0.061379
0.989097 0.512543 0.061379
0.008301 0.589753 0.080354
0.065316 0.589753 0.061379
0.161132 0.589753 0.061379
0.236673 0.589753 0.061379
0.307714 0.589753 0.061379
0.376366 0.589753 0.061379
0.443338 0.589753 0.061379
0.509104 0.589753 0.061379
0.573885 0.589753 0.061379
0.637825 0.589753 0.061379
0.713831 0.601917 0.061379
0.783089 0.606757 0.061379
0.843607 0.604467 0.061379
0.896777 0.597114 0.061379
0.944683 0.587562 0.061379
0.989097 0.577449 0.061379
0.008301 0.669924 0.081490
0.065316 0.669924 0.061379
0.163782 0.669924 0.061379
0.240799 0.669924 0.061379
0.313203 0.669924 0.061379
0.383125 0.669924 0.061379
0.451345 0.669924 0.061379
0.518330 0.669924 0.061379
0.584334 0.669924 0.061379
0.649433 0.669924 0.061379
0.713831 0.669924 0.061379
0.783089 0.675406 0.061379
0.843607 0.672735 0.061379
0.896777 0.664556 0.061379
0.944683 0.653840 0.061379
0.989097 0.642587 0.061379
0.008301 0.744302 0.081956
0.065316 0.744302 0.061379
0.164840 0.744302 0.061379
0.242456 0.744302 0.061379
0.315382 0.744302 0.061379
0.385850 0.744302 0.061379
0.454564 0.744302 0.061379
0.522041 0.744302 0.061379
0.588517 0.744302 0.061379
0.654041 0.744302 0.061379
0.718918 0.744302 0.061379
0.783089 0.744302 0.061379
0.843607 0.741476 0.061379
0.896777 0.732427 0.061379
0.944683 0.720694 0.061379
0.989097 0.708175 0.061379
0.008301 0.810200 0.081748
0.065316 0.810200 0.061379
0.164322 0.810200 0.061379
0.241651 0.810200 0.061379
0.314322 0.810200 0.061379
0.384555 0.810200 0.061379
0.453043 0.810200 0.061379
0.520238 0.810200 0.061379
0.586523 0.810200 0.061379
0.651875 0.810200 0.061379
0.716449 0.810200 0.061379
0.780408 0.810200 0.061379
0.843607 0.810200 0.061379
0.896777 0.800289 0.061379
0.944683 0.787384 0.061379
0.989097 0.773691 0.061379
0.008301 0.868727 0.081083
0.065316 0.868727 0.061379
0.162733 0.868727 0.061379
0.239184 0.868727 0.061379
0.311030 0.868727 0.061379
0.380456 0.868727 0.061379
0.448228 0.868727 0.061379
0.514729 0.868727 0.061379
0.580216 0.868727 0.061379
0.644857 0.868727 0.061379
0.708818 0.868727 0.061379
0.772071 0.868727 0.061379
0.834560 0.868727 0.061379
0.896777 0.868727 0.061379
0.944683 0.854687 0.061379
0.989097 0.839805 0.061379
0.008301 0.921914 0.080205
0.065316 0.921914 0.061379
0.160659 0.921914 0.061379
0.235927 0.921914 0.061379
0.306728 0.921914 0.061379
0.375107 0.921914 0.061379
0.441901 0.921914 0.061379
0.507426 0.921914 0.061379
0.572055 0.921914 0.061379
0.635749 0.921914 0.061379
0.698619 0.921914 0.061379
0.761093 0.921914 0.061379
0.822663 0.921914 0.061379
0.884104 0.921914 0.061379
0.944683 0.921914 0.061379
0.989097 0.905867 0.061379
0.008301 0.971528 0.079276
0.065316 0.971528 0.061379
0.158465 0.971528 0.061379
0.232476 0.971528 0.061379
0.302139 0.971528 0.061379
0.369480 0.971528 0.061379
0.435241 0.971528 0.061379
0.499754 0.971528 0.061379
0.563278 0.971528 0.061379
0.626010 0.971528 0.061379
0.688045 0.971528 0.061379
0.749419 0.971528 0.061379
0.810222 0.971528 0.061379
0.870566 0.971528 0.061379
0.930352 0.971528 0.061379
0.989097 0.971528 0.061379
0.008301 0.018138 0.099249
0.067020 0.018138 0.099249
0.119576 0.018138 0.099249
0.177267 0.018138 0.103159
0.241824 0.018138 0.108659
0.314637 0.018138 0.115310
0.393357 0.018138 0.121967
0.475104 0.018138 0.127913
0.557425 0.018138 0.132866
0.637825 0.018138 0.136592
0.713831 0.018138 0.138973
0.783089 0.018138 0.139948
0.843607 0.018138 0.139511
0.896777 0.018138 0.138116
0.944683 0.018138 0.136276
0.989097 0.018138 0.134331
0.008301 0.057140 0.099249
0.065316 0.055896 0.099249
0.119576 0.055896 0.099249
0.177267 0.055896 0.102393
0.241824 0.055896 0.106931
0.314637 0.055896 0.112495
0.393357 0.055896 0.118131
0.475104 0.055896 0.123214
0.557425 0.055896 0.127445
0.637825 0.055896 0.130668
0.713831 0.055896 0.132726
0.783089 0.055896 0.133551
0.843607 0.055896 0.133147
0.896777 0.055896 0.131918
0.944683 0.055896 0.130311
0.989097 0.055896 0.128600
0.008301 0.097540 0.099249
0.065316 0.097540 0.099249
0.119576 0.097540 0.099249
0.177267 0.097540 0.099249
0.241824 0.097540 0.099249
0.314637 0.097540 0.099249
0.393357 0.097540 0.099249
0.475104 0.097540 0.099249
0.557425 0.097540 0.099249
0.637825 0.097540 0.099249
0.713831 0.097540 0.099249
0.783089 0.097540 0.099249
0.843607 0.097540 0.099249
0.896777 0.097540 0.099249
0.944683 0.097540 0.099249
0.989097 0.097540 0.099249
0.008301 0.145258 0.103159
0.065316 0.145258 0.102393
0.119576 0.145258 0.099249
0.177267 0.145258 0.099249
0.241824 0.150960 0.099249
0.314637 0.158077 0.099249
0.393357 0.165361 0.099249
0.475104 0.171975 0.099249
0.557425 0.177518 0.099249
0.637825 0.181732 0.099249
0.713831 0.184382 0.099249
0.783089 0.185398 0.099249
0.843607 0.184749 0.099249
0.896777 0.182972 0.099249
0.944683 0.180720 0.099249
0.989097 0.178319 0.099249
0.008301 0.201661 0.108659
0.065316 0.201661 0.106931
0.119576 0.201661 0.099249
0.183929 0.201661 0.099249
0.241824 0.201661 0.099249
0.314637 0.213701 0.099249
0.393357 0.225802 0.099249
0.475104 0.236699 0.099249
0.557425 0.245786 0.099249
0.637825 0.252618 0.099249
0.713831 0.256944 0.099249
0.783089 0.258558 0.099249
0.843607 0.257524 0.099249
0.896777 0.254645 0.099249
0.944683 0.250964 0.099249
0.989097 0.247115 0.099249
0.008301 0.268230 0.115310
0.065316 0.268230 0.112495
0.119576 0.268230 0.099249
0.192245 0.268230 0.099249
0.255229 0.268230 0.099249
0.314637 0.268230 0.099249
0.393357 0.284676 0.099249
0.475104 0.299348 0.099249
0.557425 0.311582 0.099249
0.637825 0.320800 0.099249
0.713831 0.326588 0.099249
0.783089 0.328771 0.099249
0.843607 0.327359 0.099249
0.896777 0.323512 0.099249
0.944683 0.318575 0.099249
0.989097 0.313385 0.099249
0.008301 0.343073 0.121967
0.065316 0.343073 0.118131
0.119576 0.343073 0.099249
0.200644 0.343073 0.099249
0.268582 0.343073 0.099249
0.332180 0.343073 0.099249
0.393357 0.343073 0.099249
0.475104 0.361445 0.099249
0.557425 0.376687 0.099249
0.637825 0.388141 0.099249
0.713831 0.395336 0.099249
0.783089 0.398063 0.099249
0.843607 0.396336 0.099249
0.896777 0.391545 0.099249
0.944683 0.385353 0.099249
0.989097 0.378935 0.099249
0.008301 0.423368 0.127913
0.065316 0.423368 0.123214
0.119576 0.423368 0.099249
0.208233 0.423368 0.099249
0.280542 0.423368 0.099249
0.347715 0.423368 0.099249
0.412299 0.423368 0.099249
0.475104 0.423368 0.099249
0.557425 0.441596 0.099249
0.637825 0.455276 0.099249
0.713831 0.463865 0.099249
0.783089 0.467104 0.099249
0.843607 0.465041 0.099249
0.896777 0.459307 0.099249
0.944683 0.451947 0.099249
0.989097 0.444249 0.099249
0.008301 0.506581 0.132866
0.065316 0.506581 0.127445
0.119576 0.506581 0.099249
0.214579 0.506581 0.099249
0.290428 0.506581 0.099249
0.360586 0.506581 0.099249
0.427920 0.506581 0.099249
0.493330 0.506581 0.099249
0.557425 0.506581 0.099249
0.637825 0.522445 0.099249
0.713831 0.532425 0.099249
0.783089 0.536219 0.099249
0.843607 0.533796 0.099249
0.896777 0.527140 0.099249
0.944683 0.518558 0.099249
0.989097 0.509633 0.099249
0.008301 0.589753 0.136592
0.065316 0.589753 0.130668
0.119576 0.589753 0.099249
0.219370 0.589753 0.099249
0.297835 0.589753 0.099249
0.370235 0.589753 0.099249
0.439552 0.589753 0.099249
0.506927 0.589753 0.099249
0.572930 0.589753 0.099249
0.637825 0.589753 0.099249
0.713831 0.601072 0.099249
0.783089 0.605408 0.099249
0.843607 0.602661 0.099249
0.896777 0.595069 0.099249
0.944683 0.585377 0.099249
0.989097 0.575197 0.099249
0.008301 0.669924 0.138973
0.065316 0.669924 0.132726
0.119576 0.669924 0.099249
0.222404 0.669924 0.099249
0.302504 0.669924 0.099249
0.376265 0.669924 0.099249
0.446832 0.669924 0.099249
0.515454 0.669924 0.099249
0.582607 0.669924 0.099249
0.648647 0.669924 0.099249
0.713831 0.669924 0.099249
0.783089 0.674728 0.099249
0.843607 0.671685 0.099249
0.896777 0.663152 0.099249
0.944683 0.652267 0.099249
0.989097 0.640870 0.099249
0.008301 0.744302 0.139948
0.065316 0.744302 0.133551
0.119576 0.744302 0.099249
0.223512 0.744302 0.099249
0.304235 0.744302 0.099249
0.378554 0.744302 0.099249
0.449613 0.744302 0.099249
0.518654 0.744302 0.099249
0.586273 0.744302 0.099249
0.652764 0.744302 0.099249
0.718325 0.744302 0.099249
0.783089 0.744302 0.099249
0.843607 0.740941 0.099249
0.896777 0.731537 0.099249
0.944683 0.719543 0.099249
0.989097 0.706834 0.099249
0.008301 0.810200 0.139511
0.065316 0.810200 0.133147
0.119576 0.810200 0.099249
0.222801 0.810200 0.099249
0.303147 0.810200 0.099249
0.377095 0.810200 0.099249
0.447866 0.810200 0.099249
0.516628 0.810200 0.099249
0.583922 0.810200 0.099249
0.650100 0.810200 0.099249
0.715438 0.810200 0.099249
0.779896 0.810200 0.099249
0.843607 0.810200 0.099249
0.896777 0.799958 0.099249
0.944683 0.786746 0.099249
0.989097 0.772792 0.099249
0.008301 0.868727 0.138116
0.065316 0.868727 0.131918
0.119576 0.868727 0.099249
0.220794 0.868727 0.099249
0.300024 0.868727 0.099249
0.373059 0.868727 0.099249
0.442968 0.868727 0.099249
0.510954 0.868727 0.099249
0.577505 0.868727 0.099249
0.642909 0.868727 0.099249
0.707449 0.868727 0.099249
0.771133 0.868727 0.099249
0.834247 0.868727 0.099249
0.896777 0.868727 0.099249
0.944683 0.854365 0.099249
0.989097 0.839219 0.099249
0.008301 0.921914 0.136276
0.065316 0.921914 0.130311
0.119576 0.921914 0.099249
0.218228 0.921914 0.099249
0.296053 0.921914 0.099249
0.367895 0.921914 0.099249
0.436736 0.921914 0.099249
0.503624 0.921914 0.099249
0.569161 0.921914 0.099249
0.633631 0.921914 0.099249
0.697117 0.921914 0.099249
0.760031 0.921914 0.099249
0.822143 0.921914 0.099249
0.883744 0.921914 0.099249
0.944683 0.921914 0.099249
0.989097 0.905583 0.099249
0.008301 0.971528 0.134331
0.065316 0.971528 0.128600
0.119576 0.971528 0.099249
0.215497 0.971528 0.099249
0.291872 0.971528 0.099249
0.362474 0.971528 0.099249
0.430144 0.971528 0.099249
0.495955 0.971528 0.099249
0.560440 0.971528 0.099249
0.623891 0.971528 0.099249
0.686434 0.971528 0.099249
0.748191 0.971528 0.099249
0.809316 0.971528 0.099249
0.869990 0.971528 0.099249
0.930080 0.971528 0.099249
0.989097 0.971528 0.099249
0.008301 0.018138 0.143331
0.069861 0.018138 0.143331
0.124882 0.018138 0.143331
0.177267 0.018138 0.143331
0.241824 0.018138 0.151823
0.314637 0.018138 0.162133
0.393357 0.018138 0.172405
0.475104 0.018138 0.181633
0.557425 0.018138 0.189279
0.637825 0.018138 0.195052
0.713831 0.018138 0.198743
0.783089 0.018138 0.200243
0.843607 0.018138 0.199574
0.896777 0.018138 0.197391
0.944683 0.018138 0.194561
0.989097 0.018138 0.191561
0.008301 0.059225 0.143331
0.065316 0.055896 0.143331
0.123852 0.055896 0.143331
0.177267 0.055896 0.143331
0.241824 0.055896 0.151208
0.314637 0.055896 0.160836
0.393357 0.055896 0.170471
0.475104 0.055896 0.179147
0.557425 0.055896 0.186355
0.637825 0.055896 0.191820
0.713831 0.055896 0.195304
0.783089 0.055896 0.196694
0.843607 0.055896 0.196000
0.896777 0.055896 0.193938
0.944683 0.055896 0.191203
0.989097 0.055896 0.188317
0.008301 0.101809 0.143331
0.065316 0.100976 0.143331
0.119576 0.097540 0.143331
0.177267 0.097540 0.143331
0.241824 0.097540 0.148637
0.314637 0.097540 0.155286
0.393357 0.097540 0.162078
0.475104 0.097540 0.168244
0.557425 0.097540 0.173460
0.637825 0.097540 0.177410
0.713831 0.097540 0.179911
0.783089 0.097540 0.180856
0.843607 0.097540 0.180254
0.896777 0.097540 0.178591
0.944683 0.097540 0.176455
0.989097 0.097540 0.174228
0.008301 0.145258 0.143331
0.065316 0.145258 0.143331
0.119576 0.145258 0.143331
0.177267 0.145258 0.143331
0.241824 0.145258 0.143331
0.314637 0.145258 0.143331
0.393357 0.145258 0.143331
0.475104 0.145258 0.143331
0.557425 0.145258 0.143331
0.637825 0.145258 0.143331
0.713831 0.145258 0.143331
0.783089 0.145258 0.143331
0.843607 0.145258 0.143331
0.896777 0.145258 0.143331
0.944683 0.145258 0.143331
0.989097 0.145258 0.143331
0.008301 0.201661 0.151823
0.065316 0.201661 0.151208
0.119576 0.201661 0.148637
0.177267 0.201661 0.143331
0.241824 0.201661 0.143331
0.314637 0.209070 0.143331
0.393357 0.216557 0.143331
0.475104 0.223444 0.143331
0.557425 0.229235 0.143331
0.637825 0.233614 0.143331
0.713831 0.236292 0.143331
0.783089 0.237168 0.143331
0.843607 0.236204 0.143331
0.896777 0.234011 0.143331
0.944683 0.231319 0.143331
0.989097 0.228540 0.143331
0.008301 0.268230 0.162133
0.065316 0.268230 0.160836
0.119576 0.268230 0.155286
0.177267 0.268230 0.143331
0.250084 0.268230 0.143331
0.314637 0.268230 0.143331
0.393357 0.280931 0.143331
0.475104 0.292372 0.143331
0.557425 0.301939 0.143331
0.637825 0.309096 0.143331
0.713831 0.313503 0.143331
0.783089 0.314886 0.143331
0.843607 0.313387 0.143331
0.896777 0.309784 0.143331
0.944683 0.305362 0.143331
0.989097 0.300797 0.143331
0.008301 0.343073 0.172405
0.065316 0.343073 0.170471
0.119576 0.343073 0.162078
0.177267 0.343073 0.143331
0.258415 0.343073 0.143331
0.328197 0.343073 0.143331
0.393357 0.343073 0.143331
0.475104 0.358448 0.143331
0.557425 0.371303 0.143331
0.637825 0.380838 0.143331
0.713831 0.386656 0.143331
0.783089 0.388576 0.143331
0.843607 0.386469 0.143331
0.896777 0.381737 0.143331
0.944683 0.375806 0.143331
0.989097 0.369732 0.143331
0.008301 0.423368 0.181633
0.065316 0.423368 0.179147
0.119576 0.423368 0.168244
0.177267 0.423368 0.143331
0.265990 0.423368 0.143331
0.340358 0.423368 0.143331
0.409211 0.423368 0.143331
0.475104 0.423368 0.143331
