src/luts/warm/10.cube
LUT_3D_SIZE 6
0.000000 0.000000 0.001242
0.130631 0.000000 0.001242
0.376459 0.000000 0.001242
0.670732 0.000000 0.001242
0.907738 0.000000 0.001242
1.000038 0.000000 0.001242
0.000000 0.059434 0.001242
0.130631 0.059434 0.001242
0.376459 0.107195 0.001242
0.670732 0.148741 0.001242
0.907738 0.162614 0.001242
1.000038 0.155949 0.001242
0.000000 0.239601 0.001242
0.206044 0.239601 0.001242
0.376459 0.239601 0.001242
0.670732 0.330985 0.001242
0.907738 0.361516 0.001242
1.000038 0.346868 0.001242
0.000000 0.526788 0.001242
0.263943 0.526788 0.001242
0.477562 0.526788 0.001242
0.670732 0.526788 0.001242
0.907738 0.575155 0.001242
1.000038 0.551849 0.001242
0.000000 0.798806 0.001242
0.282200 0.798806 0.001242
0.509512 0.798806 0.001242
0.714952 0.798806 0.001242
0.907738 0.798806 0.001242
1.000038 0.766562 0.001242
0.000000 0.987899 0.001242
0.273489 0.987899 0.001242
0.494266 0.987899 0.001242
0.693876 0.987899 0.001242
0.881043 0.987899 0.001242
1.000038 0.987899 0.001242
0.000000 0.000000 0.026091
0.130631 0.000000 0.026091
0.376459 0.000000 0.050219
0.670732 0.000000 0.073466
0.907738 0.000000 0.081630
1.000038 0.000000 0.077684
0.000000 0.059434 0.026091
0.130631 0.059434 0.026091
0.376459 0.059434 0.026091
0.670732 0.059434 0.026091
0.907738 0.059434 0.026091
1.000038 0.059434 0.026091
0.000000 0.239601 0.050219
0.130631 0.239601 0.026091
0.376459 0.239601 0.026091
0.670732 0.313475 0.026091
0.907738 0.336549 0.026091
1.000038 0.321210 0.026091
0.000000 0.526788 0.073466
0.130631 0.526788 0.026091
0.458874 0.526788 0.026091
0.670732 0.526788 0.026091
0.907738 0.566259 0.026091
1.000038 0.540014 0.026091
0.000000 0.798806 0.081630
0.130631 0.798806 0.026091
0.483473 0.798806 0.026091
0.706973 0.798806 0.026091
0.907738 0.798806 0.026091
1.000038 0.761696 0.026091
0.000000 0.987899 0.077684
0.130631 0.987899 0.026091
0.467182 0.987899 0.026091
0.683009 0.987899 0.026091
0.876919 0.987899 0.026091
1.000038 0.987899 0.026091
0.000000 0.000000 0.129873
0.206044 0.000000 0.129873
0.376459 0.000000 0.129873
0.670732 0.000000 0.192598
0.907738 0.000000 0.214672
1.000038 0.000000 0.203997
0.000000 0.107195 0.129873
0.130631 0.059434 0.129873
0.376459 0.059434 0.129873
0.670732 0.059434 0.180151
0.907738 0.059434 0.196581
1.000038 0.059434 0.185634
0.000000 0.239601 0.129873
0.130631 0.239601 0.129873
0.376459 0.239601 0.129873
0.670732 0.239601 0.129873
0.907738 0.239601 0.129873
1.000038 0.239601 0.129873
0.000000 0.526788 0.192598
0.130631 0.526788 0.180151
0.376459 0.526788 0.129873
0.670732 0.526788 0.129873
0.907738 0.537075 0.129873
1.000038 0.507479 0.129873
0.000000 0.798806 0.214672
0.130631 0.798806 0.196581
0.376459 0.798806 0.129873
0.680289 0.798806 0.129873
0.907738 0.798806 0.129873
1.000038 0.748846 0.129873
0.000000 0.987899 0.203997
0.130631 0.987899 0.185634
0.376459 0.987899 0.129873
0.652763 0.987899 0.129873
0.866237 0.987899 0.129873
1.000038 0.987899 0.129873
0.000000 0.000000 0.342189
0.263943 0.000000 0.342189
0.477562 0.000000 0.342189
0.670732 0.000000 0.342189
0.907738 0.000000 0.381813
1.000038 0.000000 0.362613
0.000000 0.148741 0.342189
0.130631 0.059434 0.342189
0.458874 0.059434 0.342189
0.670732 0.059434 0.342189
0.907738 0.059434 0.374451
1.000038 0.059434 0.352963
0.000000 0.330985 0.342189
0.130631 0.313475 0.342189
0.376459 0.239601 0.342189
0.670732 0.239601 0.342189
0.907738 0.239601 0.350570
1.000038 0.239601 0.326675
0.000000 0.526788 0.342189
0.130631 0.526788 0.342189
0.376459 0.526788 0.342189
0.670732 0.526788 0.342189
0.907738 0.526788 0.342189
1.000038 0.526788 0.342189
0.000000 0.798806 0.381813
0.130631 0.798806 0.374451
0.376459 0.798806 0.350570
0.670732 0.798806 0.342189
0.907738 0.798806 0.342189
1.000038 0.756468 0.342189
0.000000 0.987899 0.362613
0.130631 0.987899 0.352963
0.376459 0.987899 0.326675
0.670732 0.987899 0.342189
0.872606 0.987899 0.342189
1.000038 0.987899 0.342189
0.000000 0.000000 0.576105
0.282200 0.000000 0.576105
0.509512 0.000000 0.576105
0.714952 0.000000 0.576105
0.907738 0.000000 0.576105
1.000038 0.000000 0.547069
0.000000 0.162614 0.576105
0.130631 0.059434 0.576105
0.483473 0.059434 0.576105
0.706973 0.059434 0.576105
0.907738 0.059434 0.576105
1.000038 0.059434 0.542666
0.000000 0.361516 0.576105
0.130631 0.336549 0.576105
0.376459 0.239601 0.576105
0.680289 0.239601 0.576105
0.907738 0.239601 0.576105
1.000038 0.239601 0.531290
0.000000 0.575155 0.576105
0.130631 0.566259 0.576105
0.376459 0.537075 0.576105
0.670732 0.526788 0.576105
0.907738 0.526788 0.576105
1.000038 0.526788 0.538058
0.000000 0.798806 0.576105
0.130631 0.798806 0.576105
0.376459 0.798806 0.576105
0.670732 0.798806 0.576105
0.907738 0.798806 0.576105
1.000038 0.798806 0.576105
0.000000 0.987899 0.547069
0.130631 0.987899 0.542666
0.376459 0.987899 0.531290
0.670732 0.987899 0.538058
0.907738 0.987899 0.576105
1.000038 0.987899 0.576105
0.000000 0.000000 0.752726
0.273489 0.000000 0.752726
0.494266 0.000000 0.752726
0.693876 0.000000 0.752726
0.881043 0.000000 0.752726
1.000038 0.000000 0.752726
0.000000 0.155949 0.752726
0.130631 0.059434 0.752726
0.467182 0.059434 0.752726
0.683009 0.059434 0.752726
0.876919 0.059434 0.752726
1.000038 0.059434 0.752726
0.000000 0.346868 0.752726
0.130631 0.321210 0.752726
0.376459 0.239601 0.752726
0.652763 0.239601 0.752726
0.866237 0.239601 0.752726
1.000038 0.239601 0.752726
0.000000 0.551849 0.752726
0.130631 0.540014 0.752726
0.376459 0.507479 0.752726
0.670732 0.526788 0.752726
0.872606 0.526788 0.752726
1.000038 0.526788 0.752726
0.000000 0.766562 0.752726
0.130631 0.761696 0.752726
0.376459 0.748846 0.752726
0.670732 0.756468 0.752726
0.907738 0.798806 0.752726
1.000038 0.798806 0.752726
0.000000 0.987899 0.752726
0.130631 0.987899 0.752726
0.376459 0.987899 0.752726
0.670732 0.987899 0.752726
0.907738 0.987899 0.752726
1.000038 0.987899 0.752726
