src/luts/warm/10.cube
LUT_3D_SIZE 16
0.000000 0.000000 0.001242
0.038135 0.000000 0.001242
0.078846 0.000000 0.001242
0.130631 0.000000 0.001242
0.198806 0.000000 0.001242
0.282606 0.000000 0.001242
0.376459 0.000000 0.001242
0.475077 0.000000 0.001242
0.574448 0.000000 0.001242
0.670732 0.000000 0.001242
0.760433 0.000000 0.001242
0.840324 0.000000 0.001242
0.907738 0.000000 0.001242
0.958796 0.000000 0.001242
0.988576 0.000000 0.001242
1.000038 0.000000 0.001242
0.000000 0.012147 0.001242
0.038135 0.012147 0.001242
0.078846 0.013628 0.001242
0.130631 0.016167 0.001242
0.198806 0.019828 0.001242
0.282606 0.024432 0.001242
0.376459 0.029234 0.001242
0.475077 0.033721 0.001242
0.574448 0.037636 0.001242
0.670732 0.040785 0.001242
0.760433 0.043043 0.001242
0.840324 0.044341 0.001242
0.907738 0.044672 0.001242
0.958796 0.044313 0.001242
0.988576 0.043616 0.001242
1.000038 0.042798 0.001242
0.000000 0.030987 0.001242
0.041698 0.030987 0.001242
0.078846 0.030987 0.001242
0.130631 0.036760 0.001242
0.198806 0.045080 0.001242
0.282606 0.055548 0.001242
0.376459 0.066470 0.001242
0.475077 0.076677 0.001242
0.574448 0.085534 0.001242
0.670732 0.092630 0.001242
0.760433 0.097720 0.001242
0.840324 0.100637 0.001242
0.907738 0.101377 0.001242
0.958796 0.100578 0.001242
0.988576 0.099005 0.001242
1.000038 0.097177 0.001242
0.000000 0.059434 0.001242
0.047607 0.059434 0.001242
0.090007 0.059434 0.001242
0.130631 0.059434 0.001242
0.198806 0.072888 0.001242
0.282606 0.089749 0.001242
0.376459 0.107195 0.001242
0.475077 0.123410 0.001242
0.574448 0.137471 0.001242
0.670732 0.148741 0.001242
0.760433 0.156806 0.001242
0.840324 0.161435 0.001242
0.907738 0.162614 0.001242
0.958796 0.161338 0.001242
0.988576 0.158855 0.001242
1.000038 0.155949 0.001242
0.000000 0.102294 0.001242
0.055768 0.102294 0.001242
0.105440 0.102294 0.001242
0.153027 0.102294 0.001242
0.198806 0.102294 0.001242
0.282606 0.125705 0.001242
0.376459 0.149919 0.001242
0.475077 0.172399 0.001242
0.574448 0.191918 0.001242
0.670732 0.207528 0.001242
0.760433 0.218726 0.001242
0.840324 0.225157 0.001242
0.907738 0.226801 0.001242
0.958796 0.225033 0.001242
0.988576 0.221576 0.001242
1.000038 0.217538 0.001242
0.000000 0.162926 0.001242
0.065573 0.162926 0.001242
0.123965 0.162926 0.001242
0.179808 0.162926 0.001242
0.232516 0.162926 0.001242
0.282606 0.162926 0.001242
0.376459 0.194138 0.001242
0.475077 0.223158 0.001242
0.574448 0.248260 0.001242
0.670732 0.268416 0.001242
0.760433 0.282868 0.001242
0.840324 0.291134 0.001242
0.907738 0.293248 0.001242
0.958796 0.290971 0.001242
0.988576 0.286491 0.001242
1.000038 0.281300 0.001242
0.000000 0.239601 0.001242
0.075361 0.239601 0.001242
0.142480 0.239601 0.001242
0.206044 0.239601 0.001242
0.265503 0.239601 0.001242
0.322067 0.239601 0.001242
0.376459 0.239601 0.001242
0.475077 0.275280 0.001242
0.574448 0.306223 0.001242
0.670732 0.330985 0.001242
0.760433 0.348774 0.001242
0.840324 0.358945 0.001242
0.907738 0.361516 0.001242
0.958796 0.358709 0.001242
0.988576 0.353234 0.001242
1.000038 0.346868 0.001242
0.000000 0.328647 0.001242
0.084184 0.328647 0.001242
0.159169 0.328647 0.001242
0.229315 0.328647 0.001242
0.294781 0.328647 0.001242
0.357137 0.328647 0.001242
0.417063 0.328647 0.001242
0.475077 0.328647 0.001242
0.574448 0.365488 0.001242
0.670732 0.394986 0.001242
0.760433 0.416144 0.001242
0.840324 0.428308 0.001242
0.907738 0.431366 0.001242
0.958796 0.428023 0.001242
0.988576 0.421471 0.001242
1.000038 0.413857 0.001242
0.000000 0.425959 0.001242
0.091672 0.425959 0.001242
0.173253 0.425959 0.001242
0.248768 0.425959 0.001242
0.319332 0.425959 0.001242
0.386482 0.425959 0.001242
0.451052 0.425959 0.001242
0.513565 0.425959 0.001242
0.574448 0.425959 0.001242
0.670732 0.460317 0.001242
0.760433 0.484941 0.001242
0.840324 0.499075 0.001242
0.907738 0.502647 0.001242
0.958796 0.498772 0.001242
0.988576 0.491170 0.001242
1.000038 0.482275 0.001242
0.000000 0.526788 0.001242
0.097558 0.526788 0.001242
0.184226 0.526788 0.001242
0.263943 0.526788 0.001242
0.338462 0.526788 0.001242
0.409386 0.526788 0.001242
0.477562 0.526788 0.001242
0.543609 0.526788 0.001242
0.607914 0.526788 0.001242
0.670732 0.526788 0.001242
0.760433 0.554923 0.001242
0.840324 0.571084 0.001242
0.907738 0.575155 0.001242
0.958796 0.570710 0.001242
0.988576 0.562025 0.001242
1.000038 0.551849 0.001242
0.000000 0.625869 0.001242
0.101719 0.625869 0.001242
0.191972 0.625869 0.001242
0.274627 0.625869 0.001242
0.351916 0.625869 0.001242
0.425464 0.625869 0.001242
0.496233 0.625869 0.001242
0.564766 0.625869 0.001242
0.631495 0.625869 0.001242
0.696590 0.625869 0.001242
0.760433 0.625869 0.001242
0.840324 0.644086 0.001242
0.907738 0.648710 0.001242
0.958796 0.643699 0.001242
0.988576 0.633905 0.001242
1.000038 0.622464 0.001242
0.000000 0.718241 0.001242
0.104096 0.718241 0.001242
0.196329 0.718241 0.001242
0.280691 0.718241 0.001242
0.359523 0.718241 0.001242
0.434620 0.718241 0.001242
0.506840 0.718241 0.001242
0.576794 0.718241 0.001242
0.644863 0.718241 0.001242
0.711388 0.718241 0.001242
0.776414 0.718241 0.001242
0.840324 0.718241 0.001242
0.907738 0.723439 0.001242
0.958796 0.717808 0.001242
0.988576 0.706886 0.001242
1.000038 0.694137 0.001242
0.000000 0.798806 0.001242
0.104693 0.798806 0.001242
0.197426 0.798806 0.001242
0.282200 0.798806 0.001242
0.361454 0.798806 0.001242
0.436910 0.798806 0.001242
0.509512 0.798806 0.001242
0.579774 0.798806 0.001242
0.648212 0.798806 0.001242
0.714952 0.798806 0.001242
0.780474 0.798806 0.001242
0.844735 0.798806 0.001242
0.907738 0.798806 0.001242
0.958796 0.792566 0.001242
0.988576 0.780581 0.001242
1.000038 0.766562 0.001242
0.000000 0.868514 0.001242
0.104041 0.868514 0.001242
0.196253 0.868514 0.001242
0.280529 0.868514 0.001242
0.359367 0.868514 0.001242
0.434409 0.868514 0.001242
0.506586 0.868514 0.001242
0.576497 0.868514 0.001242
0.644573 0.868514 0.001242
0.710958 0.868514 0.001242
0.776106 0.868514 0.001242
0.839956 0.868514 0.001242
0.902610 0.868514 0.001242
0.958796 0.868514 0.001242
0.988576 0.855224 0.001242
1.000038 0.839980 0.001242
0.000000 0.930553 0.001242
0.102766 0.930553 0.001242
0.193877 0.930553 0.001242
0.277288 0.930553 0.001242
0.355265 0.930553 0.001242
0.429477 0.930553 0.001242
0.500923 0.930553 0.001242
0.570040 0.930553 0.001242
0.637377 0.930553 0.001242
0.703170 0.930553 0.001242
0.767454 0.930553 0.001242
0.830656 0.930553 0.001242
0.892661 0.930553 0.001242
0.950473 0.930553 0.001242
0.988576 0.930553 0.001242
1.000038 0.913818 0.001242
0.000000 0.987899 0.001242
0.101279 0.987899 0.001242
0.191133 0.987899 0.001242
0.273489 0.987899 0.001242
0.350465 0.987899 0.001242
0.423744 0.987899 0.001242
0.494266 0.987899 0.001242
0.562502 0.987899 0.001242
0.628954 0.987899 0.001242
0.693876 0.987899 0.001242
0.757341 0.987899 0.001242
0.819709 0.987899 0.001242
0.881043 0.987899 0.001242
0.939932 0.987899 0.001242
0.982071 0.987899 0.001242
1.000038 0.987899 0.001242
0.000000 0.000000 0.005734
0.038135 0.000000 0.005734
0.078846 0.000000 0.006296
0.130631 0.000000 0.007273
0.198806 0.000000 0.008713
0.282606 0.000000 0.010571
0.376459 0.000000 0.012564
0.475077 0.000000 0.014468
0.574448 0.000000 0.016163
0.670732 0.000000 0.017547
0.760433 0.000000 0.018552
0.840324 0.000000 0.019134
0.907738 0.000000 0.019283
0.958796 0.000000 0.019121
0.988576 0.000000 0.018808
1.000038 0.000000 0.018443
0.000000 0.012147 0.005734
0.038135 0.012147 0.005734
0.078846 0.012147 0.005734
0.130631 0.012147 0.005734
0.198806 0.012147 0.005734
0.282606 0.012147 0.005734
0.376459 0.012147 0.005734
0.475077 0.012147 0.005734
0.574448 0.012147 0.005734
0.670732 0.012147 0.005734
0.760433 0.012147 0.005734
0.840324 0.012147 0.005734
0.907738 0.012147 0.005734
0.958796 0.012147 0.005734
0.988576 0.012147 0.005734
1.000038 0.012147 0.005734
0.000000 0.030987 0.006296
0.038135 0.030987 0.005734
0.078846 0.030987 0.005734
0.130631 0.035736 0.005734
0.198806 0.042790 0.005734
0.282606 0.051847 0.005734
0.376459 0.061407 0.005734
0.475077 0.070400 0.005734
0.574448 0.078254 0.005734
0.670732 0.084574 0.005734
0.760433 0.089088 0.005734
0.840324 0.091689 0.005734
0.907738 0.092328 0.005734
0.958796 0.091598 0.005734
0.988576 0.090156 0.005734
1.000038 0.088505 0.005734
0.000000 0.059434 0.007273
0.038135 0.059434 0.005734
0.088050 0.059434 0.005734
0.130631 0.059434 0.005734
0.198806 0.072041 0.005734
0.282606 0.088006 0.005734
0.376459 0.104608 0.005734
0.475077 0.120076 0.005734
0.574448 0.133503 0.005734
0.670732 0.144276 0.005734
0.760433 0.151983 0.005734
0.840324 0.156385 0.005734
0.907738 0.157491 0.005734
0.958796 0.156222 0.005734
0.988576 0.153792 0.005734
1.000038 0.150981 0.005734
0.000000 0.102294 0.008713
0.038135 0.102294 0.005734
0.101259 0.102294 0.005734
0.151655 0.102294 0.005734
0.198806 0.102294 0.005734
0.282606 0.125001 0.005734
0.376459 0.148551 0.005734
0.475077 0.170452 0.005734
0.574448 0.189478 0.005734
0.670732 0.204706 0.005734
0.760433 0.215596 0.005734
0.840324 0.221846 0.005734
0.907738 0.223387 0.005734
0.958796 0.221608 0.005734
0.988576 0.218188 0.005734
1.000038 0.214185 0.005734
0.000000 0.162926 0.010571
0.038135 0.162926 0.005734
0.117519 0.162926 0.005734
0.177107 0.162926 0.005734
0.231538 0.162926 0.005734
0.282606 0.162926 0.005734
0.376459 0.193549 0.005734
0.475077 0.222044 0.005734
0.574448 0.246757 0.005734
0.670732 0.266544 0.005734
0.760433 0.280685 0.005734
0.840324 0.288813 0.005734
0.907738 0.290808 0.005734
0.958796 0.288501 0.005734
0.988576 0.284048 0.005734
1.000038 0.278876 0.005734
0.000000 0.239601 0.012564
0.038135 0.239601 0.005734
0.133988 0.239601 0.005734
0.202214 0.239601 0.005734
0.263694 0.239601 0.005734
0.321342 0.239601 0.005734
0.376459 0.239601 0.005734
0.475077 0.274810 0.005734
0.574448 0.305334 0.005734
0.670732 0.329773 0.005734
0.760433 0.347287 0.005734
0.840324 0.357262 0.005734
0.907738 0.359740 0.005734
0.958796 0.356920 0.005734
0.988576 0.351386 0.005734
1.000038 0.344973 0.005734
0.000000 0.328647 0.014468
0.038135 0.328647 0.005734
0.148969 0.328647 0.005734
0.224589 0.328647 0.005734
0.292307 0.328647 0.005734
0.355796 0.328647 0.005734
0.416498 0.328647 0.005734
0.475077 0.328647 0.005734
0.574448 0.365035 0.005734
0.670732 0.394251 0.005734
0.760433 0.415168 0.005734
0.840324 0.427140 0.005734
0.907738 0.430073 0.005734
0.958796 0.426658 0.005734
0.988576 0.420083 0.005734
1.000038 0.412477 0.005734
0.000000 0.425959 0.016163
0.038135 0.425959 0.005734
0.161721 0.425959 0.005734
0.243336 0.425959 0.005734
0.316281 0.425959 0.005734
0.384729 0.425959 0.005734
0.450084 0.425959 0.005734
0.513152 0.425959 0.005734
0.574448 0.425959 0.005734
0.670732 0.460003 0.005734
0.760433 0.484340 0.005734
0.840324 0.498250 0.005734
0.907738 0.501699 0.005734
0.958796 0.497746 0.005734
0.988576 0.490070 0.005734
1.000038 0.481166 0.005734
0.000000 0.526788 0.017547
0.038135 0.526788 0.005734
0.171746 0.526788 0.005734
0.257967 0.526788 0.005734
0.334991 0.526788 0.005734
0.407233 0.526788 0.005734
0.476275 0.526788 0.005734
0.542901 0.526788 0.005734
0.607616 0.526788 0.005734
0.670732 0.526788 0.005734
0.760433 0.554603 0.005734
0.840324 0.570563 0.005734
0.907738 0.574510 0.005734
0.958796 0.569942 0.005734
0.988576 0.561135 0.005734
1.000038 0.550950 0.005734
0.000000 0.625869 0.018552
0.038135 0.625869 0.005734
0.178796 0.625869 0.005734
0.268249 0.625869 0.005734
0.348160 0.625869 0.005734
0.423065 0.625869 0.005734
0.494709 0.625869 0.005734
0.563772 0.625869 0.005734
0.630904 0.625869 0.005734
0.696374 0.625869 0.005734
0.760433 0.625869 0.005734
0.840324 0.643876 0.005734
0.907738 0.648365 0.005734
0.958796 0.643123 0.005734
0.988576 0.633300 0.005734
1.000038 0.621781 0.005734
0.000000 0.718241 0.019134
0.038135 0.718241 0.005734
0.182799 0.718241 0.005734
0.274069 0.718241 0.005734
0.355580 0.718241 0.005734
0.432032 0.718241 0.005734
0.505087 0.718241 0.005734
0.575598 0.718241 0.005734
0.644064 0.718241 0.005734
0.710960 0.718241 0.005734
0.776150 0.718241 0.005734
0.840324 0.718241 0.005734
0.907738 0.723153 0.005734
0.958796 0.717441 0.005734
0.988576 0.706275 0.005734
1.000038 0.693570 0.005734
0.000000 0.798806 0.019283
0.038135 0.798806 0.005734
0.183778 0.798806 0.005734
0.275488 0.798806 0.005734
0.357443 0.798806 0.005734
0.434245 0.798806 0.005734
0.507689 0.798806 0.005734
0.578504 0.798806 0.005734
0.647307 0.798806 0.005734
0.714473 0.798806 0.005734
0.780121 0.798806 0.005734
0.844500 0.798806 0.005734
0.907738 0.798806 0.005734
0.958796 0.792402 0.005734
0.988576 0.780249 0.005734
1.000038 0.766085 0.005734
0.000000 0.868514 0.019121
0.038135 0.868514 0.005734
0.182640 0.868514 0.005734
0.273859 0.868514 0.005734
0.355301 0.868514 0.005734
0.431689 0.868514 0.005734
0.504681 0.868514 0.005734
0.575149 0.868514 0.005734
0.643627 0.868514 0.005734
0.710356 0.868514 0.005734
0.775576 0.868514 0.005734
0.839715 0.868514 0.005734
0.902521 0.868514 0.005734
0.958796 0.868514 0.005734
0.988576 0.855175 0.005734
1.000038 0.839651 0.005734
0.000000 0.930553 0.018808
0.038135 0.930553 0.005734
0.180460 0.930553 0.005734
0.270656 0.930553 0.005734
0.351243 0.930553 0.005734
0.426792 0.930553 0.005734
0.498976 0.930553 0.005734
0.568658 0.930553 0.005734
0.636367 0.930553 0.005734
0.702359 0.930553 0.005734
0.766923 0.930553 0.005734
0.830110 0.930553 0.005734
0.892414 0.930553 0.005734
0.950438 0.930553 0.005734
0.988576 0.930553 0.005734
1.000038 0.913723 0.005734
0.000000 0.987899 0.018443
0.038135 0.987899 0.005734
0.177899 0.987899 0.005734
0.266932 0.987899 0.005734
0.346455 0.987899 0.005734
0.421051 0.987899 0.005734
0.492284 0.987899 0.005734
0.561091 0.987899 0.005734
0.627894 0.987899 0.005734
0.693081 0.987899 0.005734
0.756708 0.987899 0.005734
0.819326 0.987899 0.005734
0.880637 0.987899 0.005734
0.939750 0.987899 0.005734
0.982024 0.987899 0.005734
1.000038 0.987899 0.005734
0.000000 0.000000 0.013303
0.041698 0.000000 0.013303
0.078846 0.000000 0.013303
0.130631 0.000000 0.015783
0.198806 0.000000 0.019466
0.282606 0.000000 0.024266
0.376459 0.000000 0.029449
0.475077 0.000000 0.034439
0.574448 0.000000 0.038890
0.670732 0.000000 0.042533
0.760433 0.000000 0.045187
0.840324 0.000000 0.046730
0.907738 0.000000 0.047121
0.958796 0.000000 0.046691
0.988576 0.000000 0.045867
1.000038 0.000000 0.044898
0.000000 0.013628 0.013303
0.038135 0.012147 0.013303
0.078846 0.012147 0.013303
0.130631 0.012147 0.015336
0.198806 0.012147 0.018439
0.282606 0.012147 0.022551
0.376459 0.012147 0.027025
0.475077 0.012147 0.031353
0.574448 0.012147 0.035226
0.670732 0.012147 0.038407
0.760433 0.012147 0.040711
0.840324 0.012147 0.042049
0.907738 0.012147 0.042377
0.958796 0.012147 0.041997
0.988576 0.012147 0.041259
1.000038 0.012147 0.040411
0.000000 0.030987 0.013303
0.038135 0.030987 0.013303
0.078846 0.030987 0.013303
0.130631 0.030987 0.013303
0.198806 0.030987 0.013303
0.282606 0.030987 0.013303
0.376459 0.030987 0.013303
0.475077 0.030987 0.013303
0.574448 0.030987 0.013303
0.670732 0.030987 0.013303
0.760433 0.030987 0.013303
0.840324 0.030987 0.013303
0.907738 0.030987 0.013303
0.958796 0.030987 0.013303
0.988576 0.030987 0.013303
1.000038 0.030987 0.013303
0.000000 0.059434 0.015783
0.038135 0.059434 0.015336
0.078846 0.059434 0.013303
0.130631 0.059434 0.013303
0.198806 0.068286 0.013303
0.282606 0.080018 0.013303
0.376459 0.092548 0.013303
0.475077 0.104424 0.013303
0.574448 0.114847 0.013303
0.670732 0.123226 0.013303
0.760433 0.129257 0.013303
0.840324 0.132639 0.013303
0.907738 0.133373 0.013303
0.958796 0.132239 0.013303
0.988576 0.130192 0.013303
1.000038 0.127860 0.013303
0.000000 0.102294 0.019466
0.038135 0.102294 0.018439
0.078846 0.102294 0.013303
0.145489 0.102294 0.013303
0.198806 0.102294 0.013303
0.282606 0.121894 0.013303
0.376459 0.142466 0.013303
0.475077 0.161758 0.013303
0.574448 0.178565 0.013303
0.670732 0.192055 0.013303
0.760433 0.201691 0.013303
0.840324 0.207122 0.013303
0.907738 0.208299 0.013303
0.958796 0.206497 0.013303
0.988576 0.203228 0.013303
1.000038 0.199466 0.013303
0.000000 0.162926 0.024266
0.038135 0.162926 0.022551
0.078846 0.162926 0.013303
0.164532 0.162926 0.013303
0.227156 0.162926 0.013303
0.282606 0.162926 0.013303
0.376459 0.191011 0.013303
0.475077 0.217225 0.013303
0.574448 0.240039 0.013303
0.670732 0.258310 0.013303
0.760433 0.271348 0.013303
0.840324 0.278700 0.013303
0.907738 0.280304 0.013303
0.958796 0.277872 0.013303
0.988576 0.273409 0.013303
1.000038 0.268368 0.013303
0.000000 0.239601 0.029449
0.038135 0.239601 0.027025
0.078846 0.239601 0.013303
0.184108 0.239601 0.013303
0.255538 0.239601 0.013303
0.318196 0.239601 0.013303
0.376459 0.239601 0.013303
0.475077 0.272691 0.013303
0.574448 0.301431 0.013303
0.670732 0.324486 0.013303
0.760433 0.340867 0.013303
0.840324 0.350093 0.013303
0.907738 0.352135 0.013303
0.958796 0.349041 0.013303
0.988576 0.343461 0.013303
1.000038 0.337094 0.013303
0.000000 0.328647 0.034439
0.038135 0.328647 0.031353
0.078846 0.328647 0.013303
0.201956 0.328647 0.013303
0.281074 0.328647 0.013303
0.350093 0.328647 0.013303
0.414144 0.328647 0.013303
0.475077 0.328647 0.013303
0.574448 0.363297 0.013303
0.670732 0.391124 0.013303
0.760433 0.410902 0.013303
0.840324 0.422076 0.013303
0.907738 0.424521 0.013303
0.958796 0.420774 0.013303
0.988576 0.414006 0.013303
1.000038 0.406344 0.013303
0.000000 0.425959 0.038890
0.038135 0.425959 0.035226
0.078846 0.425959 0.013303
0.217128 0.425959 0.013303
0.302622 0.425959 0.013303
0.376961 0.425959 0.013303
0.445852 0.425959 0.013303
0.511344 0.425959 0.013303
0.574448 0.425959 0.013303
0.670732 0.458564 0.013303
0.760433 0.481773 0.013303
0.840324 0.494853 0.013303
0.907738 0.497695 0.013303
0.958796 0.493334 0.013303
0.988576 0.485473 0.013303
1.000038 0.476396 0.013303
0.000000 0.526788 0.042533
0.038135 0.526788 0.038407
0.078846 0.526788 0.013303
0.229059 0.526788 0.013303
0.319504 0.526788 0.013303
0.397944 0.526788 0.013303
0.470657 0.526788 0.013303
0.539679 0.526788 0.013303
0.606255 0.526788 0.013303
0.670732 0.526788 0.013303
0.760433 0.553410 0.013303
0.840324 0.568464 0.013303
0.907738 0.571760 0.013303
0.958796 0.566715 0.013303
0.988576 0.557686 0.013303
1.000038 0.547292 0.013303
0.000000 0.625869 0.045187
0.038135 0.625869 0.040711
0.078846 0.625869 0.013303
0.237457 0.625869 0.013303
0.331315 0.625869 0.013303
0.412629 0.625869 0.013303
0.487959 0.625869 0.013303
0.559513 0.625869 0.013303
0.628459 0.625869 0.013303
0.695275 0.625869 0.013303
0.760433 0.625869 0.013303
0.840324 0.642902 0.013303
0.907738 0.646546 0.013303
0.958796 0.640983 0.013303
0.988576 0.630691 0.013303
1.000038 0.618901 0.013303
0.000000 0.718241 0.046730
0.038135 0.718241 0.042049
0.078846 0.718241 0.013303
0.242149 0.718241 0.013303
0.337933 0.718241 0.013303
0.420849 0.718241 0.013303
0.497634 0.718241 0.013303
0.570615 0.718241 0.013303
0.640873 0.718241 0.013303
0.708953 0.718241 0.013303
0.775389 0.718241 0.013303
0.840324 0.718241 0.013303
0.907738 0.722317 0.013303
0.958796 0.716084 0.013303
0.988576 0.704516 0.013303
1.000038 0.691542 0.013303
0.000000 0.798806 0.047121
0.038135 0.798806 0.042377
0.078846 0.798806 0.013303
0.243157 0.798806 0.013303
0.339357 0.798806 0.013303
0.422644 0.798806 0.013303
0.499759 0.798806 0.013303
0.573029 0.798806 0.013303
0.643587 0.798806 0.013303
0.712012 0.798806 0.013303
0.778574 0.798806 0.013303
0.843781 0.798806 0.013303
0.907738 0.798806 0.013303
0.958796 0.791748 0.013303
0.988576 0.779124 0.013303
1.000038 0.764598 0.013303
0.000000 0.868514 0.046691
0.038135 0.868514 0.041997
0.078846 0.868514 0.013303
0.241602 0.868514 0.013303
0.337171 0.868514 0.013303
0.419960 0.868514 0.013303
0.496545 0.868514 0.013303
0.569357 0.868514 0.013303
0.639431 0.868514 0.013303
0.707472 0.868514 0.013303
0.773622 0.868514 0.013303
0.838524 0.868514 0.013303
0.901946 0.868514 0.013303
0.958796 0.868514 0.013303
0.988576 0.854619 0.013303
1.000038 0.838704 0.013303
0.000000 0.930553 0.045867
0.038135 0.930553 0.041259
0.078846 0.930553 0.013303
0.238776 0.930553 0.013303
0.333197 0.930553 0.013303
0.414981 0.930553 0.013303
0.490718 0.930553 0.013303
0.562666 0.930553 0.013303
0.631970 0.930553 0.013303
0.699152 0.930553 0.013303
0.764640 0.930553 0.013303
0.828643 0.930553 0.013303
0.891469 0.930553 0.013303
0.950053 0.930553 0.013303
0.988576 0.930553 0.013303
1.000038 0.913310 0.013303
0.000000 0.987899 0.044898
0.038135 0.987899 0.040411
0.078846 0.987899 0.013303
0.235540 0.987899 0.013303
0.328621 0.987899 0.013303
0.409288 0.987899 0.013303
0.484031 0.987899 0.013303
0.555029 0.987899 0.013303
0.623323 0.987899 0.013303
0.689639 0.987899 0.013303
0.754257 0.987899 0.013303
0.817579 0.987899 0.013303
0.879353 0.987899 0.013303
0.939069 0.987899 0.013303
0.981863 0.987899 0.013303
1.000038 0.987899 0.013303
0.000000 0.000000 0.026091
0.047607 0.000000 0.026091
0.090007 0.000000 0.026091
0.130631 0.000000 0.026091
0.198806 0.000000 0.032568
0.282606 0.000000 0.041045
0.376459 0.000000 0.050219
0.475077 0.000000 0.059072
0.574448 0.000000 0.066983
0.670732 0.000000 0.073466
0.760433 0.000000 0.078190
0.840324 0.000000 0.080926
0.907738 0.000000 0.081630
0.958796 0.000000 0.080869
0.988576 0.000000 0.079391
1.000038 0.000000 0.077684
0.000000 0.016167 0.026091
0.038135 0.012147 0.026091
0.088050 0.012147 0.026091
0.130631 0.012147 0.026091
0.198806 0.012147 0.032156
0.282606 0.012147 0.040151
0.376459 0.012147 0.048833
0.475077 0.012147 0.057225
0.574448 0.012147 0.064728
0.670732 0.012147 0.070882
0.760433 0.012147 0.075356
0.840324 0.012147 0.077942
0.907738 0.012147 0.078586
0.958796 0.012147 0.077843
0.988576 0.012147 0.076412
1.000038 0.012147 0.074774
0.000000 0.036760 0.026091
0.038135 0.035736 0.026091
0.078846 0.030987 0.026091
0.130631 0.030987 0.026091
0.198806 0.030987 0.030327
0.282606 0.030987 0.036107
0.376459 0.030987 0.042491
0.475077 0.030987 0.048737
0.574448 0.030987 0.054356
0.670732 0.030987 0.058972
0.760433 0.030987 0.062330
0.840324 0.030987 0.064238
0.907738 0.030987 0.064655
0.958796 0.030987 0.064016
0.988576 0.030987 0.062864
1.000038 0.030987 0.061553
0.000000 0.059434 0.026091
0.038135 0.059434 0.026091
0.078846 0.059434 0.026091
0.130631 0.059434 0.026091
0.198806 0.059434 0.026091
0.282606 0.059434 0.026091
0.376459 0.059434 0.026091
0.475077 0.059434 0.026091
0.574448 0.059434 0.026091
0.670732 0.059434 0.026091
0.760433 0.059434 0.026091
0.840324 0.059434 0.026091
0.907738 0.059434 0.026091
0.958796 0.059434 0.026091
0.988577 0.059434 0.026091
1.000038 0.059434 0.026091
0.000000 0.102294 0.032568
0.038135 0.102294 0.032156
0.078846 0.102294 0.030327
0.130631 0.102294 0.026091
0.198806 0.102294 0.026091
0.282606 0.115031 0.026091
0.376459 0.128801 0.026091
0.475077 0.142054 0.026091
0.574448 0.153797 0.026091
0.670732 0.163317 0.026091
0.760433 0.170047 0.026091
0.840324 0.173763 0.026091
0.907738 0.174309 0.026091
0.958796 0.172675 0.026091
0.988577 0.169968 0.026091
1.000038 0.167006 0.026091
0.000000 0.162926 0.041045
0.038135 0.162926 0.040151
0.078846 0.162926 0.036107
0.130631 0.162926 0.026091
0.217392 0.162926 0.026091
0.282606 0.162926 0.026091
0.376459 0.185566 0.026091
0.475077 0.206976 0.026091
0.574448 0.225755 0.026091
0.670732 0.240835 0.026091
0.760433 0.251518 0.026091
0.840324 0.257351 0.026091
0.907738 0.258219 0.026091
0.958796 0.255643 0.026091
0.988577 0.251385 0.026091
1.000038 0.246674 0.026091
0.000000 0.239601 0.050219
0.038135 0.239601 0.048833
0.078846 0.239601 0.042491
0.130631 0.239601 0.026091
0.236828 0.239601 0.026091
0.311419 0.239601 0.026091
0.376459 0.239601 0.026091
0.475077 0.268299 0.026091
0.574448 0.293390 0.026091
0.670732 0.313475 0.026091
0.760433 0.327649 0.026091
0.840324 0.335414 0.026091
0.907738 0.336549 0.026091
0.958796 0.333143 0.026091
0.988577 0.327532 0.026091
1.000038 0.321210 0.026091
0.000000 0.328647 0.059072
0.038135 0.328647 0.057225
0.078846 0.328647 0.048737
0.130631 0.328647 0.026091
0.254983 0.328647 0.026091
0.337753 0.328647 0.026091
0.409215 0.328647 0.026091
0.475077 0.328647 0.026091
