src/luts/warm/2.cube
LUT_3D_SIZE 6
0.000000 0.000000 0.000000
0.133501 0.000000 0.000000
0.412148 0.000000 0.000000
0.745857 0.000000 0.000000
0.983804 0.000000 0.000000
1.000000 0.000000 0.000000
0.000000 0.092873 0.000000
0.133501 0.092873 0.000000
0.412148 0.134002 0.000000
0.745857 0.167707 0.000000
0.983804 0.177046 0.000000
1.000000 0.168184 0.000000
0.000000 0.344292 0.000000
0.184430 0.344292 0.000000
0.412148 0.344292 0.000000
0.745857 0.421711 0.000000
0.983804 0.443116 0.000000
1.000000 0.422847 0.000000
0.000000 0.702517 0.000000
0.223974 0.702517 0.000000
0.488279 0.702517 0.000000
0.745857 0.702517 0.000000
0.983804 0.737147 0.000000
1.000000 0.704295 0.000000
0.000000 0.980757 0.000000
0.234631 0.980757 0.000000
0.508880 0.980757 0.000000
0.775969 0.980757 0.000000
0.983804 0.980757 0.000000
1.000000 0.965222 0.000000
0.000000 1.000000 0.000000
0.224529 1.000000 0.000000
0.489372 1.000000 0.000000
0.747345 1.000000 0.000000
0.970753 1.000000 0.000000
1.000000 1.000000 0.000000
0.000000 0.000000 0.031270
0.133501 0.000000 0.031270
0.412148 0.000000 0.050765
0.745857 0.000000 0.068466
0.983804 0.000000 0.073611
1.000000 0.000000 0.068730
0.000000 0.092873 0.031270
0.133501 0.092873 0.031270
0.412148 0.092873 0.031270
0.745857 0.092873 0.031270
0.983804 0.092873 0.031270
1.000000 0.092873 0.031270
0.000000 0.344292 0.050765
0.133501 0.344292 0.031270
0.412148 0.344292 0.031270
0.745857 0.403726 0.031270
0.983804 0.417961 0.031270
1.000000 0.398029 0.031270
0.000000 0.702517 0.068466
0.133501 0.702517 0.031270
0.470873 0.702517 0.031270
0.745857 0.702517 0.031270
0.983804 0.727833 0.031270
1.000000 0.692428 0.031270
0.000000 0.980757 0.073611
0.133501 0.980757 0.031270
0.484701 0.980757 0.031270
0.767938 0.980757 0.031270
0.983804 0.980757 0.031270
1.000000 0.963221 0.031270
0.000000 1.000000 0.068730
0.133501 1.000000 0.031270
0.465285 1.000000 0.031270
0.736846 1.000000 0.031270
0.969035 1.000000 0.031270
1.000000 1.000000 0.031270
0.000000 0.000000 0.180302
0.184430 0.000000 0.180302
0.412148 0.000000 0.180302
0.745857 0.000000 0.237350
0.983804 0.000000 0.253852
1.000000 0.000000 0.238217
0.000000 0.134002 0.180302
0.133501 0.092873 0.180302
0.412148 0.092873 0.180302
0.745857 0.092873 0.223733
0.983804 0.092873 0.234515
1.000000 0.092873 0.219452
0.000000 0.344292 0.180302
0.133501 0.344292 0.180302
0.412148 0.344292 0.180302
0.745857 0.344292 0.180302
0.983804 0.344292 0.180302
1.000000 0.344292 0.180302
0.000000 0.702517 0.237350
0.133501 0.702517 0.223733
0.412148 0.702517 0.180302
0.745857 0.702517 0.180302
0.983804 0.703118 0.180302
1.000000 0.668581 0.180302
0.000000 0.980757 0.253852
0.133501 0.980757 0.234515
0.412148 0.980757 0.180302
0.746212 0.980757 0.180302
0.983804 0.980757 0.180302
1.000000 0.958889 0.180302
0.000000 1.000000 0.238217
0.133501 1.000000 0.219452
0.412148 1.000000 0.180302
0.715840 1.000000 0.180302
0.965297 1.000000 0.180302
1.000000 1.000000 0.180302
0.000000 0.000000 0.475253
0.223974 0.000000 0.475253
0.488279 0.000000 0.475253
0.745857 0.000000 0.475253
0.983804 0.000000 0.507438
1.000000 0.000000 0.476843
0.000000 0.167707 0.475253
0.133501 0.092873 0.475253
0.470873 0.092873 0.475253
0.745857 0.092873 0.475253
0.983804 0.092873 0.498729
1.000000 0.092873 0.465982
0.000000 0.421711 0.475253
0.133501 0.403726 0.475253
0.412148 0.344292 0.475253
0.745857 0.344292 0.475253
0.983804 0.344292 0.475750
1.000000 0.344292 0.444221
0.000000 0.702517 0.475253
0.133501 0.702517 0.475253
0.412148 0.702517 0.475253
0.745857 0.702517 0.475253
0.983804 0.702517 0.475253
1.000000 0.702517 0.475253
0.000000 0.980757 0.507438
0.133501 0.980757 0.498729
0.412148 0.980757 0.475750
0.745857 0.980757 0.475253
0.983804 0.980757 0.475253
1.000000 0.964931 0.475253
0.000000 1.000000 0.476843
0.133501 1.000000 0.465982
0.412148 1.000000 0.444221
0.745857 1.000000 0.475253
0.970458 1.000000 0.475253
1.000000 1.000000 0.475253
0.000000 0.000000 0.822485
0.234631 0.000000 0.822485
0.508880 0.000000 0.822485
0.775969 0.000000 0.822485
0.983804 0.000000 0.822485
1.000000 0.000000 0.773575
0.000000 0.177046 0.822485
0.133501 0.092873 0.822485
0.484701 0.092873 0.822485
0.767938 0.092873 0.822485
0.983804 0.092873 0.822485
1.000000 0.092873 0.768480
0.000000 0.443116 0.822485
0.133501 0.417961 0.822485
0.412148 0.344292 0.822485
0.746212 0.344292 0.822485
0.983804 0.344292 0.822485
1.000000 0.344292 0.758256
0.000000 0.737147 0.822485
0.133501 0.727833 0.822485
0.412148 0.703118 0.822485
0.745857 0.702517 0.822485
0.983804 0.702517 0.822485
1.000000 0.702517 0.772729
0.000000 0.980757 0.822485
0.133501 0.980757 0.822485
0.412148 0.980757 0.822485
0.745857 0.980757 0.822485
0.983804 0.980757 0.822485
1.000000 0.980757 0.822485
0.000000 1.000000 0.773575
0.133501 1.000000 0.768480
0.412148 1.000000 0.758256
0.745857 1.000000 0.772729
0.983804 1.000000 0.822485
1.000000 1.000000 0.822485
0.000000 0.000000 1.000038
0.224529 0.000000 1.000038
0.489372 0.000000 1.000038
0.747345 0.000000 1.000038
0.970753 0.000000 1.000038
1.000000 0.000000 1.000038
0.000000 0.168184 1.000038
0.133501 0.092873 1.000038
0.465285 0.092873 1.000038
0.736846 0.092873 1.000038
0.969035 0.092873 1.000038
1.000000 0.092873 1.000038
0.000000 0.422847 1.000038
0.133501 0.398029 1.000038
0.412148 0.344292 1.000038
0.715840 0.344292 1.000038
0.965297 0.344292 1.000038
1.000000 0.344292 1.000038
0.000000 0.704295 1.000038
0.133501 0.692428 1.000038
0.412148 0.668581 1.000038
0.745857 0.702517 1.000038
0.970458 0.702517 1.000038
1.000000 0.702517 1.000038
0.000000 0.965222 1.000038
0.133501 0.963221 1.000038
0.412148 0.958889 1.000038
0.745857 0.964931 1.000038
0.983804 0.980757 1.000038
1.000000 0.980757 1.000038
0.000000 1.000000 1.000038
0.133501 1.000000 1.000038
0.412148 1.000000 1.000038
0.745857 1.000000 1.000038
0.983804 1.000000 1.000038
1.000000 1.000000 1.000038
