src/luts/warm/2.cube
LUT_3D_SIZE 16
0.000000 0.000000 0.000000
0.025956 0.000000 0.000000
0.070563 0.000000 0.000000
0.133501 0.000000 0.000000
0.214364 0.000000 0.000000
0.308334 0.000000 0.000000
0.412148 0.000000 0.000000
0.521987 0.000000 0.000000
0.634428 0.000000 0.000000
0.745857 0.000000 0.000000
0.852380 0.000000 0.000000
0.943443 0.000000 0.000000
0.983804 0.000000 0.000000
0.996860 0.000000 0.000000
0.999819 0.000000 0.000000
1.000000 0.000000 0.000000
0.000000 0.014258 0.000000
0.025956 0.014258 0.000000
0.070563 0.015134 0.000000
0.133501 0.016644 0.000000
0.214364 0.018832 0.000000
0.308334 0.021578 0.000000
0.412148 0.024432 0.000000
0.521987 0.027100 0.000000
0.634428 0.029421 0.000000
0.745857 0.031264 0.000000
0.852380 0.032545 0.000000
0.943443 0.033204 0.000000
0.983804 0.033220 0.000000
0.996860 0.032769 0.000000
0.999819 0.032103 0.000000
1.000000 0.031365 0.000000
0.000000 0.044788 0.000000
0.027345 0.044788 0.000000
0.070563 0.044788 0.000000
0.133501 0.049254 0.000000
0.214364 0.055731 0.000000
0.308334 0.063858 0.000000
0.412148 0.072309 0.000000
0.521987 0.080212 0.000000
0.634428 0.087066 0.000000
0.745857 0.092515 0.000000
0.852380 0.096241 0.000000
0.943443 0.098140 0.000000
0.983804 0.098205 0.000000
0.996860 0.096899 0.000000
0.999819 0.094945 0.000000
1.000000 0.092796 0.000000
0.000000 0.092873 0.000000
0.029716 0.092873 0.000000
0.076680 0.092873 0.000000
0.133501 0.092873 0.000000
0.214364 0.104807 0.000000
0.308334 0.119331 0.000000
0.412148 0.134002 0.000000
0.521987 0.147417 0.000000
0.634428 0.158792 0.000000
0.745857 0.167707 0.000000
0.852380 0.173803 0.000000
0.943443 0.176916 0.000000
0.983804 0.177046 0.000000
0.996860 0.174890 0.000000
0.999819 0.171701 0.000000
1.000000 0.168184 0.000000
0.000000 0.159390 0.000000
0.033100 0.159390 0.000000
0.085422 0.159390 0.000000
0.148631 0.159390 0.000000
0.214364 0.159390 0.000000
0.308334 0.180010 0.000000
0.412148 0.200805 0.000000
0.521987 0.219764 0.000000
0.634428 0.235863 0.000000
0.745857 0.248493 0.000000
0.852380 0.257118 0.000000
0.943443 0.261535 0.000000
0.983804 0.261666 0.000000
0.996860 0.258637 0.000000
0.999819 0.254143 0.000000
1.000000 0.249146 0.000000
0.000000 0.243927 0.000000
0.037281 0.243927 0.000000
0.096210 0.243927 0.000000
0.166663 0.243927 0.000000
0.237999 0.243927 0.000000
0.308334 0.243927 0.000000
0.412148 0.271121 0.000000
0.521987 0.295882 0.000000
0.634428 0.316962 0.000000
0.745857 0.333405 0.000000
0.852380 0.344720 0.000000
0.943443 0.350465 0.000000
0.983804 0.350628 0.000000
0.996860 0.346677 0.000000
0.999819 0.340775 0.000000
1.000000 0.334280 0.000000
0.000000 0.344292 0.000000
0.041553 0.344292 0.000000
0.107239 0.344292 0.000000
0.184430 0.344292 0.000000
0.261336 0.344292 0.000000
0.337144 0.344292 0.000000
0.412148 0.344292 0.000000
0.521987 0.375105 0.000000
0.634428 0.401233 0.000000
0.745857 0.421711 0.000000
0.852380 0.435734 0.000000
0.943443 0.442886 0.000000
0.983804 0.443116 0.000000
0.996860 0.438193 0.000000
0.999819 0.430882 0.000000
1.000000 0.422847 0.000000
0.000000 0.456863 0.000000
0.045497 0.456863 0.000000
0.117417 0.456863 0.000000
0.200378 0.456863 0.000000
0.282194 0.456863 0.000000
0.362880 0.456863 0.000000
0.442830 0.456863 0.000000
0.521987 0.456863 0.000000
0.634428 0.488341 0.000000
0.745857 0.512900 0.000000
0.852380 0.529742 0.000000
0.943443 0.538284 0.000000
0.983804 0.538546 0.000000
0.996860 0.532688 0.000000
0.999819 0.523909 0.000000
1.000000 0.514195 0.000000
0.000000 0.577836 0.000000
0.048883 0.577836 0.000000
0.126144 0.577836 0.000000
0.213669 0.577836 0.000000
0.299674 0.577836 0.000000
0.384545 0.577836 0.000000
0.468436 0.577836 0.000000
0.551741 0.577836 0.000000
0.634428 0.577836 0.000000
0.745857 0.606632 0.000000
0.852380 0.626381 0.000000
0.943443 0.636433 0.000000
0.983804 0.636685 0.000000
0.996860 0.629739 0.000000
0.999819 0.619502 0.000000
1.000000 0.608111 0.000000
0.000000 0.702517 0.000000
0.051550 0.702517 0.000000
0.133045 0.702517 0.000000
0.223974 0.702517 0.000000
0.313211 0.702517 0.000000
0.401175 0.702517 0.000000
0.488279 0.702517 0.000000
0.574704 0.702517 0.000000
0.660516 0.702517 0.000000
0.745857 0.702517 0.000000
0.852380 0.725241 0.000000
0.943443 0.736826 0.000000
0.983804 0.737147 0.000000
0.996860 0.729268 0.000000
0.999819 0.717227 0.000000
1.000000 0.704295 0.000000
0.000000 0.826013 0.000000
0.053390 0.826013 0.000000
0.137780 0.826013 0.000000
0.230941 0.826013 0.000000
0.322374 0.826013 0.000000
0.412560 0.826013 0.000000
0.501799 0.826013 0.000000
0.590313 0.826013 0.000000
0.678227 0.826013 0.000000
0.765582 0.826013 0.000000
0.852380 0.826013 0.000000
0.943443 0.839157 0.000000
0.983804 0.839556 0.000000
0.996860 0.830519 0.000000
0.999819 0.817085 0.000000
1.000000 0.802318 0.000000
0.000000 0.933081 0.000000
0.054332 0.933081 0.000000
0.140212 0.933081 0.000000
0.234510 0.933081 0.000000
0.327043 0.933081 0.000000
0.418285 0.933081 0.000000
0.508625 0.933081 0.000000
0.598224 0.933081 0.000000
0.687207 0.933081 0.000000
0.775638 0.933081 0.000000
0.863541 0.933081 0.000000
0.943443 0.933081 0.000000
0.983804 0.933457 0.000000
0.996860 0.926543 0.000000
0.999819 0.915162 0.000000
1.000000 0.901311 0.000000
0.000000 0.980757 0.000000
0.054357 0.980757 0.000000
0.140282 0.980757 0.000000
0.234631 0.980757 0.000000
0.327189 0.980757 0.000000
0.418487 0.980757 0.000000
0.508880 0.980757 0.000000
0.598468 0.980757 0.000000
0.687522 0.980757 0.000000
0.775969 0.980757 0.000000
0.863953 0.980757 0.000000
0.943673 0.980757 0.000000
0.983804 0.980757 0.000000
0.996860 0.977567 0.000000
0.999819 0.972217 0.000000
1.000000 0.965222 0.000000
0.000000 0.996241 0.000000
0.053707 0.996241 0.000000
0.138617 0.996241 0.000000
0.232182 0.996241 0.000000
0.323985 0.996241 0.000000
0.414520 0.996241 0.000000
0.504132 0.996241 0.000000
0.593038 0.996241 0.000000
0.681276 0.996241 0.000000
0.769120 0.996241 0.000000
0.856220 0.996241 0.000000
0.937874 0.996241 0.000000
0.981128 0.996241 0.000000
0.996860 0.996241 0.000000
0.999819 0.994560 0.000000
1.000000 0.992113 0.000000
0.000000 0.999756 0.000000
0.052755 0.999756 0.000000
0.136140 0.999756 0.000000
0.228554 0.999756 0.000000
0.319226 0.999756 0.000000
0.408593 0.999756 0.000000
0.497136 0.999756 0.000000
0.584898 0.999756 0.000000
0.672078 0.999756 0.000000
0.758650 0.999756 0.000000
0.844821 0.999756 0.000000
0.928116 0.999756 0.000000
0.976624 0.999756 0.000000
0.995473 0.999756 0.000000
0.999819 0.999756 0.000000
1.000000 0.999440 0.000000
0.000000 1.000000 0.000000
0.051692 1.000000 0.000000
0.133403 1.000000 0.000000
0.224529 1.000000 0.000000
0.313900 1.000000 0.000000
0.402094 1.000000 0.000000
0.489372 1.000000 0.000000
0.575869 1.000000 0.000000
0.661833 1.000000 0.000000
0.747345 1.000000 0.000000
0.832264 1.000000 0.000000
0.916205 1.000000 0.000000
0.970753 1.000000 0.000000
0.993390 1.000000 0.000000
0.999478 1.000000 0.000000
1.000000 1.000000 0.000000
0.000000 0.000000 0.002624
0.025956 0.000000 0.002624
0.070563 0.000000 0.002839
0.133501 0.000000 0.003220
0.214364 0.000000 0.003791
0.308334 0.000000 0.004540
0.412148 0.000000 0.005350
0.521987 0.000000 0.006136
0.634428 0.000000 0.006841
0.745857 0.000000 0.007413
0.852380 0.000000 0.007817
0.943443 0.000000 0.008027
0.983804 0.000000 0.008033
0.996860 0.000000 0.007889
0.999819 0.000000 0.007677
1.000000 0.000000 0.007445
0.000000 0.014258 0.002624
0.025956 0.014258 0.002624
0.070563 0.014258 0.002624
0.133501 0.014258 0.002624
0.214364 0.014258 0.002624
0.308334 0.014258 0.002624
0.412148 0.014258 0.002624
0.521987 0.014258 0.002624
0.634428 0.014258 0.002624
0.745857 0.014258 0.002624
0.852380 0.014258 0.002624
0.943443 0.014258 0.002624
0.983804 0.014258 0.002624
0.996860 0.014258 0.002624
0.999819 0.014258 0.002624
1.000000 0.014258 0.002624
0.000000 0.044788 0.002839
0.025956 0.044788 0.002624
0.070563 0.044788 0.002624
0.133501 0.048382 0.002624
0.214364 0.053695 0.002624
0.308334 0.060427 0.002624
0.412148 0.067493 0.002624
0.521987 0.074121 0.002624
0.634428 0.079911 0.002624
0.745857 0.084525 0.002624
0.852380 0.087710 0.002624
0.943443 0.089339 0.002624
0.983804 0.089369 0.002624
0.996860 0.088207 0.002624
0.999819 0.086499 0.002624
1.000000 0.084639 0.002624
0.000000 0.092873 0.003220
0.025956 0.092873 0.002624
0.075491 0.092873 0.002624
0.133501 0.092873 0.002624
0.214364 0.103947 0.002624
0.308334 0.117520 0.002624
0.412148 0.131325 0.002624
0.521987 0.143924 0.002624
0.634428 0.154658 0.002624
0.745857 0.163062 0.002624
0.852380 0.168819 0.002624
0.943443 0.171760 0.002624
0.983804 0.171786 0.002624
0.996860 0.169750 0.002624
0.999819 0.166675 0.002624
1.000000 0.163275 0.002624
0.000000 0.159390 0.003791
0.025956 0.159390 0.002624
0.082694 0.159390 0.002624
0.147558 0.159390 0.002624
0.214364 0.159390 0.002624
0.308334 0.179250 0.002624
0.412148 0.199363 0.002624
0.521987 0.217666 0.002624
0.634428 0.233270 0.002624
0.745857 0.245469 0.002624
0.852380 0.253834 0.002624
0.943443 0.258064 0.002624
0.983804 0.258118 0.002624
0.996860 0.255113 0.002624
0.999819 0.250668 0.002624
1.000000 0.245765 0.002624
0.000000 0.243927 0.004540
0.025956 0.243927 0.002624
0.091673 0.243927 0.002624
0.164430 0.243927 0.002624
0.237143 0.243927 0.002624
0.308334 0.243927 0.002624
0.412148 0.270496 0.002624
0.521987 0.294710 0.002624
0.634428 0.315306 0.002624
0.745857 0.331400 0.002624
0.852380 0.342398 0.002624
0.943443 0.348021 0.002624
0.983804 0.348081 0.002624
0.996860 0.344089 0.002624
0.999819 0.338241 0.002624
1.000000 0.331802 0.002624
0.000000 0.344292 0.005350
0.025956 0.344292 0.002624
0.100978 0.344292 0.002624
0.181205 0.344292 0.002624
0.259724 0.344292 0.002624
0.336490 0.344292 0.002624
0.412148 0.344292 0.002624
0.521987 0.374560 0.002624
0.634428 0.400338 0.002624
0.745857 0.420366 0.002624
0.852380 0.434141 0.002624
0.943443 0.441111 0.002624
0.983804 0.441210 0.002624
0.996860 0.436243 0.002624
0.999819 0.428958 0.002624
1.000000 0.420899 0.002624
0.000000 0.456863 0.006136
0.025956 0.456862 0.002624
0.109597 0.456862 0.002624
0.196261 0.456862 0.002624
0.279928 0.456862 0.002624
0.361696 0.456862 0.002624
0.442245 0.456862 0.002624
0.521987 0.456862 0.002624
0.634428 0.487865 0.002624
0.745857 0.512125 0.002624
0.852380 0.528631 0.002624
0.943443 0.537074 0.002624
0.983804 0.537158 0.002624
0.996860 0.531258 0.002624
0.999819 0.522392 0.002624
1.000000 0.512727 0.002624
0.000000 0.577836 0.006841
0.025956 0.577836 0.002624
0.117033 0.577836 0.002624
0.208858 0.577836 0.002624
0.296886 0.577836 0.002624
0.382823 0.577836 0.002624
0.467538 0.577836 0.002624
0.551313 0.577836 0.002624
0.634428 0.577836 0.002624
0.745857 0.606223 0.002624
0.852380 0.625663 0.002624
0.943443 0.635538 0.002624
0.983804 0.635633 0.002624
0.996860 0.628725 0.002624
0.999819 0.618349 0.002624
1.000000 0.606926 0.002624
0.000000 0.702517 0.007413
0.025956 0.702517 0.002624
0.122923 0.702517 0.002624
0.218622 0.702517 0.002624
0.309982 0.702517 0.002624
0.399174 0.702517 0.002624
0.487016 0.702517 0.002624
0.573952 0.702517 0.002624
0.660163 0.702517 0.002624
0.745857 0.702517 0.002624
0.852380 0.724857 0.002624
0.943443 0.736270 0.002624
0.983804 0.736402 0.002624
0.996860 0.728331 0.002624
0.999819 0.716431 0.002624
1.000000 0.703268 0.002624
0.000000 0.826013 0.007817
0.025956 0.826013 0.002624
0.126960 0.826013 0.002624
0.225242 0.826013 0.002624
0.318884 0.826013 0.002624
0.410263 0.826013 0.002624
0.500270 0.826013 0.002624
0.589290 0.826013 0.002624
0.677642 0.826013 0.002624
0.765327 0.826013 0.002624
0.852380 0.826013 0.002624
0.943443 0.838913 0.002624
0.983804 0.839137 0.002624
0.996860 0.829967 0.002624
0.999819 0.816442 0.002624
1.000000 0.801530 0.002624
0.000000 0.933081 0.008027
0.025956 0.933081 0.002624
0.129020 0.933081 0.002624
0.228621 0.933081 0.002624
0.323378 0.933081 0.002624
0.415877 0.933081 0.002624
0.506944 0.933081 0.002624
0.597064 0.933081 0.002624
0.686451 0.933081 0.002624
0.775218 0.933081 0.002624
0.863330 0.933081 0.002624
0.943443 0.933081 0.002624
0.983804 0.933227 0.002624
0.996860 0.926238 0.002624
0.999819 0.914855 0.002624
1.000000 0.900808 0.002624
0.000000 0.980757 0.008033
0.025956 0.980757 0.002624
0.129056 0.980757 0.002624
0.228663 0.980757 0.002624
0.323447 0.980757 0.002624
0.415954 0.980757 0.002624
0.507021 0.980757 0.002624
0.597153 0.980757 0.002624
0.686572 0.980757 0.002624
0.775388 0.980757 0.002624
0.863524 0.980757 0.002624
0.943555 0.980757 0.002624
0.983804 0.980757 0.002624
0.996860 0.977498 0.002624
0.999819 0.972062 0.002624
1.000000 0.965057 0.002624
0.000000 0.996241 0.007889
0.025956 0.996241 0.002624
0.127582 0.996241 0.002624
0.226309 0.996241 0.002624
0.320239 0.996241 0.002624
0.411947 0.996241 0.002624
0.502263 0.996241 0.002624
0.591680 0.996241 0.002624
0.680334 0.996241 0.002624
0.768372 0.996241 0.002624
0.855758 0.996241 0.002624
0.937592 0.996241 0.002624
0.981075 0.996241 0.002624
0.996860 0.996241 0.002624
0.999819 0.994531 0.002624
1.000000 0.992048 0.002624
0.000000 0.999756 0.007677
0.025956 0.999756 0.002624
0.125420 0.999756 0.002624
0.222796 0.999756 0.002624
0.315522 0.999756 0.002624
0.406086 0.999756 0.002624
0.495260 0.999756 0.002624
0.583496 0.999756 0.002624
0.671014 0.999756 0.002624
0.757981 0.999756 0.002624
0.844265 0.999756 0.002624
0.927836 0.999756 0.002624
0.976492 0.999756 0.002624
0.995448 0.999756 0.002624
0.999819 0.999756 0.002624
1.000000 0.999439 0.002624
0.000000 1.000000 0.007445
0.025956 1.000000 0.002624
0.123056 1.000000 0.002624
0.218861 1.000000 0.002624
0.310299 1.000000 0.002624
0.399570 1.000000 0.002624
0.487519 1.000000 0.002624
0.574507 1.000000 0.002624
0.660758 1.000000 0.002624
0.746403 1.000000 0.002624
0.831552 1.000000 0.002624
0.915818 1.000000 0.002624
0.970536 1.000000 0.002624
0.993335 1.000000 0.002624
0.999477 1.000000 0.002624
1.000000 1.000000 0.002624
0.000000 0.000000 0.011926
0.027345 0.000000 0.011926
0.070563 0.000000 0.011926
0.133501 0.000000 0.013523
0.214364 0.000000 0.015927
0.308334 0.000000 0.019068
0.412148 0.000000 0.022473
0.521987 0.000000 0.025782
0.634428 0.000000 0.028730
0.745857 0.000000 0.031109
0.852380 0.000000 0.032767
0.943443 0.000000 0.033624
0.983804 0.000000 0.033650
0.996860 0.000000 0.033060
0.999819 0.000000 0.032191
1.000000 0.000000 0.031237
0.000000 0.015134 0.011926
0.025956 0.014258 0.011926
0.070563 0.014258 0.011926
0.133501 0.014258 0.013208
0.214364 0.014258 0.015162
0.308334 0.014258 0.017725
0.412148 0.014258 0.020516
0.521987 0.014258 0.023224
0.634428 0.014258 0.025652
0.745857 0.014258 0.027631
0.852380 0.014258 0.029009
0.943443 0.014258 0.029716
0.983804 0.014258 0.029731
0.996860 0.014258 0.029222
0.999819 0.014258 0.028483
1.000000 0.014258 0.027678
0.000000 0.044788 0.011926
0.025956 0.044788 0.011926
0.070563 0.044788 0.011926
0.133501 0.044788 0.011926
0.214364 0.044788 0.011926
0.308334 0.044788 0.011926
0.412148 0.044788 0.011926
0.521987 0.044788 0.011926
0.634428 0.044788 0.011926
0.745857 0.044788 0.011926
0.852380 0.044788 0.011926
0.943443 0.044788 0.011926
0.983804 0.044788 0.011926
0.996860 0.044788 0.011926
0.999819 0.044788 0.011926
1.000000 0.044788 0.011926
0.000000 0.092873 0.013523
0.025956 0.092873 0.013208
0.070563 0.092873 0.011926
0.133501 0.092873 0.011926
0.214364 0.100347 0.011926
0.308334 0.109778 0.011926
0.412148 0.119490 0.011926
0.521987 0.128510 0.011926
0.634428 0.136284 0.011926
0.745857 0.142395 0.011926
0.852380 0.146579 0.011926
0.943443 0.148618 0.011926
0.983804 0.148537 0.011926
0.996860 0.146848 0.011926
0.999819 0.144440 0.011926
1.000000 0.141808 0.011926
0.000000 0.159390 0.015927
0.025956 0.159390 0.015162
0.070563 0.159390 0.011926
0.143017 0.159390 0.011926
0.214364 0.159390 0.011926
0.308334 0.176083 0.011926
0.412148 0.193108 0.011926
0.521987 0.208741 0.011926
0.634428 0.222077 0.011926
0.745857 0.232529 0.011926
0.852380 0.239622 0.011926
0.943443 0.243112 0.011926
0.983804 0.242946 0.011926
0.996860 0.240078 0.011926
0.999819 0.235978 0.011926
1.000000 0.231505 0.011926
0.000000 0.243927 0.019068
0.025956 0.243927 0.017725
0.070563 0.243927 0.011926
0.154843 0.243927 0.011926
0.233554 0.243927 0.011926
0.308334 0.243927 0.011926
0.412148 0.267798 0.011926
0.521987 0.289659 0.011926
0.634428 0.308258 0.011926
0.745857 0.322810 0.011926
0.852380 0.332681 0.011926
0.943443 0.337560 0.011926
0.983804 0.337322 0.011926
0.996860 0.333331 0.011926
0.999819 0.327625 0.011926
1.000000 0.321405 0.011926
0.000000 0.344292 0.022473
0.025956 0.344292 0.020516
0.070563 0.344292 0.011926
0.166850 0.344292 0.011926
0.252768 0.344292 0.011926
0.333677 0.344292 0.011926
0.412148 0.344292 0.011926
0.521987 0.372303 0.011926
0.634428 0.396171 0.011926
0.745857 0.414795 0.011926
0.852380 0.427388 0.011926
0.943443 0.433592 0.011926
0.983804 0.433340 0.011926
0.996860 0.428281 0.011926
0.999819 0.420950 0.011926
1.000000 0.412973 0.011926
0.000000 0.456863 0.025782
0.025956 0.456862 0.023224
0.070563 0.456863 0.011926
0.177824 0.456863 0.011926
0.270093 0.456863 0.011926
0.356435 0.456863 0.011926
0.440059 0.456863 0.011926
0.521987 0.456863 0.011926
0.634428 0.486035 0.011926
0.745857 0.508747 0.011926
0.852380 0.524142 0.011926
0.943443 0.531728 0.011926
0.983804 0.531356 0.011926
0.996860 0.525153 0.011926
0.999819 0.516262 0.011926
1.000000 0.506521 0.011926
0.000000 0.577836 0.028730
0.025956 0.577836 0.025652
0.070563 0.577836 0.011926
0.187165 0.577836 0.011926
0.284736 0.577836 0.011926
0.375603 0.577836 0.011926
0.463509 0.577836 0.011926
0.549504 0.577836 0.011926
0.634428 0.577836 0.011926
0.745857 0.604679 0.011926
0.852380 0.622909 0.011926
0.943443 0.631864 0.011926
0.983804 0.631455 0.011926
0.996860 0.624110 0.011926
0.999819 0.613530 0.011926
1.000000 0.602112 0.011926
0.000000 0.702517 0.031109
0.025956 0.702517 0.027631
0.070563 0.702517 0.011926
0.194441 0.702517 0.011926
0.296051 0.702517 0.011926
0.390490 0.702517 0.011926
0.481624 0.702517 0.011926
0.570807 0.702517 0.011926
0.658733 0.702517 0.011926
0.745857 0.702517 0.011926
0.852380 0.723603 0.011926
0.943443 0.733973 0.011926
0.983804 0.733400 0.011926
0.996860 0.725003 0.011926
0.999819 0.712716 0.011926
1.000000 0.699520 0.011926
0.000000 0.826013 0.032767
0.025956 0.826013 0.029009
0.070563 0.826013 0.011926
0.199386 0.826013 0.011926
0.303706 0.826013 0.011926
0.400457 0.826013 0.011926
0.493751 0.826013 0.011926
0.585107 0.826013 0.011926
0.675169 0.826013 0.011926
0.764195 0.826013 0.011926
0.852380 0.826013 0.011926
0.943443 0.837926 0.011926
0.983804 0.837248 0.011926
0.996860 0.827579 0.011926
0.999819 0.813800 0.011926
1.000000 0.798686 0.011926
0.000000 0.933081 0.033624
0.025956 0.933081 0.029716
0.070563 0.933081 0.011926
0.201782 0.933081 0.011926
0.307466 0.933081 0.011926
0.405359 0.933081 0.011926
0.499731 0.933081 0.011926
0.592116 0.933081 0.011926
0.683121 0.933081 0.011926
0.773174 0.933081 0.011926
0.862530 0.933081 0.011926
0.943443 0.933081 0.011926
0.983804 0.932694 0.011926
0.996860 0.925203 0.011926
0.999819 0.913276 0.011926
1.000000 0.898862 0.011926
0.000000 0.980757 0.033650
0.025956 0.980757 0.029731
0.070563 0.980757 0.011926
0.201686 0.980757 0.011926
0.307289 0.980757 0.011926
0.405118 0.980757 0.011926
0.499483 0.980757 0.011926
0.591791 0.980757 0.011926
0.682824 0.980757 0.011926
0.772782 0.980757 0.011926
0.861981 0.980757 0.011926
0.943040 0.980757 0.011926
0.983804 0.980757 0.011926
0.996860 0.977310 0.011926
0.999819 0.971619 0.011926
1.000000 0.964400 0.011926
0.000000 0.996241 0.033060
0.025956 0.996241 0.029222
0.070563 0.996241 0.011926
0.199708 0.996241 0.011926
0.304207 0.996241 0.011926
0.401110 0.996241 0.011926
0.494600 0.996241 0.011926
0.586021 0.996241 0.011926
0.676221 0.996241 0.011926
0.765387 0.996241 0.011926
0.853703 0.996241 0.011926
0.936707 0.996241 0.011926
0.980933 0.996241 0.011926
0.996860 0.996241 0.011926
0.999819 0.994550 0.011926
1.000000 0.991904 0.011926
0.000000 0.999756 0.032191
0.025956 0.999756 0.028483
0.070563 0.999756 0.011926
0.196871 0.999756 0.011926
0.299794 0.999756 0.011926
0.395351 0.999756 0.011926
0.487541 0.999756 0.011926
0.577789 0.999756 0.011926
0.666710 0.999756 0.011926
0.754778 0.999756 0.011926
0.841992 0.999756 0.011926
0.926487 0.999756 0.011926
0.976150 0.999756 0.011926
0.995372 0.999756 0.011926
0.999819 0.999756 0.011926
1.000000 0.999422 0.011926
0.000000 1.000000 0.031237
0.025956 1.000000 0.027678
0.070563 1.000000 0.011926
0.193744 1.000000 0.011926
0.294973 1.000000 0.011926
0.389021 1.000000 0.011926
0.479831 1.000000 0.011926
0.568760 1.000000 0.011926
0.656416 1.000000 0.011926
0.743128 1.000000 0.011926
0.829052 1.000000 0.011926
0.914148 1.000000 0.011926
0.970026 1.000000 0.011926
0.993277 1.000000 0.011926
0.999463 1.000000 0.011926
1.000000 1.000000 0.011926
0.000000 0.000000 0.031270
0.029716 0.000000 0.031270
0.076680 0.000000 0.031270
0.133501 0.000000 0.031270
0.214364 0.000000 0.036661
0.308334 0.000000 0.043527
0.412148 0.000000 0.050765
0.521987 0.000000 0.057639
0.634428 0.000000 0.063644
0.745857 0.000000 0.068466
0.852380 0.000000 0.071818
0.943443 0.000000 0.073549
0.983804 0.000000 0.073611
0.996860 0.000000 0.072418
0.999819 0.000000 0.070654
1.000000 0.000000 0.068730
0.000000 0.016644 0.031270
0.025956 0.014258 0.031270
0.075491 0.014258 0.031270
0.133501 0.014258 0.031270
0.214364 0.014258 0.036268
0.308334 0.014258 0.042654
0.412148 0.014258 0.049418
0.521987 0.014258 0.055826
0.634428 0.014258 0.061445
0.745857 0.014258 0.065947
0.852380 0.014258 0.069074
0.943443 0.014258 0.070694
0.983804 0.014258 0.070703
0.996860 0.014258 0.069576
0.999819 0.014258 0.067904
1.000000 0.014258 0.066055
0.000000 0.049254 0.031270
0.025956 0.048382 0.031270
0.070563 0.044788 0.031270
0.133501 0.044788 0.031270
0.214364 0.044788 0.034624
0.308334 0.044788 0.038976
0.412148 0.044788 0.043601
0.521987 0.044788 0.048022
0.634428 0.044788 0.051917
0.745857 0.044788 0.055036
0.852380 0.044788 0.057204
0.943443 0.044788 0.058264
0.983804 0.044788 0.058221
0.996860 0.044788 0.057341
0.999819 0.044788 0.056094
1.000000 0.044788 0.054738
0.000000 0.092873 0.031270
0.025956 0.092873 0.031270
0.070563 0.092873 0.031270
0.133501 0.092873 0.031270
0.214364 0.092873 0.031270
0.308334 0.092873 0.031270
0.412148 0.092873 0.031270
0.521987 0.092873 0.031270
0.634428 0.092873 0.031270
0.745857 0.092873 0.031270
0.852380 0.092873 0.031270
0.943443 0.092873 0.031270
0.983804 0.092873 0.031270
0.996860 0.092873 0.031270
0.999819 0.092873 0.031270
1.000000 0.092873 0.031270
0.000000 0.159390 0.036661
0.025956 0.159390 0.036268
0.070563 0.159390 0.034624
0.133501 0.159390 0.031270
0.214364 0.159390 0.031270
0.308334 0.169672 0.031270
0.412148 0.180279 0.031270
0.521987 0.190154 0.031270
0.634428 0.198717 0.031270
0.745857 0.205458 0.031270
0.852380 0.209974 0.031270
0.943443 0.212047 0.031270
0.983804 0.211617 0.031270
0.996860 0.209372 0.031270
0.999819 0.206282 0.031270
1.000000 0.203031 0.031270
0.000000 0.243927 0.043527
0.025956 0.243927 0.042654
0.070563 0.243927 0.038976
0.133501 0.243927 0.031270
0.226231 0.243927 0.031270
0.308334 0.243927 0.031270
0.412148 0.262452 0.031270
0.521987 0.279519 0.031270
0.634428 0.294148 0.031270
0.745857 0.305561 0.031270
0.852380 0.313225 0.031270
0.943443 0.316738 0.031270
0.983804 0.315988 0.031270
0.996860 0.312174 0.031270
0.999819 0.307022 0.031270
1.000000 0.301445 0.031270
0.000000 0.344292 0.050765
0.025956 0.344292 0.049418
0.070563 0.344292 0.043601
0.133501 0.344292 0.031270
0.238303 0.344292 0.031270
0.328018 0.344292 0.031270
0.412148 0.344292 0.031270
0.521987 0.367871 0.031270
0.634428 0.388039 0.031270
0.745857 0.403726 0.031270
0.852380 0.414112 0.031270
0.943443 0.418963 0.031270
0.983804 0.417961 0.031270
0.996860 0.412758 0.031270
0.999819 0.405613 0.031270
1.000000 0.398029 0.031270
0.000000 0.456863 0.057639
0.025956 0.456862 0.055826
0.070563 0.456863 0.048022
0.133501 0.456863 0.031270
0.249456 0.456863 0.031270
0.345937 0.456863 0.031270
0.435642 0.456863 0.031270
0.521987 0.456863 0.031270
