src/luts/warm/3.cube
LUT_3D_SIZE 16
0.063201 0.037536 0.061544
0.100098 0.050369 0.074887
0.155106 0.059573 0.084339
0.214665 0.065551 0.090432
0.276273 0.069007 0.093950
0.339141 0.070382 0.095353
0.402922 0.069978 0.094936
0.467380 0.068013 0.092941
0.532506 0.064631 0.089507
0.598209 0.059976 0.084747
0.664319 0.054127 0.078757
0.730919 0.047158 0.071566
0.797781 0.039126 0.063213
0.865269 0.030005 0.053592
0.932733 0.019747 0.042523
1.000000 0.007074 0.028026
0.088266 0.071070 0.081534
0.107457 0.072268 0.083138
0.156826 0.075612 0.087484
0.215140 0.078938 0.091670
0.276431 0.081134 0.094386
0.339150 0.081970 0.095388
0.402860 0.081468 0.094791
0.467360 0.079749 0.092682
0.532507 0.076946 0.089188
0.598197 0.073219 0.084397
0.664292 0.068774 0.078392
0.730912 0.063806 0.071181
0.797764 0.058716 0.062826
0.865257 0.054001 0.053199
0.932727 0.050471 0.042107
1.000000 0.049135 0.027944
0.100840 0.116104 0.091806
0.115990 0.116258 0.092106
0.160117 0.116795 0.093134
0.216220 0.117488 0.094441
0.276672 0.117959 0.095299
0.339100 0.117921 0.095234
0.402764 0.117249 0.093987
0.467229 0.115953 0.091523
0.532333 0.114079 0.087804
0.598044 0.111762 0.082887
0.664231 0.109143 0.076808
0.730858 0.106429 0.069562
0.797690 0.103853 0.061162
0.865206 0.101685 0.051496
0.932701 0.100241 0.040295
1.000000 0.099818 0.027944
0.105134 0.167254 0.095342
0.119198 0.167251 0.095356
0.161530 0.167268 0.095409
0.216588 0.167253 0.095337
0.276554 0.167083 0.094896
0.338822 0.166678 0.093792
0.402415 0.165982 0.091825
0.466888 0.164949 0.088870
0.532068 0.163672 0.084863
0.597797 0.162165 0.079753
0.664012 0.160518 0.073549
0.730549 0.158901 0.066233
0.797583 0.157432 0.057769
0.865115 0.156259 0.047994
0.932660 0.155589 0.036484
1.000000 0.155480 0.027944
0.103336 0.222890 0.093853
0.117651 0.222860 0.093783
0.160354 0.222786 0.093497
0.215610 0.222618 0.092854
0.275683 0.222325 0.091760
0.338043 0.221900 0.090024
0.401726 0.221296 0.087551
0.466321 0.220524 0.084197
0.531619 0.219587 0.079894
0.597463 0.218587 0.074597
0.663744 0.217540 0.068275
0.730508 0.216550 0.060851
0.797511 0.215675 0.052277
0.865006 0.215072 0.042267
0.932631 0.214809 0.029638
1.000000 0.214806 0.027944
0.096524 0.282186 0.088262
0.112185 0.282181 0.088175
0.156977 0.282107 0.087751
0.213408 0.281960 0.086887
0.274100 0.281666 0.085475
0.336836 0.281335 0.083434
0.400784 0.280884 0.080641
0.465609 0.280316 0.077045
0.531085 0.279704 0.072546
0.597052 0.279030 0.067097
0.663372 0.278403 0.060649
0.730291 0.277802 0.053086
0.797471 0.277331 0.044264
0.865004 0.277096 0.033534
0.932631 0.277072 0.027944
1.000000 0.277072 0.027945
0.085266 0.344714 0.079110
0.103695 0.344693 0.078999
0.152125 0.344613 0.078529
0.210369 0.344527 0.077577
0.272027 0.344320 0.076042
0.335330 0.344085 0.073840
0.399702 0.343784 0.070899
0.464756 0.343405 0.067158
0.530418 0.342982 0.062528
0.596579 0.342612 0.056948
0.663079 0.342263 0.050316
0.729996 0.341998 0.042456
0.797355 0.341820 0.032761
0.864994 0.341838 0.027944
0.932631 0.341838 0.027945
1.000000 0.341838 0.027945
0.069713 0.409980 0.066673
0.093365 0.410007 0.066551
0.146813 0.409940 0.066059
0.207183 0.409885 0.065069
0.269929 0.409790 0.063472
0.333877 0.409637 0.061190
0.398624 0.409501 0.058153
0.464001 0.409279 0.054289
0.529885 0.409069 0.049500
0.596241 0.408885 0.043661
0.662893 0.408735 0.036486
0.730024 0.408704 0.027944
0.797348 0.408704 0.027944
0.864994 0.408704 0.027945
0.932631 0.408704 0.027945
1.000000 0.408704 0.027945
0.049425 0.477941 0.050862
0.083428 0.477934 0.050738
0.142362 0.477886 0.050225
0.204638 0.477846 0.049188
0.268301 0.477824 0.047528
0.332812 0.477755 0.045110
0.397862 0.477703 0.041883
0.463514 0.477634 0.037654
0.529592 0.477571 0.032069
0.596143 0.477561 0.027944
0.662910 0.477561 0.027944
0.730024 0.477561 0.027945
0.797348 0.477561 0.027945
0.864994 0.477561 0.027945
0.932631 0.477561 0.027945
1.000000 0.477561 0.027945
0.021134 0.548167 0.029735
0.078438 0.548167 0.029578
0.140435 0.548166 0.028754
0.203669 0.548166 0.027944
0.267740 0.548166 0.027944
0.332473 0.548166 0.027944
0.397762 0.548166 0.027944
0.463461 0.548166 0.027944
0.529623 0.548166 0.027945
0.596143 0.548166 0.027945
0.662910 0.548166 0.027945
0.730024 0.548166 0.027945
0.797348 0.548166 0.027945
0.864994 0.548166 0.027945
0.932631 0.548166 0.027945
1.000000 0.548166 0.027944
0.018657 0.620254 0.027945
0.078430 0.620254 0.027945
0.140434 0.620254 0.027944
0.203669 0.620254 0.027945
0.267740 0.620254 0.027945
0.332473 0.620254 0.027945
0.397762 0.620254 0.027945
0.463461 0.620254 0.027945
0.529623 0.620254 0.027945
0.596143 0.620254 0.027945
0.662910 0.620254 0.027945
0.730024 0.620254 0.027945
0.797348 0.620254 0.027945
0.864994 0.620254 0.027944
0.932631 0.620254 0.027944
1.000000 0.620254 0.027944
0.018657 0.693873 0.027945
0.078430 0.693873 0.027945
0.140434 0.693873 0.027945
0.203669 0.693873 0.027945
0.267740 0.693873 0.027945
0.332473 0.693873 0.027945
0.397762 0.693873 0.027945
0.463461 0.693873 0.027945
0.529623 0.693873 0.027944
0.596143 0.693873 0.027945
0.662910 0.693873 0.027944
0.730024 0.693873 0.027944
0.797348 0.693873 0.027944
0.864994 0.693873 0.027944
0.932631 0.693873 0.027944
1.000000 0.693873 0.027944
0.018657 0.768779 0.027944
0.078430 0.768779 0.027944
0.140434 0.768779 0.027944
0.203669 0.768779 0.027944
0.267740 0.768779 0.027944
0.332473 0.768779 0.027944
0.397762 0.768779 0.027944
0.463461 0.768779 0.027944
0.529623 0.768779 0.027944
0.596143 0.768779 0.027944
0.662910 0.768779 0.027944
0.730024 0.768779 0.027944
0.797348 0.768779 0.027944
0.864994 0.768779 0.027944
0.932631 0.768779 0.027944
1.000000 0.768779 0.027944
0.018657 0.845070 0.027944
0.078430 0.845070 0.027944
0.140434 0.845070 0.027944
0.203669 0.845070 0.027944
0.267740 0.845070 0.027944
0.332473 0.845070 0.027944
0.397762 0.845070 0.027944
0.463461 0.845070 0.027944
0.529623 0.845070 0.027944
0.596143 0.845070 0.027944
0.662910 0.845070 0.027944
0.730024 0.845070 0.027944
0.797348 0.845070 0.027944
0.864994 0.845070 0.027944
0.932631 0.845070 0.027944
1.000000 0.845070 0.027944
0.018657 0.922314 0.027944
0.078430 0.922314 0.027944
0.140434 0.922314 0.027944
0.203669 0.922314 0.027944
0.267740 0.922314 0.027944
0.332473 0.922314 0.027944
0.397762 0.922314 0.027944
0.463461 0.922314 0.027944
0.529623 0.922314 0.027944
0.596143 0.922314 0.027944
0.662910 0.922314 0.027944
0.730024 0.922314 0.027944
0.797348 0.922314 0.027944
0.864994 0.922314 0.027944
0.932631 0.922314 0.027944
1.000000 0.922314 0.027944
0.018657 1.000000 0.027944
0.078430 1.000000 0.027944
0.140434 1.000000 0.027944
0.203669 1.000000 0.027944
0.267740 1.000000 0.027944
0.332473 1.000000 0.027944
0.397762 1.000000 0.027944
0.463461 1.000000 0.027944
0.529623 1.000000 0.027944
0.596143 1.000000 0.027944
0.662910 1.000000 0.027944
0.730024 1.000000 0.027944
0.797348 1.000000 0.027944
0.864994 1.000000 0.027944
0.932631 1.000000 0.027944
1.000000 1.000000 0.027944
0.074446 0.046058 0.088148
0.101353 0.051775 0.092229
0.155310 0.059963 0.098501
0.214712 0.065696 0.103131
0.276291 0.069054 0.105917
0.339142 0.070383 0.107048
0.402916 0.069972 0.106690
0.467375 0.067978 0.105026
0.532500 0.064601 0.102232
0.598206 0.059937 0.098476
0.664316 0.054093 0.093943
0.730914 0.047124 0.088886
0.797779 0.039094 0.083657
0.865268 0.029972 0.078780
0.932733 0.019707 0.075080
1.000000 0.007071 0.073607
0.088992 0.071507 0.096500
0.107893 0.072617 0.097623
0.156964 0.075801 0.100849
0.215178 0.079018 0.104102
0.276432 0.081168 0.106268
0.339151 0.081972 0.107080
0.402854 0.081459 0.106565
0.467355 0.079726 0.104818
0.532501 0.076923 0.101981
0.598194 0.073188 0.098210
0.664289 0.068741 0.093680
0.730908 0.063785 0.088639
0.797762 0.058692 0.083438
0.865255 0.053981 0.078604
0.932726 0.050467 0.074986
1.000000 0.049135 0.073607
0.100959 0.116157 0.104209
0.116086 0.116299 0.104440
0.160184 0.116835 0.105257
0.216248 0.117508 0.106313
0.276675 0.117966 0.107015
0.339098 0.117920 0.106937
0.402755 0.117246 0.105897
0.467223 0.115938 0.103860
0.532325 0.114068 0.100872
0.598041 0.111734 0.097047
0.664227 0.109125 0.092527
0.730853 0.106411 0.087559
0.797688 0.103844 0.082510
0.865204 0.101676 0.077896
0.932701 0.100237 0.074610
1.000000 0.099818 0.073607
0.105140 0.167244 0.107038
0.119208 0.167255 0.107053
0.161531 0.167269 0.107085
0.216583 0.167249 0.107019
0.276548 0.167074 0.106646
0.338818 0.166665 0.105731
0.402404 0.165966 0.104121
0.466883 0.164949 0.101728
0.532062 0.163654 0.098558
0.597794 0.162150 0.094689
0.664010 0.160506 0.090237
0.730543 0.158885 0.085448
0.797581 0.157423 0.080722
0.865114 0.156254 0.076623
0.932659 0.155587 0.074035
1.000000 0.155480 0.073607
0.103297 0.222880 0.105777
0.117623 0.222850 0.105723
0.160346 0.222794 0.105484
0.215591 0.222632 0.104967
0.275693 0.222337 0.104064
0.338037 0.221888 0.102658
0.401743 0.221279 0.100673
0.466336 0.220527 0.098055
0.531613 0.219595 0.094790
0.597461 0.218599 0.090966
0.663741 0.217546 0.086729
0.730504 0.216542 0.082336
0.797510 0.215669 0.078219
0.865005 0.215069 0.075022
0.932631 0.214809 0.073617
1.000000 0.214806 0.073607
0.096494 0.282179 0.101245
0.112157 0.282174 0.101168
0.156961 0.282099 0.100833
0.213385 0.281953 0.100151
0.274077 0.281660 0.099046
0.336830 0.281328 0.097468
0.400773 0.280877 0.095348
0.465602 0.280319 0.092702
0.531080 0.279698 0.089548
0.597050 0.279024 0.085993
0.663370 0.278399 0.082225
0.730289 0.277799 0.078556
0.797470 0.277329 0.075505
0.865004 0.277095 0.073761
0.932631 0.277072 0.073607
1.000000 0.277072 0.073607
0.085217 0.344707 0.094213
0.103657 0.344687 0.094127
0.152108 0.344605 0.093773
0.210369 0.344522 0.093087
0.272020 0.344315 0.091990
0.335326 0.344079 0.090430
0.399694 0.343780 0.088455
0.464752 0.343399 0.086032
0.530415 0.342977 0.083267
0.596577 0.342608 0.080320
0.663078 0.342260 0.077450
0.730079 0.341997 0.075063
0.797354 0.341855 0.073715
0.864994 0.341838 0.073607
0.932631 0.341838 0.073607
1.000000 0.341838 0.073607
0.069651 0.409973 0.085726
0.093329 0.410001 0.085650
0.146802 0.409934 0.085353
0.207185 0.409880 0.084747
0.269920 0.409783 0.083805
0.333873 0.409632 0.082518
0.398619 0.409498 0.080920
0.463998 0.409276 0.079081
0.529883 0.409066 0.077150
0.596241 0.408883 0.075352
0.662893 0.408734 0.074036
0.730024 0.408704 0.073607
0.797348 0.408704 0.073607
0.864994 0.408704 0.073607
0.932631 0.408704 0.073607
1.000000 0.408704 0.073607
0.049359 0.477938 0.077657
0.083409 0.477932 0.077610
0.142359 0.477884 0.077414
0.204658 0.477844 0.077033
0.268296 0.477822 0.076467
0.332811 0.477753 0.075746
0.397859 0.477702 0.074935
0.463513 0.477633 0.074179
0.529633 0.477570 0.073686
0.596143 0.477561 0.073607
0.662910 0.477561 0.073607
0.730024 0.477561 0.073607
0.797348 0.477561 0.073607
0.864994 0.477561 0.073607
0.932631 0.477561 0.073607
1.000000 0.477561 0.073607
0.021063 0.548167 0.073619
0.078437 0.548167 0.073616
0.140435 0.548166 0.073609
0.203669 0.548166 0.073607
0.267740 0.548166 0.073607
0.332473 0.548166 0.073607
0.397762 0.548166 0.073607
0.463461 0.548166 0.073607
0.529623 0.548166 0.073607
0.596143 0.548166 0.073607
0.662910 0.548166 0.073607
0.730024 0.548166 0.073607
0.797348 0.548166 0.073607
0.864994 0.548166 0.073607
0.932631 0.548166 0.073607
1.000000 0.548166 0.073607
0.018657 0.620254 0.073607
0.078430 0.620254 0.073607
0.140434 0.620254 0.073607
0.203669 0.620254 0.073607
0.267740 0.620254 0.073607
0.332473 0.620254 0.073607
0.397762 0.620254 0.073607
0.463461 0.620254 0.073607
0.529623 0.620254 0.073607
0.596143 0.620254 0.073607
0.662910 0.620254 0.073607
0.730024 0.620254 0.073607
0.797348 0.620254 0.073607
0.864994 0.620254 0.073607
0.932631 0.620254 0.073607
1.000000 0.620254 0.073607
0.018657 0.693873 0.073607
0.078430 0.693873 0.073607
0.140434 0.693873 0.073607
0.203669 0.693873 0.073607
0.267740 0.693873 0.073607
0.332473 0.693873 0.073607
0.397762 0.693873 0.073607
0.463461 0.693873 0.073607
0.529623 0.693873 0.073607
0.596143 0.693873 0.073607
0.662910 0.693873 0.073607
0.730024 0.693873 0.073607
0.797348 0.693873 0.073607
0.864994 0.693873 0.073607
0.932631 0.693873 0.073607
1.000000 0.693873 0.073607
0.018657 0.768779 0.073607
0.078430 0.768779 0.073607
0.140434 0.768779 0.073607
0.203669 0.768779 0.073607
0.267740 0.768779 0.073607
0.332473 0.768779 0.073607
0.397762 0.768779 0.073607
0.463461 0.768779 0.073607
0.529623 0.768779 0.073607
0.596143 0.768779 0.073607
0.662910 0.768779 0.073607
0.730024 0.768779 0.073607
0.797348 0.768779 0.073607
0.864994 0.768779 0.073607
0.932631 0.768779 0.073607
1.000000 0.768779 0.073607
0.018657 0.845070 0.073607
0.078430 0.845070 0.073607
0.140434 0.845070 0.073607
0.203669 0.845070 0.073607
0.267740 0.845070 0.073607
0.332473 0.845070 0.073607
0.397762 0.845070 0.073607
0.463461 0.845070 0.073607
0.529623 0.845070 0.073607
0.596143 0.845070 0.073607
0.662910 0.845070 0.073607
0.730024 0.845070 0.073607
0.797348 0.845070 0.073607
0.864994 0.845070 0.073607
0.932631 0.845070 0.073607
1.000000 0.845070 0.073607
0.018657 0.922314 0.073607
0.078430 0.922314 0.073607
0.140434 0.922314 0.073607
0.203669 0.922314 0.073607
0.267740 0.922314 0.073607
0.332473 0.922314 0.073607
0.397762 0.922314 0.073607
0.463461 0.922314 0.073607
0.529623 0.922314 0.073607
0.596143 0.922314 0.073607
0.662910 0.922314 0.073607
0.730024 0.922314 0.073607
0.797348 0.922314 0.073607
0.864994 0.922314 0.073607
0.932631 0.922314 0.073607
1.000000 0.922314 0.073607
0.018657 1.000000 0.073607
0.078430 1.000000 0.073607
0.140434 1.000000 0.073607
0.203669 1.000000 0.073607
0.267740 1.000000 0.073607
0.332473 1.000000 0.073607
0.397762 1.000000 0.073607
0.463461 1.000000 0.073607
0.529623 1.000000 0.073607
0.596143 1.000000 0.073607
0.662910 1.000000 0.073607
0.730024 1.000000 0.073607
0.797348 1.000000 0.073607
0.864994 1.000000 0.073607
0.932631 1.000000 0.073607
1.000000 1.000000 0.073607
0.083748 0.053281 0.134793
0.104959 0.055744 0.135870
0.156114 0.061397 0.138506
0.214947 0.066237 0.140957
0.276332 0.069247 0.142556
0.339147 0.070405 0.143192
0.402890 0.069905 0.142918
0.467382 0.067876 0.141819
0.532534 0.064467 0.140037
0.598194 0.059794 0.137729
0.664304 0.053935 0.135080
0.730894 0.046967 0.132273
0.797772 0.038936 0.129571
0.865262 0.029807 0.127251
0.932730 0.019549 0.125620
1.000000 0.007050 0.125025
0.091529 0.073063 0.137568
0.109497 0.073930 0.138087
0.157512 0.076543 0.139714
0.215341 0.079357 0.141497
0.276469 0.081285 0.142756
0.339152 0.081979 0.143208
0.402823 0.081401 0.142829
0.467356 0.079638 0.141674
0.532476 0.076816 0.139886
0.598181 0.073081 0.137575
0.664277 0.068619 0.134922
0.730886 0.063672 0.132140
0.797754 0.058600 0.129457
0.865250 0.053907 0.127164
0.932723 0.050428 0.125588
1.000000 0.049135 0.125025
0.101452 0.116371 0.141569
0.116445 0.116512 0.141703
0.160343 0.116983 0.142176
0.216309 0.117603 0.142791
0.276688 0.117982 0.143175
0.339089 0.117890 0.143089
0.402760 0.117195 0.142392
0.467201 0.115873 0.141071
0.532365 0.113995 0.139198
0.598030 0.111668 0.136877
0.664216 0.109057 0.134268
0.730833 0.106354 0.131574
0.797681 0.103791 0.128999
0.865200 0.101644 0.126860
0.932698 0.100220 0.125426
1.000000 0.099818 0.125025
0.105172 0.167248 0.143186
0.119228 0.167256 0.143195
0.161532 0.167270 0.143209
0.216558 0.167221 0.143149
0.276522 0.167051 0.142893
0.338800 0.166623 0.142285
0.402400 0.165929 0.141232
0.466859 0.164895 0.139726
0.532037 0.163609 0.137781
0.597782 0.162100 0.135498
0.664000 0.160489 0.133002
0.730526 0.158871 0.130470
0.797575 0.157394 0.128154
0.865110 0.156251 0.126284
0.932658 0.155579 0.125191
1.000000 0.155480 0.125025
0.103184 0.222836 0.142316
0.117528 0.222826 0.142279
0.160284 0.222766 0.142119
0.215557 0.222583 0.141779
0.275648 0.222303 0.141197
0.338025 0.221862 0.140297
0.401731 0.221264 0.139065
0.466312 0.220488 0.137473
0.531587 0.219567 0.135553
0.597451 0.218565 0.133397
0.663732 0.217503 0.131124
0.730489 0.216526 0.128918
0.797505 0.215665 0.126999
0.865002 0.215056 0.125601
0.932631 0.214808 0.125028
1.000000 0.214806 0.125025
0.096307 0.282165 0.139422
0.112024 0.282145 0.139368
0.156882 0.282092 0.139170
0.213326 0.281924 0.138752
0.274028 0.281662 0.138078
0.336814 0.281308 0.137121
0.400789 0.280827 0.135880
0.465581 0.280308 0.134365
0.531060 0.279674 0.132630
0.597042 0.279003 0.130744
0.663363 0.278382 0.128867
0.730277 0.277786 0.127146
0.797467 0.277322 0.125809
0.865003 0.277093 0.125083
0.932631 0.277072 0.125025
1.000000 0.277072 0.125025
0.085019 0.344676 0.135222
0.103517 0.344625 0.135173
0.152027 0.344576 0.134979
0.210309 0.344491 0.134582
0.271986 0.344296 0.133963
0.335295 0.344063 0.133111
0.399653 0.343769 0.132031
0.464734 0.343355 0.130763
0.530399 0.343035 0.129380
0.596571 0.342603 0.127961
0.663136 0.342249 0.126656
0.730073 0.341989 0.125610
0.797354 0.341854 0.125059
0.864994 0.341838 0.125025
0.932631 0.341838 0.125025
1.000000 0.341838 0.125025
0.069444 0.409994 0.130605
0.093212 0.409979 0.130582
0.146738 0.409910 0.130412
0.207137 0.409857 0.130120
0.269908 0.409798 0.129639
0.333868 0.409613 0.129010
0.398629 0.409480 0.128248
0.463987 0.409259 0.127388
0.529874 0.409055 0.126509
0.596238 0.408875 0.125737
0.662891 0.408774 0.125191
0.730024 0.408704 0.125025
0.797348 0.408704 0.125025
0.864994 0.408704 0.125025
0.932631 0.408704 0.125025
1.000000 0.408704 0.125025
0.049141 0.477929 0.126739
0.083331 0.477923 0.126719
0.142327 0.477887 0.126637
0.204642 0.477836 0.126466
0.268281 0.477842 0.126224
0.332805 0.477747 0.125903
0.397885 0.477697 0.125559
0.463510 0.477630 0.125250
0.529632 0.477569 0.125051
0.596143 0.477561 0.125025
0.662910 0.477561 0.125025
0.730024 0.477561 0.125025
0.797348 0.477561 0.125025
0.864994 0.477561 0.125025
0.932631 0.477561 0.125025
1.000000 0.477561 0.125025
0.020715 0.548167 0.125029
0.078435 0.548167 0.125028
0.140435 0.548166 0.125026
0.203669 0.548166 0.125025
0.267740 0.548166 0.125025
0.332473 0.548166 0.125025
0.397762 0.548166 0.125025
0.463461 0.548166 0.125025
0.529623 0.548166 0.125025
0.596143 0.548166 0.125025
0.662910 0.548166 0.125025
0.730024 0.548166 0.125025
0.797348 0.548166 0.125025
0.864994 0.548166 0.125025
0.932631 0.548166 0.125025
1.000000 0.548166 0.125025
0.018657 0.620254 0.125025
0.078430 0.620254 0.125025
0.140434 0.620254 0.125025
0.203669 0.620254 0.125025
0.267740 0.620254 0.125025
0.332473 0.620254 0.125025
0.397762 0.620254 0.125025
0.463461 0.620254 0.125025
0.529623 0.620254 0.125025
0.596143 0.620254 0.125025
0.662910 0.620254 0.125025
0.730024 0.620254 0.125025
0.797348 0.620254 0.125025
0.864994 0.620254 0.125025
0.932631 0.620254 0.125025
1.000000 0.620254 0.125025
0.018657 0.693873 0.125025
0.078430 0.693873 0.125025
0.140434 0.693873 0.125025
0.203669 0.693873 0.125025
0.267740 0.693873 0.125025
0.332473 0.693873 0.125025
0.397762 0.693873 0.125025
0.463461 0.693873 0.125025
0.529623 0.693873 0.125025
0.596143 0.693873 0.125025
0.662910 0.693873 0.125025
0.730024 0.693873 0.125025
0.797348 0.693873 0.125025
0.864994 0.693873 0.125025
0.932631 0.693873 0.125025
1.000000 0.693873 0.125025
0.018657 0.768779 0.125025
0.078430 0.768779 0.125025
0.140434 0.768779 0.125025
0.203669 0.768779 0.125025
0.267740 0.768779 0.125025
0.332473 0.768779 0.125025
0.397762 0.768779 0.125025
0.463461 0.768779 0.125025
0.529623 0.768779 0.125025
0.596143 0.768779 0.125025
0.662910 0.768779 0.125025
0.730024 0.768779 0.125025
0.797348 0.768779 0.125025
0.864994 0.768779 0.125025
0.932631 0.768779 0.125025
1.000000 0.768779 0.125025
0.018657 0.845070 0.125025
0.078430 0.845070 0.125025
0.140434 0.845070 0.125025
0.203669 0.845070 0.125025
0.267740 0.845070 0.125025
0.332473 0.845070 0.125025
0.397762 0.845070 0.125025
0.463461 0.845070 0.125025
0.529623 0.845070 0.125025
0.596143 0.845070 0.125025
0.662910 0.845070 0.125025
0.730024 0.845070 0.125025
0.797348 0.845070 0.125025
0.864994 0.845070 0.125025
0.932631 0.845070 0.125025
1.000000 0.845070 0.125025
0.018657 0.922314 0.125025
0.078430 0.922314 0.125025
0.140434 0.922314 0.125025
0.203669 0.922314 0.125025
0.267740 0.922314 0.125025
0.332473 0.922314 0.125025
0.397762 0.922314 0.125025
0.463461 0.922314 0.125025
0.529623 0.922314 0.125025
0.596143 0.922314 0.125025
0.662910 0.922314 0.125025
0.730024 0.922314 0.125025
0.797348 0.922314 0.125025
0.864994 0.922314 0.125025
0.932631 0.922314 0.125025
1.000000 0.922314 0.125025
0.018657 1.000000 0.125025
0.078430 1.000000 0.125025
0.140434 1.000000 0.125025
0.203669 1.000000 0.125025
0.267740 1.000000 0.125025
0.332473 1.000000 0.125025
0.397762 1.000000 0.125025
0.463461 1.000000 0.125025
0.529623 1.000000 0.125025
0.596143 1.000000 0.125025
0.662910 1.000000 0.125025
0.730024 1.000000 0.125025
0.797348 1.000000 0.125025
0.864994 1.000000 0.125025
0.932631 1.000000 0.125025
1.000000 1.000000 0.125025
0.090884 0.058914 0.188108
0.109076 0.060099 0.188483
0.157361 0.063570 0.189601
0.215297 0.067168 0.190851
0.276453 0.069565 0.191714
0.339152 0.070440 0.192030
0.402831 0.069762 0.191776
0.467362 0.067647 0.191022
0.532483 0.064195 0.189803
0.598185 0.059489 0.188278
0.664281 0.053625 0.186568
0.730893 0.046643 0.184794
0.797756 0.038607 0.183109
0.865251 0.029482 0.181708
0.932724 0.019215 0.180725
1.000000 0.007003 0.180402
0.095072 0.075285 0.189180
0.111855 0.075870 0.189414
0.158384 0.077749 0.190199
0.215640 0.079941 0.191157
0.276527 0.081497 0.191823
0.339151 0.081974 0.192028
0.402825 0.081276 0.191708
0.467326 0.079447 0.190927
0.532443 0.076593 0.189706
0.598157 0.072848 0.188192
0.664253 0.068379 0.186463
0.730845 0.063462 0.184704
0.797739 0.058417 0.183054
0.865239 0.053768 0.181647
0.932718 0.050340 0.180709
1.000000 0.049135 0.180402
0.102314 0.116730 0.191181
0.117094 0.116843 0.191238
0.160622 0.117234 0.191519
0.216399 0.117728 0.191830
0.276706 0.118015 0.192031
0.339050 0.117837 0.191920
0.402718 0.117096 0.191411
0.467155 0.115745 0.190521
0.532312 0.113858 0.189265
0.598006 0.111531 0.187750
0.664194 0.108936 0.186069
0.730793 0.106249 0.184355
0.797667 0.103701 0.182773
0.865190 0.101585 0.181467
0.932694 0.100189 0.180590
1.000000 0.099818 0.180402
0.105209 0.167267 0.192028
0.119250 0.167269 0.192031
0.161519 0.167260 0.192031
0.216536 0.167186 0.191971
0.276508 0.167007 0.191773
0.338743 0.166562 0.191340
0.402341 0.165828 0.190608
0.466810 0.164796 0.189603
0.532044 0.163518 0.188329
0.597760 0.162010 0.186860
0.663979 0.160407 0.185257
0.730636 0.158787 0.183651
0.797562 0.157355 0.182236
0.865102 0.156218 0.181125
0.932655 0.155573 0.180462
1.000000 0.155480 0.180402
0.102953 0.222802 0.191345
0.117323 0.222791 0.191334
0.160150 0.222674 0.191215
0.215472 0.222526 0.191007
0.275562 0.222229 0.190583
0.337957 0.221784 0.189988
0.401689 0.221189 0.189180
0.466264 0.220415 0.188118
0.531581 0.219514 0.186888
0.597430 0.218506 0.185503
0.663714 0.217468 0.184079
0.730543 0.216480 0.182727
0.797495 0.215627 0.181549
0.864997 0.215047 0.180701
0.932631 0.214807 0.180400
1.000000 0.214806 0.180402
0.095961 0.282104 0.189425
0.111744 0.282120 0.189377
0.156717 0.282024 0.189237
0.213233 0.281846 0.188980
0.273956 0.281602 0.188527
0.336747 0.281264 0.187901
0.400730 0.280792 0.187085
0.465538 0.280255 0.186116
0.531017 0.279635 0.185022
0.597025 0.278970 0.183844
0.663348 0.278325 0.182683
0.730255 0.277762 0.181626
0.797461 0.277308 0.180846
0.865001 0.277090 0.180434
0.932631 0.277072 0.180402
1.000000 0.277072 0.180402
0.084621 0.344623 0.186663
0.103232 0.344603 0.186630
0.151883 0.344528 0.186524
0.210202 0.344471 0.186262
0.271909 0.344257 0.185857
0.335254 0.344009 0.185319
0.399634 0.343715 0.184649
0.464700 0.343348 0.183861
0.530368 0.342974 0.183001
0.596559 0.342570 0.182142
0.663127 0.342225 0.181326
0.730062 0.341976 0.180718
0.797352 0.341850 0.180418
0.864994 0.341838 0.180402
0.932631 0.341838 0.180402
1.000000 0.341838 0.180402
0.069010 0.409947 0.183752
0.092950 0.409931 0.183738
0.146618 0.409909 0.183618
0.207076 0.409881 0.183453
0.269845 0.409756 0.183154
0.333840 0.409610 0.182750
0.398575 0.409466 0.182289
0.463966 0.409229 0.181774
