src/luts/warm/3.cube
LUT_3D_SIZE 6
0.063201 0.037536 0.061544
0.214665 0.065551 0.090432
0.402922 0.069978 0.094936
0.598209 0.059976 0.084747
0.797781 0.039126 0.063213
1.000000 0.007074 0.028026
0.105134 0.167254 0.095342
0.216588 0.167253 0.095337
0.402415 0.165982 0.091825
0.597797 0.162165 0.079753
0.797583 0.157432 0.057769
1.000000 0.155480 0.027944
0.085266 0.344714 0.079110
0.210369 0.344527 0.077577
0.399702 0.343784 0.070899
0.596579 0.342612 0.056948
0.797355 0.341820 0.032761
1.000000 0.341838 0.027945
0.021134 0.548167 0.029735
0.203669 0.548166 0.027944
0.397762 0.548166 0.027944
0.596143 0.548166 0.027945
0.797348 0.548166 0.027945
1.000000 0.548166 0.027944
0.018657 0.768779 0.027944
0.203669 0.768779 0.027944
0.397762 0.768779 0.027944
0.596143 0.768779 0.027944
0.797348 0.768779 0.027944
1.000000 0.768779 0.027944
0.018657 1.000000 0.027944
0.203669 1.000000 0.027944
0.397762 1.000000 0.027944
0.596143 1.000000 0.027944
0.797348 1.000000 0.027944
1.000000 1.000000 0.027944
0.090884 0.058914 0.188108
0.215297 0.067168 0.190851
0.402831 0.069762 0.191776
0.598185 0.059489 0.188278
0.797756 0.038607 0.183109
1.000000 0.007003 0.180402
0.105209 0.167267 0.192028
0.216536 0.167186 0.191971
0.402341 0.165828 0.190608
0.597760 0.162010 0.186860
0.797562 0.157355 0.182236
1.000000 0.155480 0.180402
0.084621 0.344623 0.186663
0.210202 0.344471 0.186262
0.399634 0.343715 0.184649
0.596559 0.342570 0.182142
0.797352 0.341850 0.180418
1.000000 0.341838 0.180402
0.019932 0.548166 0.180401
0.203669 0.548166 0.180402
0.397762 0.548166 0.180402
0.596143 0.548166 0.180402
0.797348 0.548166 0.180402
1.000000 0.548166 0.180402
0.018657 0.768779 0.180402
0.203669 0.768779 0.180402
0.397762 0.768779 0.180402
0.596143 0.768779 0.180402
0.797348 0.768779 0.180402
1.000000 0.768779 0.180402
0.018657 1.000000 0.180402
0.203669 1.000000 0.180402
0.397762 1.000000 0.180402
0.596143 1.000000 0.180402
0.797348 1.000000 0.180402
1.000000 1.000000 0.180402
0.102906 0.068564 0.367861
0.216463 0.070060 0.368074
0.402712 0.068576 0.367864
0.597985 0.057400 0.366187
0.797655 0.036371 0.364015
1.000000 0.007003 0.363018
0.104733 0.167121 0.368067
0.216182 0.166868 0.367931
0.402083 0.165208 0.367270
0.597639 0.161413 0.365544
0.797502 0.157026 0.363686
1.000000 0.155480 0.363018
0.081850 0.344375 0.365521
0.209562 0.344214 0.365350
0.399417 0.343481 0.364646
0.596500 0.342487 0.363637
0.797348 0.341838 0.363019
1.000000 0.341838 0.363018
0.018657 0.548166 0.363018
0.203669 0.548166 0.363018
0.397762 0.548166 0.363018
0.596143 0.548166 0.363018
0.797348 0.548166 0.363018
1.000000 0.548166 0.363018
0.018657 0.768779 0.363018
0.203669 0.768779 0.363018
0.397762 0.768779 0.363018
0.596143 0.768779 0.363018
0.797348 0.768779 0.363018
1.000000 0.768779 0.363018
0.018657 1.000000 0.363018
0.203669 1.000000 0.363018
0.397762 1.000000 0.363018
0.596143 1.000000 0.363018
0.797348 1.000000 0.363018
1.000000 1.000000 0.363018
0.104975 0.070241 0.566527
0.216312 0.069678 0.566472
0.402116 0.065270 0.566017
0.597683 0.053052 0.564998
0.797525 0.031813 0.563811
1.000000 0.007003 0.563392
0.101616 0.166186 0.566263
0.214986 0.165757 0.566143
0.401447 0.163901 0.565613
0.597344 0.160256 0.564671
0.797466 0.156463 0.563670
1.000000 0.155480 0.563392
0.076089 0.343866 0.564633
0.208371 0.343684 0.564488
0.398990 0.343088 0.564156
0.596360 0.342225 0.563650
0.797348 0.341838 0.563392
1.000000 0.341838 0.563392
0.018657 0.548166 0.563392
0.203669 0.548166 0.563392
0.397762 0.548166 0.563392
0.596143 0.548166 0.563392
0.797348 0.548166 0.563392
1.000000 0.548166 0.563392
0.018657 0.768779 0.563392
0.203669 0.768779 0.563392
0.397762 0.768779 0.563392
0.596143 0.768779 0.563392
0.797348 0.768779 0.563392
1.000000 0.768779 0.563392
0.018657 1.000000 0.563392
0.203669 1.000000 0.563392
0.397762 1.000000 0.563392
0.596143 1.000000 0.563392
0.797348 1.000000 0.563392
1.000000 1.000000 0.563392
0.099687 0.065965 0.778644
0.214345 0.064716 0.778619
0.401145 0.058880 0.778254
0.597190 0.045913 0.777614
0.797500 0.024482 0.776968
1.000000 0.007003 0.776806
0.094223 0.164150 0.778495
0.212713 0.163692 0.778369
0.400561 0.161829 0.777996
0.596912 0.158647 0.777343
0.797434 0.155813 0.776898
1.000000 0.155480 0.776806
0.066628 0.343161 0.777423
0.206686 0.342995 0.777344
0.398511 0.342584 0.777082
0.596216 0.341956 0.776885
0.797348 0.341838 0.776806
1.000000 0.341838 0.776806
0.018657 0.548166 0.776806
0.203669 0.548166 0.776806
0.397762 0.548166 0.776806
0.596143 0.548166 0.776806
0.797348 0.548166 0.776806
1.000000 0.548166 0.776806
0.018657 0.768779 0.776806
0.203669 0.768779 0.776806
0.397762 0.768779 0.776806
0.596143 0.768779 0.776806
0.797348 0.768779 0.776806
1.000000 0.768779 0.776806
0.018657 1.000000 0.776806
0.203669 1.000000 0.776806
0.397762 1.000000 0.776806
0.596143 1.000000 0.776806
0.797348 1.000000 0.776806
1.000000 1.000000 0.776806
0.088237 0.056814 1.000894
0.211073 0.055345 1.000839
0.399928 0.048939 1.000620
0.596709 0.035626 1.000273
0.797370 0.013774 1.000011
1.000000 0.007003 1.000000
0.081890 0.161252 1.000715
0.209579 0.160852 1.000665
0.399425 0.159290 1.000469
0.596501 0.156934 1.000177
0.797348 0.155481 1.000000
1.000000 0.155480 1.000000
0.052653 0.342413 1.000166
0.204944 0.342333 1.000143
0.397977 0.342047 1.000062
0.596143 0.341838 1.000000
0.797348 0.341838 1.000000
1.000000 0.341838 1.000000
0.018657 0.548166 1.000000
0.203669 0.548166 1.000000
0.397762 0.548166 1.000000
0.596143 0.548166 1.000000
0.797348 0.548166 1.000000
1.000000 0.548166 1.000000
0.018657 0.768779 1.000000
0.203669 0.768779 1.000000
0.397762 0.768779 1.000000
0.596143 0.768779 1.000000
0.797348 0.768779 1.000000
1.000000 0.768779 1.000000
0.018657 1.000000 1.000000
0.203669 1.000000 1.000000
0.397762 1.000000 1.000000
0.596143 1.000000 1.000000
0.797348 1.000000 1.000000
1.000000 1.000000 1.000000
