src/luts/warm/4.cube
LUT_3D_SIZE 6
0.000000 0.000000 0.000000
0.262962 -0.000813 -0.000813
0.469848 -0.001625 -0.001625
0.688412 -0.002438 -0.002438
0.871450 -0.003250 -0.003250
0.978602 -0.004063 -0.004063
-0.001347 0.153945 -0.001347
0.262961 0.153944 -0.001501
0.469847 0.194251 -0.001996
0.688452 0.237572 -0.002667
0.871450 0.260548 -0.003408
0.978602 0.254279 -0.004180
-0.002694 0.353804 -0.002694
0.309067 0.353804 -0.002756
0.469845 0.353803 -0.003003
0.688451 0.431492 -0.003431
0.871449 0.472735 -0.003991
0.978602 0.461473 -0.004637
-0.004041 0.610084 -0.004041
0.355636 0.610084 -0.004077
0.539933 0.610083 -0.004225
0.688450 0.610083 -0.004504
0.871449 0.668127 -0.004906
0.978602 0.652280 -0.005409
-0.005388 0.853322 -0.005388
0.379292 0.853322 -0.005412
0.575599 0.853321 -0.005512
0.733814 0.853321 -0.005709
0.871447 0.853320 -0.006005
0.978602 0.833148 -0.006393
-0.006735 1.000027 -0.006735
0.372936 1.000027 -0.006753
0.565952 1.000027 -0.006827
0.721525 1.000027 -0.006974
0.856875 1.000027 -0.007201
0.978602 1.000027 -0.007507
-0.000518 -0.000518 0.083848
0.262962 -0.000918 0.083848
0.469848 -0.001668 0.115782
0.688412 -0.002462 0.152434
0.871450 -0.003267 0.172731
0.978602 -0.004075 0.167135
-0.001402 0.153945 0.083848
0.262961 0.153944 0.083848
0.506100 0.131407 0.067183
0.726221 0.107909 0.050995
0.891326 0.093470 0.041719
0.978602 0.153943 0.083846
-0.002715 0.353804 0.115787
0.202625 0.362300 0.049534
0.471521 0.355616 0.046048
0.704439 0.426395 0.041521
0.883621 0.454745 0.037550
0.978602 0.439354 0.083844
-0.004053 0.610084 0.152428
0.175543 0.617329 0.037083
0.526002 0.615047 0.036345
0.689590 0.611526 0.035156
0.876498 0.665088 0.033834
0.978602 0.643236 0.083835
-0.005396 0.853322 0.172727
0.164839 0.856983 0.032653
0.553527 0.856422 0.032476
0.728447 0.855456 0.032157
0.871985 0.854055 0.031774
0.978602 0.829793 0.083831
-0.006741 1.000027 0.167121
0.262941 1.000027 0.083828
0.546803 1.000027 0.083827
0.714466 1.000027 0.083826
0.854461 1.000027 0.083823
0.978602 1.000027 0.083820
-0.001036 -0.001036 0.260434
0.309061 -0.001246 0.260434
0.469847 -0.001836 0.260434
0.688412 -0.002564 0.339037
0.871450 -0.003336 0.382616
0.978602 -0.004126 0.370578
-0.001609 0.194243 0.260434
0.253838 0.146295 0.309163
0.500390 0.125574 0.293539
0.722816 0.105632 0.350868
0.890244 0.092560 0.368861
0.978602 0.153942 0.347257
-0.002804 0.353804 0.260432
0.199933 0.359715 0.266243
0.469845 0.353803 0.260431
0.731412 0.329445 0.236758
0.913368 0.291264 0.200710
0.978602 0.353863 0.260425
-0.004105 0.610084 0.339047
0.174936 0.616502 0.323709
0.396203 0.628297 0.187874
0.691761 0.614310 0.174475
0.892827 0.639215 0.158373
0.978602 0.613773 0.260421
-0.005431 0.853322 0.382606
0.164669 0.856670 0.355570
0.340060 0.867125 0.139689
0.697921 0.862552 0.134749
0.873547 0.856273 0.128163
0.978602 0.819196 0.260415
-0.006767 1.000027 0.370563
0.262940 1.000027 0.347251
0.469837 1.000027 0.260411
0.691335 1.000027 0.260410
0.846760 1.000027 0.260391
0.978602 1.000027 0.260439
-0.001554 -0.001554 0.535569
0.355648 -0.001683 0.535569
0.539912 -0.002123 0.535568
0.688452 -0.002754 0.535567
0.871450 -0.003470 0.603497
0.978602 -0.004227 0.584782
-0.001943 0.237574 0.535568
0.234951 0.130855 0.639142
0.562490 0.116668 0.611472
0.717160 0.101767 0.578076
0.888414 0.090913 0.615354
0.978602 0.153942 0.574140
-0.002973 0.431493 0.535567
0.195256 0.435557 0.574551
0.462218 0.345665 0.610697
0.727638 0.320920 0.594139
0.911013 0.284727 0.596149
0.978602 0.353862 0.539846
-0.004207 0.610083 0.535564
0.173760 0.614992 0.541238
0.390776 0.623284 0.550883
0.688449 0.610083 0.535563
0.899990 0.584455 0.506157
0.978602 0.610080 0.535560
-0.005500 0.853321 0.603494
0.164368 0.856390 0.596188
0.337901 0.865509 0.552325
0.615672 0.868661 0.434270
0.874168 0.857215 0.408382
0.978602 0.817958 0.535555
-0.006818 1.000027 0.584778
0.262940 1.000027 0.574138
0.469836 1.000027 0.539837
0.688443 1.000027 0.535552
0.845847 1.000027 0.535551
0.978602 1.000027 0.535549
-0.002072 -0.002072 0.831734
0.379305 -0.002161 0.831734
0.575606 -0.002493 0.831734
0.733818 -0.003024 0.831734
0.871450 -0.003671 0.831733
0.978602 -0.004382 0.806178
-0.002352 0.260552 0.831734
0.215601 0.115594 0.910885
0.575455 0.107197 0.895186
0.747353 0.097047 0.874667
0.885918 0.088693 0.857725
0.978602 0.153940 0.801873
-0.003219 0.472737 0.831733
0.189397 0.462770 0.872309
0.451530 0.334271 0.915788
0.735103 0.310045 0.911159
0.907311 0.275402 0.896650
0.978602 0.353862 0.788521
-0.004362 0.668128 0.831732
0.172120 0.669002 0.847220
0.382914 0.650804 0.887512
0.681612 0.601506 0.891426
0.897661 0.575519 0.879016
0.978602 0.610080 0.786944
-0.005608 0.853321 0.831729
0.163931 0.855797 0.834923
0.334534 0.863119 0.844285
0.608581 0.864730 0.846358
0.871447 0.853320 0.831728
0.978602 0.853319 0.831727
-0.006898 1.000027 0.806174
0.262938 1.000027 0.801870
0.469836 1.000027 0.788517
0.688443 1.000027 0.786940
0.871445 1.000027 0.831724
0.978602 1.000027 0.831724
-0.002591 -0.002591 1.000032
0.372926 -0.002656 1.000032
0.565962 -0.002914 1.000032
0.721531 -0.003358 1.000032
0.856878 -0.003933 1.000032
0.978602 -0.004589 1.000032
-0.002803 0.254286 1.000032
0.262969 0.153941 1.000032
0.546811 0.153940 1.000032
0.714469 0.153938 1.000032
0.854464 0.153943 1.000032
0.978602 0.153939 1.000032
-0.003528 0.461476 1.000032
0.262965 0.439355 1.000032
0.469843 0.353800 1.000032
0.691341 0.353799 1.000032
0.846763 0.353864 1.000032
0.978602 0.353860 1.000032
-0.004571 0.652281 1.000032
0.262967 0.643236 1.000032
0.469839 0.613774 1.000032
0.688449 0.610082 1.000032
0.845849 0.610081 1.000032
0.978602 0.610080 1.000032
-0.005757 0.833149 1.000032
0.262955 0.829794 1.000032
0.469844 0.819197 1.000032
0.688446 0.817959 1.000032
0.871447 0.853320 1.000032
0.978602 0.853319 1.000032
-0.007011 1.000027 1.000032
0.262937 1.000027 1.000032
0.469835 1.000027 1.000032
0.688443 1.000027 1.000032
0.871445 1.000027 1.000032
0.978602 1.000027 1.000032
