src/luts/warm/4.cube
LUT_3D_SIZE 16
0.000000 0.000000 0.000000
0.125906 -0.000271 -0.000271
0.197346 -0.000542 -0.000542
0.262962 -0.000813 -0.000813
0.329265 -0.001083 -0.001083
0.398499 -0.001354 -0.001354
0.469848 -0.001625 -0.001625
0.542381 -0.001896 -0.001896
0.615646 -0.002167 -0.002167
0.688412 -0.002438 -0.002438
0.757363 -0.002709 -0.002709
0.819285 -0.002980 -0.002980
0.871450 -0.003250 -0.003250
0.913323 -0.003521 -0.003521
0.948079 -0.003792 -0.003792
0.978602 -0.004063 -0.004063
-0.000449 0.053185 -0.000449
0.125906 0.053185 -0.000500
0.197346 0.055078 -0.000665
0.262962 0.058224 -0.000889
0.329265 0.062578 -0.001136
0.398499 0.067904 -0.001393
0.469848 0.073612 -0.001656
0.542381 0.079346 -0.001921
0.615646 0.085000 -0.002187
0.688412 0.090328 -0.002455
0.757363 0.094762 -0.002724
0.819285 0.097833 -0.002993
0.871450 0.099271 -0.003262
0.913323 0.099127 -0.003532
0.948079 0.098140 -0.003801
0.978602 0.096804 -0.004071
-0.000898 0.101730 -0.000898
0.128984 0.101730 -0.000919
0.197346 0.101730 -0.001001
0.262962 0.107540 -0.001144
0.329265 0.115582 -0.001331
0.398499 0.125415 -0.001546
0.469847 0.135975 -0.001778
0.542381 0.146559 -0.002022
0.615646 0.156980 -0.002272
0.688412 0.166768 -0.002528
0.757363 0.174892 -0.002787
0.819285 0.180516 -0.003048
0.871450 0.183126 -0.003311
0.913323 0.182891 -0.003576
0.948079 0.181059 -0.003841
0.978602 0.178648 -0.004108
-0.001347 0.153945 -0.001347
0.134049 0.153945 -0.001359
0.205089 0.153945 -0.001408
0.262961 0.153944 -0.001501
0.329264 0.165409 -0.001635
0.398498 0.179350 -0.001803
0.469847 0.194251 -0.001996
0.542381 0.209152 -0.002207
0.615645 0.223805 -0.002432
0.688452 0.237572 -0.002667
0.757363 0.248972 -0.002909
0.819285 0.256896 -0.003157
0.871450 0.260548 -0.003408
0.913323 0.260219 -0.003664
0.948079 0.257649 -0.003921
0.978602 0.254279 -0.004180
-0.001796 0.212720 -0.001796
0.140917 0.212720 -0.001804
0.215606 0.212720 -0.001838
0.276408 0.212720 -0.001903
0.329264 0.212720 -0.002002
0.398498 0.230502 -0.002131
0.469847 0.249456 -0.002287
0.542381 0.268444 -0.002465
0.615645 0.287085 -0.002661
0.688452 0.304615 -0.002871
0.757363 0.319184 -0.003091
0.819285 0.329254 -0.003320
0.871450 0.333919 -0.003556
0.913323 0.333486 -0.003798
0.948079 0.330237 -0.004043
0.978602 0.325909 -0.004292
-0.002245 0.279611 -0.002245
0.149121 0.279611 -0.002251
0.228152 0.279611 -0.002276
0.292397 0.279611 -0.002325
0.348227 0.279610 -0.002400
0.398497 0.279610 -0.002502
0.469846 0.302458 -0.002629
0.542380 0.325387 -0.002777
0.615645 0.347876 -0.002945
0.688452 0.369050 -0.003129
0.757363 0.386621 -0.003326
0.819284 0.398767 -0.003535
0.871450 0.404412 -0.003752
0.913323 0.403920 -0.003978
0.948079 0.400001 -0.004208
0.978602 0.394771 -0.004445
-0.002694 0.353804 -0.002694
0.157690 0.353804 -0.002699
0.241283 0.353804 -0.002718
0.309067 0.353804 -0.002756
0.367951 0.353804 -0.002816
0.421015 0.353803 -0.002898
0.469845 0.353803 -0.003003
0.542379 0.380529 -0.003127
0.615644 0.406814 -0.003271
0.688451 0.431492 -0.003431
0.757383 0.451946 -0.003606
0.819284 0.466134 -0.003793
0.871449 0.472735 -0.003991
0.913323 0.472080 -0.004199
0.948079 0.467526 -0.004414
0.978602 0.461473 -0.004637
-0.003143 0.434278 -0.003143
0.166108 0.434278 -0.003147
0.254156 0.434278 -0.003162
0.325433 0.434278 -0.003193
0.387336 0.434278 -0.003242
0.443076 0.434278 -0.003310
0.494461 0.434277 -0.003397
0.542378 0.434277 -0.003503
0.615644 0.464160 -0.003626
0.688451 0.492281 -0.003766
0.757383 0.515605 -0.003920
0.819283 0.531756 -0.004089
0.871449 0.539201 -0.004268
0.913323 0.538526 -0.004458
0.948078 0.533345 -0.004657
0.978602 0.526378 -0.004864
-0.003592 0.520284 -0.003592
0.174205 0.520284 -0.003595
0.266540 0.520284 -0.003608
0.341123 0.520284 -0.003634
0.405891 0.520284 -0.003675
0.464305 0.520284 -0.003732
0.518075 0.520284 -0.003806
0.568264 0.520284 -0.003897
0.615643 0.520283 -0.004003
0.688450 0.551787 -0.004126
0.757383 0.577839 -0.004263
0.819282 0.595913 -0.004413
0.871449 0.604317 -0.004575
0.913322 0.603565 -0.004748
0.948078 0.597695 -0.004931
0.978602 0.589949 -0.005123
-0.004041 0.610084 -0.004041
0.181716 0.610084 -0.004044
0.277985 0.610084 -0.004055
0.355636 0.610084 -0.004077
0.423118 0.610084 -0.004112
0.483931 0.610083 -0.004161
0.539933 0.610083 -0.004225
0.592203 0.610083 -0.004303
0.641573 0.610083 -0.004396
0.688450 0.610083 -0.004504
0.757382 0.638883 -0.004625
0.819281 0.658839 -0.004760
0.871449 0.668127 -0.004906
0.913322 0.667274 -0.005064
0.948078 0.660779 -0.005232
0.978602 0.652280 -0.005409
-0.004490 0.698816 -0.004490
0.187814 0.698816 -0.004492
0.287322 0.698816 -0.004502
0.367450 0.698816 -0.004521
0.437139 0.698816 -0.004551
0.499939 0.698816 -0.004594
0.557755 0.698816 -0.004650
0.611747 0.698816 -0.004718
0.662687 0.698815 -0.004800
0.711021 0.698815 -0.004896
0.757382 0.698815 -0.005005
0.819280 0.720587 -0.005125
0.871448 0.730802 -0.005258
0.913322 0.729917 -0.005401
0.948078 0.722807 -0.005555
0.978602 0.713449 -0.005718
-0.004940 0.781622 -0.004940
0.192023 0.781622 -0.004941
0.293704 0.781622 -0.004950
0.375594 0.781622 -0.004967
0.446768 0.781622 -0.004993
0.510892 0.781622 -0.005031
0.569970 0.781622 -0.005079
0.625154 0.781621 -0.005141
0.677172 0.781621 -0.005214
0.726627 0.781621 -0.005299
0.773830 0.781620 -0.005396
0.819279 0.781620 -0.005505
0.871448 0.792476 -0.005626
0.913321 0.791544 -0.005757
0.948077 0.783810 -0.005898
0.978602 0.773749 -0.006048
-0.005388 0.853322 -0.005388
0.193932 0.853322 -0.005390
0.296615 0.853322 -0.005397
0.379292 0.853322 -0.005412
0.451176 0.853322 -0.005436
0.515967 0.853321 -0.005469
0.575599 0.853321 -0.005512
0.631298 0.853321 -0.005567
0.683910 0.853321 -0.005632
0.733814 0.853321 -0.005709
0.781462 0.853321 -0.005797
0.827320 0.853321 -0.005896
0.871447 0.853320 -0.006005
0.913321 0.852303 -0.006125
0.948077 0.843980 -0.006255
0.978602 0.833148 -0.006393
-0.005838 0.912246 -0.005838
0.193716 0.912246 -0.005840
0.296350 0.912246 -0.005845
0.378990 0.912246 -0.005859
0.450768 0.912246 -0.005880
0.515517 0.912245 -0.005910
0.575109 0.912246 -0.005949
0.630702 0.912245 -0.005999
0.683284 0.912245 -0.006058
0.733121 0.912245 -0.006127
0.780764 0.912245 -0.006206
0.826593 0.912245 -0.006297
0.870695 0.912245 -0.006396
0.913320 0.912244 -0.006507
0.948076 0.903490 -0.006625
0.978602 0.891912 -0.006754
-0.006286 0.960954 -0.006286
0.192345 0.960954 -0.006288
0.294315 0.960954 -0.006293
0.376376 0.960953 -0.006305
0.447674 0.960953 -0.006325
0.511986 0.960953 -0.006351
0.571146 0.960953 -0.006387
0.626413 0.960953 -0.006431
0.678567 0.960953 -0.006485
0.728076 0.960953 -0.006548
0.775439 0.960953 -0.006620
0.820952 0.960953 -0.006703
0.864760 0.960953 -0.006795
0.907125 0.960953 -0.006896
0.948076 0.960952 -0.007006
0.978602 0.949125 -0.007125
-0.006735 1.000027 -0.006735
0.190526 1.000027 -0.006737
0.291563 1.000027 -0.006742
0.372936 1.000027 -0.006753
0.443579 1.000027 -0.006770
0.507300 1.000027 -0.006795
0.565952 1.000027 -0.006827
0.620689 1.000027 -0.006867
0.672366 1.000027 -0.006916
0.721525 1.000027 -0.006974
0.768461 1.000027 -0.007041
0.813556 1.000027 -0.007117
0.856875 1.000027 -0.007201
0.898947 1.000027 -0.007294
0.939453 1.000027 -0.007396
0.978602 1.000027 -0.007507
-0.000173 -0.000173 0.018957
0.125906 -0.000306 0.018957
0.197346 -0.000556 0.019904
0.262962 -0.000821 0.021515
0.329265 -0.001089 0.023799
0.398499 -0.001358 0.026679
0.469848 -0.001628 0.029866
0.542381 -0.001898 0.033172
0.615646 -0.002169 0.036522
0.688412 -0.002440 0.039769
0.757363 -0.002710 0.042526
0.819285 -0.002981 0.044468
0.871450 -0.003251 0.045377
0.913323 -0.003522 0.045292
0.948079 -0.003793 0.044652
0.978602 -0.004064 0.043811
-0.000467 0.053185 0.018957
0.125906 0.053185 0.018957
0.208433 0.046430 0.015675
0.274687 0.038944 0.012261
0.339492 0.034127 0.010189
0.407041 0.031245 0.009007
0.476891 0.029563 0.008337
0.548339 0.028617 0.007967
0.620676 0.028137 0.007779
0.692518 0.027981 0.007721
0.760576 0.028051 0.007748
0.821782 0.028283 0.007836
0.873156 0.028665 0.007986
0.914594 0.029141 0.008173
0.949082 0.029694 0.008388
0.978602 0.053160 0.018943
-0.000905 0.101730 0.019903
0.100109 0.103537 0.011935
0.197869 0.102118 0.011170
0.267871 0.106263 0.010146
0.335437 0.112533 0.009243
0.404665 0.120598 0.008576
0.475514 0.129481 0.008140
0.547434 0.138670 0.007874
0.620119 0.147811 0.007750
0.692166 0.156480 0.007721
0.760463 0.163662 0.007764
0.821671 0.168573 0.007862
0.873033 0.170730 0.008018
0.914538 0.170360 0.008206
0.949062 0.168613 0.008421
0.978602 0.168266 0.018944
-0.001351 0.153945 0.021514
0.087669 0.155399 0.009133
0.200304 0.154952 0.008959
0.263318 0.154251 0.008690
0.331806 0.165237 0.008375
0.402017 0.178517 0.008106
0.473656 0.192557 0.007895
0.546217 0.206663 0.007771
0.619220 0.220481 0.007722
0.691629 0.233505 0.007737
0.759984 0.244218 0.007804
0.821334 0.251537 0.007921
0.872987 0.254772 0.008084
0.914418 0.254227 0.008275
0.948957 0.251616 0.008496
0.978602 0.249000 0.018943
-0.001799 0.212720 0.023797
0.082614 0.213917 0.008103
0.208136 0.213739 0.008061
0.274686 0.213412 0.007985
0.329524 0.212970 0.007890
0.399994 0.230585 0.007805
0.472001 0.249178 0.007746
0.544909 0.267774 0.007721
0.618244 0.285891 0.007736
0.690879 0.302908 0.007790
0.759427 0.316895 0.007885
0.820955 0.326489 0.008024
0.872733 0.330759 0.008191
0.914313 0.330063 0.008385
0.948890 0.326721 0.008617
0.978602 0.322655 0.018943
-0.002247 0.279611 0.026678
0.080861 0.280600 0.007757
0.218941 0.280522 0.007749
0.289385 0.280340 0.007737
0.347450 0.280097 0.007726
0.398731 0.279797 0.007721
0.470828 0.302591 0.007731
0.543871 0.325364 0.007761
0.617398 0.347605 0.007816
0.690165 0.368402 0.007906
0.759004 0.385533 0.008028
0.820730 0.397315 0.008175
0.872488 0.402519 0.008347
0.914154 0.401740 0.008551
0.948795 0.397737 0.008780
0.978602 0.392532 0.018941
-0.002696 0.353804 0.029859
0.080788 0.354674 0.007743
0.230739 0.354643 0.007747
0.305148 0.354507 0.007756
0.366380 0.354343 0.007772
0.420562 0.354175 0.007800
0.469975 0.353975 0.007841
0.543088 0.380731 0.007905
0.616677 0.406821 0.007992
0.689598 0.431276 0.008100
0.758546 0.451509 0.008230
0.820331 0.465310 0.008381
0.872236 0.471600 0.008566
0.914056 0.470751 0.008771
0.948731 0.466059 0.008992
0.978602 0.459865 0.018941
-0.003144 0.434278 0.033167
0.081681 0.435044 0.007916
0.242605 0.435029 0.007925
0.320820 0.434946 0.007944
0.385190 0.434859 0.007974
0.442193 0.434746 0.008017
0.494171 0.434619 0.008077
0.542540 0.434466 0.008151
0.616166 0.464350 0.008246
0.689126 0.492298 0.008358
0.758092 0.515418 0.008496
0.820070 0.531363 0.008662
0.872031 0.538514 0.008842
0.913890 0.537706 0.009041
0.948597 0.532356 0.009273
0.978602 0.525250 0.018938
-0.003593 0.520284 0.036510
0.083215 0.520899 0.008221
0.254126 0.520969 0.008232
0.335986 0.520913 0.008252
0.403362 0.520829 0.008285
0.463060 0.520770 0.008331
0.517479 0.520619 0.008392
0.568113 0.520544 0.008474
0.615769 0.520454 0.008578
0.688753 0.551848 0.008698
0.757843 0.577813 0.008835
0.819774 0.595691 0.008991
0.871894 0.603898 0.009178
0.913721 0.602971 0.009378
0.948578 0.597046 0.009595
0.978602 0.589034 0.018937
-0.004042 0.610084 0.039753
0.085176 0.610590 0.008617
0.264818 0.610610 0.008628
0.350032 0.610573 0.008650
0.420187 0.610572 0.008684
0.482335 0.610473 0.008733
0.539046 0.610456 0.008797
0.591775 0.610359 0.008878
0.641438 0.610273 0.008974
0.688487 0.610171 0.009095
0.757574 0.638904 0.009237
0.819621 0.658774 0.009392
0.871698 0.667855 0.009565
0.913608 0.666847 0.009767
0.948395 0.660380 0.009982
0.978602 0.651570 0.018933
-0.004491 0.698816 0.042503
0.087433 0.699301 0.009081
0.273573 0.699290 0.009093
0.361467 0.699225 0.009114
0.433928 0.699192 0.009150
0.498071 0.699186 0.009199
0.556593 0.699115 0.009265
0.611087 0.699124 0.009343
0.662351 0.699013 0.009440
0.711024 0.699018 0.009552
0.757334 0.698934 0.009689
0.819384 0.720655 0.009848
0.871570 0.730536 0.010017
0.913482 0.729580 0.010203
0.948292 0.722375 0.010418
0.978602 0.712917 0.018929
-0.004940 0.781622 0.044435
0.089918 0.781941 0.009608
0.279627 0.781924 0.009619
0.369372 0.781890 0.009639
0.443341 0.781837 0.009673
0.508867 0.781865 0.009722
0.568663 0.781833 0.009787
0.624306 0.781716 0.009866
0.676754 0.781809 0.009960
0.726369 0.781715 0.010069
0.773743 0.781670 0.010197
0.819279 0.781620 0.010351
0.871473 0.792477 0.010517
0.913462 0.791507 0.010699
0.948303 0.783765 0.010900
0.978602 0.773389 0.018925
-0.005389 0.853322 0.045341
0.092557 0.853492 0.010187
0.282396 0.853486 0.010198
0.372972 0.853475 0.010218
0.447614 0.853458 0.010251
0.513744 0.853434 0.010298
0.574203 0.853539 0.010359
0.630376 0.853503 0.010436
0.683256 0.853461 0.010526
0.733337 0.853454 0.010633
0.781247 0.853454 0.010754
0.827328 0.853455 0.010899
0.871442 0.853401 0.011059
0.913416 0.852212 0.011236
0.948226 0.843944 0.011425
0.978602 0.832900 0.018921
-0.005838 0.912246 0.045237
0.095337 0.912535 0.010813
0.282208 0.912531 0.010824
0.372646 0.912523 0.010843
0.447209 0.912511 0.010875
0.513242 0.912494 0.010918
0.573615 0.912472 0.010977
0.629696 0.912445 0.011051
0.682557 0.912413 0.011138
0.732664 0.912379 0.011238
0.780545 0.912342 0.011354
0.826423 0.912303 0.011490
0.870559 0.912262 0.011649
0.913368 0.912312 0.011817
0.948182 0.903463 0.011999
0.978602 0.891694 0.018914
-0.006287 0.960954 0.044595
0.098201 0.961182 0.011477
0.280367 0.961179 0.011486
0.370111 0.961173 0.011504
0.444137 0.961165 0.011538
0.509720 0.961152 0.011579
0.569679 0.961137 0.011632
0.625381 0.961118 0.011700
0.677854 0.961095 0.011782
0.727582 0.961068 0.011880
0.775151 0.961041 0.011992
0.820777 0.961102 0.012125
0.864641 0.961070 0.012274
0.907110 0.961039 0.012435
0.948095 0.961008 0.012608
0.978602 0.949073 0.018910
-0.006736 1.000027 0.043741
0.125755 1.000027 0.018915
0.279704 1.000027 0.018915
0.367501 1.000027 0.018915
0.440482 1.000027 0.018915
0.505298 1.000027 0.018914
0.564588 1.000027 0.018914
0.619715 1.000027 0.018914
0.671702 1.000027 0.018913
0.720940 1.000027 0.018912
0.768020 1.000027 0.018911
0.813227 1.000027 0.018910
0.856663 1.000027 0.018909
0.898754 1.000027 0.018909
0.939494 1.000027 0.018905
0.978602 1.000027 0.018903
-0.000345 -0.000345 0.046961
0.128985 -0.000415 0.046961
0.197346 -0.000612 0.046961
0.262962 -0.000854 0.050756
0.329265 -0.001112 0.056145
0.398499 -0.001375 0.062938
0.469848 -0.001641 0.070469
0.542381 -0.001909 0.078266
0.615646 -0.002178 0.086173
0.688412 -0.002447 0.093757
0.757363 -0.002716 0.100169
0.819285 -0.002987 0.104649
0.871450 -0.003256 0.106752
0.913323 -0.003527 0.106553
0.948079 -0.003797 0.105089
0.978602 -0.004068 0.103160
-0.000536 0.055079 0.046961
0.122174 0.050926 0.053706
0.206683 0.044612 0.051560
0.273622 0.038199 0.052324
0.338940 0.033822 0.055342
0.406715 0.031115 0.060251
0.476767 0.029502 0.066189
0.548236 0.028587 0.072647
0.620638 0.028126 0.079344
0.692523 0.027981 0.085877
0.760542 0.028056 0.091381
0.821805 0.028291 0.095209
0.873183 0.028674 0.096893
0.914581 0.029148 0.096593
0.949073 0.029702 0.095208
0.978602 0.053160 0.094946
-0.000935 0.101730 0.046960
0.098913 0.102994 0.047781
0.197346 0.101730 0.046960
0.276334 0.096489 0.043609
0.352126 0.088017 0.038352
0.424694 0.079883 0.033486
0.495756 0.073209 0.029640
0.566566 0.067963 0.026709
0.637637 0.063882 0.024493
0.707533 0.060748 0.022828
0.772968 0.058354 0.021582
0.831518 0.056515 0.020637
0.880327 0.055123 0.019927
0.919895 0.054087 0.019406
0.953373 0.053317 0.019022
0.978602 0.101716 0.046957
-0.001368 0.153945 0.050755
0.087382 0.155239 0.048528
0.174004 0.157678 0.036422
0.263987 0.154810 0.034373
0.340285 0.162435 0.031858
0.414674 0.171715 0.029303
0.488098 0.181600 0.026977
0.561021 0.191690 0.025006
0.633603 0.201836 0.023394
0.704672 0.211334 0.022114
0.771094 0.218980 0.021102
0.830346 0.223818 0.020320
0.879588 0.225296 0.019719
0.919457 0.223921 0.019263
0.953059 0.221091 0.018932
0.978602 0.224434 0.046956
-0.001810 0.212720 0.056144
0.082545 0.213848 0.052336
0.154972 0.217316 0.028833
0.265888 0.215785 0.028023
0.330312 0.213692 0.026911
0.405753 0.230097 0.025657
0.480669 0.246927 0.024382
0.555055 0.263455 0.023190
0.628931 0.279395 0.022142
0.701290 0.294111 0.021245
0.768693 0.305749 0.020506
0.828727 0.313245 0.019908
0.878594 0.315794 0.019441
0.918873 0.314104 0.019075
0.952629 0.310268 0.018808
0.978602 0.308338 0.046955
-0.002256 0.279611 0.062939
0.080845 0.280575 0.057938
0.142883 0.284109 0.024473
0.273792 0.283220 0.024111
0.343469 0.282028 0.023601
0.399406 0.280539 0.022975
0.474858 0.302865 0.022302
0.549963 0.324694 0.021619
0.624678 0.345724 0.020977
0.697845 0.364973 0.020396
0.766242 0.380439 0.019894
0.826964 0.390432 0.019477
0.877494 0.394109 0.019134
0.918049 0.392271 0.018870
0.952012 0.387693 0.018674
0.978602 0.383019 0.046954
-0.002702 0.353804 0.070469
0.080794 0.354669 0.064401
0.135166 0.357966 0.021877
0.284635 0.357393 0.021707
0.358883 0.356656 0.021459
0.418484 0.355751 0.021143
0.470628 0.354659 0.020781
0.545986 0.381178 0.020403
0.621164 0.406790 0.020027
0.694892 0.430365 0.019671
0.763877 0.449344 0.019357
0.825303 0.461858 0.019080
0.876252 0.466629 0.018856
0.917270 0.464807 0.018680
0.951463 0.459541 0.018549
0.978602 0.453054 0.046953
-0.003149 0.434278 0.078262
0.081696 0.435024 0.071244
0.130267 0.438020 0.020308
0.296679 0.437726 0.020221
0.375010 0.437244 0.020096
0.437908 0.436672 0.019929
0.492989 0.435864 0.019740
0.543030 0.435028 0.019534
0.618334 0.464846 0.019323
0.692350 0.492405 0.019114
0.761818 0.514758 0.018932
0.823731 0.529673 0.018768
0.875149 0.535711 0.018633
0.916453 0.533919 0.018529
0.950935 0.528005 0.018460
0.978602 0.520224 0.046951
-0.003598 0.520284 0.086169
0.083228 0.520996 0.078246
0.127196 0.523669 0.019352
0.308939 0.523475 0.019310
0.391123 0.523136 0.019246
0.456975 0.522698 0.019159
0.514823 0.522275 0.019065
0.567372 0.521595 0.018958
0.616185 0.520966 0.018845
0.690449 0.552350 0.018736
0.760134 0.577917 0.018637
0.822268 0.594989 0.018551
0.874218 0.602298 0.018483
0.915810 0.600624 0.018440
0.950340 0.594189 0.018421
0.978602 0.585254 0.046955
-0.004046 0.610084 0.093754
0.085197 0.610584 0.085041
0.125380 0.613033 0.018799
0.320668 0.612887 0.018779
0.406267 0.612670 0.018748
0.474851 0.612381 0.018710
0.535151 0.612064 0.018663
0.589974 0.611637 0.018612
0.640967 0.611140 0.018557
0.688844 0.610654 0.018509
0.758773 0.639310 0.018468
0.821225 0.658711 0.018439
0.873447 0.667096 0.018423
0.915120 0.665428 0.018424
0.949803 0.658447 0.018440
0.978602 0.648778 0.046953
-0.004494 0.698816 0.100166
0.087447 0.699297 0.090800
0.124434 0.701298 0.018511
0.330296 0.701218 0.018502
0.418633 0.701069 0.018492
0.489505 0.700941 0.018478
0.551639 0.700631 0.018462
0.608321 0.700306 0.018447
0.661085 0.700117 0.018434
0.710625 0.699713 0.018424
0.757705 0.699326 0.018423
0.820238 0.720766 0.018428
0.872680 0.730336 0.018447
0.914578 0.728806 0.018477
0.949360 0.721226 0.018523
0.978602 0.710920 0.046952
-0.004943 0.781622 0.104645
0.089939 0.781935 0.094870
0.124135 0.783532 0.018423
0.336861 0.783428 0.018423
0.427106 0.783352 0.018422
0.499351 0.783163 0.018423
0.562866 0.783037 0.018424
0.620845 0.782995 0.018429
0.674673 0.782706 0.018439
0.725387 0.782455 0.018454
0.773567 0.782293 0.018474
0.819533 0.781917 0.018505
0.872059 0.792527 0.018549
0.914190 0.791027 0.018605
0.948988 0.782978 0.018672
0.978602 0.771857 0.046949
-0.005391 0.853322 0.106725
0.092575 0.853490 0.096765
0.124312 0.854811 0.018475
0.339745 0.854745 0.018479
0.430735 0.854678 0.018486
0.503678 0.854576 0.018494
0.567737 0.854454 0.018509
0.626201 0.854364 0.018527
0.680552 0.854218 0.018552
0.731779 0.854156 0.018584
0.780482 0.853933 0.018624
0.826939 0.853716 0.018671
0.871562 0.853586 0.018730
0.913741 0.852171 0.018800
0.948713 0.843620 0.018881
0.978602 0.831794 0.046945
-0.005841 0.912246 0.106532
0.095361 0.912534 0.096645
0.124881 0.913339 0.018647
0.339126 0.913344 0.018652
0.429975 0.913358 0.018665
0.502792 0.913251 0.018679
0.566801 0.913177 0.018699
0.625147 0.913101 0.018726
0.679450 0.913078 0.018761
0.730609 0.912950 0.018801
0.779228 0.912830 0.018849
0.825671 0.912723 0.018908
0.870339 0.912628 0.018977
0.913441 0.912494 0.019055
0.948480 0.903446 0.019143
0.978602 0.891064 0.046941
-0.006288 0.960954 0.105071
0.098200 0.961181 0.095390
0.125731 0.961786 0.018907
0.336709 0.961748 0.018914
0.426833 0.961780 0.018929
0.499071 0.961699 0.018946
0.562637 0.961693 0.018971
0.620566 0.961710 0.019002
0.674486 0.961564 0.019041
0.725275 0.961495 0.019086
0.773594 0.961491 0.019140
0.819774 0.961382 0.019206
0.864010 0.961322 0.019285
0.906956 0.961334 0.019372
0.948294 0.961194 0.019471
0.978602 0.948715 0.046939
-0.006737 1.000027 0.103139
0.125755 1.000027 0.094932
0.197298 1.000027 0.046941
0.341815 1.000027 0.046941
0.426703 1.000027 0.046941
0.496612 1.000027 0.046940
0.558747 1.000027 0.046940
0.615579 1.000027 0.046939
0.668693 1.000027 0.046939
0.718788 1.000027 0.046935
0.766485 1.000027 0.046941
0.812111 1.000027 0.046939
0.855897 1.000027 0.046938
0.898305 1.000027 0.046937
0.939237 1.000027 0.046936
0.978602 1.000027 0.046937
-0.000518 -0.000518 0.083848
0.134052 -0.000561 0.083848
0.205090 -0.000708 0.083848
0.262962 -0.000918 0.083848
0.329265 -0.001157 0.092705
0.398499 -0.001409 0.103726
0.469848 -0.001668 0.115782
0.542381 -0.001931 0.128153
0.615646 -0.002196 0.140542
0.688412 -0.002462 0.152434
0.757363 -0.002730 0.162433
0.819285 -0.002998 0.169476
0.871450 -0.003267 0.172731
0.913323 -0.003536 0.172445
0.948079 -0.003805 0.170130
0.978602 -0.004075 0.167135
-0.000648 0.058224 0.083848
0.114285 0.046254 0.098273
0.212525 0.041784 0.094292
0.271831 0.036916 0.089643
0.337922 0.033262 0.096122
0.406166 0.030862 0.105251
0.476444 0.029386 0.115766
0.548043 0.028535 0.126920
0.620509 0.028109 0.138286
0.692380 0.027980 0.149237
0.760508 0.028064 0.158461
0.821787 0.028306 0.164851
0.873148 0.028688 0.167684
0.914558 0.029165 0.167146
0.949054 0.029721 0.164804
0.978602 0.053159 0.162464
-0.000991 0.107541 0.083848
0.096777 0.108288 0.089146
0.194992 0.099995 0.094180
0.275157 0.094610 0.091855
0.350685 0.086532 0.096891
0.423385 0.078960 0.102466
0.494781 0.072634 0.108837
0.565943 0.067591 0.115948
0.637145 0.063646 0.123556
0.707184 0.060598 0.130986
0.772873 0.058251 0.137089
0.831343 0.056447 0.140940
0.880281 0.055078 0.142067
0.919877 0.054048 0.140789
0.953279 0.053300 0.138312
0.978602 0.101716 0.141085
-0.001402 0.153945 0.083848
0.086836 0.154930 0.084607
0.172212 0.156633 0.085906
0.262961 0.153944 0.083848
0.344302 0.148765 0.079918
0.425754 0.141052 0.074174
0.506100 0.131407 0.067183
0.582414 0.122477 0.060880
0.656162 0.114629 0.055500
0.726221 0.107909 0.050995
0.790068 0.102226 0.047284
0.845669 0.097458 0.044230
0.891326 0.093470 0.041719
0.928485 0.090150 0.039657
0.960534 0.087381 0.037960
0.978602 0.153943 0.083846
-0.001833 0.212720 0.092704
0.082392 0.213729 0.091739
0.154205 0.216788 0.086375
0.241180 0.217825 0.070403
0.330613 0.213989 0.066981
0.413667 0.224554 0.062993
0.493699 0.235436 0.058821
0.571275 0.246227 0.054800
0.646810 0.256747 0.051097
0.718973 0.266133 0.047813
0.784852 0.272984 0.044976
0.842211 0.276431 0.042533
0.888998 0.276027 0.040473
0.927073 0.272775 0.038729
0.959438 0.268345 0.037260
0.978602 0.276531 0.083846
-0.002273 0.279611 0.103725
0.080822 0.280517 0.101693
0.142507 0.283786 0.091230
0.218948 0.287380 0.057922
0.332364 0.284714 0.056191
0.400217 0.281337 0.054048
0.481411 0.301077 0.051663
0.560401 0.320067 0.049194
0.637471 0.338076 0.046791
0.711428 0.353967 0.044541
0.779107 0.365792 0.042480
0.838224 0.372480 0.040643
0.886403 0.373251 0.039032
0.925275 0.369717 0.037628
0.958132 0.364128 0.036418
0.978602 0.363179 0.083845
-0.002715 0.353804 0.115787
0.080805 0.354639 0.112918
0.134989 0.357760 0.098453
0.202625 0.362300 0.049534
0.338608 0.360527 0.048605
0.412826 0.358247 0.047427
0.471521 0.355616 0.046048
0.551123 0.380957 0.044553
0.629140 0.404957 0.043023
0.704439 0.426395 0.041521
