src/luts/warm/5.cube
LUT_3D_SIZE 16
0.000000 0.000000 0.000000
0.032024 0.000000 0.000000
0.075628 0.000000 0.000000
0.132306 0.000000 0.000000
0.202458 0.000000 0.000000
0.282104 0.000000 0.000000
0.367145 0.000000 0.000000
0.453470 0.000000 0.000000
0.537585 0.000000 0.000000
0.617255 0.000000 0.000000
0.691327 0.000000 0.000000
0.758753 0.000000 0.000000
0.818649 0.000000 0.000000
0.871962 0.000000 0.000000
0.920622 0.000000 0.000000
0.965956 0.000000 0.000000
0.000000 0.011854 0.000000
0.032024 0.011854 0.000000
0.075628 0.012762 0.000000
0.132306 0.014329 0.000000
0.202458 0.016610 0.000000
0.282104 0.019420 0.000000
0.367145 0.022233 0.000000
0.453470 0.024714 0.000000
0.537585 0.026678 0.000000
0.617255 0.028068 0.000000
0.691327 0.028931 0.000000
0.758753 0.029309 0.000000
0.818649 0.029235 0.000000
0.871962 0.028841 0.000000
0.920622 0.028306 0.000000
0.965956 0.027728 0.000000
0.000000 0.035656 0.000000
0.033923 0.035656 0.000000
0.075628 0.035656 0.000000
0.132306 0.040037 0.000000
0.202458 0.046406 0.000000
0.282104 0.054261 0.000000
0.367145 0.062125 0.000000
0.453470 0.069053 0.000000
0.537585 0.074531 0.000000
0.617255 0.078415 0.000000
0.691327 0.080800 0.000000
0.758753 0.081830 0.000000
0.818649 0.081626 0.000000
0.871962 0.080549 0.000000
0.920622 0.079071 0.000000
0.965956 0.077472 0.000000
0.000000 0.073020 0.000000
0.037133 0.073020 0.000000
0.082781 0.073020 0.000000
0.132306 0.073020 0.000000
0.202458 0.084524 0.000000
0.282104 0.098172 0.000000
0.367145 0.111372 0.000000
0.453470 0.122670 0.000000
0.537585 0.131400 0.000000
0.617255 0.137503 0.000000
0.691327 0.141241 0.000000
0.758753 0.142878 0.000000
0.818649 0.142560 0.000000
0.871962 0.140874 0.000000
0.920622 0.138540 0.000000
0.965956 0.136035 0.000000
0.000000 0.125945 0.000000
0.041668 0.125945 0.000000
0.092893 0.125945 0.000000
0.148315 0.125945 0.000000
0.202458 0.125945 0.000000
0.282104 0.144775 0.000000
0.367145 0.162953 0.000000
0.453470 0.178488 0.000000
0.537585 0.190527 0.000000
0.617255 0.198909 0.000000
0.691327 0.204076 0.000000
0.758753 0.206303 0.000000
0.818649 0.205845 0.000000
0.871962 0.203552 0.000000
0.920622 0.200359 0.000000
0.965956 0.196884 0.000000
0.000000 0.192686 0.000000
0.047067 0.192686 0.000000
0.104945 0.192686 0.000000
0.166689 0.192686 0.000000
0.225716 0.192686 0.000000
0.282104 0.192686 0.000000
0.367145 0.215965 0.000000
0.453470 0.235831 0.000000
0.537585 0.251226 0.000000
0.617255 0.261983 0.000000
0.691327 0.268599 0.000000
0.758753 0.271440 0.000000
0.818649 0.270877 0.000000
0.871962 0.267905 0.000000
0.920622 0.263787 0.000000
0.965956 0.259376 0.000000
0.000000 0.270073 0.000000
0.052313 0.270073 0.000000
0.116637 0.270073 0.000000
0.183913 0.270073 0.000000
0.247537 0.270073 0.000000
0.308359 0.270073 0.000000
0.367145 0.270073 0.000000
0.453470 0.294451 0.000000
0.537585 0.313216 0.000000
0.617255 0.326349 0.000000
0.691327 0.334406 0.000000
0.758753 0.337916 0.000000
0.818649 0.337213 0.000000
0.871962 0.333581 0.000000
0.920622 0.328584 0.000000
0.965956 0.323195 0.000000
0.000000 0.353997 0.000000
0.056812 0.353997 0.000000
0.126668 0.353997 0.000000
0.198349 0.353997 0.000000
0.265764 0.353997 0.000000
0.330287 0.353997 0.000000
0.392757 0.353997 0.000000
0.453470 0.353997 0.000000
0.537585 0.376259 0.000000
0.617255 0.391844 0.000000
0.691327 0.401395 0.000000
0.758753 0.405511 0.000000
0.818649 0.404721 0.000000
0.871962 0.400400 0.000000
0.920622 0.394486 0.000000
0.965956 0.388026 0.000000
0.000000 0.440268 0.000000
0.060305 0.440268 0.000000
0.134446 0.440268 0.000000
0.209257 0.440268 0.000000
0.279638 0.440268 0.000000
0.346989 0.440268 0.000000
0.412160 0.440268 0.000000
0.475579 0.440268 0.000000
0.537585 0.440268 0.000000
0.617255 0.458306 0.000000
0.691327 0.469366 0.000000
0.758753 0.474129 0.000000
0.818649 0.473195 0.000000
0.871962 0.468240 0.000000
0.920622 0.461369 0.000000
0.965956 0.453926 0.000000
0.000000 0.525574 0.000000
0.062747 0.525574 0.000000
0.139881 0.525574 0.000000
0.216807 0.525574 0.000000
0.289208 0.525574 0.000000
0.358548 0.525574 0.000000
0.425569 0.525574 0.000000
0.490866 0.525574 0.000000
0.554673 0.525574 0.000000
0.617255 0.525574 0.000000
0.691327 0.538180 0.000000
0.758753 0.543617 0.000000
0.818649 0.542536 0.000000
0.871962 0.536844 0.000000
0.920622 0.529068 0.000000
0.965956 0.520579 0.000000
0.000000 0.607698 0.000000
0.064249 0.607698 0.000000
0.143188 0.607698 0.000000
0.221403 0.607698 0.000000
0.295036 0.607698 0.000000
0.365558 0.607698 0.000000
0.433768 0.607698 0.000000
0.500199 0.607698 0.000000
0.565085 0.607698 0.000000
0.628770 0.607698 0.000000
0.691327 0.607698 0.000000
0.758753 0.613796 0.000000
0.818649 0.612604 0.000000
0.871962 0.606266 0.000000
0.920622 0.597433 0.000000
0.965956 0.587982 0.000000
0.000000 0.684757 0.000000
0.064900 0.684757 0.000000
0.144609 0.684757 0.000000
0.223397 0.684757 0.000000
0.297536 0.684757 0.000000
0.368565 0.684757 0.000000
0.437289 0.684757 0.000000
0.504203 0.684757 0.000000
0.569600 0.684757 0.000000
0.633761 0.684757 0.000000
0.696716 0.684757 0.000000
0.758753 0.684757 0.000000
0.818649 0.683417 0.000000
0.871962 0.676260 0.000000
0.920622 0.666480 0.000000
0.965956 0.656060 0.000000
0.000000 0.754750 0.000000
0.064772 0.754750 0.000000
0.144328 0.754750 0.000000
0.223007 0.754750 0.000000
0.297037 0.754750 0.000000
0.368006 0.754750 0.000000
0.436600 0.754750 0.000000
0.503413 0.754750 0.000000
0.568707 0.754750 0.000000
0.632732 0.754750 0.000000
0.695639 0.754750 0.000000
0.757631 0.754750 0.000000
0.818649 0.754750 0.000000
0.871962 0.746967 0.000000
0.920622 0.736199 0.000000
0.965956 0.724622 0.000000
0.000000 0.818365 0.000000
0.064091 0.818365 0.000000
0.142848 0.818365 0.000000
0.220942 0.818365 0.000000
0.294429 0.818365 0.000000
0.364844 0.818365 0.000000
0.432932 0.818365 0.000000
0.499213 0.818365 0.000000
0.564058 0.818365 0.000000
0.627575 0.818365 0.000000
0.689975 0.818365 0.000000
0.751433 0.818365 0.000000
0.812047 0.818365 0.000000
0.871962 0.818365 0.000000
0.920622 0.806612 0.000000
0.965956 0.794004 0.000000
0.000000 0.877305 0.000000
0.063161 0.877305 0.000000
0.140794 0.877305 0.000000
0.218075 0.877305 0.000000
0.290816 0.877305 0.000000
0.360464 0.877305 0.000000
0.427859 0.877305 0.000000
0.493464 0.877305 0.000000
0.557577 0.877305 0.000000
0.620472 0.877305 0.000000
0.682158 0.877305 0.000000
0.742942 0.877305 0.000000
0.802876 0.877305 0.000000
0.862227 0.877305 0.000000
0.920622 0.877305 0.000000
0.965956 0.863489 0.000000
0.000000 0.933009 0.000000
0.062153 0.933009 0.000000
0.138562 0.933009 0.000000
0.214993 0.933009 0.000000
0.286890 0.933009 0.000000
0.355761 0.933009 0.000000
0.422362 0.933009 0.000000
0.487135 0.933009 0.000000
0.550534 0.933009 0.000000
0.612700 0.933009 0.000000
0.673711 0.933009 0.000000
0.733857 0.933009 0.000000
0.793060 0.933009 0.000000
0.851646 0.933009 0.000000
0.909318 0.933009 0.000000
0.965956 0.933009 0.000000
0.000000 0.000000 0.008858
0.032024 0.000000 0.008858
0.075628 0.000000 0.009557
0.132306 0.000000 0.010765
0.202458 0.000000 0.012531
0.282104 0.000000 0.014714
0.367145 0.000000 0.016909
0.453470 0.000000 0.018852
0.537585 0.000000 0.020395
0.617255 0.000000 0.021487
0.691327 0.000000 0.022168
0.758753 0.000000 0.022467
0.818649 0.000000 0.022406
0.871962 0.000000 0.022097
0.920622 0.000000 0.021674
0.965956 0.000000 0.021221
0.000000 0.011854 0.008858
0.032024 0.011854 0.008858
0.075628 0.011854 0.008858
0.132306 0.011854 0.008858
0.202458 0.011854 0.008858
0.282104 0.011854 0.008858
0.367145 0.011854 0.008858
0.453470 0.011854 0.008858
0.537585 0.011854 0.008858
0.617255 0.011854 0.008858
0.691327 0.011854 0.008858
0.758753 0.011854 0.008858
0.818649 0.011854 0.008858
0.871962 0.011854 0.008858
0.920622 0.011854 0.008858
0.965956 0.011854 0.008858
0.000000 0.035656 0.009557
0.032024 0.035656 0.008858
0.075628 0.035656 0.008858
0.132306 0.039201 0.008858
0.202458 0.044460 0.008858
0.282104 0.051023 0.008858
0.367145 0.057647 0.008858
0.453470 0.063517 0.008858
0.537585 0.068170 0.008858
0.617255 0.071480 0.008858
0.691327 0.073531 0.008858
0.758753 0.074411 0.008858
0.818649 0.074204 0.008858
0.871962 0.073257 0.008858
0.920622 0.071947 0.008858
0.965956 0.070545 0.008858
0.000000 0.073020 0.010765
0.032024 0.073020 0.008858
0.081433 0.073020 0.008858
0.132306 0.073020 0.008858
0.202458 0.083734 0.008858
0.282104 0.096534 0.008858
0.367145 0.108962 0.008858
0.453470 0.119636 0.008858
0.537585 0.127883 0.008858
0.617255 0.133662 0.008858
0.691327 0.137199 0.008858
0.758753 0.138698 0.008858
0.818649 0.138352 0.008858
0.871962 0.136706 0.008858
0.920622 0.134465 0.008858
0.965956 0.132047 0.008858
0.000000 0.125945 0.012531
0.032024 0.125945 0.008858
0.089842 0.125945 0.008858
0.147232 0.125945 0.008858
0.202458 0.125945 0.008858
0.282104 0.144099 0.008858
0.367145 0.161673 0.008858
0.453470 0.176740 0.008858
0.537585 0.188362 0.008858
0.617255 0.196467 0.008858
0.691327 0.201439 0.008858
0.758753 0.203575 0.008858
0.818649 0.203099 0.008858
0.871962 0.200782 0.008858
0.920622 0.197618 0.008858
0.965956 0.194199 0.008858
0.000000 0.192686 0.014714
0.032024 0.192686 0.008858
0.100036 0.192686 0.008858
0.164514 0.192686 0.008858
0.224892 0.192686 0.008858
0.282104 0.192686 0.008858
0.367145 0.215438 0.008858
0.453470 0.234864 0.008858
0.537585 0.249893 0.008858
0.617255 0.260381 0.008858
0.691327 0.266786 0.008858
0.758753 0.269533 0.008858
0.818649 0.268927 0.008858
0.871962 0.265908 0.008858
0.920622 0.261846 0.008858
0.965956 0.257434 0.008858
0.000000 0.270073 0.016909
0.032024 0.270073 0.008858
0.110025 0.270073 0.008858
0.180821 0.270073 0.008858
0.246018 0.270073 0.008858
0.307762 0.270073 0.008858
0.367145 0.270073 0.008858
0.453470 0.293979 0.008858
0.537585 0.312471 0.008858
0.617255 0.325327 0.008858
0.691327 0.333201 0.008858
0.758753 0.336565 0.008858
0.818649 0.335811 0.008858
0.871962 0.332139 0.008858
0.920622 0.327156 0.008858
0.965956 0.321709 0.008858
0.000000 0.353997 0.018852
0.032024 0.353997 0.008858
0.118677 0.353997 0.008858
0.194506 0.353997 0.008858
0.263707 0.353997 0.008858
0.329224 0.353997 0.008858
0.392256 0.353997 0.008858
0.453470 0.353997 0.008858
0.537585 0.375930 0.008858
0.617255 0.391230 0.008858
0.691327 0.400582 0.008858
0.758753 0.404612 0.008858
0.818649 0.403666 0.008858
0.871962 0.399355 0.008858
0.920622 0.393388 0.008858
0.965956 0.386943 0.008858
0.000000 0.440268 0.020395
0.032024 0.440268 0.008858
0.125409 0.440268 0.008858
0.204885 0.440268 0.008858
0.277154 0.440268 0.008858
0.345551 0.440268 0.008858
0.411402 0.440268 0.008858
0.475250 0.440268 0.008858
0.537585 0.440268 0.008858
0.617255 0.458040 0.008858
0.691327 0.468861 0.008858
0.758753 0.473514 0.008858
0.818649 0.472476 0.008858
0.871962 0.467392 0.008858
0.920622 0.460499 0.008858
0.965956 0.453051 0.008858
0.000000 0.525574 0.021487
0.032024 0.525574 0.008858
0.130128 0.525574 0.008858
0.212061 0.525574 0.008858
0.286434 0.525574 0.008858
0.356829 0.525574 0.008858
0.424534 0.525574 0.008858
0.490264 0.525574 0.008858
0.554412 0.525574 0.008858
0.617255 0.525574 0.008858
0.691327 0.537951 0.008858
0.758753 0.543231 0.008858
0.818649 0.542063 0.008858
0.871962 0.536258 0.008858
0.920622 0.528406 0.008858
0.965956 0.519936 0.008858
0.000000 0.607698 0.022168
0.032024 0.607698 0.008858
0.133029 0.607698 0.008858
0.216428 0.607698 0.008858
0.292066 0.607698 0.008858
0.363663 0.607698 0.008858
0.432525 0.607698 0.008858
0.499376 0.607698 0.008858
0.564647 0.607698 0.008858
0.628542 0.607698 0.008858
0.691327 0.607698 0.008858
0.758753 0.613602 0.008858
0.818649 0.612255 0.008858
0.871962 0.605805 0.008858
0.920622 0.596999 0.008858
0.965956 0.587451 0.008858
0.000000 0.684757 0.022467
0.032024 0.684757 0.008858
0.134272 0.684757 0.008858
0.218282 0.684757 0.008858
0.294474 0.684757 0.008858
0.366594 0.684757 0.008858
0.435963 0.684757 0.008858
0.503307 0.684757 0.008858
0.569022 0.684757 0.008858
0.633358 0.684757 0.008858
0.696502 0.684757 0.008858
0.758753 0.684757 0.008858
0.818649 0.683257 0.008858
0.871962 0.676090 0.008858
0.920622 0.666344 0.008858
0.965956 0.655657 0.008858
0.000000 0.754750 0.022406
0.032024 0.754750 0.008858
0.133983 0.754750 0.008858
0.217868 0.754750 0.008858
0.293944 0.754750 0.008858
0.365917 0.754750 0.008858
0.435175 0.754750 0.008858
0.502403 0.754750 0.008858
0.568029 0.754750 0.008858
0.632274 0.754750 0.008858
0.695335 0.754750 0.008858
0.757456 0.754750 0.008858
0.818649 0.754750 0.008858
0.871962 0.746798 0.008858
0.920622 0.735983 0.008858
0.965956 0.724304 0.008858
0.000000 0.818365 0.022097
0.032024 0.818365 0.008858
0.132642 0.818365 0.008858
0.215822 0.818365 0.008858
0.291328 0.818365 0.008858
0.362737 0.818365 0.008858
0.431457 0.818365 0.008858
0.498164 0.818365 0.008858
0.563257 0.818365 0.008858
0.627044 0.818365 0.008858
0.689624 0.818365 0.008858
0.751246 0.818365 0.008858
0.811888 0.818365 0.008858
0.871962 0.818365 0.008858
0.920622 0.806539 0.008858
0.965956 0.793751 0.008858
0.000000 0.877305 0.021674
0.032024 0.877305 0.008858
0.130794 0.877305 0.008858
0.213066 0.877305 0.008858
0.287730 0.877305 0.008858
0.358390 0.877305 0.008858
0.426409 0.877305 0.008858
0.492369 0.877305 0.008858
0.556743 0.877305 0.008858
0.619863 0.877305 0.008858
0.681766 0.877305 0.008858
0.742787 0.877305 0.008858
0.802748 0.877305 0.008858
0.862163 0.877305 0.008858
0.920622 0.877305 0.008858
0.965956 0.863478 0.008858
0.000000 0.933009 0.021221
0.032024 0.933009 0.008858
0.128814 0.933009 0.008858
0.210057 0.933009 0.008858
0.283844 0.933009 0.008858
0.353674 0.933009 0.008858
0.420837 0.933009 0.008858
0.486055 0.933009 0.008858
0.549732 0.933009 0.008858
0.612079 0.933009 0.008858
0.673293 0.933009 0.008858
0.733513 0.933009 0.008858
0.792826 0.933009 0.008858
0.851518 0.933009 0.008858
0.909275 0.933009 0.008858
0.965956 0.933009 0.008858
0.000000 0.000000 0.027481
0.033923 0.000000 0.027481
0.075628 0.000000 0.027481
0.132306 0.000000 0.030956
0.202458 0.000000 0.036033
0.282104 0.000000 0.042316
0.367145 0.000000 0.048630
0.453470 0.000000 0.054217
0.537585 0.000000 0.058608
0.617255 0.000000 0.061701
0.691327 0.000000 0.063607
0.758753 0.000000 0.064432
0.818649 0.000000 0.064270
0.871962 0.000000 0.063409
0.920622 0.000000 0.062225
0.965956 0.000000 0.060948
0.000000 0.012762 0.027481
0.032024 0.011854 0.027481
0.075628 0.011854 0.027481
0.132306 0.011854 0.030295
0.202458 0.011854 0.034479
0.282104 0.011854 0.039728
0.367145 0.011854 0.045038
0.453470 0.011854 0.049756
0.537585 0.011854 0.053507
0.617255 0.011854 0.056167
0.691327 0.011854 0.057807
0.758753 0.011854 0.058511
0.818649 0.011854 0.058347
0.871962 0.011854 0.057589
0.920622 0.011854 0.056542
0.965956 0.011854 0.055420
0.000000 0.035656 0.027481
0.032024 0.035656 0.027481
0.075628 0.035656 0.027481
0.132306 0.035656 0.027481
0.202458 0.035656 0.027481
0.282104 0.035656 0.027481
0.367145 0.035656 0.027481
0.453470 0.035656 0.027481
0.537585 0.035656 0.027481
0.617255 0.035656 0.027481
0.691327 0.035656 0.027481
0.758753 0.035656 0.027481
0.818649 0.035656 0.027481
0.871962 0.035656 0.027481
0.920622 0.035656 0.027481
0.965956 0.035656 0.027481
0.000000 0.073020 0.030956
0.032024 0.073020 0.030295
0.075628 0.073020 0.027481
0.132306 0.073020 0.027481
0.202458 0.080329 0.027481
0.282104 0.089342 0.027481
0.367145 0.098244 0.027481
0.453470 0.106016 0.027481
0.537585 0.112063 0.027481
0.617255 0.116301 0.027481
0.691327 0.118844 0.027481
0.758753 0.119872 0.027481
0.818649 0.119497 0.027481
0.871962 0.118144 0.027481
0.920622 0.116323 0.027481
0.965956 0.114390 0.027481
0.000000 0.125945 0.036033
0.032024 0.125945 0.034479
0.075628 0.125945 0.027481
0.142539 0.125945 0.027481
0.202458 0.125945 0.027481
0.282104 0.141293 0.027481
0.367145 0.156239 0.027481
0.453470 0.169107 0.027481
0.537585 0.179058 0.027481
0.617255 0.185986 0.027481
0.691327 0.190152 0.027481
0.758753 0.191830 0.027481
0.818649 0.191209 0.027481
0.871962 0.189003 0.027481
0.920622 0.186045 0.027481
0.965956 0.182905 0.027481
0.000000 0.192686 0.042316
0.032024 0.192686 0.039728
0.075628 0.192686 0.027481
0.154870 0.192686 0.027481
0.221468 0.192686 0.027481
0.282104 0.192686 0.027481
0.367145 0.213128 0.027481
0.453470 0.230647 0.027481
0.537585 0.244191 0.027481
0.617255 0.253575 0.027481
0.691327 0.259250 0.027481
0.758753 0.261532 0.027481
0.818649 0.260702 0.027481
0.871962 0.257654 0.027481
0.920622 0.253657 0.027481
0.965956 0.249389 0.027481
0.000000 0.270073 0.048630
0.032024 0.270073 0.045038
0.075628 0.270073 0.027481
0.166776 0.270073 0.027481
0.239535 0.270073 0.027481
0.305208 0.270073 0.027481
0.367145 0.270073 0.027481
0.453470 0.292174 0.027481
0.537585 0.309177 0.027481
0.617255 0.320984 0.027481
0.691327 0.328070 0.027481
0.758753 0.330923 0.027481
0.818649 0.329872 0.027481
0.871962 0.326110 0.027481
0.920622 0.321023 0.027481
0.965956 0.315669 0.027481
0.000000 0.353997 0.054217
0.032024 0.353997 0.049756
0.075628 0.353997 0.027481
0.176994 0.353997 0.027481
0.254793 0.353997 0.027481
0.324629 0.353997 0.027481
0.390383 0.353997 0.027481
0.453470 0.353997 0.027481
0.537585 0.374449 0.027481
0.617255 0.388651 0.027481
0.691327 0.397178 0.027481
0.758753 0.400616 0.027481
0.818649 0.399369 0.027481
0.871962 0.394799 0.027481
0.920622 0.388769 0.027481
0.965956 0.382300 0.027481
0.000000 0.440268 0.058608
0.032024 0.440268 0.053507
0.075628 0.440268 0.027481
0.184808 0.440268 0.027481
0.266433 0.440268 0.027481
0.339379 0.440268 0.027481
0.407997 0.440268 0.027481
0.473780 0.440268 0.027481
0.537585 0.440268 0.027481
0.617255 0.456819 0.027481
0.691327 0.466832 0.027481
0.758753 0.470851 0.027481
0.818649 0.469325 0.027481
0.871962 0.464024 0.027481
0.920622 0.456974 0.027481
0.965956 0.449467 0.027481
0.000000 0.525574 0.061701
0.032024 0.525574 0.056167
0.075628 0.525574 0.027481
0.190260 0.525574 0.027481
0.274418 0.525574 0.027481
0.349532 0.525574 0.027481
0.420108 0.525574 0.027481
0.487705 0.525574 0.027481
0.553283 0.525574 0.027481
0.617255 0.525574 0.027481
0.691327 0.536988 0.027481
0.758753 0.541594 0.027481
0.818649 0.539888 0.027481
0.871962 0.533830 0.027481
0.920622 0.525753 0.027481
0.965956 0.517128 0.027481
0.000000 0.607698 0.063607
0.032024 0.607698 0.057807
0.075628 0.607698 0.027481
0.193499 0.607698 0.027481
0.279224 0.607698 0.027481
0.355598 0.607698 0.027481
0.427334 0.607698 0.027481
0.496069 0.607698 0.027481
0.562722 0.607698 0.027481
0.627712 0.607698 0.027481
0.691327 0.607698 0.027481
0.758753 0.612850 0.027481
0.818649 0.610945 0.027481
0.871962 0.604140 0.027481
0.920622 0.595048 0.027481
0.965956 0.585256 0.027481
0.000000 0.684757 0.064432
0.032024 0.684757 0.058511
0.075628 0.684757 0.027481
0.194801 0.684757 0.027481
0.281132 0.684757 0.027481
0.358025 0.684757 0.027481
0.430199 0.684757 0.027481
0.499403 0.684757 0.027481
0.566501 0.684757 0.027481
0.631887 0.684757 0.027481
0.695835 0.684757 0.027481
0.758753 0.684757 0.027481
0.818649 0.682590 0.027481
0.871962 0.675076 0.027481
0.920622 0.664871 0.027481
0.965956 0.654110 0.027481
0.000000 0.754750 0.064270
0.032024 0.754750 0.058347
0.075628 0.754750 0.027481
0.194326 0.754750 0.027481
0.280443 0.754750 0.027481
0.357172 0.754750 0.027481
0.429140 0.754750 0.027481
0.498174 0.754750 0.027481
0.565056 0.754750 0.027481
0.630352 0.754750 0.027481
0.694219 0.754750 0.027481
0.756887 0.754750 0.027481
0.818649 0.754750 0.027481
0.871962 0.746333 0.027481
0.920622 0.735141 0.027481
0.965956 0.723212 0.027481
0.000000 0.818365 0.063409
0.032024 0.818365 0.057589
0.075628 0.818365 0.027481
0.192610 0.818365 0.027481
0.277878 0.818365 0.027481
0.353887 0.818365 0.027481
0.425350 0.818365 0.027481
0.493743 0.818365 0.027481
0.560045 0.818365 0.027481
0.624771 0.818365 0.027481
0.688111 0.818365 0.027481
0.750380 0.818365 0.027481
0.811543 0.818365 0.027481
0.871962 0.818365 0.027481
0.920622 0.806113 0.027481
0.965956 0.793047 0.027481
0.000000 0.877305 0.062225
0.032024 0.877305 0.056542
0.075628 0.877305 0.027481
0.190273 0.877305 0.027481
0.274489 0.877305 0.027481
0.349614 0.877305 0.027481
0.420152 0.877305 0.027481
0.487841 0.877305 0.027481
0.553422 0.877305 0.027481
0.617437 0.877305 0.027481
0.680030 0.877305 0.027481
0.741542 0.877305 0.027481
0.802066 0.877305 0.027481
0.861775 0.877305 0.027481
0.920622 0.877305 0.027481
0.965956 0.863119 0.027481
0.000000 0.933009 0.060948
0.032024 0.933009 0.055420
0.075628 0.933009 0.027481
0.187825 0.933009 0.027481
0.270863 0.933009 0.027481
0.344999 0.933009 0.027481
0.414660 0.933009 0.027481
0.481526 0.933009 0.027481
0.546326 0.933009 0.027481
0.609488 0.933009 0.027481
0.671333 0.933009 0.027481
0.732154 0.933009 0.027481
0.791864 0.933009 0.027481
0.850877 0.933009 0.027481
0.909016 0.933009 0.027481
0.965956 0.933009 0.027481
0.000000 0.000000 0.057399
0.037133 0.000000 0.057399
0.082781 0.000000 0.057399
0.132306 0.000000 0.057399
0.202458 0.000000 0.066597
0.282104 0.000000 0.077646
0.367145 0.000000 0.088472
0.453470 0.000000 0.097851
0.537585 0.000000 0.105138
0.617255 0.000000 0.110275
0.691327 0.000000 0.113431
0.758753 0.000000 0.114812
0.818649 0.000000 0.114547
0.871962 0.000000 0.113116
0.920622 0.000000 0.111145
0.965956 0.000000 0.109038
0.000000 0.014329 0.057399
0.032024 0.011854 0.057399
0.081433 0.011854 0.057399
0.132306 0.011854 0.057399
0.202458 0.011854 0.065963
0.282104 0.011854 0.076310
0.367145 0.011854 0.086490
0.453470 0.011854 0.095313
0.537585 0.011854 0.102204
0.617255 0.011854 0.107048
0.691327 0.011854 0.110017
0.758753 0.011854 0.111289
0.818649 0.011854 0.110990
0.871962 0.011854 0.109604
0.920622 0.011854 0.107719
0.965956 0.011854 0.105686
0.000000 0.040037 0.057399
0.032024 0.039201 0.057399
0.075628 0.035656 0.057399
0.132306 0.035656 0.057399
0.202458 0.035656 0.063229
0.282104 0.035656 0.070478
0.367145 0.035656 0.077709
0.453470 0.035656 0.084066
0.537585 0.035656 0.089044
0.617255 0.035656 0.092555
0.691327 0.035656 0.094673
0.758753 0.035656 0.095525
0.818649 0.035656 0.095201
0.871962 0.035656 0.094076
0.920622 0.035656 0.092564
0.965956 0.035656 0.090966
0.000000 0.073020 0.057399
0.032024 0.073020 0.057399
0.075628 0.073020 0.057399
0.132306 0.073020 0.057399
0.202458 0.073020 0.057399
0.282104 0.073020 0.057399
0.367145 0.073020 0.057399
0.453470 0.073020 0.057399
0.537585 0.073020 0.057399
0.617255 0.073020 0.057399
0.691327 0.073020 0.057399
0.758753 0.073020 0.057399
0.818649 0.073020 0.057399
0.871962 0.073020 0.057399
0.920622 0.073020 0.057399
0.965956 0.073020 0.057399
0.000000 0.125945 0.066597
0.032024 0.125945 0.065963
0.075628 0.125945 0.063229
0.132306 0.125945 0.057399
0.202458 0.125945 0.057399
0.282104 0.135470 0.057399
0.367145 0.144863 0.057399
0.453470 0.153077 0.057399
0.537585 0.159473 0.057399
0.617255 0.163862 0.057399
0.691327 0.166477 0.057399
0.758753 0.167317 0.057399
0.818649 0.166652 0.057399
0.871962 0.164857 0.057399
0.920622 0.162580 0.057399
0.965956 0.160244 0.057399
0.000000 0.192686 0.077646
0.032024 0.192686 0.076310
0.075628 0.192686 0.070478
0.132306 0.192686 0.057399
0.214301 0.192686 0.057399
0.282104 0.192686 0.057399
0.367145 0.208519 0.057399
0.453470 0.222192 0.057399
0.537585 0.232738 0.057399
0.617255 0.239930 0.057399
0.691327 0.244147 0.057399
0.758753 0.245575 0.057399
0.818649 0.244443 0.057399
0.871962 0.241518 0.057399
0.920622 0.237853 0.057399
0.965956 0.233995 0.057399
0.000000 0.270073 0.088472
0.032024 0.270073 0.086490
0.075628 0.270073 0.077709
0.132306 0.270073 0.057399
0.225823 0.270073 0.057399
0.300057 0.270073 0.057399
0.367145 0.270073 0.057399
0.453470 0.288505 0.057399
0.537585 0.302658 0.057399
0.617255 0.312360 0.057399
0.691327 0.318026 0.057399
0.758753 0.319906 0.057399
0.818649 0.318403 0.057399
0.871962 0.314476 0.057399
0.920622 0.309551 0.057399
0.965956 0.304392 0.057399
0.000000 0.353997 0.097851
0.032024 0.353997 0.095313
0.075628 0.353997 0.084066
0.132306 0.353997 0.057399
0.235741 0.353997 0.057399
0.315292 0.353997 0.057399
0.386535 0.353997 0.057399
0.453470 0.353997 0.057399
