src/luts/warm/5.cube
LUT_3D_SIZE 6
0.000000 0.000000 0.000000
0.132306 0.000000 0.000000
0.367145 0.000000 0.000000
0.617255 0.000000 0.000000
0.818649 0.000000 0.000000
0.965956 0.000000 0.000000
0.000000 0.073020 0.000000
0.132306 0.073020 0.000000
0.367145 0.111372 0.000000
0.617255 0.137503 0.000000
0.818649 0.142560 0.000000
0.965956 0.136035 0.000000
0.000000 0.270073 0.000000
0.183913 0.270073 0.000000
0.367145 0.270073 0.000000
0.617255 0.326349 0.000000
0.818649 0.337213 0.000000
0.965956 0.323195 0.000000
0.000000 0.525574 0.000000
0.216807 0.525574 0.000000
0.425569 0.525574 0.000000
0.617255 0.525574 0.000000
0.818649 0.542536 0.000000
0.965956 0.520579 0.000000
0.000000 0.754750 0.000000
0.223007 0.754750 0.000000
0.436600 0.754750 0.000000
0.632732 0.754750 0.000000
0.818649 0.754750 0.000000
0.965956 0.724622 0.000000
0.000000 0.933009 0.000000
0.214993 0.933009 0.000000
0.422362 0.933009 0.000000
0.612700 0.933009 0.000000
0.793060 0.933009 0.000000
0.965956 0.933009 0.000000
0.000000 0.000000 0.057399
0.132306 0.000000 0.057399
0.367145 0.000000 0.088472
0.617255 0.000000 0.110275
0.818649 0.000000 0.114547
0.965956 0.000000 0.109038
0.000000 0.073020 0.057399
0.132306 0.073020 0.057399
0.367145 0.073020 0.057399
0.617255 0.073020 0.057399
0.818649 0.073020 0.057399
0.965956 0.073020 0.057399
0.000000 0.270073 0.088472
0.132306 0.270073 0.057399
0.367145 0.270073 0.057399
0.617255 0.312360 0.057399
0.818649 0.318403 0.057399
0.965956 0.304392 0.057399
0.000000 0.525574 0.110275
0.132306 0.525574 0.057399
0.411272 0.525574 0.057399
0.617255 0.525574 0.057399
0.818649 0.535899 0.057399
0.965956 0.512011 0.057399
0.000000 0.754750 0.114547
0.132306 0.754750 0.057399
0.417467 0.754750 0.057399
0.626651 0.754750 0.057399
0.818649 0.754750 0.057399
0.965956 0.721243 0.057399
0.000000 0.933009 0.109038
0.132306 0.933009 0.057399
0.403094 0.933009 0.057399
0.604781 0.933009 0.057399
0.790137 0.933009 0.057399
0.965956 0.933009 0.057399
0.000000 0.000000 0.226332
0.183913 0.000000 0.226332
0.367145 0.000000 0.226332
0.617255 0.000000 0.277645
0.818649 0.000000 0.287702
0.965956 0.000000 0.274755
0.000000 0.111372 0.226332
0.132306 0.073020 0.226332
0.367145 0.073020 0.226332
0.617255 0.073020 0.264819
0.818649 0.073020 0.270350
0.965956 0.073020 0.257539
0.000000 0.270073 0.226332
0.132306 0.270073 0.226332
0.367145 0.270073 0.226332
0.617255 0.270073 0.226332
0.818649 0.270073 0.226332
0.965956 0.270073 0.226332
0.000000 0.525574 0.277645
0.132306 0.525574 0.264819
0.367145 0.525574 0.226332
0.617255 0.525574 0.226332
0.818649 0.520305 0.226332
0.965956 0.497330 0.226332
0.000000 0.754750 0.287702
0.132306 0.754750 0.270350
0.367145 0.754750 0.226332
0.612420 0.754750 0.226332
0.818649 0.754750 0.226332
0.965956 0.715366 0.226332
0.000000 0.933009 0.274755
0.132306 0.933009 0.257539
0.367145 0.933009 0.226332
0.591208 0.933009 0.226332
0.785096 0.933009 0.226332
0.965956 0.933009 0.226332
0.000000 0.000000 0.466167
0.216807 0.000000 0.466167
0.425569 0.000000 0.466167
0.617255 0.000000 0.466167
0.818649 0.000000 0.482640
0.965956 0.000000 0.461379
0.000000 0.137503 0.466167
0.132306 0.073020 0.466167
0.411272 0.073020 0.466167
0.617255 0.073020 0.466167
0.818649 0.073020 0.476179
0.965956 0.073020 0.453064
0.000000 0.326349 0.466167
0.132306 0.312360 0.466167
0.367145 0.270073 0.466167
0.617255 0.270073 0.466167
0.818649 0.270073 0.461097
0.965956 0.270073 0.438906
0.000000 0.525574 0.466167
0.132306 0.525574 0.466167
0.367145 0.525574 0.466167
0.617255 0.525574 0.466167
0.818649 0.525574 0.466167
0.965956 0.525574 0.466167
0.000000 0.754750 0.482640
0.132306 0.754750 0.476179
0.367145 0.754750 0.461097
0.617255 0.754750 0.466167
0.818649 0.754750 0.466167
0.965956 0.726680 0.466167
0.000000 0.933009 0.461379
0.132306 0.933009 0.453064
0.367145 0.933009 0.438906
0.617255 0.933009 0.466167
0.794801 0.933009 0.466167
0.965956 0.933009 0.466167
0.000000 0.000000 0.692740
0.223007 0.000000 0.692740
0.436600 0.000000 0.692740
0.632732 0.000000 0.692740
0.818649 0.000000 0.692740
0.965956 0.000000 0.662544
0.000000 0.142560 0.692740
0.132306 0.073020 0.692740
0.417467 0.073020 0.692740
0.626651 0.073020 0.692740
0.818649 0.073020 0.692740
0.965956 0.073020 0.659078
0.000000 0.337213 0.692740
0.132306 0.318403 0.692740
0.367145 0.270073 0.692740
0.612420 0.270073 0.692740
0.818649 0.270073 0.692740
0.965956 0.270073 0.653237
0.000000 0.542536 0.692740
0.132306 0.535899 0.692740
0.367145 0.520305 0.692740
0.617255 0.525574 0.692740
0.818649 0.525574 0.692740
0.965956 0.525574 0.664514
0.000000 0.754750 0.692740
0.132306 0.754750 0.692740
0.367145 0.754750 0.692740
0.617255 0.754750 0.692740
0.818649 0.754750 0.692740
0.965956 0.754750 0.692740
0.000000 0.933009 0.662544
0.132306 0.933009 0.659078
0.367145 0.933009 0.653237
0.617255 0.933009 0.664514
0.818649 0.933009 0.692740
0.965956 0.933009 0.692740
0.000000 0.000000 0.874414
0.214993 0.000000 0.874414
0.422362 0.000000 0.874414
0.612700 0.000000 0.874414
0.793060 0.000000 0.874414
0.965956 0.000000 0.874414
0.000000 0.136035 0.874414
0.132306 0.073020 0.874414
0.403094 0.073020 0.874414
0.604781 0.073020 0.874414
0.790137 0.073020 0.874414
0.965956 0.073020 0.874414
0.000000 0.323195 0.874414
0.132306 0.304392 0.874414
0.367145 0.270073 0.874414
0.591208 0.270073 0.874414
0.785096 0.270073 0.874414
0.965956 0.270073 0.874414
0.000000 0.520579 0.874414
0.132306 0.512011 0.874414
0.367145 0.497330 0.874414
0.617255 0.525574 0.874414
0.794801 0.525574 0.874414
0.965956 0.525574 0.874414
0.000000 0.724622 0.874414
0.132306 0.721243 0.874414
0.367145 0.715366 0.874414
0.617255 0.726680 0.874414
0.818649 0.754750 0.874414
0.965956 0.754750 0.874414
0.000000 0.933009 0.874414
0.132306 0.933009 0.874414
0.367145 0.933009 0.874414
0.617255 0.933009 0.874414
0.818649 0.933009 0.874414
0.965956 0.933009 0.874414
