src/luts/warm/6.cube
LUT_3D_SIZE 6
0.000000 0.000000 0.000000
0.052802 0.000000 0.000000
0.294437 0.000000 0.000000
0.679440 0.000000 0.000000
0.980484 0.000000 0.000000
1.000000 0.000000 0.000000
0.000000 0.039904 0.000000
0.052802 0.039904 0.000000
0.294437 0.083629 0.000000
0.679440 0.124157 0.000000
0.980484 0.137070 0.000000
1.000000 0.128080 0.000000
0.000000 0.246726 0.000000
0.107369 0.246726 0.000000
0.294437 0.246726 0.000000
0.679440 0.351778 0.000000
0.980484 0.385099 0.000000
1.000000 0.361897 0.000000
0.000000 0.625618 0.000000
0.156270 0.625618 0.000000
0.405842 0.625618 0.000000
0.679440 0.625618 0.000000
0.980484 0.683098 0.000000
1.000000 0.643038 0.000000
0.000000 0.967370 0.000000
0.171404 0.967370 0.000000
0.440287 0.967370 0.000000
0.734583 0.967370 0.000000
0.980484 0.967370 0.000000
1.000000 0.939354 0.000000
0.000000 1.000000 0.000000
0.160904 1.000000 0.000000
0.416390 1.000000 0.000000
0.696307 1.000000 0.000000
0.961024 1.000000 0.000000
1.000000 1.000000 0.000000
0.000000 0.000000 0.030916
0.052802 0.000000 0.030916
0.294437 0.000000 0.065683
0.679440 0.000000 0.099107
0.980484 0.000000 0.110007
1.000000 0.000000 0.102408
0.000000 0.039904 0.030916
0.052802 0.039904 0.030916
0.294437 0.039904 0.030916
0.679440 0.039904 0.030916
0.980484 0.039904 0.030916
1.000000 0.039904 0.030916
0.000000 0.246726 0.065683
0.052802 0.246726 0.030916
0.294437 0.246726 0.030916
0.679440 0.329848 0.030916
0.980484 0.353833 0.030916
1.000000 0.330736 0.030916
0.000000 0.625618 0.099107
0.052802 0.625618 0.030916
0.383009 0.625618 0.030916
0.679440 0.625618 0.030916
0.980484 0.670829 0.030916
1.000000 0.627266 0.030916
0.000000 0.967370 0.110007
0.052802 0.967370 0.030916
0.408044 0.967370 0.030916
0.722945 0.967370 0.030916
0.980484 0.967370 0.030916
1.000000 0.935223 0.030916
0.000000 1.000000 0.102408
0.052802 1.000000 0.030916
0.383925 1.000000 0.030916
0.681034 1.000000 0.030916
0.958145 1.000000 0.030916
1.000000 1.000000 0.030916
0.000000 0.000000 0.206389
0.107369 0.000000 0.206389
0.294437 0.000000 0.206389
0.679440 0.000000 0.303524
0.980484 0.000000 0.335109
1.000000 0.000000 0.313118
0.000000 0.083629 0.206389
0.052802 0.039904 0.206389
0.294437 0.039904 0.206389
0.679440 0.039904 0.282926
0.980484 0.039904 0.305507
1.000000 0.039904 0.283764
0.000000 0.246726 0.206389
0.052802 0.246726 0.206389
0.294437 0.246726 0.206389
0.679440 0.246726 0.206389
0.980484 0.246726 0.206389
1.000000 0.246726 0.206389
0.000000 0.625618 0.303524
0.052802 0.625618 0.282926
0.294437 0.625618 0.206389
0.679440 0.625618 0.206389
0.980484 0.633697 0.206389
1.000000 0.588648 0.206389
0.000000 0.967370 0.335109
0.052802 0.967370 0.305507
0.294437 0.967370 0.206389
0.687237 0.967370 0.206389
0.980484 0.967370 0.206389
1.000000 0.924792 0.206389
0.000000 1.000000 0.313118
0.052802 1.000000 0.283764
0.294437 1.000000 0.206389
0.643569 1.000000 0.206389
0.950484 1.000000 0.206389
1.000000 1.000000 0.206389
0.000000 0.000000 0.571540
0.156270 0.000000 0.571540
0.405842 0.000000 0.571540
0.679440 0.000000 0.571540
0.980484 0.000000 0.629828
1.000000 0.000000 0.589168
0.000000 0.124157 0.571540
0.052802 0.039904 0.571540
0.383009 0.039904 0.571540
0.679440 0.039904 0.571540
0.980484 0.039904 0.617388
1.000000 0.039904 0.573214
0.000000 0.351778 0.571540
0.052802 0.329848 0.571540
0.294437 0.246726 0.571540
0.679440 0.246726 0.571540
0.980484 0.246726 0.579706
1.000000 0.246726 0.534350
0.000000 0.625618 0.571540
0.052802 0.625618 0.571540
0.294437 0.625618 0.571540
0.679440 0.625618 0.571540
0.980484 0.625618 0.571540
1.000000 0.625618 0.571540
0.000000 0.967370 0.629828
0.052802 0.967370 0.617388
0.294437 0.967370 0.579706
0.679440 0.967370 0.571540
0.980484 0.967370 0.571540
1.000000 0.934801 0.571540
0.000000 1.000000 0.589168
0.052802 1.000000 0.573214
0.294437 1.000000 0.534350
0.679440 1.000000 0.571540
0.957810 1.000000 0.571540
1.000000 1.000000 0.571540
0.000000 0.000000 0.947244
0.171404 0.000000 0.947244
0.440287 0.000000 0.947244
0.734583 0.000000 0.947244
0.980484 0.000000 0.947244
1.000000 0.000000 0.908635
0.000000 0.137070 0.947244
0.052802 0.039904 0.947244
0.408044 0.039904 0.947244
0.722945 0.039904 0.947244
0.980484 0.039904 0.947244
1.000000 0.039904 0.903169
0.000000 0.385099 0.947244
0.052802 0.353833 0.947244
0.294437 0.246726 0.947244
0.687237 0.246726 0.947244
0.980484 0.246726 0.947244
1.000000 0.246726 0.889488
0.000000 0.683098 0.947244
0.052802 0.670829 0.947244
0.294437 0.633697 0.947244
0.679440 0.625618 0.947244
0.980484 0.625618 0.947244
1.000000 0.625618 0.902683
0.000000 0.967370 0.947244
0.052802 0.967370 0.947244
0.294437 0.967370 0.947244
0.679440 0.967370 0.947244
0.980484 0.967370 0.947244
1.000000 0.967370 0.947244
0.000000 1.000000 0.908635
0.052802 1.000000 0.903169
0.294437 1.000000 0.889488
0.679440 1.000000 0.902683
0.980484 1.000000 0.947244
1.000000 1.000000 0.947244
0.000000 0.000000 1.000000
0.160904 0.000000 1.000000
0.416390 0.000000 1.000000
0.696307 0.000000 1.000000
0.961024 0.000000 1.000000
1.000000 0.000000 1.000000
0.000000 0.128080 1.000000
0.052802 0.039904 1.000000
0.383925 0.039904 1.000000
0.681034 0.039904 1.000000
0.958145 0.039904 1.000000
1.000000 0.039904 1.000000
0.000000 0.361897 1.000000
0.052802 0.330736 1.000000
0.294437 0.246726 1.000000
0.643569 0.246726 1.000000
0.950484 0.246726 1.000000
1.000000 0.246726 1.000000
0.000000 0.643038 1.000000
0.052802 0.627266 1.000000
0.294437 0.588648 1.000000
0.679440 0.625618 1.000000
0.957810 0.625618 1.000000
1.000000 0.625618 1.000000
0.000000 0.939354 1.000000
0.052802 0.935223 1.000000
0.294437 0.924792 1.000000
0.679440 0.934801 1.000000
0.980484 0.967370 1.000000
1.000000 0.967370 1.000000
0.000000 1.000000 1.000000
0.052802 1.000000 1.000000
0.294437 1.000000 1.000000
0.679440 1.000000 1.000000
0.980484 1.000000 1.000000
1.000000 1.000000 1.000000
