src/luts/warm/6.cube
LUT_3D_SIZE 16
0.000000 0.000000 0.000000
0.005983 0.000000 0.000000
0.021883 0.000000 0.000000
0.052802 0.000000 0.000000
0.108857 0.000000 0.000000
0.191131 0.000000 0.000000
0.294437 0.000000 0.000000
0.413885 0.000000 0.000000
0.544289 0.000000 0.000000
0.679440 0.000000 0.000000
0.812495 0.000000 0.000000
0.929151 0.000000 0.000000
0.980484 0.000000 0.000000
0.996300 0.000000 0.000000
0.999752 0.000000 0.000000
1.000000 0.000000 0.000000
0.000000 0.004065 0.000000
0.005983 0.004065 0.000000
0.021883 0.004668 0.000000
0.052802 0.005750 0.000000
0.108857 0.007425 0.000000
0.191131 0.009665 0.000000
0.294437 0.012147 0.000000
0.413885 0.014592 0.000000
0.544289 0.016812 0.000000
0.679440 0.018647 0.000000
0.812495 0.019975 0.000000
0.929151 0.020715 0.000000
0.980484 0.020834 0.000000
0.996300 0.020490 0.000000
0.999752 0.019929 0.000000
1.000000 0.019305 0.000000
0.000000 0.015841 0.000000
0.006826 0.015841 0.000000
0.021883 0.015841 0.000000
0.052802 0.019521 0.000000
0.108857 0.025210 0.000000
0.191131 0.032825 0.000000
0.294437 0.041243 0.000000
0.413885 0.049554 0.000000
0.544289 0.057092 0.000000
0.679440 0.063322 0.000000
0.812495 0.067774 0.000000
0.929151 0.070240 0.000000
0.980484 0.070632 0.000000
0.996300 0.069495 0.000000
0.999752 0.067625 0.000000
1.000000 0.065536 0.000000
0.000000 0.039904 0.000000
0.008328 0.039904 0.000000
0.026705 0.039904 0.000000
0.052802 0.039904 0.000000
0.108857 0.051535 0.000000
0.191131 0.067056 0.000000
0.294437 0.083629 0.000000
0.413885 0.099304 0.000000
0.544289 0.113078 0.000000
0.679440 0.124157 0.000000
0.812495 0.132034 0.000000
0.929151 0.136389 0.000000
0.980484 0.137070 0.000000
0.996300 0.135058 0.000000
0.999752 0.131760 0.000000
1.000000 0.128080 0.000000
0.000000 0.084830 0.000000
0.010626 0.084830 0.000000
0.034079 0.084830 0.000000
0.067375 0.084830 0.000000
0.108857 0.084830 0.000000
0.191131 0.108422 0.000000
0.294437 0.133220 0.000000
0.413885 0.156611 0.000000
0.544289 0.177116 0.000000
0.679440 0.193596 0.000000
0.812495 0.205292 0.000000
0.929151 0.211772 0.000000
0.980484 0.212802 0.000000
0.996300 0.209824 0.000000
0.999752 0.204897 0.000000
1.000000 0.199414 0.000000
0.000000 0.154093 0.000000
0.013664 0.154093 0.000000
0.043831 0.154093 0.000000
0.086654 0.154093 0.000000
0.137554 0.154093 0.000000
0.191131 0.154093 0.000000
0.294437 0.187849 0.000000
0.413885 0.219665 0.000000
0.544289 0.247479 0.000000
0.679440 0.269843 0.000000
0.812495 0.285706 0.000000
0.929151 0.294429 0.000000
0.980484 0.295842 0.000000
0.996300 0.291821 0.000000
0.999752 0.285145 0.000000
1.000000 0.277725 0.000000
0.000000 0.246726 0.000000
0.016990 0.246726 0.000000
0.054491 0.246726 0.000000
0.107369 0.246726 0.000000
0.166927 0.246726 0.000000
0.229478 0.246726 0.000000
0.294437 0.246726 0.000000
0.413885 0.287496 0.000000
0.544289 0.323163 0.000000
0.679440 0.351778 0.000000
0.812495 0.372094 0.000000
0.929151 0.383308 0.000000
0.980484 0.385099 0.000000
0.996300 0.379900 0.000000
0.999752 0.371418 0.000000
1.000000 0.361897 0.000000
0.000000 0.359470 0.000000
0.020236 0.359470 0.000000
0.064909 0.359470 0.000000
0.126562 0.359470 0.000000
0.194033 0.359470 0.000000
0.264844 0.359470 0.000000
0.338259 0.359470 0.000000
0.413885 0.359470 0.000000
0.544289 0.403419 0.000000
0.679440 0.438718 0.000000
0.812495 0.463714 0.000000
0.929151 0.477523 0.000000
0.980484 0.479727 0.000000
0.996300 0.473349 0.000000
0.999752 0.462863 0.000000
1.000000 0.451148 0.000000
0.000000 0.487902 0.000000
0.023157 0.487902 0.000000
0.074297 0.487902 0.000000
0.143120 0.487902 0.000000
0.217379 0.487902 0.000000
0.295231 0.487902 0.000000
0.375957 0.487902 0.000000
0.459073 0.487902 0.000000
0.544289 0.487902 0.000000
0.679440 0.530106 0.000000
0.812495 0.560060 0.000000
0.929151 0.576599 0.000000
0.980484 0.579192 0.000000
0.996300 0.571589 0.000000
0.999752 0.559055 0.000000
1.000000 0.545028 0.000000
0.000000 0.625618 0.000000
0.025564 0.625618 0.000000
0.082007 0.625618 0.000000
0.156270 0.625618 0.000000
0.235919 0.625618 0.000000
0.319382 0.625618 0.000000
0.405842 0.625618 0.000000
0.494891 0.625618 0.000000
0.586185 0.625618 0.000000
0.679440 0.625618 0.000000
0.812495 0.660692 0.000000
0.929151 0.680019 0.000000
0.980484 0.683098 0.000000
0.996300 0.674157 0.000000
0.999752 0.659464 0.000000
1.000000 0.643038 0.000000
0.000000 0.765085 0.000000
0.027298 0.765085 0.000000
0.087557 0.765085 0.000000
0.165536 0.765085 0.000000
0.248958 0.765085 0.000000
0.336347 0.765085 0.000000
0.426895 0.765085 0.000000
0.520063 0.765085 0.000000
0.615610 0.765085 0.000000
0.713234 0.765085 0.000000
0.812495 0.765085 0.000000
0.929151 0.787380 0.000000
0.980484 0.790952 0.000000
0.996300 0.780621 0.000000
0.999752 0.763614 0.000000
1.000000 0.744756 0.000000
0.000000 0.896371 0.000000
0.028261 0.896371 0.000000
0.090649 0.896371 0.000000
0.170621 0.896371 0.000000
0.256123 0.896371 0.000000
0.345657 0.896371 0.000000
0.438455 0.896371 0.000000
0.533923 0.896371 0.000000
0.631774 0.896371 0.000000
0.731693 0.896371 0.000000
0.833461 0.896371 0.000000
0.929151 0.896371 0.000000
0.980484 0.899847 0.000000
0.996300 0.889663 0.000000
0.999752 0.871574 0.000000
1.000000 0.850176 0.000000
0.000000 0.967370 0.000000
0.028416 0.967370 0.000000
0.091150 0.967370 0.000000
0.171404 0.967370 0.000000
0.257255 0.967370 0.000000
0.347144 0.967370 0.000000
0.440287 0.967370 0.000000
0.536133 0.967370 0.000000
0.634326 0.967370 0.000000
0.734583 0.967370 0.000000
0.836744 0.967370 0.000000
0.931753 0.967370 0.000000
0.980484 0.967370 0.000000
0.996300 0.962178 0.000000
0.999752 0.952314 0.000000
1.000000 0.939354 0.000000
0.000000 0.992652 0.000000
0.027968 0.992652 0.000000
0.089725 0.992652 0.000000
0.169066 0.992652 0.000000
0.253954 0.992652 0.000000
0.342867 0.992652 0.000000
0.434971 0.992652 0.000000
0.529760 0.992652 0.000000
0.626896 0.992652 0.000000
0.726143 0.992652 0.000000
0.827173 0.992652 0.000000
0.923944 0.992652 0.000000
0.976959 0.992652 0.000000
0.996300 0.992652 0.000000
0.999752 0.988923 0.000000
1.000000 0.983492 0.000000
0.000000 0.999353 0.000000
0.027237 0.999353 0.000000
0.087373 0.999353 0.000000
0.165211 0.999353 0.000000
0.248503 0.999353 0.000000
0.335763 0.999353 0.000000
0.426155 0.999353 0.000000
0.519213 0.999353 0.000000
0.614626 0.999353 0.000000
0.712112 0.999353 0.000000
0.811092 0.999353 0.000000
0.909900 0.999353 0.000000
0.970201 0.999353 0.000000
0.994097 0.999353 0.000000
0.999752 0.999353 0.000000
1.000000 0.998170 0.000000
0.000000 1.000000 0.000000
0.026423 1.000000 0.000000
0.084758 1.000000 0.000000
0.160904 1.000000 0.000000
0.242413 1.000000 0.000000
0.327836 1.000000 0.000000
0.416390 1.000000 0.000000
0.507417 1.000000 0.000000
0.600850 1.000000 0.000000
0.696307 1.000000 0.000000
0.793374 1.000000 0.000000
0.892063 1.000000 0.000000
0.961024 1.000000 0.000000
0.990825 1.000000 0.000000
0.999221 1.000000 0.000000
1.000000 1.000000 0.000000
0.000000 0.000000 0.002991
0.005983 0.000000 0.002991
0.021883 0.000000 0.003446
0.052802 0.000000 0.004265
0.108857 0.000000 0.005538
0.191131 0.000000 0.007252
0.294437 0.000000 0.009162
0.413885 0.000000 0.011052
0.544289 0.000000 0.012773
0.679440 0.000000 0.014201
0.812495 0.000000 0.015237
0.929151 0.000000 0.015813
0.980484 0.000000 0.015907
0.996300 0.000000 0.015638
0.999752 0.000000 0.015201
1.000000 0.000000 0.014714
0.000000 0.004065 0.002991
0.005983 0.004065 0.002991
0.021883 0.004065 0.002991
0.052802 0.004065 0.002991
0.108857 0.004065 0.002991
0.191131 0.004065 0.002991
0.294437 0.004065 0.002991
0.413885 0.004065 0.002991
0.544289 0.004065 0.002991
0.679440 0.004065 0.002991
0.812495 0.004065 0.002991
0.929151 0.004065 0.002991
0.980484 0.004065 0.002991
0.996300 0.004065 0.002991
0.999752 0.004065 0.002991
1.000000 0.004065 0.002991
0.000000 0.015841 0.003446
0.005983 0.015841 0.002991
0.021883 0.015841 0.002991
0.052802 0.018830 0.002991
0.108857 0.023536 0.002991
0.191131 0.029896 0.002991
0.294437 0.036982 0.002991
0.413885 0.043976 0.002991
0.544289 0.050340 0.002991
0.679440 0.055613 0.002991
0.812495 0.059422 0.002991
0.929151 0.061537 0.002991
0.980484 0.061854 0.002991
0.996300 0.060847 0.002991
0.999752 0.059206 0.002991
1.000000 0.057392 0.002991
0.000000 0.039904 0.004265
0.005983 0.039904 0.002991
0.025804 0.039904 0.002991
0.052802 0.039904 0.002991
0.108857 0.050743 0.002991
0.191131 0.065305 0.002991
0.294437 0.080934 0.002991
0.413885 0.095768 0.002991
0.544289 0.108811 0.002991
0.679440 0.119299 0.002991
0.812495 0.126778 0.002991
0.929151 0.130865 0.002991
0.980484 0.131477 0.002991
0.996300 0.129533 0.002991
0.999752 0.126352 0.002991
1.000000 0.122803 0.002991
0.000000 0.084830 0.005538
0.005983 0.084830 0.002991
0.031920 0.084830 0.002991
0.066390 0.084830 0.002991
0.108857 0.084830 0.002991
0.191131 0.107634 0.002991
0.294437 0.131686 0.002991
0.413885 0.154368 0.002991
0.544289 0.174275 0.002991
0.679440 0.190276 0.002991
0.812495 0.201641 0.002991
0.929151 0.207889 0.002991
0.980484 0.208789 0.002991
0.996300 0.205848 0.002991
0.999752 0.201012 0.002991
1.000000 0.195619 0.002991
0.000000 0.154093 0.007252
0.005983 0.154093 0.002991
0.040093 0.154093 0.002991
0.084472 0.154093 0.002991
0.136601 0.154093 0.002991
0.191131 0.154093 0.002991
0.294437 0.187159 0.002991
0.413885 0.218306 0.002991
0.544289 0.245633 0.002991
0.679440 0.267531 0.002991
0.812495 0.283069 0.002991
0.929151 0.291567 0.002991
0.980484 0.292882 0.002991
0.996300 0.288825 0.002991
0.999752 0.282185 0.002991
1.000000 0.274806 0.002991
0.000000 0.246726 0.009162
0.005983 0.246726 0.002991
0.049110 0.246726 0.002991
0.104035 0.246726 0.002991
0.165123 0.246726 0.002991
0.228706 0.246726 0.002991
0.294437 0.246726 0.002991
0.413885 0.286872 0.002991
0.544289 0.321998 0.002991
0.679440 0.350192 0.002991
0.812495 0.370237 0.002991
0.929151 0.381132 0.002991
0.980484 0.382813 0.002991
0.996300 0.377551 0.002991
0.999752 0.369045 0.002991
1.000000 0.359578 0.002991
0.000000 0.359470 0.011052
0.005983 0.359470 0.002991
0.057928 0.359470 0.002991
0.122272 0.359470 0.002991
0.191454 0.359470 0.002991
0.263354 0.359470 0.002991
0.337596 0.359470 0.002991
0.413885 0.359470 0.002991
0.544289 0.402920 0.002991
0.679440 0.437730 0.002991
0.812495 0.462436 0.002991
0.929151 0.475954 0.002991
0.980484 0.477956 0.002991
0.996300 0.471527 0.002991
0.999752 0.461039 0.002991
1.000000 0.449304 0.002991
0.000000 0.487902 0.012773
0.005983 0.487902 0.002991
0.065893 0.487902 0.002991
0.138011 0.487902 0.002991
0.214161 0.487902 0.002991
0.293253 0.487902 0.002991
0.374735 0.487902 0.002991
0.458524 0.487902 0.002991
0.544289 0.487902 0.002991
0.679440 0.529655 0.002991
0.812495 0.559296 0.002991
0.929151 0.575439 0.002991
0.980484 0.577948 0.002991
0.996300 0.570202 0.002991
0.999752 0.557607 0.002991
1.000000 0.543573 0.002991
0.000000 0.625618 0.014201
0.005983 0.625618 0.002991
0.072461 0.625618 0.002991
0.150530 0.625618 0.002991
0.232219 0.625618 0.002991
0.316898 0.625618 0.002991
0.404193 0.625618 0.002991
0.493909 0.625618 0.002991
0.585706 0.625618 0.002991
0.679440 0.625618 0.002991
0.812495 0.660294 0.002991
0.929151 0.679355 0.002991
0.980484 0.682165 0.002991
0.996300 0.673091 0.002991
0.999752 0.658337 0.002991
1.000000 0.641799 0.002991
0.000000 0.765085 0.015237
0.005983 0.765085 0.002991
0.077180 0.765085 0.002991
0.159358 0.765085 0.002991
0.244886 0.765085 0.002991
0.333531 0.765085 0.002991
0.424980 0.765085 0.002991
0.518810 0.765085 0.002991
0.614844 0.765085 0.002991
0.712794 0.765085 0.002991
0.812495 0.765085 0.002991
0.929151 0.787003 0.002991
0.980484 0.790281 0.002991
0.996300 0.779961 0.002991
0.999752 0.762838 0.002991
1.000000 0.743821 0.002991
0.000000 0.896371 0.015813
0.005983 0.896371 0.002991
0.079797 0.896371 0.002991
0.164159 0.896371 0.002991
0.251814 0.896371 0.002991
0.342591 0.896371 0.002991
0.436235 0.896371 0.002991
0.532314 0.896371 0.002991
0.630673 0.896371 0.002991
0.731040 0.896371 0.002991
0.833054 0.896371 0.002991
0.929151 0.896371 0.002991
0.980484 0.899580 0.002991
0.996300 0.889343 0.002991
0.999752 0.871106 0.002991
1.000000 0.849346 0.002991
0.000000 0.967370 0.015907
0.005983 0.967370 0.002991
0.080186 0.967370 0.002991
0.164893 0.967370 0.002991
0.252839 0.967370 0.002991
0.343994 0.967370 0.002991
0.437949 0.967370 0.002991
0.534369 0.967370 0.002991
0.633124 0.967370 0.002991
0.733828 0.967370 0.002991
0.836214 0.967370 0.002991
0.931549 0.967370 0.002991
0.980484 0.967370 0.002991
0.996300 0.962117 0.002991
0.999752 0.952086 0.002991
1.000000 0.939018 0.002991
0.000000 0.992652 0.015638
0.005983 0.992652 0.002991
0.078941 0.992652 0.002991
0.162598 0.992652 0.002991
0.249566 0.992652 0.002991
0.339677 0.992652 0.002991
0.432535 0.992652 0.002991
0.527916 0.992652 0.002991
0.625542 0.992652 0.002991
0.725168 0.992652 0.002991
0.826433 0.992652 0.002991
0.923755 0.992652 0.002991
0.976913 0.992652 0.002991
0.996300 0.992652 0.002991
0.999752 0.988888 0.002991
1.000000 0.983344 0.002991
0.000000 0.999353 0.015201
0.005983 0.999353 0.002991
0.076911 0.999353 0.002991
0.158862 0.999353 0.002991
0.244171 0.999353 0.002991
0.332608 0.999353 0.002991
0.423721 0.999353 0.002991
0.517398 0.999353 0.002991
0.613184 0.999353 0.002991
0.710944 0.999353 0.002991
0.810309 0.999353 0.002991
0.909490 0.999353 0.002991
0.970073 0.999353 0.002991
0.994077 0.999353 0.002991
0.999752 0.999353 0.002991
1.000000 0.998162 0.002991
0.000000 1.000000 0.014714
0.005983 1.000000 0.002991
0.074663 1.000000 0.002991
0.154666 1.000000 0.002991
0.238158 1.000000 0.002991
0.324698 1.000000 0.002991
0.413965 1.000000 0.002991
0.505570 1.000000 0.002991
0.599400 1.000000 0.002991
0.695060 1.000000 0.002991
0.792414 1.000000 0.002991
0.891315 1.000000 0.002991
0.960775 1.000000 0.002991
0.990787 1.000000 0.002991
0.999217 1.000000 0.002991
1.000000 1.000000 0.002991
0.000000 0.000000 0.012019
0.006826 0.000000 0.012019
0.021883 0.000000 0.012019
0.052802 0.000000 0.014882
0.108857 0.000000 0.019330
0.191131 0.000000 0.025319
0.294437 0.000000 0.031978
0.413885 0.000000 0.038583
0.544289 0.000000 0.044579
0.679440 0.000000 0.049483
0.812495 0.000000 0.053001
0.929151 0.000000 0.054962
0.980484 0.000000 0.055275
0.996300 0.000000 0.054372
0.999752 0.000000 0.052882
1.000000 0.000000 0.051232
0.000000 0.004668 0.012019
0.005983 0.004065 0.012019
0.021883 0.004065 0.012019
0.052802 0.004065 0.014344
0.108857 0.004065 0.018020
0.191131 0.004065 0.023010
0.294437 0.004065 0.028603
0.413885 0.004065 0.034147
0.544289 0.004065 0.039209
0.679440 0.004065 0.043409
0.812495 0.004065 0.046419
0.929151 0.004065 0.048078
0.980484 0.004065 0.048329
0.996300 0.004065 0.047536
0.999752 0.004065 0.046246
1.000000 0.004065 0.044813
0.000000 0.015841 0.012019
0.005983 0.015841 0.012019
0.021883 0.015841 0.012019
0.052802 0.015841 0.012019
0.108857 0.015841 0.012019
0.191131 0.015841 0.012019
0.294437 0.015841 0.012019
0.413885 0.015841 0.012019
0.544289 0.015841 0.012019
0.679440 0.015841 0.012019
0.812495 0.015841 0.012019
0.929151 0.015841 0.012019
0.980484 0.015841 0.012019
0.996300 0.015841 0.012019
0.999752 0.015841 0.012019
1.000000 0.015841 0.012019
0.000000 0.039904 0.014882
0.005983 0.039904 0.014344
0.021883 0.039904 0.012019
0.052802 0.039904 0.012019
0.108857 0.047348 0.012019
0.191131 0.057530 0.012019
0.294437 0.068834 0.012019
0.413885 0.079717 0.012019
0.544289 0.089375 0.012019
0.679440 0.097200 0.012019
0.812495 0.102723 0.012019
0.929151 0.105721 0.012019
0.980484 0.106064 0.012019
0.996300 0.104438 0.012019
0.999752 0.101876 0.012019
1.000000 0.099070 0.012019
0.000000 0.084830 0.019330
0.005983 0.084830 0.018020
0.021883 0.084830 0.012019
0.062151 0.084830 0.012019
0.108857 0.084830 0.012019
0.191131 0.104312 0.012019
0.294437 0.124989 0.012019
0.413885 0.144632 0.012019
0.544289 0.161885 0.012019
0.679440 0.175806 0.012019
0.812495 0.185603 0.012019
0.929151 0.190889 0.012019
0.980484 0.191484 0.012019
0.996300 0.188603 0.012019
0.999752 0.184091 0.012019
1.000000 0.179139 0.012019
0.000000 0.154093 0.025319
0.005983 0.154093 0.023010
0.021883 0.154093 0.012019
0.074832 0.154093 0.012019
0.132611 0.154093 0.012019
0.191131 0.154093 0.012019
0.294437 0.184180 0.012019
0.413885 0.212613 0.012019
0.544289 0.237539 0.012019
0.679440 0.257568 0.012019
0.812495 0.271673 0.012019
0.929151 0.279255 0.012019
0.980484 0.280101 0.012019
0.996300 0.276009 0.012019
0.999752 0.269510 0.012019
1.000000 0.262388 0.012019
0.000000 0.246726 0.031978
0.005983 0.246726 0.028603
0.021883 0.246726 0.012019
0.088877 0.246726 0.012019
0.157251 0.246726 0.012019
0.225336 0.246726 0.012019
0.294437 0.246726 0.012019
0.413885 0.284282 0.012019
0.544289 0.317114 0.012019
0.679440 0.343513 0.012019
0.812495 0.362027 0.012019
0.929151 0.372110 0.012019
0.980484 0.373175 0.012019
0.996300 0.367714 0.012019
0.999752 0.359201 0.012019
1.000000 0.349787 0.012019
0.000000 0.359470 0.038583
0.005983 0.359470 0.034147
0.021883 0.359470 0.012019
0.102526 0.359470 0.012019
0.180202 0.359470 0.012019
0.257054 0.359470 0.012019
0.334814 0.359470 0.012019
0.413885 0.359470 0.012019
0.544289 0.400653 0.012019
0.679440 0.433627 0.012019
0.812495 0.456784 0.012019
0.929151 0.469316 0.012019
0.980484 0.470697 0.012019
0.996300 0.463907 0.012019
0.999752 0.453248 0.012019
1.000000 0.441497 0.012019
0.000000 0.487902 0.044579
0.005983 0.487902 0.039209
0.021883 0.487902 0.012019
0.114461 0.487902 0.012019
0.200060 0.487902 0.012019
0.284422 0.487902 0.012019
0.369631 0.487902 0.012019
0.456224 0.487902 0.012019
0.544289 0.487902 0.012019
0.679440 0.527713 0.012019
0.812495 0.555704 0.012019
0.929151 0.570872 0.012019
0.980484 0.572553 0.012019
0.996300 0.564348 0.012019
0.999752 0.551484 0.012019
1.000000 0.537273 0.012019
0.000000 0.625618 0.049483
0.005983 0.625618 0.043409
0.021883 0.625618 0.012019
0.123999 0.625618 0.012019
0.215885 0.625618 0.012019
0.306137 0.625618 0.012019
0.397276 0.625618 0.012019
0.489779 0.625618 0.012019
0.583779 0.625618 0.012019
0.679440 0.625618 0.012019
0.812495 0.658641 0.012019
0.929151 0.676393 0.012019
0.980484 0.678331 0.012019
0.996300 0.668736 0.012019
0.999752 0.653579 0.012019
1.000000 0.636860 0.012019
0.000000 0.765085 0.053001
0.005983 0.765085 0.046419
0.021883 0.765084 0.012019
0.130701 0.765084 0.012019
0.226944 0.765084 0.012019
0.321341 0.765084 0.012019
0.416490 0.765084 0.012019
0.513149 0.765084 0.012019
0.611360 0.765084 0.012019
0.711237 0.765084 0.012019
0.812495 0.765084 0.012019
0.929151 0.785693 0.012019
0.980484 0.787973 0.012019
0.996300 0.776703 0.012019
0.999752 0.759168 0.012019
1.000000 0.739864 0.012019
0.000000 0.896371 0.054962
0.005983 0.896371 0.048078
0.021883 0.896371 0.012019
0.134303 0.896371 0.012019
0.232891 0.896371 0.012019
0.329481 0.896371 0.012019
0.426908 0.896371 0.012019
0.525710 0.896371 0.012019
0.626207 0.896371 0.012019
0.728195 0.896371 0.012019
0.831833 0.896371 0.012019
0.929151 0.896371 0.012019
0.980484 0.898523 0.012019
0.996300 0.887481 0.012019
0.999752 0.868304 0.012019
1.000000 0.846406 0.012019
0.000000 0.967370 0.055275
0.005983 0.967370 0.048329
0.021883 0.967370 0.012019
0.134717 0.967370 0.012019
0.233543 0.967370 0.012019
0.330383 0.967370 0.012019
0.427971 0.967370 0.012019
0.527093 0.967370 0.012019
0.627837 0.967370 0.012019
0.730081 0.967370 0.012019
0.834043 0.967370 0.012019
0.930732 0.967370 0.012019
0.980484 0.967370 0.012019
0.996300 0.961651 0.012019
0.999752 0.951295 0.012019
1.000000 0.937692 0.012019
0.000000 0.992652 0.054372
0.005983 0.992652 0.047536
0.021883 0.992652 0.012019
0.132760 0.992652 0.012019
0.230326 0.992652 0.012019
0.325988 0.992652 0.012019
0.422366 0.992652 0.012019
0.520263 0.992652 0.012019
0.619825 0.992652 0.012019
0.720922 0.992652 0.012019
0.823384 0.992652 0.012019
0.922328 0.992652 0.012019
0.976668 0.992652 0.012019
0.996300 0.992652 0.012019
0.999752 0.988800 0.012019
1.000000 0.983084 0.012019
0.000000 0.999353 0.052882
0.005983 0.999353 0.046246
0.021883 0.999353 0.012019
0.129670 0.999353 0.012019
0.225254 0.999353 0.012019
0.319017 0.999353 0.012019
0.413595 0.999353 0.012019
0.509570 0.999353 0.012019
0.607211 0.999353 0.012019
0.706325 0.999353 0.012019
0.806947 0.999353 0.012019
0.907286 0.999353 0.012019
0.969464 0.999353 0.012019
0.994071 0.999353 0.012019
0.999752 0.999353 0.012019
1.000000 0.998101 0.012019
0.000000 1.000000 0.051232
0.005983 1.000000 0.044813
0.021883 1.000000 0.012019
0.126287 1.000000 0.012019
0.219661 1.000000 0.012019
0.311368 1.000000 0.012019
0.403783 1.000000 0.012019
0.497720 1.000000 0.012019
0.593219 1.000000 0.012019
0.690270 1.000000 0.012019
0.788759 1.000000 0.012019
0.888578 1.000000 0.012019
0.959824 1.000000 0.012019
0.990608 1.000000 0.012019
0.999190 1.000000 0.012019
1.000000 1.000000 0.012019
0.000000 0.000000 0.030916
0.008328 0.000000 0.030916
0.026705 0.000000 0.030916
0.052802 0.000000 0.030916
0.108857 0.000000 0.040153
0.191131 0.000000 0.052433
0.294437 0.000000 0.065683
0.413885 0.000000 0.078460
0.544289 0.000000 0.089838
0.679440 0.000000 0.099107
0.812495 0.000000 0.105745
0.929151 0.000000 0.109429
0.980484 0.000000 0.110007
0.996300 0.000000 0.108306
0.999752 0.000000 0.105516
1.000000 0.000000 0.102408
0.000000 0.005750 0.030916
0.005983 0.004065 0.030916
0.025804 0.004065 0.030916
0.052802 0.004065 0.030916
0.108857 0.004065 0.039528
0.191131 0.004065 0.051051
0.294437 0.004065 0.063514
0.413885 0.004065 0.075558
0.544289 0.004065 0.086292
0.679440 0.004065 0.095040
0.812495 0.004065 0.101309
0.929151 0.004065 0.104754
0.980484 0.004065 0.105278
0.996300 0.004065 0.103633
0.999752 0.004065 0.100947
1.000000 0.004065 0.097976
0.000000 0.019521 0.030916
0.005983 0.018830 0.030916
0.021883 0.015841 0.030916
0.052802 0.015841 0.030916
0.108857 0.015841 0.036825
0.191131 0.015841 0.044923
0.294437 0.015841 0.053839
0.413885 0.015841 0.062536
0.544289 0.015841 0.070351
0.679440 0.015841 0.076729
0.812495 0.015841 0.081274
0.929151 0.015841 0.083739
0.980484 0.015841 0.084025
0.996300 0.015841 0.082684
0.999752 0.015841 0.080575
1.000000 0.015841 0.078266
0.000000 0.039904 0.030916
0.005983 0.039904 0.030916
0.021883 0.039904 0.030916
0.052802 0.039904 0.030916
0.108857 0.039904 0.030916
0.191131 0.039904 0.030916
0.294437 0.039904 0.030916
0.413885 0.039904 0.030916
0.544289 0.039904 0.030916
0.679440 0.039904 0.030916
0.812495 0.039904 0.030916
0.929151 0.039904 0.030916
0.980484 0.039904 0.030916
0.996300 0.039904 0.030916
0.999752 0.039904 0.030916
1.000000 0.039904 0.030916
0.000000 0.084830 0.040153
0.005983 0.084830 0.039528
0.021883 0.084830 0.036825
0.052802 0.084830 0.030916
0.108857 0.084830 0.030916
0.191131 0.097187 0.030916
0.294437 0.110529 0.030916
0.413885 0.123438 0.030916
0.544289 0.134931 0.030916
0.679440 0.144245 0.030916
0.812495 0.150745 0.030916
0.929151 0.154092 0.030916
0.980484 0.154136 0.030916
0.996300 0.151797 0.030916
0.999752 0.148320 0.030916
1.000000 0.144585 0.030916
0.000000 0.154093 0.052433
0.005983 0.154093 0.051051
0.021883 0.154093 0.044923
0.052802 0.154093 0.030916
0.123996 0.154093 0.030916
0.191131 0.154093 0.030916
0.294437 0.177970 0.030916
0.413885 0.200703 0.030916
0.544289 0.220798 0.030916
0.679440 0.236917 0.030916
0.812495 0.248133 0.030916
0.929151 0.253921 0.030916
0.980484 0.254026 0.030916
0.996300 0.249937 0.030916
0.999752 0.243952 0.030916
1.000000 0.237518 0.030916
0.000000 0.246726 0.065683
0.005983 0.246726 0.063514
0.021883 0.246726 0.053839
0.052802 0.246726 0.030916
0.140073 0.246726 0.030916
0.218344 0.246726 0.030916
0.294437 0.246726 0.030916
0.413885 0.278903 0.030916
0.544289 0.307208 0.030916
0.679440 0.329848 0.030916
0.812495 0.345631 0.030916
0.929151 0.353733 0.030916
0.980484 0.353833 0.030916
0.996300 0.348123 0.030916
0.999752 0.339797 0.030916
1.000000 0.330736 0.030916
0.000000 0.359470 0.078460
0.005983 0.359470 0.075558
0.021883 0.359470 0.062536
0.052802 0.359470 0.030916
0.155422 0.359470 0.030916
0.243848 0.359470 0.030916
0.329087 0.359470 0.030916
0.413885 0.359470 0.030916
