src/luts/warm/7.cube
LUT_3D_SIZE 16
0.056046 0.034804 0.034595
0.084338 0.044378 0.043062
0.142775 0.053072 0.050591
0.216013 0.059339 0.055941
0.292565 0.063149 0.059168
0.371122 0.064622 0.060410
0.451444 0.063974 0.059864
0.533836 0.061392 0.057683
0.618318 0.057114 0.054049
0.704993 0.051355 0.049109
0.793600 0.044350 0.043034
0.883689 0.036381 0.036006
0.958524 0.027758 0.028217
0.990700 0.018816 0.019879
0.999325 0.010140 0.011389
1.000014 0.002588 0.003328
0.078222 0.060185 0.048254
0.093831 0.061605 0.049579
0.145928 0.065679 0.053299
0.216912 0.069880 0.057066
0.292793 0.072756 0.059560
0.371106 0.073882 0.060438
0.451432 0.073240 0.059692
0.533704 0.070942 0.057420
0.618292 0.067187 0.053721
0.704988 0.062186 0.048751
0.793544 0.056230 0.042680
0.883643 0.049629 0.035634
0.958573 0.042846 0.027869
0.990690 0.036404 0.019558
0.999324 0.031149 0.011094
1.000012 0.028063 0.003095
0.092725 0.103431 0.057183
0.105620 0.103647 0.057453
0.151919 0.104470 0.058400
0.218946 0.105856 0.059611
0.293286 0.106989 0.060374
0.371032 0.107440 0.060195
0.451101 0.107005 0.058819
0.533364 0.105656 0.056170
0.617932 0.103502 0.052274
0.704655 0.100685 0.047208
0.793358 0.097385 0.041110
0.883455 0.093834 0.034094
0.958410 0.090387 0.026378
0.990696 0.087431 0.018169
0.999326 0.085420 0.009862
1.000001 0.084731 0.002153
0.097967 0.156924 0.060404
0.110176 0.156931 0.060408
0.154791 0.156957 0.060439
0.219574 0.156891 0.060327
0.292947 0.157434 0.059801
0.370282 0.157826 0.058604
0.450263 0.157974 0.056508
0.532547 0.157831 0.053393
0.617166 0.157434 0.049229
0.704152 0.156930 0.044045
0.792807 0.156268 0.037911
0.883208 0.155584 0.030977
0.958278 0.155028 0.023405
0.990619 0.154836 0.015411
0.999322 0.155265 0.007439
1.000000 0.156296 0.000477
0.095140 0.217898 0.058671
0.107591 0.217867 0.058598
0.152829 0.217691 0.058286
0.218438 0.217383 0.057607
0.290986 0.216783 0.056426
0.368574 0.217700 0.054606
0.448770 0.218711 0.052007
0.531250 0.219870 0.048544
0.616105 0.221158 0.044182
0.703191 0.222630 0.038942
0.792156 0.224146 0.032884
0.882631 0.225674 0.026099
0.958113 0.227392 0.018796
0.990590 0.229298 0.011211
0.999314 0.231495 0.003883
1.000000 0.233850 0.000000
0.085520 0.285505 0.052745
0.098925 0.285490 0.052653
0.146654 0.285319 0.052212
0.215074 0.284999 0.051321
0.289461 0.284419 0.049864
0.365800 0.283671 0.047761
0.446514 0.285716 0.044931
0.529445 0.288188 0.041350
0.614684 0.291095 0.036948
0.702060 0.294375 0.031781
0.791281 0.297821 0.025921
0.881925 0.301362 0.019461
0.957869 0.304977 0.012630
0.990513 0.308683 0.005750
0.999310 0.312458 0.000049
1.000000 0.315830 0.000013
0.070330 0.359445 0.043394
0.085562 0.359468 0.043290
0.137385 0.359341 0.042823
0.210189 0.359039 0.041866
0.287367 0.358584 0.040356
0.365623 0.358052 0.038207
0.443835 0.357335 0.035364
0.527398 0.361166 0.031837
0.613072 0.365633 0.027599
0.700848 0.370650 0.022700
0.790449 0.375924 0.017229
0.881483 0.381359 0.011342
0.957756 0.386765 0.005344
0.990512 0.392078 0.000140
0.999310 0.397209 0.000013
1.000000 0.401413 0.000013
0.050850 0.439891 0.031393
0.069309 0.439864 0.031276
0.127044 0.439786 0.030818
0.205148 0.439637 0.029907
0.285597 0.439307 0.028453
0.366049 0.438943 0.026403
0.445990 0.438508 0.023739
0.525341 0.437952 0.020457
0.611523 0.443980 0.016581
0.699812 0.450728 0.012194
0.789620 0.457804 0.007442
0.881009 0.464883 0.002648
0.957634 0.472100 0.000000
0.990512 0.478820 0.000012
0.999310 0.484920 0.000013
1.000000 0.489928 0.000011
0.028573 0.527000 0.017662
0.053052 0.526974 0.017565
0.118182 0.526931 0.017158
0.201527 0.526854 0.016338
0.285213 0.526651 0.015054
0.367829 0.526509 0.013247
0.449567 0.526270 0.010942
0.530384 0.526003 0.008156
0.610582 0.525814 0.004994
0.699234 0.534266 0.001695
0.789425 0.543082 0.000000
0.881028 0.551775 0.000013
0.957634 0.560255 0.000012
0.990512 0.568166 0.000013
0.999310 0.575311 0.000012
1.000000 0.581204 0.000000
0.006332 0.620792 0.003926
0.042352 0.620789 0.003858
0.113935 0.620778 0.003556
0.201160 0.620756 0.002959
0.287339 0.620728 0.002042
0.371734 0.620728 0.000876
0.455025 0.620692 0.000000
0.537227 0.620692 0.000000
0.618560 0.620692 0.000013
0.699209 0.620692 0.000012
0.789425 0.630908 0.000013
0.881028 0.640972 0.000013
0.957634 0.650650 0.000013
0.990512 0.659795 0.000014
0.999310 0.668053 0.000013
1.000000 0.674850 0.000000
0.000020 0.720608 0.000013
0.042025 0.720608 0.000013
0.115570 0.720608 0.000011
0.204350 0.720608 0.000013
0.291654 0.720608 0.000012
0.377143 0.720608 0.000012
0.461424 0.720608 0.000013
0.544564 0.720608 0.000013
0.626938 0.720608 0.000013
0.708589 0.720608 0.000013
0.789425 0.720608 0.000000
0.881028 0.732047 0.000000
0.957634 0.742965 0.000014
0.990512 0.753345 0.000000
0.999310 0.762729 0.000000
1.000000 0.770497 0.000000
0.000022 0.825166 0.000014
0.042802 0.825166 0.000014
0.117699 0.825166 0.000013
0.207659 0.825166 0.000013
0.295989 0.825166 0.000014
0.382508 0.825166 0.000014
0.467706 0.825166 0.000013
0.551862 0.825166 0.000013
0.635129 0.825166 0.000012
0.717742 0.825166 0.000013
0.799594 0.825166 0.000000
0.881028 0.825166 0.000000
0.957634 0.837509 0.000000
0.990512 0.849049 0.000000
0.999310 0.859629 0.000000
1.000000 0.868225 0.000000
0.000000 0.926066 0.000000
0.043552 0.926066 0.000000
0.119758 0.926066 0.000000
0.210900 0.926066 0.000000
0.300171 0.926066 0.000000
0.387634 0.926066 0.000000
0.473788 0.926066 0.000000
0.558873 0.926066 0.000000
0.643109 0.926066 0.000000
0.726615 0.926066 0.000000
0.809364 0.926066 0.000000
0.891716 0.926066 0.000000
0.957634 0.926066 0.000000
0.990512 0.934846 0.000000
0.999310 0.942283 0.000000
1.000000 0.947977 0.000000
0.000000 0.980283 0.000000
0.044251 0.980283 0.000000
0.121682 0.980283 0.000000
0.213837 0.980283 0.000000
0.304073 0.980283 0.000000
0.392427 0.980283 0.000000
0.479417 0.980283 0.000000
0.565394 0.980283 0.000000
0.650556 0.980283 0.000000
0.734843 0.980283 0.000000
0.818406 0.980283 0.000000
0.901562 0.980283 0.000000
0.963356 0.980283 0.000000
0.990512 0.980283 0.000000
0.999310 0.983668 0.000000
1.000000 0.986228 0.000000
0.000000 0.997914 0.000000
0.044896 0.997914 0.000000
0.123461 0.997914 0.000000
0.216576 0.997914 0.000000
0.307596 0.997914 0.000000
0.396783 0.997914 0.000000
0.484610 0.997914 0.000000
0.571341 0.997914 0.000000
0.657218 0.997914 0.000000
0.742343 0.997914 0.000000
0.826656 0.997914 0.000000
0.910642 0.997914 0.000000
0.968092 0.997914 0.000000
0.992444 0.997914 0.000000
0.999310 0.997914 0.000000
1.000000 0.998640 0.000000
0.000000 1.000000 0.000000
0.045427 1.000000 0.000000
0.124917 1.000000 0.000000
0.218833 1.000000 0.000000
0.310521 1.000000 0.000000
0.400370 1.000000 0.000000
0.488830 1.000000 0.000000
0.576174 1.000000 0.000000
0.662741 1.000000 0.000000
0.748463 1.000000 0.000000
0.833568 1.000000 0.000000
0.917513 1.000000 0.000000
0.971594 1.000000 0.000000
0.993692 1.000000 0.000000
0.999547 1.000000 0.000000
1.000000 1.000000 0.000000
0.064636 0.040763 0.049228
0.085904 0.045623 0.052983
0.143150 0.053456 0.059123
0.216112 0.059497 0.063901
0.292601 0.063201 0.066870
0.371126 0.064623 0.068098
0.451429 0.063960 0.067734
0.533822 0.061367 0.065917
0.618334 0.057076 0.062826
0.704985 0.051309 0.058637
0.793592 0.044312 0.053585
0.883678 0.036338 0.047904
0.958521 0.027720 0.041960
0.990699 0.018787 0.036227
0.999325 0.010109 0.031435
1.000014 0.002573 0.028549
0.079004 0.060699 0.057094
0.094420 0.062031 0.058223
0.146199 0.065877 0.061465
0.216974 0.069866 0.064799
0.292806 0.072567 0.067029
0.371106 0.073516 0.067810
0.451415 0.072669 0.067116
0.533690 0.070124 0.065006
0.618278 0.066051 0.061610
0.704981 0.060683 0.057082
0.793536 0.054296 0.051639
0.883634 0.047191 0.045510
0.958569 0.039803 0.039040
0.990689 0.032678 0.032685
0.999324 0.026658 0.027209
1.000011 0.022938 0.023762
0.092897 0.103503 0.064938
0.105693 0.103727 0.065146
0.152023 0.104558 0.065996
0.218995 0.105822 0.067076
0.293307 0.106857 0.067764
0.371028 0.107171 0.067583
0.451126 0.106578 0.066303
0.533348 0.105031 0.063864
0.617917 0.102644 0.060284
0.704647 0.099582 0.055694
0.793348 0.095995 0.050256
0.883443 0.092112 0.044192
0.958407 0.088367 0.037865
0.990695 0.085073 0.031701
0.999326 0.082780 0.026542
1.000001 0.081854 0.023533
0.097969 0.156917 0.067875
0.110039 0.156937 0.067799
0.154712 0.156956 0.067809
0.219568 0.156879 0.067701
0.292937 0.157349 0.067222
0.370284 0.157652 0.066108
0.450254 0.157673 0.064171
0.532529 0.157410 0.061308
0.617152 0.156892 0.057509
0.704145 0.156186 0.052858
0.792801 0.155342 0.047474
0.883194 0.154491 0.041580
0.958274 0.153744 0.035542
0.990618 0.153359 0.029835
0.999322 0.153616 0.025350
1.000000 0.154526 0.023283
0.095101 0.217875 0.066345
0.107246 0.217872 0.066094
0.152600 0.217680 0.065805
0.218364 0.217359 0.065183
0.290974 0.216753 0.064101
0.368549 0.217617 0.062421
0.448737 0.218539 0.060041
0.531231 0.219583 0.056899
0.616091 0.220794 0.052974
0.703186 0.222121 0.048365
0.792149 0.223492 0.043178
0.882709 0.224966 0.037641
0.958110 0.226486 0.032145
0.990590 0.228261 0.027273
0.999314 0.230367 0.023987
1.000000 0.232636 0.023259
0.085473 0.285486 0.061060
0.098323 0.285469 0.060626
0.146225 0.285318 0.060230
0.214827 0.284978 0.059416
0.289350 0.284425 0.058095
0.365723 0.283596 0.056189
0.446500 0.285645 0.053651
0.529476 0.288010 0.050462
0.614671 0.290818 0.046639
0.702054 0.294021 0.042254
0.791275 0.297385 0.037499
0.881917 0.300781 0.032616
0.957867 0.304311 0.028100
0.990513 0.307906 0.024634
0.999310 0.311613 0.023259
1.000000 0.314894 0.023259
0.070271 0.359478 0.052837
0.084610 0.359436 0.052188
0.136724 0.359350 0.051761
0.209823 0.359012 0.050936
0.287176 0.358575 0.049603
0.365502 0.358047 0.047721
0.443816 0.357313 0.045289
0.527384 0.361027 0.042302
0.613062 0.365540 0.038826
0.700843 0.370416 0.035007
0.790445 0.375643 0.031054
0.881479 0.380921 0.027348
0.957755 0.386223 0.024480
0.990512 0.391583 0.023263
0.999310 0.396580 0.023259
1.000000 0.400695 0.023259
0.050766 0.439884 0.042818
0.067796 0.439852 0.041835
0.126055 0.439775 0.041450
0.204589 0.439626 0.040711
0.285275 0.439294 0.039509
0.365837 0.438932 0.037873
0.445920 0.438500 0.035807
0.525333 0.437945 0.033345
0.611517 0.443886 0.030614
0.699809 0.450552 0.027838
0.789618 0.457583 0.025352
0.881008 0.464597 0.023649
0.957634 0.471730 0.023259
0.990512 0.478381 0.023259
0.999310 0.484419 0.023259
1.000000 0.489387 0.023259
0.028517 0.526990 0.032794
0.050667 0.526965 0.031280
0.116808 0.526922 0.031000
0.200716 0.526846 0.030447
0.284740 0.526641 0.029600
0.367577 0.526502 0.028472
0.449457 0.526265 0.027127
0.530320 0.525998 0.025681
0.610579 0.525810 0.024354
0.699233 0.534196 0.023445
0.789425 0.542950 0.023259
0.881028 0.551588 0.023259
0.957634 0.559979 0.023259
0.990512 0.567808 0.023259
0.999310 0.574921 0.023259
1.000000 0.580795 0.023259
0.006294 0.620791 0.026171
0.038820 0.620789 0.023980
0.112145 0.620777 0.023887
0.200139 0.620755 0.023722
0.286721 0.620728 0.023514
0.371435 0.620727 0.023321
0.454732 0.620692 0.023259
0.537060 0.620692 0.023259
0.618487 0.620692 0.023259
0.699209 0.620692 0.023259
0.789425 0.630815 0.023259
0.881028 0.640856 0.023259
0.957634 0.650425 0.023259
0.990512 0.659525 0.023259
0.999310 0.667757 0.023259
1.000000 0.674484 0.023259
0.000020 0.720608 0.025957
0.037651 0.720607 0.023259
0.113389 0.720607 0.023259
0.203106 0.720607 0.023259
0.290886 0.720607 0.023259
0.376666 0.720607 0.023259
0.461110 0.720607 0.023259
0.544324 0.720607 0.023259
0.626826 0.720607 0.023259
0.708498 0.720607 0.023259
0.789425 0.720607 0.023259
0.881028 0.731941 0.023259
0.957634 0.742906 0.023259
0.990512 0.753129 0.023259
0.999310 0.762505 0.023259
1.000000 0.770280 0.023259
0.000022 0.825166 0.026435
0.037651 0.825166 0.023259
0.115142 0.825166 0.023259
0.206210 0.825166 0.023259
0.295081 0.825166 0.023259
0.381902 0.825166 0.023259
0.467279 0.825166 0.023259
0.551556 0.825166 0.023259
0.634937 0.825166 0.023259
0.717660 0.825166 0.023259
0.799526 0.825166 0.023259
0.881028 0.825166 0.023259
0.957634 0.837437 0.023259
0.990512 0.848965 0.023259
0.999310 0.859406 0.023259
1.000000 0.867999 0.023259
0.000000 0.926066 0.026897
0.037651 0.926066 0.023259
0.116832 0.926066 0.023259
0.209204 0.926066 0.023259
0.299111 0.926066 0.023259
0.386937 0.926066 0.023259
0.473240 0.926066 0.023259
0.558470 0.926066 0.023259
0.642813 0.926066 0.023259
0.726434 0.926066 0.023259
0.809267 0.926066 0.023259
0.891611 0.926066 0.023259
0.957634 0.926066 0.023259
0.990512 0.934790 0.023259
0.999310 0.942296 0.023259
1.000000 0.947837 0.023259
0.000000 0.980283 0.027328
0.037651 0.980283 0.023259
0.118424 0.980283 0.023259
0.212004 0.980283 0.023259
0.302879 0.980283 0.023259
0.391600 0.980283 0.023259
0.478917 0.980283 0.023259
0.564968 0.980283 0.023259
0.650220 0.980283 0.023259
0.734623 0.980283 0.023259
0.818316 0.980283 0.023259
0.901542 0.980283 0.023259
0.963318 0.980283 0.023259
0.990512 0.980283 0.023259
0.999310 0.983646 0.023259
1.000000 0.986190 0.023259
0.000000 0.997914 0.027724
0.037651 0.997914 0.023259
0.119874 0.997914 0.023259
0.214539 0.997914 0.023259
0.306285 0.997914 0.023259
0.395851 0.997914 0.023259
0.483945 0.997914 0.023259
0.570840 0.997914 0.023259
0.656814 0.997914 0.023259
0.742078 0.997914 0.023259
0.826514 0.997914 0.023259
0.910437 0.997914 0.023259
0.968100 0.997914 0.023259
0.992432 0.997914 0.023259
0.999310 0.997914 0.023259
1.000000 0.998636 0.023259
0.000000 1.000000 0.028051
0.037651 1.000000 0.023259
0.121086 1.000000 0.023259
0.216618 1.000000 0.023259
0.309133 1.000000 0.023259
0.399382 1.000000 0.023259
0.488118 1.000000 0.023259
0.575663 1.000000 0.023259
0.662318 1.000000 0.023259
0.748258 1.000000 0.023259
0.833304 1.000000 0.023259
0.917374 1.000000 0.023259
0.971506 1.000000 0.023259
0.993672 1.000000 0.023259
0.999545 1.000000 0.023259
1.000000 1.000000 0.023259
0.073485 0.046989 0.083899
0.090619 0.049305 0.085226
0.144634 0.054937 0.088508
0.216522 0.060083 0.091811
0.292680 0.063412 0.094144
0.371138 0.064651 0.095391
0.451413 0.063871 0.095528
0.533771 0.061235 0.094730
0.618275 0.056908 0.093097
0.705000 0.051123 0.090858
0.793580 0.044122 0.088135
0.883628 0.036174 0.085174
0.958504 0.027558 0.082252
0.990695 0.018638 0.079664
0.999325 0.009987 0.077826
1.000013 0.002488 0.077021
0.081805 0.062611 0.087324
0.096576 0.063602 0.087980
0.147164 0.066788 0.089999
0.217280 0.070296 0.092427
0.292877 0.072716 0.094285
0.371106 0.073514 0.095182
0.451430 0.072580 0.095089
0.533670 0.069983 0.094058
0.618192 0.065897 0.092232
0.704947 0.060516 0.089758
0.793500 0.054140 0.086823
0.883662 0.047033 0.083617
0.958553 0.039673 0.080472
0.990685 0.032568 0.077671
0.999323 0.026585 0.075633
1.000010 0.022911 0.074692
0.093488 0.103826 0.092300
0.106218 0.104033 0.092477
0.152291 0.104745 0.093048
0.219097 0.105696 0.093811
0.293311 0.106248 0.094261
0.370992 0.106007 0.094060
0.451044 0.104758 0.093054
0.533338 0.102383 0.091136
0.617830 0.099030 0.088434
0.704662 0.094793 0.085006
0.793314 0.089899 0.081067
0.883478 0.084622 0.076819
0.958391 0.079394 0.072606
0.990691 0.074671 0.068755
0.999325 0.071062 0.065785
1.000000 0.069131 0.064182
0.097989 0.156936 0.094527
0.110051 0.156948 0.094488
0.154363 0.156947 0.094287
0.219531 0.156855 0.094169
0.292889 0.157011 0.093754
0.370199 0.156921 0.092891
0.450287 0.156500 0.091379
0.532458 0.155639 0.089210
0.617146 0.154454 0.086359
0.704067 0.153001 0.082935
0.792769 0.151360 0.079104
0.883151 0.149646 0.075069
0.958260 0.148127 0.071130
0.990615 0.146987 0.067652
0.999322 0.146553 0.065140
1.000000 0.146934 0.064064
0.094932 0.217854 0.093558
0.107082 0.217818 0.093382
0.151665 0.217642 0.092671
0.217904 0.217288 0.092177
0.290891 0.216699 0.091328
0.368532 0.217277 0.090040
0.448718 0.217841 0.088242
0.531223 0.218439 0.085893
0.616068 0.219140 0.083030
0.703155 0.219927 0.079723
0.792119 0.220727 0.076132
0.882718 0.221629 0.072464
0.958098 0.222618 0.069033
0.990587 0.223860 0.066195
0.999314 0.225504 0.064419
1.000000 0.227401 0.064061
0.085234 0.285467 0.089934
0.098118 0.285427 0.089642
0.144436 0.285246 0.088384
0.213894 0.284945 0.087770
0.288935 0.284355 0.086790
0.365691 0.283594 0.085383
0.446443 0.285257 0.083520
0.529420 0.287339 0.081207
0.614621 0.289750 0.078511
0.702030 0.292464 0.075502
0.791252 0.295418 0.072366
0.881969 0.298393 0.069315
0.957859 0.301501 0.066667
0.990529 0.304706 0.064766
0.999310 0.308068 0.064061
1.000000 0.311046 0.064061
0.070006 0.359385 0.084449
0.084381 0.359392 0.084010
0.133904 0.359263 0.082149
0.208225 0.358968 0.081542
0.286308 0.358600 0.080593
0.365087 0.358016 0.079274
0.443809 0.357312 0.077571
0.527328 0.360741 0.075534
0.613023 0.364783 0.073227
0.700847 0.369391 0.070792
0.790429 0.374252 0.068374
0.881459 0.379263 0.066235
0.957751 0.384202 0.064678
0.990512 0.389145 0.064061
0.999310 0.393825 0.064061
1.000000 0.397703 0.064061
0.050520 0.439846 0.078251
0.067581 0.439856 0.077635
0.121909 0.439729 0.074979
0.202200 0.439580 0.074468
0.283882 0.439252 0.073687
0.365065 0.438892 0.072618
0.445540 0.438463 0.071296
0.525336 0.437947 0.069766
0.611491 0.443600 0.068119
0.699798 0.449952 0.066514
0.789634 0.456654 0.065139
0.881002 0.463350 0.064246
0.957634 0.470182 0.064061
0.990512 0.476544 0.064061
0.999310 0.482314 0.064061
1.000000 0.487083 0.064061
0.028292 0.526954 0.072859
0.050524 0.526929 0.072008
0.110952 0.526885 0.068351
0.197389 0.526812 0.068016
0.282783 0.526607 0.067523
0.366388 0.526472 0.066872
0.448737 0.526278 0.066111
0.529988 0.526039 0.065320
0.610570 0.525797 0.064615
0.699231 0.533916 0.064143
0.789425 0.542380 0.064061
0.881028 0.550745 0.064061
0.957634 0.558837 0.064061
0.990512 0.566440 0.064061
0.999310 0.573289 0.064061
1.000000 0.578968 0.064061
0.006132 0.620787 0.070207
0.038766 0.620784 0.069112
0.104420 0.620773 0.064366
0.195773 0.620752 0.064289
0.284116 0.620698 0.064178
0.369807 0.620698 0.064084
0.453748 0.620692 0.064061
0.536458 0.620692 0.064061
0.618253 0.620692 0.064061
0.699209 0.620692 0.064061
0.789425 0.630559 0.064061
0.881028 0.640304 0.064061
0.957634 0.649684 0.064061
0.990512 0.658458 0.064061
0.999310 0.666506 0.064061
1.000000 0.672993 0.064061
0.000021 0.720608 0.071156
0.037651 0.720607 0.069836
0.103917 0.720607 0.064061
0.197744 0.720607 0.064061
0.287633 0.720607 0.064061
0.374544 0.720607 0.064061
0.459662 0.720607 0.064061
0.543472 0.720607 0.064061
0.626258 0.720607 0.064061
0.708225 0.720607 0.064061
0.789425 0.720607 0.064061
0.881028 0.731663 0.064061
0.957634 0.742494 0.064061
0.990512 0.752479 0.064061
0.999310 0.761655 0.064061
1.000000 0.769179 0.064061
0.000022 0.825166 0.072436
0.037651 0.825166 0.070891
0.103917 0.825166 0.064061
0.199916 0.825166 0.064061
0.291207 0.825166 0.064061
0.379298 0.825166 0.064061
0.465545 0.825166 0.064061
0.550368 0.825166 0.064061
0.634197 0.825166 0.064061
0.717186 0.825166 0.064061
0.799331 0.825166 0.064061
0.881028 0.825166 0.064061
0.957634 0.837192 0.064061
0.990512 0.848563 0.064061
0.999310 0.858822 0.064061
1.000000 0.867228 0.064061
0.000000 0.926066 0.073682
0.037651 0.926066 0.071917
0.103917 0.926066 0.064061
0.201986 0.926066 0.064061
0.294653 0.926066 0.064061
0.383922 0.926066 0.064061
0.471134 0.926066 0.064061
0.556978 0.926066 0.064061
0.641806 0.926066 0.064061
0.725749 0.926066 0.064061
0.808823 0.926066 0.064061
0.891364 0.926066 0.064061
0.957634 0.926066 0.064061
0.990512 0.934812 0.064061
0.999310 0.941990 0.064061
1.000000 0.947550 0.064061
0.000000 0.980283 0.074838
0.037651 0.980283 0.072883
0.103917 0.980283 0.064061
0.203912 0.980283 0.064061
0.297863 0.980283 0.064061
0.388200 0.980283 0.064061
0.476420 0.980283 0.064061
0.563198 0.980283 0.064061
0.648935 0.980283 0.064061
0.733723 0.980283 0.064061
0.817666 0.980283 0.064061
0.901189 0.980283 0.064061
0.963260 0.980283 0.064061
0.990512 0.980283 0.064061
0.999310 0.983580 0.064061
1.000000 0.986045 0.064061
0.000000 0.997914 0.075908
0.037651 0.997914 0.073752
0.103917 0.997914 0.064061
0.205665 0.997914 0.064061
0.300767 0.997914 0.064061
0.392087 0.997914 0.064061
0.481155 0.997914 0.064061
0.568804 0.997914 0.064061
0.655322 0.997914 0.064061
0.740963 0.997914 0.064061
0.825724 0.997914 0.064061
0.909982 0.997914 0.064061
0.967931 0.997914 0.064061
0.992399 0.997914 0.064061
0.999310 0.997914 0.064061
1.000000 0.998627 0.064061
0.000000 1.000000 0.076782
0.037651 1.000000 0.074480
0.103917 1.000000 0.064061
0.207161 1.000000 0.064061
0.303176 1.000000 0.064061
0.395259 1.000000 0.064061
0.485063 1.000000 0.064061
0.573428 1.000000 0.064061
0.660599 1.000000 0.064061
0.746863 1.000000 0.064061
0.832273 1.000000 0.064061
0.916669 1.000000 0.064061
0.971328 1.000000 0.064061
0.993708 1.000000 0.064061
0.999541 1.000000 0.064061
1.000000 1.000000 0.064061
0.081096 0.052413 0.130059
0.096178 0.053599 0.130594
0.147341 0.057208 0.132154
0.217203 0.061114 0.133892
0.292859 0.063771 0.135825
0.371106 0.064658 0.137191
0.451452 0.063692 0.137969
0.533689 0.060946 0.138202
0.618235 0.056566 0.138034
0.704957 0.050770 0.137560
0.793511 0.043765 0.136853
0.883605 0.035812 0.136031
0.958557 0.027217 0.135296
0.990686 0.018334 0.134752
0.999324 0.009734 0.134692
1.000011 0.002318 0.135098
0.085852 0.065369 0.131555
0.099790 0.065953 0.131873
0.149118 0.068277 0.133000
0.217842 0.071031 0.134312
0.293031 0.072971 0.135915
0.371127 0.073495 0.137062
0.451368 0.072386 0.137652
0.533574 0.069708 0.137732
0.618094 0.065580 0.137414
0.704881 0.060181 0.136802
0.793429 0.053790 0.135948
0.883610 0.046724 0.135007
0.958520 0.039394 0.134119
0.990694 0.032339 0.133490
0.999326 0.026431 0.133301
1.000008 0.022855 0.133636
0.094548 0.104708 0.134350
0.107121 0.104811 0.134448
0.152824 0.105139 0.134816
0.219280 0.105882 0.135265
0.293338 0.106282 0.135959
0.370924 0.105915 0.136320
0.451069 0.104567 0.136249
0.533249 0.102171 0.135735
0.617763 0.098778 0.134796
0.704597 0.094539 0.133576
0.793199 0.089659 0.132140
0.883470 0.084407 0.130589
0.958360 0.079191 0.129131
0.990683 0.074532 0.127972
0.999325 0.070969 0.127334
1.000000 0.069111 0.127364
0.098019 0.156957 0.135513
0.110064 0.156956 0.135512
0.154339 0.156922 0.135484
0.219433 0.156783 0.135370
0.292798 0.156360 0.135022
0.370148 0.155524 0.134338
0.450191 0.154102 0.133183
0.532436 0.152106 0.131541
0.617124 0.149505 0.129414
0.704003 0.146459 0.126937
0.792706 0.143146 0.124231
0.883106 0.139699 0.121418
0.958346 0.136411 0.118738
0.990608 0.133612 0.116460
0.999321 0.131596 0.114819
1.000000 0.130793 0.114176
0.094591 0.217712 0.135095
0.106766 0.217699 0.135005
0.151354 0.217538 0.134605
0.217042 0.217172 0.133784
0.290752 0.216577 0.133141
0.368404 0.216566 0.132181
0.448639 0.216379 0.130798
0.531124 0.216153 0.129084
0.616004 0.215850 0.127026
0.703130 0.215497 0.124685
0.792062 0.215141 0.122151
0.882632 0.214840 0.119644
0.958074 0.214705 0.117349
0.990581 0.214890 0.115494
0.999314 0.215556 0.114364
1.000000 0.216715 0.114170
0.084749 0.285346 0.132962
0.097655 0.285303 0.132777
0.144091 0.285157 0.132011
0.212002 0.284768 0.130474
0.288108 0.284243 0.129753
0.365553 0.283459 0.128722
0.446369 0.284566 0.127372
0.529328 0.285959 0.125714
0.614596 0.287574 0.123805
0.701979 0.289463 0.121716
0.791287 0.291536 0.119566
0.881905 0.293565 0.117537
0.957842 0.295786 0.115805
0.990526 0.298215 0.114584
0.999310 0.300851 0.114170
1.000000 0.303264 0.114170
0.069488 0.359353 0.129758
0.083912 0.359357 0.129470
0.133562 0.359154 0.128308
0.205058 0.358943 0.125949
0.284646 0.358583 0.125290
0.364358 0.357871 0.124346
0.443705 0.357184 0.123157
0.527270 0.360072 0.121744
0.613017 0.363576 0.120165
0.700855 0.367433 0.118499
0.790395 0.371492 0.116919
0.881421 0.375652 0.115525
0.957743 0.379985 0.114545
0.990512 0.384264 0.114170
0.999310 0.388347 0.114170
1.000000 0.391707 0.114170
0.050006 0.439801 0.126355
0.067169 0.439771 0.125965
0.121614 0.439681 0.124306
0.197409 0.439526 0.121025
0.281207 0.439204 0.120481
0.363610 0.438860 0.119744
0.444890 0.438388 0.118831
0.525266 0.437894 0.117844
