src/luts/warm/7.cube
LUT_3D_SIZE 6
0.056046 0.034804 0.034595
0.216013 0.059339 0.055941
0.451444 0.063974 0.059864
0.704993 0.051355 0.049109
0.958524 0.027758 0.028217
1.000014 0.002588 0.003328
0.097967 0.156924 0.060404
0.219574 0.156891 0.060327
0.450263 0.157974 0.056508
0.704152 0.156930 0.044045
0.958278 0.155028 0.023405
1.000000 0.156296 0.000477
0.070330 0.359445 0.043394
0.210189 0.359039 0.041866
0.443835 0.357335 0.035364
0.700848 0.370650 0.022700
0.957756 0.386765 0.005344
1.000000 0.401413 0.000013
0.006332 0.620792 0.003926
0.201160 0.620756 0.002959
0.455025 0.620692 0.000000
0.699209 0.620692 0.000012
0.957634 0.650650 0.000013
1.000000 0.674850 0.000000
0.000000 0.926066 0.000000
0.210900 0.926066 0.000000
0.473788 0.926066 0.000000
0.726615 0.926066 0.000000
0.957634 0.926066 0.000000
1.000000 0.947977 0.000000
0.000000 1.000000 0.000000
0.218833 1.000000 0.000000
0.488830 1.000000 0.000000
0.748463 1.000000 0.000000
0.971594 1.000000 0.000000
1.000000 1.000000 0.000000
0.081096 0.052413 0.130059
0.217203 0.061114 0.133892
0.451452 0.063692 0.137969
0.704957 0.050770 0.137560
0.958557 0.027217 0.135296
1.000011 0.002318 0.135098
0.098019 0.156957 0.135513
0.219433 0.156783 0.135370
0.450191 0.154102 0.133183
0.704003 0.146459 0.126937
0.958346 0.136411 0.118738
1.000000 0.130793 0.114176
0.069488 0.359353 0.129758
0.205058 0.358943 0.125949
0.443705 0.357184 0.123157
0.700855 0.367433 0.118499
0.957743 0.379985 0.114545
1.000000 0.391707 0.114170
0.005781 0.620779 0.123497
0.186871 0.620746 0.114300
0.451685 0.620692 0.114170
0.699209 0.620692 0.114170
0.957633 0.648075 0.114170
1.000000 0.670182 0.114170
0.000000 0.926066 0.129751
0.186644 0.926066 0.114170
0.466839 0.926066 0.114170
0.724233 0.926066 0.114170
0.957633 0.926066 0.114170
1.000000 0.946838 0.114170
0.000000 1.000000 0.134969
0.186644 1.000000 0.114170
0.479057 1.000000 0.114170
0.744237 1.000000 0.114170
0.970898 1.000000 0.114170
1.000000 1.000000 0.114170
0.095273 0.062652 0.308399
0.223789 0.064311 0.308822
0.450940 0.062130 0.308271
0.704542 0.048240 0.318431
0.958350 0.024952 0.329582
1.000000 0.001222 0.339833
0.097208 0.160163 0.308748
0.218636 0.156139 0.308496
0.449487 0.152881 0.307073
0.703600 0.145238 0.314664
0.958256 0.135653 0.323242
1.000000 0.130799 0.331602
0.065887 0.358698 0.303611
0.203557 0.358314 0.303283
0.443196 0.356701 0.301945
0.700528 0.354064 0.299674
0.957695 0.351938 0.297900
1.000000 0.351923 0.297873
0.003581 0.620734 0.311659
0.186713 0.620736 0.308938
0.438222 0.620692 0.297873
0.699209 0.620692 0.297873
0.957634 0.637953 0.297873
1.000000 0.651612 0.297873
0.000000 0.926066 0.327199
0.186644 0.926066 0.321411
0.438222 0.926066 0.297873
0.714889 0.926066 0.297873
0.957634 0.926066 0.297873
1.000000 0.942368 0.297873
0.000000 1.000000 0.339835
0.186644 1.000000 0.331602
0.438222 1.000000 0.297873
0.727485 1.000000 0.297873
0.968147 1.000000 0.297873
1.000000 1.000000 0.297873
0.097577 0.064341 0.535982
0.230747 0.063581 0.535892
0.465811 0.057915 0.534917
0.703777 0.043100 0.532560
0.958307 0.020510 0.555583
1.000000 0.000000 0.575394
0.092682 0.164468 0.535393
0.215988 0.153997 0.535131
0.461127 0.150287 0.533978
0.702829 0.142837 0.531741
0.958047 0.134235 0.552914
1.000000 0.130799 0.571319
0.058607 0.373507 0.531628
0.200604 0.369998 0.531415
0.442093 0.355653 0.530551
0.700124 0.353440 0.529173
0.957640 0.351952 0.543267
1.000000 0.351923 0.555125
0.000080 0.620692 0.528281
0.186644 0.620692 0.528281
0.438222 0.620692 0.528281
0.699209 0.620692 0.528281
0.957634 0.620692 0.528281
1.000000 0.620692 0.528281
0.000000 0.926066 0.554313
0.186644 0.926066 0.552105
0.438222 0.926066 0.543254
0.699209 0.926066 0.528281
0.957634 0.926066 0.528281
1.000000 0.934588 0.528281
0.000000 1.000000 0.575394
0.186644 1.000000 0.571319
0.438222 1.000000 0.555125
0.699209 1.000000 0.528281
0.963138 1.000000 0.528281
1.000000 1.000000 0.528281
0.089938 0.058783 0.807776
0.235237 0.057228 0.807588
0.481846 0.050020 0.806726
0.729441 0.035004 0.804891
0.957929 0.013937 0.803120
1.000000 0.000007 0.832979
0.082355 0.167802 0.807104
0.210880 0.149888 0.806834
0.473789 0.146089 0.805953
0.726589 0.139371 0.804494
0.957761 0.132453 0.802771
1.000000 0.130799 0.831175
0.047204 0.390004 0.804408
0.196383 0.383045 0.804199
0.440731 0.354364 0.803656
0.715340 0.352593 0.802876
0.957634 0.351923 0.802651
1.000000 0.351923 0.824419
0.000000 0.650650 0.802651
0.186644 0.648075 0.802651
0.438222 0.637953 0.802651
0.699209 0.620692 0.802651
0.957634 0.620692 0.802651
1.000000 0.620692 0.813530
0.000000 0.926066 0.802651
0.186644 0.926066 0.802651
0.438222 0.926066 0.802651
0.699209 0.926066 0.802651
0.957634 0.926066 0.802651
1.000000 0.926066 0.802651
0.000000 1.000000 0.832979
0.186644 1.000000 0.831175
0.438222 1.000000 0.824419
0.699209 1.000000 0.813530
0.957634 1.000000 0.802651
1.000000 1.000000 0.802651
0.074263 0.047537 1.001896
0.235819 0.045800 1.001793
0.493825 0.038377 1.001379
0.750029 0.024208 1.000692
0.971692 0.005972 1.000077
1.000000 0.000006 1.000038
0.065941 0.168364 1.001559
0.203558 0.144073 1.001464
0.483246 0.140754 1.001087
0.745299 0.135369 1.000488
0.970906 0.131028 1.000017
1.000000 0.130799 1.000038
0.031846 0.403092 1.000465
0.191660 0.393365 1.000412
0.439186 0.352872 1.000223
0.727575 0.351955 1.000011
0.968147 0.351923 1.000038
1.000000 0.351923 1.000038
0.000021 0.674850 1.000038
0.186644 0.670182 1.000038
0.438222 0.651612 1.000038
0.699209 0.620692 1.000038
0.963138 0.620692 1.000038
1.000000 0.620692 1.000038
0.000000 0.947977 1.000038
0.186644 0.946838 1.000038
0.438222 0.942368 1.000038
0.699209 0.934588 1.000038
0.957634 0.926066 1.000038
1.000000 0.926066 1.000038
0.000000 1.000000 1.000038
0.186644 1.000000 1.000038
0.438222 1.000000 1.000038
0.699209 1.000000 1.000038
0.957634 1.000000 1.000038
1.000000 1.000000 1.000038
