src/luts/warm/8.cube
LUT_3D_SIZE 6
0.034234 0.017494 0.012084
0.190421 0.037380 0.024990
0.422802 0.040692 0.027207
0.702458 0.033264 0.022261
0.971720 0.018561 0.012757
1.000000 0.000280 0.001308
0.073719 0.122085 0.027410
0.192595 0.122084 0.027408
0.422140 0.129466 0.025671
0.701868 0.136562 0.019932
0.971653 0.142294 0.010593
1.000000 0.148112 0.001248
0.054501 0.307607 0.019638
0.197556 0.307434 0.018942
0.418485 0.306533 0.015984
0.700021 0.332315 0.010277
0.971555 0.355466 0.002373
1.000000 0.373553 0.001252
0.001235 0.570246 0.001645
0.205221 0.570244 0.001248
0.446637 0.570244 0.001248
0.699328 0.570244 0.001251
0.971550 0.611344 0.001252
1.000000 0.642568 0.001248
0.000000 0.896142 0.001248
0.217721 0.896142 0.001248
0.473204 0.896142 0.001248
0.740529 0.896142 0.001248
0.971550 0.896142 0.001248
1.000000 0.930528 0.001248
0.000000 1.000000 0.001248
0.227125 1.000000 0.001248
0.493174 1.000000 0.001248
0.771500 1.000000 0.001248
0.984013 1.000000 0.001248
1.000000 1.000000 0.001248
0.059852 0.032486 0.082906
0.191114 0.038589 0.084789
0.422706 0.040534 0.091840
0.702400 0.032908 0.097364
0.971794 0.018212 0.101420
1.000000 0.000190 0.105450
0.073789 0.122089 0.085614
0.192496 0.122022 0.085560
0.422015 0.120785 0.084632
0.701781 0.117335 0.082038
0.971712 0.113119 0.078885
1.000000 0.111453 0.077641
0.053895 0.307572 0.088554
0.185397 0.307353 0.081625
0.418395 0.306495 0.080520
0.699929 0.326239 0.078823
0.971554 0.344402 0.077650
1.000000 0.358929 0.077641
0.000659 0.570245 0.092724
0.178082 0.570244 0.077641
0.439883 0.570244 0.077641
0.699328 0.570244 0.077641
0.971550 0.606995 0.077641
1.000000 0.635109 0.077641
0.000000 0.896142 0.099933
0.178082 0.896142 0.077641
0.461006 0.896142 0.077641
0.736247 0.896142 0.077641
0.971550 0.896142 0.077641
1.000000 0.928366 0.077641
0.000000 1.000000 0.105450
0.178082 1.000000 0.077641
0.477118 1.000000 0.077641
0.764160 1.000000 0.077641
0.983235 1.000000 0.077641
1.000000 1.000000 0.077641
0.071526 0.039636 0.236737
0.203787 0.040758 0.236960
0.422511 0.039644 0.236739
0.702135 0.031385 0.257611
0.971711 0.016716 0.276062
1.000000 0.000190 0.290907
0.073318 0.130412 0.236955
0.192100 0.121722 0.236812
0.421680 0.120231 0.236105
0.701586 0.116782 0.252008
0.971654 0.112828 0.266346
1.000000 0.111453 0.278328
0.051280 0.307262 0.234334
0.184660 0.307108 0.234185
0.418136 0.306215 0.233441
0.699830 0.305015 0.232425
0.971550 0.304269 0.231849
1.000000 0.304268 0.231849
0.000000 0.570244 0.254865
0.178082 0.570244 0.249740
0.415920 0.570244 0.231849
0.699329 0.570244 0.231849
0.971550 0.591811 0.231849
1.000000 0.608726 0.231849
0.000000 0.896142 0.275285
0.178082 0.896142 0.265851
0.415920 0.896142 0.231849
0.721001 0.896142 0.231849
0.971550 0.896142 0.231849
1.000000 0.920731 0.231849
0.000000 1.000000 0.290907
0.178082 1.000000 0.278328
0.415920 1.000000 0.231849
0.737871 1.000000 0.231849
0.980605 1.000000 0.231849
1.000000 1.000000 0.231849
0.073562 0.040896 0.469828
0.216892 0.040474 0.469784
0.451552 0.037171 0.469210
0.701648 0.028251 0.467862
0.971662 0.013732 0.503796
1.000000 0.000190 0.532241
0.070247 0.139685 0.469518
0.190741 0.120734 0.469390
0.444194 0.119038 0.468620
0.701183 0.115732 0.467362
0.971624 0.112330 0.499672
1.000000 0.111453 0.525280
0.045911 0.333557 0.467306
0.183338 0.327341 0.467148
0.417569 0.305744 0.466669
0.699721 0.304717 0.466089
0.971550 0.304268 0.485476
1.000000 0.304268 0.500974
0.000000 0.570244 0.465744
0.178082 0.570244 0.465744
0.415920 0.570244 0.465744
0.699328 0.570244 0.465744
0.971550 0.570244 0.465744
1.000000 0.570244 0.465744
0.000000 0.896142 0.503390
0.178082 0.896142 0.499372
0.415920 0.896142 0.485476
0.699328 0.896142 0.465744
0.971550 0.896142 0.465744
1.000000 0.908805 0.465744
0.000000 1.000000 0.532241
0.178082 1.000000 0.525280
0.415920 1.000000 0.500974
0.699328 1.000000 0.465744
0.976402 1.000000 0.465744
1.000000 1.000000 0.465744
0.068367 0.037685 0.777637
0.226788 0.036760 0.777410
0.476547 0.032461 0.777026
0.741846 0.023212 0.775961
0.971580 0.009132 0.774911
1.000000 0.000198 0.819273
0.063061 0.147115 0.777261
0.188197 0.118848 0.777057
0.463936 0.117152 0.776453
0.737164 0.114290 0.775488
0.971525 0.111741 0.774880
1.000000 0.111453 0.816132
0.037299 0.356569 0.775424
0.181443 0.345513 0.775400
0.416921 0.305154 0.775108
0.721146 0.304373 0.774856
0.971550 0.304268 0.774725
1.000000 0.304268 0.805292
0.000090 0.611344 0.774725
0.178082 0.606995 0.774725
0.415920 0.591811 0.774725
0.699328 0.570244 0.774725
0.971550 0.570244 0.774725
1.000000 0.570244 0.789710
0.000000 0.896142 0.774725
0.178082 0.896142 0.774725
0.415920 0.896142 0.774725
0.699328 0.896142 0.774725
0.971550 0.896142 0.774725
1.000000 0.896142 0.774725
0.000000 1.000000 0.819273
0.178082 1.000000 0.816132
0.415920 1.000000 0.805292
0.699328 1.000000 0.789710
0.971550 1.000000 0.774725
1.000000 1.000000 0.774725
0.057322 0.030959 1.000883
0.233026 0.029897 1.000828
0.495064 0.025329 1.000609
0.772075 0.016221 1.000262
0.984020 0.003084 1.000038
1.000000 0.000198 1.000038
0.051318 0.151968 1.000704
0.184662 0.116261 1.000654
0.478681 0.114873 1.000458
0.764488 0.112755 1.000166
0.983235 0.111453 1.000038
1.000000 0.111453 1.000038
0.025039 0.374072 1.000155
0.179523 0.359400 1.000131
0.416162 0.304497 1.000051
0.737871 0.304268 1.000038
0.980605 0.304268 1.000038
1.000000 0.304268 1.000038
0.000095 0.642568 1.000038
0.178082 0.635109 1.000038
0.415920 0.608726 1.000038
0.699328 0.570244 1.000038
0.976402 0.570244 1.000038
1.000000 0.570244 1.000038
0.000000 0.930528 1.000038
0.178082 0.928366 1.000038
0.415920 0.920731 1.000038
0.699328 0.908805 1.000038
0.971550 0.896142 1.000038
1.000000 0.896142 1.000038
0.000000 1.000000 1.000038
0.178082 1.000000 1.000038
0.415920 1.000000 1.000038
0.699328 1.000000 1.000038
0.971550 1.000000 1.000038
1.000000 1.000000 1.000038
