src/luts/warm/8.cube
LUT_3D_SIZE 16
0.034234 0.017494 0.012084
0.068774 0.026340 0.017736
0.125219 0.032968 0.022067
0.190421 0.037380 0.024990
0.261838 0.039965 0.026720
0.339454 0.041004 0.027417
0.422802 0.040692 0.027207
0.511381 0.039217 0.026218
0.604773 0.036698 0.024534
0.702458 0.033264 0.022261
0.803862 0.029022 0.019477
0.907836 0.024080 0.016277
0.971720 0.018561 0.012757
0.994838 0.012573 0.009011
0.999739 0.006332 0.005183
1.000000 0.000280 0.001308
0.057346 0.041521 0.020756
0.076017 0.042432 0.021504
0.127050 0.045112 0.023563
0.190932 0.047894 0.025594
0.261992 0.049926 0.026932
0.339468 0.050995 0.027437
0.422732 0.051104 0.027132
0.511329 0.050337 0.026089
0.604774 0.048821 0.024384
0.702428 0.046690 0.022094
0.803856 0.044131 0.019310
0.907772 0.041359 0.016109
0.971804 0.038654 0.012598
0.994846 0.036341 0.008862
0.999739 0.034847 0.005052
1.000000 0.034567 0.001248
0.069487 0.077408 0.025656
0.084748 0.077532 0.025803
0.130579 0.077988 0.026312
0.192145 0.079395 0.026957
0.262285 0.080992 0.027390
0.339372 0.082528 0.027357
0.422609 0.083758 0.026742
0.511111 0.084566 0.025520
0.604504 0.085002 0.023715
0.702125 0.085128 0.021386
0.803746 0.085067 0.018596
0.907701 0.084907 0.015408
0.971740 0.084828 0.011929
0.994834 0.084971 0.008241
0.999738 0.085469 0.004490
1.000000 0.086381 0.001248
0.073719 0.122085 0.027410
0.088334 0.122082 0.027418
0.133297 0.122091 0.027442
0.192595 0.122084 0.027408
0.262173 0.124202 0.027186
0.339042 0.126791 0.026639
0.422140 0.129466 0.025671
0.510653 0.132021 0.024235
0.604037 0.134384 0.022313
0.701868 0.136562 0.019932
0.803415 0.138593 0.017140
0.907377 0.140425 0.014003
0.971653 0.142294 0.010593
0.994827 0.144181 0.007000
0.999737 0.146146 0.003369
1.000000 0.148112 0.001248
0.071941 0.175157 0.026670
0.087308 0.175127 0.026635
0.133846 0.175067 0.026492
0.194565 0.174891 0.026178
0.261122 0.174606 0.025637
0.338052 0.178638 0.024790
0.421203 0.183086 0.023591
0.509917 0.187517 0.021999
0.603458 0.191892 0.019998
0.701355 0.196070 0.017604
0.803022 0.200056 0.014860
0.907400 0.203890 0.011805
0.971588 0.207462 0.008524
0.994801 0.210964 0.005102
0.999736 0.214367 0.001626
1.000000 0.217343 0.001248
0.065280 0.237011 0.023934
0.082648 0.236989 0.023889
0.132731 0.236913 0.023691
0.196167 0.236739 0.023275
0.264893 0.236447 0.022604
0.336494 0.236066 0.021639
0.419925 0.242419 0.020344
0.508870 0.248960 0.018701
0.602649 0.255400 0.016703
0.700670 0.261659 0.014363
0.802473 0.267611 0.011726
0.906901 0.273372 0.008821
0.971556 0.278809 0.005747
0.994801 0.283983 0.002569
0.999736 0.288767 0.001248
1.000000 0.292775 0.001252
0.054501 0.307607 0.019638
0.075406 0.307604 0.019588
0.130620 0.307543 0.019375
0.197556 0.307434 0.018942
0.268924 0.307183 0.018253
0.342876 0.306900 0.017272
0.418485 0.306533 0.015984
0.507701 0.315274 0.014388
0.601690 0.323875 0.012478
0.700021 0.332315 0.010277
0.801951 0.340406 0.007819
0.906657 0.348114 0.005161
0.971555 0.355466 0.002373
0.994798 0.362297 0.001248
0.999736 0.368388 0.001252
1.000000 0.373553 0.001252
0.040083 0.386769 0.014187
0.066993 0.386810 0.014137
0.128473 0.386768 0.013930
0.199118 0.386659 0.013519
0.273309 0.386571 0.012862
0.349582 0.386380 0.011940
0.427479 0.386138 0.010743
0.506606 0.385899 0.009269
0.600905 0.396898 0.007530
0.699446 0.407587 0.005550
0.801726 0.417861 0.003370
0.906508 0.427628 0.001248
0.971550 0.436760 0.001248
0.994798 0.445169 0.001252
0.999736 0.452736 0.001252
1.000000 0.459018 0.001252
0.022306 0.474492 0.008013
0.059671 0.474481 0.007968
0.127424 0.474432 0.007787
0.201480 0.474393 0.007418
0.278251 0.474385 0.006841
0.356811 0.474230 0.006025
0.436870 0.474217 0.004981
0.518161 0.474089 0.003704
0.600486 0.473999 0.002201
0.699328 0.487099 0.001248
0.801700 0.499540 0.001248
0.906508 0.511270 0.001251
0.971550 0.522201 0.001252
0.994798 0.532281 0.001252
0.999736 0.541321 0.001251
1.000000 0.548794 0.001252
0.001235 0.570246 0.001645
0.056979 0.570246 0.001613
0.128731 0.570245 0.001438
0.205221 0.570244 0.001248
0.284078 0.570244 0.001248
0.364677 0.570244 0.001248
0.446637 0.570244 0.001248
0.529888 0.570244 0.001248
0.614139 0.570244 0.001252
0.699328 0.570244 0.001251
0.801700 0.584837 0.001252
0.906508 0.598554 0.001251
0.971550 0.611344 0.001252
0.994798 0.623089 0.001252
0.999736 0.633709 0.001253
1.000000 0.642568 0.001248
0.000093 0.673345 0.001252
0.058249 0.673345 0.001252
0.131606 0.673345 0.001250
0.209691 0.673345 0.001252
0.290172 0.673345 0.001251
0.372398 0.673345 0.001252
0.456125 0.673345 0.001252
0.541065 0.673345 0.001252
0.627067 0.673345 0.001253
0.714020 0.673345 0.001252
0.801700 0.673345 0.001252
0.906508 0.689115 0.001252
0.971550 0.703922 0.001252
0.994798 0.717489 0.001248
0.999736 0.729716 0.001248
1.000000 0.739897 0.001248
0.000095 0.782975 0.001252
0.059446 0.782975 0.001253
0.134282 0.782975 0.001252
0.213846 0.782975 0.001252
0.295862 0.782975 0.001252
0.379666 0.782975 0.001253
0.464967 0.782975 0.001252
0.551525 0.782975 0.001253
0.639161 0.782975 0.001248
0.727728 0.782975 0.001252
0.817091 0.782975 0.001248
0.906508 0.782975 0.001248
0.971550 0.799751 0.001248
0.994798 0.815151 0.001248
0.999736 0.829094 0.001248
1.000000 0.840606 0.001248
0.000000 0.896142 0.001248
0.060567 0.896142 0.001248
0.136779 0.896142 0.001248
0.217721 0.896142 0.001248
0.301153 0.896142 0.001248
0.386482 0.896142 0.001248
0.473204 0.896142 0.001248
0.561226 0.896142 0.001248
0.650397 0.896142 0.001248
0.740529 0.896142 0.001248
0.831450 0.896142 0.001248
0.919962 0.896142 0.001248
0.971550 0.896142 0.001248
0.994798 0.910237 0.001248
0.999736 0.921668 0.001248
1.000000 0.930528 0.001248
0.000000 0.968645 0.001248
0.061590 0.968645 0.001248
0.139066 0.968645 0.001248
0.221279 0.968645 0.001248
0.306035 0.968645 0.001248
0.392638 0.968645 0.001248
0.480778 0.968645 0.001248
0.570177 0.968645 0.001248
0.660730 0.968645 0.001248
0.752218 0.968645 0.001248
0.844616 0.968645 0.001248
0.930939 0.968645 0.001248
0.976846 0.968645 0.001248
0.994798 0.968645 0.001248
0.999736 0.974706 0.001248
1.000000 0.979196 0.001248
0.000000 0.996039 0.001248
0.062516 0.996039 0.001248
0.141100 0.996039 0.001248
0.224426 0.996039 0.001248
0.310379 0.996039 0.001248
0.398162 0.996039 0.001248
0.487472 0.996039 0.001248
0.578162 0.996039 0.001248
0.669941 0.996039 0.001248
0.762743 0.996039 0.001248
0.856411 0.996039 0.001248
0.939799 0.996039 0.001248
0.980974 0.996039 0.001248
0.996117 0.996039 0.001248
0.999736 0.996039 0.001248
1.000000 0.997319 0.001248
0.000000 1.000000 0.001248
0.063281 1.000000 0.001248
0.142807 1.000000 0.001248
0.227125 1.000000 0.001248
0.313993 1.000000 0.001248
0.402788 1.000000 0.001248
0.493174 1.000000 0.001248
0.584779 1.000000 0.001248
0.677637 1.000000 0.001248
0.771500 1.000000 0.001248
0.866177 1.000000 0.001248
0.946417 1.000000 0.001248
0.984013 1.000000 0.001248
0.997096 1.000000 0.001248
0.999801 1.000000 0.001248
1.000000 1.000000 0.001248
0.044406 0.023316 0.023881
0.069997 0.027339 0.025866
0.125435 0.033254 0.029092
0.190457 0.037489 0.031625
0.261838 0.040000 0.033304
0.339456 0.041004 0.034180
0.422796 0.040688 0.034334
0.511369 0.039196 0.033844
0.604765 0.036676 0.032820
0.702451 0.033234 0.031373
0.803857 0.028999 0.029639
0.907830 0.024056 0.027754
0.971718 0.018539 0.025924
0.994848 0.012551 0.024358
0.999739 0.006308 0.023339
1.000000 0.000278 0.023121
0.058040 0.041849 0.027984
0.076442 0.042695 0.028554
0.127193 0.045121 0.030194
0.190995 0.047594 0.031876
0.262016 0.049260 0.033013
0.339469 0.049887 0.033440
0.422726 0.049478 0.033163
0.511366 0.048145 0.032250
0.604766 0.045979 0.030781
0.702421 0.043133 0.028849
0.803852 0.039761 0.026583
0.907767 0.036071 0.024118
0.971802 0.032324 0.021641
0.994846 0.028917 0.019410
0.999739 0.026408 0.017778
1.000000 0.025468 0.017169
0.069608 0.077455 0.032016
0.084641 0.077572 0.032053
0.130642 0.078025 0.032481
0.192149 0.079252 0.033034
0.262291 0.080612 0.033403
0.339369 0.081834 0.033361
0.422600 0.082728 0.032817
0.511098 0.083194 0.031753
0.604494 0.083262 0.030212
0.702118 0.083033 0.028267
0.803741 0.082605 0.026013
0.907695 0.082097 0.023596
0.971739 0.081674 0.021207
0.994834 0.081503 0.019088
0.999738 0.081738 0.017614
1.000000 0.082448 0.017169
0.073718 0.122059 0.033653
0.087791 0.122086 0.033422
0.133069 0.122092 0.033442
0.192588 0.122079 0.033404
0.262162 0.124032 0.033210
0.339036 0.126392 0.032730
0.422149 0.128842 0.031887
0.510639 0.131129 0.030650
0.604028 0.133255 0.029029
0.701817 0.135205 0.027082
0.803412 0.136971 0.024896
0.907370 0.138604 0.022591
0.971651 0.140277 0.020379
0.994826 0.141979 0.018512
0.999737 0.143797 0.017360
1.000000 0.145600 0.017169
0.071907 0.175144 0.033230
0.086192 0.175115 0.032727
0.133256 0.175070 0.032600
0.194310 0.174892 0.032329
0.261144 0.174632 0.031857
0.338044 0.178450 0.031129
0.421192 0.182710 0.030106
0.509903 0.186955 0.028769
0.603451 0.191129 0.027131
0.701351 0.195128 0.025250
0.803018 0.198921 0.023202
0.907395 0.202575 0.021129
0.971587 0.206007 0.019233
0.994801 0.209396 0.017796
0.999736 0.212682 0.017172
1.000000 0.215571 0.017169
0.065252 0.237004 0.031224
0.080694 0.236981 0.030360
0.131663 0.236905 0.030189
0.195627 0.236731 0.029840
0.264652 0.236441 0.029278
0.336486 0.236058 0.028474
0.419963 0.242266 0.027412
0.508851 0.248596 0.026096
0.602642 0.254914 0.024557
0.700665 0.260966 0.022849
0.802470 0.266803 0.021075
0.906898 0.272409 0.019386
0.971555 0.277738 0.018010
0.994801 0.282769 0.017237
0.999736 0.287474 0.017169
1.000000 0.291404 0.017169
0.054449 0.307625 0.028142
0.072258 0.307594 0.026801
0.129000 0.307530 0.026631
0.196652 0.307426 0.026291
0.268472 0.307175 0.025750
0.342637 0.306892 0.024989
0.418475 0.306526 0.024025
0.507691 0.315092 0.022866
0.601685 0.323564 0.021561
0.700017 0.331898 0.020195
0.801949 0.339797 0.018885
0.906655 0.347431 0.017815
0.971555 0.354632 0.017217
0.994798 0.361367 0.017169
0.999736 0.367420 0.017169
1.000000 0.372445 0.017169
0.040024 0.386756 0.024649
0.062201 0.386800 0.022687
0.126227 0.386757 0.022544
0.197887 0.386649 0.022261
0.272530 0.386559 0.021813
0.349191 0.386371 0.021211
0.427305 0.386132 0.020470
0.506598 0.385890 0.019626
0.600902 0.396691 0.018747
0.699444 0.407329 0.017941
0.801725 0.417459 0.017359
0.906509 0.427113 0.017169
0.971550 0.436141 0.017169
0.994798 0.444469 0.017169
0.999736 0.451932 0.017169
1.000000 0.458190 0.017169
0.022256 0.474488 0.021686
0.052745 0.474478 0.018956
0.124560 0.474429 0.018869
0.199886 0.474390 0.018696
0.277266 0.474381 0.018441
0.356226 0.474228 0.018119
0.436521 0.474215 0.017758
0.518009 0.474087 0.017422
0.600486 0.473998 0.017202
0.699328 0.486992 0.017169
0.801700 0.499252 0.017169
0.906509 0.510908 0.017169
0.971550 0.521718 0.017169
0.994798 0.531709 0.017169
0.999736 0.540704 0.017169
1.000000 0.548188 0.017169
0.001199 0.570246 0.020610
0.048094 0.570245 0.017173
0.125299 0.570245 0.017168
0.203352 0.570244 0.017169
0.282879 0.570244 0.017169
0.363867 0.570244 0.017169
0.446201 0.570244 0.017169
0.529558 0.570244 0.017169
0.614034 0.570244 0.017169
0.699328 0.570244 0.017169
0.801700 0.584663 0.017169
0.906509 0.598307 0.017169
0.971550 0.611018 0.017169
0.994798 0.622676 0.017169
0.999736 0.633230 0.017169
1.000000 0.641985 0.017169
0.000093 0.673345 0.021112
0.048087 0.673345 0.017169
0.127676 0.673345 0.017169
0.207474 0.673345 0.017169
0.288750 0.673345 0.017169
0.371435 0.673345 0.017169
0.455439 0.673345 0.017169
0.540599 0.673345 0.017169
0.626797 0.673345 0.017169
0.713813 0.673345 0.017169
0.801700 0.673345 0.017169
0.906509 0.689026 0.017169
0.971550 0.703627 0.017169
0.994798 0.717253 0.017169
0.999736 0.729301 0.017169
1.000000 0.739370 0.017169
0.000095 0.782975 0.021588
0.048087 0.782976 0.017169
0.129936 0.782976 0.017169
0.211394 0.782976 0.017169
0.294272 0.782976 0.017169
0.378597 0.782976 0.017169
0.464221 0.782976 0.017169
0.550956 0.782976 0.017169
0.638787 0.782976 0.017169
0.727492 0.782976 0.017169
0.816985 0.782976 0.017169
0.906509 0.782976 0.017169
0.971550 0.799610 0.017169
0.994798 0.815069 0.017169
0.999736 0.828766 0.017169
1.000000 0.840301 0.017169
0.000000 0.896142 0.022034
0.048087 0.896142 0.017169
0.132027 0.896142 0.017169
0.215021 0.896142 0.017169
0.299386 0.896142 0.017169
0.385219 0.896142 0.017169
0.472333 0.896142 0.017169
0.560594 0.896142 0.017169
0.649949 0.896142 0.017169
0.740209 0.896142 0.017169
0.831224 0.896142 0.017169
0.919875 0.896142 0.017169
0.971550 0.896142 0.017169
0.994798 0.910183 0.017169
0.999736 0.921530 0.017169
1.000000 0.930290 0.017169
0.000000 0.968645 0.022444
0.048087 0.968645 0.017169
0.133951 0.968645 0.017169
0.218380 0.968645 0.017169
0.304077 0.968645 0.017169
0.391256 0.968645 0.017169
0.479769 0.968645 0.017169
0.569424 0.968645 0.017169
0.660199 0.968645 0.017169
0.751844 0.968645 0.017169
0.844282 0.968645 0.017169
0.930876 0.968645 0.017169
0.976801 0.968645 0.017169
0.994798 0.968645 0.017169
0.999736 0.974652 0.017169
1.000000 0.979109 0.017169
0.000000 0.996039 0.022814
0.048087 0.996039 0.017169
0.135670 0.996039 0.017169
0.221361 0.996039 0.017169
0.308305 0.996039 0.017169
0.396688 0.996039 0.017169
0.486445 0.996039 0.017169
0.577339 0.996039 0.017169
0.669393 0.996039 0.017169
0.762309 0.996039 0.017169
0.855959 0.996039 0.017169
0.939625 0.996039 0.017169
0.980912 0.996039 0.017169
0.996106 0.996039 0.017169
0.999736 0.996039 0.017169
1.000000 0.997321 0.017169
0.000000 1.000000 0.023121
0.048087 1.000000 0.017169
0.137112 1.000000 0.017169
0.223831 1.000000 0.017169
0.311807 1.000000 0.017169
0.401192 1.000000 0.017169
0.491929 1.000000 0.017169
0.583907 1.000000 0.017169
0.676982 1.000000 0.017169
0.770915 1.000000 0.017169
0.865716 1.000000 0.017169
0.946255 1.000000 0.017169
0.983916 1.000000 0.017169
0.997079 1.000000 0.017169
0.999802 1.000000 0.017169
1.000000 1.000000 0.017169
0.053072 0.028415 0.048877
0.073794 0.030184 0.049514
0.126286 0.034306 0.051063
0.190722 0.037892 0.053142
0.261903 0.040145 0.054965
0.339463 0.041021 0.056463
0.422772 0.040640 0.057560
0.511386 0.039116 0.058262
0.604788 0.036575 0.058615
0.702422 0.033128 0.058700
0.803878 0.028883 0.058612
0.907803 0.023946 0.058449
0.971712 0.018431 0.058316
0.994847 0.012442 0.058346
0.999739 0.006215 0.058620
1.000000 0.000268 0.059200
0.060477 0.043181 0.050513
0.078038 0.043694 0.050823
0.127777 0.045692 0.051788
0.191158 0.047858 0.053347
0.262045 0.049346 0.054799
0.339471 0.049882 0.055976
0.422698 0.049436 0.056781
0.511316 0.048069 0.057205
0.604683 0.045901 0.057289
0.702389 0.043050 0.057116
0.803830 0.039673 0.056771
0.907738 0.035986 0.056357
0.971793 0.032257 0.056012
0.994844 0.028867 0.055815
0.999738 0.026381 0.055910
1.000000 0.025468 0.056359
0.070100 0.077632 0.052898
0.085000 0.077739 0.052972
0.130803 0.078141 0.053265
0.192258 0.078651 0.053631
0.262301 0.078978 0.053859
0.339356 0.078902 0.053805
0.422590 0.078316 0.053393
0.511076 0.077214 0.052593
0.604459 0.075658 0.051488
0.702090 0.073717 0.050102
0.803720 0.071562 0.048571
0.907666 0.069344 0.046995
0.971733 0.067251 0.045519
0.994833 0.065509 0.044293
0.999738 0.064359 0.043480
1.000000 0.064031 0.043250
0.073753 0.122091 0.054467
0.087807 0.122094 0.054357
0.132087 0.122093 0.053884
0.192548 0.122055 0.053846
0.262131 0.123289 0.053690
0.338997 0.124737 0.053324
0.422106 0.126149 0.052698
0.510579 0.127380 0.051797
0.604022 0.128457 0.050642
0.701789 0.129336 0.049294
0.803393 0.130098 0.047833
0.907422 0.130812 0.046368
0.971646 0.131558 0.045033
0.994825 0.132448 0.043965
0.999737 0.133533 0.043344
1.000000 0.134789 0.043250
0.071796 0.175125 0.054825
0.086092 0.175102 0.054511
0.130745 0.175032 0.053224
0.193300 0.174858 0.053019
0.261095 0.174598 0.052679
0.338019 0.177733 0.052143
0.421169 0.181140 0.051404
0.509926 0.184550 0.050460
0.603416 0.187900 0.049321
0.701324 0.191097 0.048067
0.802951 0.194169 0.046748
0.907375 0.197113 0.045470
0.971583 0.199903 0.044367
0.994800 0.202708 0.043578
0.999736 0.205462 0.043251
1.000000 0.207935 0.043250
0.065073 0.236970 0.054293
0.080556 0.236966 0.053751
0.127113 0.236871 0.051463
0.193336 0.236726 0.051214
0.263698 0.236417 0.050809
0.336481 0.236054 0.050252
0.419931 0.241548 0.049513
0.508800 0.247156 0.048628
0.602591 0.252744 0.047620
0.700645 0.258167 0.046529
0.802457 0.263383 0.045438
0.906884 0.268416 0.044458
0.971553 0.273196 0.043697
0.994800 0.277766 0.043282
0.999736 0.282064 0.043250
1.000000 0.285631 0.043250
0.054268 0.307578 0.053254
0.072122 0.307573 0.052451
0.121942 0.307503 0.048983
0.192919 0.307364 0.048755
0.266453 0.307157 0.048390
0.341772 0.306878 0.047898
0.418421 0.306487 0.047270
0.507646 0.314385 0.046539
0.601664 0.322273 0.045733
0.699959 0.329977 0.044918
0.802082 0.337381 0.044176
0.906573 0.344407 0.043592
0.971555 0.351181 0.043273
0.994798 0.357496 0.043250
0.999736 0.363165 0.043250
1.000000 0.367933 0.043250
0.039833 0.386786 0.052193
0.062077 0.386756 0.051094
0.116337 0.386765 0.046337
0.192616 0.386692 0.046160
0.269475 0.386541 0.045885
0.347463 0.386377 0.045523
0.426526 0.386098 0.045081
0.506651 0.385904 0.044594
0.600929 0.396095 0.044097
0.699506 0.406105 0.043653
0.801723 0.415748 0.043344
0.906509 0.424932 0.043250
0.971550 0.433531 0.043250
0.994798 0.441423 0.043250
0.999736 0.448611 0.043250
1.000000 0.454542 0.043250
0.022069 0.474474 0.051661
0.052678 0.474477 0.050268
0.111683 0.474415 0.044164
0.193104 0.474377 0.044068
0.273148 0.474369 0.043929
0.353670 0.474243 0.043746
0.435045 0.474207 0.043555
0.517338 0.474082 0.043384
0.600484 0.473996 0.043265
0.699328 0.486430 0.043250
0.801700 0.498206 0.043250
0.906509 0.509383 0.043250
0.971550 0.519787 0.043250
0.994798 0.529356 0.043250
0.999736 0.538030 0.043250
1.000000 0.545262 0.043250
0.000981 0.570245 0.052253
0.048095 0.570245 0.050593
0.109692 0.570245 0.043250
0.195151 0.570244 0.043250
0.277805 0.570244 0.043250
0.360558 0.570244 0.043250
0.444013 0.570244 0.043250
0.528327 0.570244 0.043250
0.613451 0.570244 0.043250
0.699328 0.570244 0.043250
0.801700 0.584209 0.043250
0.906509 0.597349 0.043250
0.971550 0.609670 0.043250
0.994798 0.620967 0.043250
0.999736 0.631178 0.043250
1.000000 0.639670 0.043250
0.000092 0.673345 0.053647
0.048087 0.673345 0.051743
0.109692 0.673345 0.043250
0.198052 0.673345 0.043250
0.282785 0.673345 0.043250
0.367438 0.673345 0.043250
0.452698 0.673345 0.043250
0.538794 0.673345 0.043250
0.625660 0.673345 0.043250
0.713315 0.673345 0.043250
0.801700 0.673345 0.043250
0.906509 0.688627 0.043250
0.971550 0.702848 0.043250
0.994798 0.715841 0.043250
0.999736 0.727613 0.043250
1.000000 0.737428 0.043250
0.000096 0.782975 0.054962
0.048087 0.782976 0.052835
0.109692 0.782976 0.043250
0.200779 0.782976 0.043250
0.287483 0.782976 0.043250
0.373893 0.782976 0.043250
0.460876 0.782976 0.043250
0.548652 0.782976 0.043250
0.637244 0.782976 0.043250
0.726588 0.782976 0.043250
0.816566 0.782976 0.043250
0.906509 0.782976 0.043250
0.971550 0.799246 0.043250
0.994798 0.814116 0.043250
0.999736 0.827656 0.043250
1.000000 0.838780 0.043250
0.000000 0.896142 0.056195
0.048087 0.896142 0.053861
0.109692 0.896142 0.043250
0.203363 0.896142 0.043250
0.291864 0.896142 0.043250
0.379917 0.896142 0.043250
0.468505 0.896142 0.043250
0.557820 0.896142 0.043250
0.647939 0.896142 0.043250
0.738780 0.896142 0.043250
0.830432 0.896142 0.043250
0.919622 0.896142 0.043250
0.971550 0.896142 0.043250
0.994798 0.909818 0.043250
0.999736 0.920999 0.043250
1.000000 0.929612 0.043250
0.000000 0.968645 0.057331
0.048087 0.968645 0.054801
0.109692 0.968645 0.043250
0.205700 0.968645 0.043250
0.295894 0.968645 0.043250
0.385500 0.968645 0.043250
0.475518 0.968645 0.043250
0.566237 0.968645 0.043250
0.657798 0.968645 0.043250
0.750046 0.968645 0.043250
0.843006 0.968645 0.043250
0.930244 0.968645 0.043250
0.976721 0.968645 0.043250
0.994798 0.968645 0.043250
0.999736 0.974565 0.043250
1.000000 0.978962 0.043250
0.000000 0.996039 0.058347
0.048087 0.996039 0.055646
0.109692 0.996039 0.043250
0.207850 0.996039 0.043250
0.299526 0.996039 0.043250
0.390458 0.996039 0.043250
0.481723 0.996039 0.043250
0.573817 0.996039 0.043250
0.666618 0.996039 0.043250
0.760228 0.996039 0.043250
0.854485 0.996039 0.043250
0.938888 0.996039 0.043250
0.980766 0.996039 0.043250
0.996066 0.996039 0.043250
0.999736 0.996039 0.043250
1.000000 0.997335 0.043250
0.000000 1.000000 0.059200
0.048087 1.000000 0.056359
0.109692 1.000000 0.043250
0.209599 1.000000 0.043250
0.302534 1.000000 0.043250
0.394549 1.000000 0.043250
0.487017 1.000000 0.043250
0.580062 1.000000 0.043250
0.674018 1.000000 0.043250
0.768578 1.000000 0.043250
0.863929 1.000000 0.043250
0.945444 1.000000 0.043250
0.983658 1.000000 0.043250
0.997030 1.000000 0.043250
0.999798 1.000000 0.043250
1.000000 1.000000 0.043250
0.059852 0.032486 0.082906
0.078254 0.033354 0.083155
0.128885 0.035907 0.083915
0.191114 0.038589 0.084789
0.262019 0.040389 0.087114
0.339470 0.041045 0.089535
0.422706 0.040534 0.091840
0.511330 0.038945 0.093908
0.604693 0.036372 0.095761
0.702400 0.032908 0.097364
0.803836 0.028660 0.098827
0.907747 0.023722 0.100127
0.971794 0.018212 0.101420
0.994845 0.012238 0.102717
0.999739 0.006030 0.104057
1.000000 0.000190 0.105450
0.063884 0.045118 0.083628
0.080393 0.045178 0.083788
0.129724 0.046614 0.084345
0.191520 0.048310 0.085005
0.262138 0.049512 0.087057
0.339469 0.049886 0.089245
0.422700 0.049340 0.091339
0.511293 0.047925 0.093211
0.604623 0.045730 0.094836
0.702330 0.042870 0.096293
0.803786 0.039495 0.097559
0.907685 0.035829 0.098703
0.971780 0.032123 0.099842
0.994842 0.028765 0.100998
0.999738 0.026325 0.102240
1.000000 0.025468 0.103510
0.070939 0.078773 0.085012
0.085647 0.078696 0.085057
0.131121 0.078352 0.085245
0.192354 0.078763 0.085490
0.262330 0.078997 0.086670
0.339327 0.078849 0.087939
0.422516 0.078234 0.089139
0.511046 0.077102 0.090146
0.604430 0.075537 0.090934
0.702119 0.073607 0.091595
0.803681 0.071463 0.092118
0.907614 0.069259 0.092588
0.971721 0.067184 0.093058
0.994830 0.065461 0.093624
0.999738 0.064332 0.094348
1.000000 0.064031 0.095234
0.073789 0.122089 0.085614
0.087840 0.122092 0.085621
0.132071 0.122088 0.085609
0.192496 0.122022 0.085560
0.262101 0.121854 0.085434
0.338942 0.121449 0.085130
0.422015 0.120785 0.084632
0.510574 0.119833 0.083917
0.604032 0.118692 0.083053
0.701781 0.117335 0.082038
0.803380 0.115869 0.080941
0.907402 0.114425 0.079856
0.971712 0.113119 0.078885
0.994824 0.112115 0.078134
0.999737 0.111525 0.077693
1.000000 0.111453 0.077641
0.071564 0.175060 0.086878
0.085893 0.175065 0.086728
0.130594 0.174968 0.086105
0.191331 0.174821 0.084912
0.260982 0.174508 0.084613
0.337956 0.176231 0.084206
0.421131 0.178044 0.083627
0.509809 0.179860 0.082905
0.603364 0.181506 0.082049
0.701321 0.183116 0.081115
0.802918 0.184649 0.080132
0.907333 0.186148 0.079224
0.971575 0.187597 0.078423
0.994799 0.189161 0.077847
0.999736 0.190867 0.077641
1.000000 0.192429 0.077641
0.064742 0.236911 0.087798
0.080282 0.236903 0.087492
0.126940 0.236810 0.086139
0.188766 0.236620 0.083495
0.261826 0.236374 0.083172
0.336369 0.235968 0.082759
0.419852 0.240123 0.082208
0.508772 0.244340 0.081529
0.602536 0.248559 0.080784
0.700604 0.252662 0.079983
0.802431 0.256617 0.079189
0.906930 0.260479 0.078478
0.971548 0.264220 0.077937
0.994800 0.267824 0.077669
0.999736 0.271234 0.077641
1.000000 0.274112 0.077641
0.053895 0.307572 0.088554
0.071827 0.307527 0.088042
0.121781 0.307435 0.085895
0.185397 0.307353 0.081625
0.262527 0.307130 0.081368
0.340069 0.306841 0.080992
0.418395 0.306495 0.080520
0.507633 0.313101 0.079990
0.601643 0.319764 0.079404
0.699929 0.326239 0.078823
0.802066 0.332593 0.078268
0.906558 0.338600 0.077851
0.971554 0.344402 0.077650
0.994798 0.349880 0.077641
0.999736 0.354851 0.077641
1.000000 0.358929 0.077641
0.039438 0.386782 0.089388
0.061836 0.386754 0.088688
0.116213 0.386705 0.085689
0.181878 0.386664 0.079710
0.263398 0.386506 0.079514
0.344092 0.386371 0.079240
0.425056 0.386103 0.078921
0.506597 0.385890 0.078584
