src/luts/warm/9.cube
LUT_3D_SIZE 6
0.083110 0.042906 0.014979
0.202630 0.077828 0.034429
0.393205 0.120819 0.062106
0.635495 0.178730 0.103870
0.883611 0.258410 0.167410
0.994209 0.363171 0.259044
0.177724 0.143468 0.051394
0.238282 0.150662 0.057151
0.412068 0.186120 0.078991
0.647464 0.240982 0.119207
0.891335 0.313634 0.182917
0.994751 0.407438 0.274693
0.299787 0.347065 0.121150
0.346204 0.351916 0.125695
0.484919 0.372408 0.145239
0.697315 0.428391 0.185257
0.922578 0.491669 0.249822
0.996624 0.560619 0.340442
0.472444 0.653324 0.256230
0.505972 0.656872 0.260839
0.621682 0.672393 0.280794
0.790557 0.702847 0.320639
0.963078 0.748155 0.382446
0.998760 0.787272 0.466385
0.675849 0.951885 0.462728
0.696735 0.952979 0.466875
0.776163 0.957400 0.484430
0.905194 0.965181 0.519404
0.989324 0.974935 0.573298
0.999784 0.977689 0.645736
0.875966 0.999770 0.710373
0.887903 0.999792 0.713870
0.932273 0.999762 0.727677
0.978312 0.999884 0.755490
0.997815 0.999990 0.798109
1.000038 1.000033 0.854713
0.118687 0.064530 0.057951
0.207232 0.082793 0.066088
0.395137 0.123441 0.095921
0.636686 0.180771 0.140547
0.884402 0.260284 0.201894
0.994289 0.364914 0.286647
0.181898 0.145947 0.079681
0.241245 0.153011 0.084778
0.413897 0.180349 0.105092
0.648703 0.230586 0.144532
0.892122 0.305678 0.207759
0.994824 0.405999 0.298654
0.302107 0.348718 0.150638
0.342714 0.353508 0.150969
0.486461 0.373933 0.170390
0.698469 0.426556 0.210082
0.923180 0.489497 0.273992
0.996674 0.561366 0.363455
0.474187 0.654564 0.283977
0.503976 0.658163 0.285049
0.621371 0.673654 0.304688
0.791594 0.704006 0.343900
0.963440 0.748609 0.404921
0.998784 0.789075 0.487570
0.677129 0.952264 0.483915
0.698030 0.953287 0.488098
0.777382 0.957633 0.505390
0.906253 0.965416 0.539769
0.989358 0.975113 0.592790
0.999788 0.978133 0.664009
0.876863 0.999778 0.724214
0.891023 0.999800 0.730603
0.934431 0.999768 0.744381
0.978941 0.999888 0.771700
0.997924 0.999991 0.813527
1.000038 1.000033 0.868169
0.154788 0.088567 0.172047
0.237012 0.099348 0.177353
0.403422 0.134119 0.197502
0.641901 0.189484 0.258624
0.887719 0.268243 0.322080
0.994468 0.372325 0.390697
0.198280 0.165317 0.188733
0.253313 0.162672 0.193369
0.421694 0.189082 0.212460
0.653891 0.238675 0.266673
0.895370 0.313283 0.328902
0.995025 0.412976 0.401169
0.311960 0.355690 0.252236
0.351722 0.360519 0.256640
0.493464 0.380876 0.275287
0.703377 0.421531 0.313291
0.925843 0.484623 0.374148
0.996785 0.568757 0.458511
0.481744 0.659831 0.388768
0.510990 0.663481 0.390983
0.621700 0.678717 0.403105
0.795849 0.708997 0.440128
0.964725 0.752128 0.497441
0.998769 0.798629 0.574665
0.682365 0.953818 0.569169
0.703133 0.954854 0.572994
0.783848 0.959100 0.591199
0.910830 0.966589 0.623156
0.989827 0.976035 0.672425
0.999808 0.980048 0.738242
0.880537 0.999810 0.781448
0.894457 0.999828 0.787013
0.943083 0.999792 0.812290
0.981608 0.999904 0.837343
0.998096 0.999998 0.873907
1.000038 1.000033 0.913624
0.193859 0.116587 0.380765
0.275751 0.124387 0.384952
0.451471 0.154093 0.402291
0.652404 0.206742 0.436520
0.894454 0.284350 0.510005
0.994941 0.387219 0.563520
0.226420 0.193701 0.394620
0.275887 0.181117 0.398658
0.459378 0.206308 0.415628
0.664177 0.254886 0.449594
0.902254 0.328648 0.518545
0.995497 0.427237 0.572608
0.331314 0.390245 0.451267
0.369604 0.390016 0.455202
0.507312 0.394755 0.471865
0.713221 0.435139 0.505722
0.931224 0.497693 0.562228
0.997100 0.580671 0.619421
0.496654 0.670494 0.564834
0.525268 0.674048 0.568636
0.633505 0.689102 0.584772
0.804437 0.718979 0.617044
0.967258 0.764142 0.666449
0.998954 0.823758 0.732789
0.693042 0.956821 0.722389
0.713321 0.957850 0.725533
0.792655 0.961800 0.740389
0.921697 0.968859 0.774130
0.990598 0.977678 0.815732
0.999841 0.983697 0.870150
0.887566 0.999754 0.886464
0.901402 0.999770 0.890246
0.947227 0.999836 0.905755
0.985982 0.999931 0.931016
0.998569 1.000008 0.947883
0.999922 1.000034 0.965785
0.237979 0.150421 0.662682
0.313754 0.156937 0.665931
0.490145 0.183363 0.679510
0.692015 0.233684 0.706833
0.905208 0.309610 0.750013
0.995668 0.410444 0.788525
0.264513 0.224490 0.673451
0.308716 0.208809 0.676607
0.492931 0.232964 0.690172
0.698578 0.280411 0.717242
0.912508 0.352885 0.760242
0.996062 0.449478 0.796480
0.361001 0.421801 0.718590
0.397123 0.419063 0.721846
0.529034 0.416800 0.735149
0.733271 0.456636 0.761863
0.938820 0.518296 0.803874
0.997541 0.599301 0.833648
0.519815 0.692743 0.808139
0.547299 0.694716 0.810970
0.651810 0.705436 0.823425
0.817793 0.734607 0.848045
0.971059 0.779001 0.882738
0.999102 0.837175 0.907005
0.709479 0.961330 0.918471
0.729309 0.962132 0.920120
0.806336 0.965790 0.926540
0.930416 0.972157 0.938321
0.991838 0.980088 0.953609
0.999887 0.987871 0.969699
0.898700 0.999828 0.972637
0.912218 0.999841 0.973675
0.953083 0.999893 0.977554
0.987663 0.999966 0.984012
0.998985 1.000020 0.990495
1.000000 1.000038 0.994739
0.288739 0.191846 0.932806
0.351331 0.197740 0.934125
0.514520 0.222432 0.939111
0.707948 0.270909 0.948476
0.910001 0.344779 0.961299
0.996480 0.442491 0.975010
0.311795 0.257311 0.937034
0.351612 0.246434 0.938122
0.517910 0.269713 0.942968
0.713037 0.315780 0.951880
0.915042 0.386641 0.963908
0.996780 0.480165 0.976869
0.400885 0.444686 0.952246
0.434493 0.443081 0.953276
0.559015 0.447623 0.957208
0.745763 0.486729 0.964340
0.936718 0.546679 0.973882
0.997954 0.625241 0.983719
0.551290 0.699892 0.974705
0.577264 0.702335 0.975227
0.676841 0.716029 0.977573
0.836167 0.756313 0.981854
0.970507 0.799272 0.987272
0.999352 0.855776 0.992606
0.732107 0.954388 0.992408
0.751059 0.955665 0.992615
0.825292 0.961167 0.993599
0.941303 0.971542 0.995068
0.993290 0.983101 0.997007
0.999937 0.989953 0.998740
0.914087 0.999908 0.999597
0.925658 0.999917 0.999640
0.960505 0.999953 0.999689
0.989786 1.000000 0.999815
0.999257 1.000030 0.999994
1.000000 1.000000 1.000000
