src/luts/warm/9.cube
LUT_3D_SIZE 16
0.083110 0.042906 0.014979
0.110887 0.053812 0.020677
0.153128 0.065568 0.027223
0.202630 0.077828 0.034429
0.258698 0.090922 0.042489
0.322074 0.105161 0.051641
0.393205 0.120819 0.062106
0.470272 0.138124 0.074110
0.551638 0.157377 0.087960
0.635495 0.178730 0.103870
0.719838 0.202563 0.122213
0.803184 0.229066 0.143312
0.883611 0.258410 0.167410
0.949604 0.290605 0.194702
0.981269 0.325543 0.225205
0.994209 0.363171 0.259044
0.113926 0.066514 0.024918
0.124971 0.068574 0.026192
0.159200 0.075524 0.030418
0.205958 0.085546 0.036604
0.260904 0.097517 0.044184
0.323824 0.111167 0.053071
0.394613 0.126504 0.063380
0.471499 0.143614 0.075306
0.552693 0.162637 0.089079
0.636304 0.183789 0.104970
0.720627 0.207390 0.123304
0.803929 0.233667 0.144429
0.884219 0.262695 0.168507
0.949801 0.294625 0.195834
0.981382 0.329187 0.226341
0.994261 0.366482 0.260207
0.144981 0.100356 0.036865
0.152065 0.101182 0.037472
0.177393 0.104549 0.039935
0.218122 0.111559 0.044428
0.269786 0.121434 0.050799
0.330908 0.133852 0.058893
0.400460 0.148484 0.068682
0.476482 0.165101 0.080292
0.557029 0.183645 0.093891
0.640034 0.204228 0.109691
0.723777 0.227072 0.127988
0.806675 0.252443 0.149145
0.886540 0.280422 0.173277
0.951089 0.311147 0.200616
0.981861 0.344413 0.231124
0.994459 0.380438 0.264962
0.177724 0.143468 0.051394
0.183161 0.143999 0.051813
0.203944 0.146231 0.053612
0.238282 0.150662 0.057151
0.286002 0.159675 0.062548
0.344501 0.171662 0.069806
0.412068 0.186120 0.078991
0.486452 0.202567 0.090176
0.565553 0.220894 0.103525
0.647464 0.240982 0.119207
0.730348 0.263042 0.137551
0.812241 0.287212 0.158736
0.891335 0.313634 0.182917
0.953560 0.342495 0.210307
0.982809 0.373648 0.240860
0.994751 0.407438 0.274693
0.213697 0.197729 0.069496
0.218303 0.198150 0.069862
0.236445 0.199972 0.071387
0.267947 0.203644 0.074465
0.309468 0.209454 0.079305
0.364912 0.221818 0.086017
0.429866 0.236693 0.094751
0.501916 0.253483 0.105628
0.579122 0.271945 0.118790
0.659372 0.291914 0.134491
0.740502 0.313374 0.152872
0.821085 0.336507 0.174170
0.898961 0.361279 0.198448
0.957194 0.387990 0.225872
0.984281 0.416581 0.256431
0.995261 0.447397 0.290192
0.254091 0.265604 0.092327
0.258185 0.265981 0.092639
0.274647 0.267599 0.094066
0.304189 0.270871 0.096933
0.344326 0.276115 0.101530
0.392266 0.283457 0.107991
0.454094 0.298855 0.116535
0.523367 0.316106 0.127312
0.597981 0.334878 0.140484
0.675851 0.354861 0.156236
0.754972 0.375903 0.174757
0.833659 0.397993 0.196121
0.909574 0.421229 0.220453
0.962050 0.445765 0.248043
0.986177 0.471601 0.278535
0.995922 0.499048 0.311986
0.299787 0.347065 0.121150
0.303486 0.347426 0.121483
0.318552 0.348866 0.122877
0.346204 0.351916 0.125695
0.384744 0.356619 0.130237
0.431627 0.363497 0.136699
0.484919 0.372408 0.145239
0.550835 0.389731 0.156082
0.622303 0.408562 0.169394
0.697315 0.428391 0.185257
0.773795 0.448889 0.203879
0.849996 0.470021 0.225334
0.922578 0.491669 0.249822
0.967807 0.513913 0.277286
0.988330 0.536660 0.307534
0.996624 0.560619 0.340442
0.351640 0.440522 0.157508
0.354923 0.440815 0.157832
0.368510 0.442122 0.159249
0.394075 0.444932 0.162116
0.430346 0.449318 0.166691
0.475449 0.455565 0.173205
0.527273 0.463801 0.181827
0.584278 0.474059 0.192762
0.652213 0.492513 0.206174
0.723797 0.511636 0.222138
0.797050 0.531267 0.240849
0.870095 0.551030 0.262425
0.936526 0.570840 0.286780
0.973839 0.590421 0.313869
0.990629 0.609851 0.343412
0.997355 0.630344 0.375653
0.409422 0.543624 0.202351
0.412378 0.543945 0.202709
0.424400 0.545114 0.204087
0.447423 0.547636 0.206986
0.480969 0.551614 0.211618
0.523385 0.557344 0.218201
0.572951 0.564842 0.226924
0.628002 0.574282 0.237906
0.687435 0.585722 0.251359
0.755096 0.603705 0.267424
0.824558 0.621797 0.286070
0.893838 0.639645 0.307279
0.950345 0.656801 0.331086
0.979693 0.673359 0.357458
0.992855 0.689429 0.386367
0.998097 0.706432 0.417724
0.472444 0.653324 0.256230
0.474980 0.653615 0.256582
0.485586 0.654675 0.258029
0.505972 0.656872 0.260839
0.536329 0.660526 0.265557
0.575384 0.665679 0.272094
0.621682 0.672393 0.280794
0.673747 0.680790 0.291696
0.730387 0.690934 0.304981
0.790557 0.702847 0.320639
0.855519 0.718660 0.338724
0.919789 0.733784 0.359343
0.963078 0.748155 0.382446
0.985097 0.761127 0.408098
0.994888 0.773637 0.436069
0.998760 0.787272 0.466385
0.539044 0.765396 0.318538
0.541255 0.765514 0.318891
0.550363 0.766521 0.320225
0.568093 0.768549 0.323100
0.594872 0.771582 0.327604
0.629966 0.775977 0.333982
0.672233 0.781697 0.342316
0.720401 0.788996 0.352907
0.773284 0.797688 0.365663
0.829874 0.807970 0.380803
0.889197 0.819765 0.398265
0.942944 0.831740 0.418256
0.973971 0.842386 0.440417
0.989715 0.851933 0.465013
0.996664 0.861072 0.491858
0.999235 0.871215 0.520993
0.607309 0.874887 0.387816
0.609079 0.875143 0.388047
0.616829 0.875944 0.389403
0.632048 0.877593 0.392131
0.655325 0.880219 0.396464
0.686208 0.883878 0.402548
0.723915 0.888498 0.410559
0.767594 0.894072 0.420712
0.815977 0.900596 0.433000
0.868223 0.907851 0.447467
0.922211 0.915555 0.464147
0.961520 0.923729 0.483135
0.982720 0.928520 0.504368
0.993387 0.932349 0.527900
0.997918 0.936065 0.553483
0.999554 0.940332 0.581192
0.675849 0.951885 0.462728
0.677363 0.952023 0.463036
0.683987 0.952345 0.464362
0.696735 0.952979 0.466875
0.716623 0.954043 0.470949
0.743242 0.955463 0.476809
0.776163 0.957400 0.484430
0.814895 0.959592 0.494079
0.858137 0.962233 0.505668
0.905194 0.965181 0.519404
0.946662 0.968304 0.535197
0.973747 0.971555 0.553228
0.989324 0.974935 0.573298
0.996098 0.975602 0.595478
0.998925 0.976440 0.619623
0.999784 0.977689 0.645736
0.744208 0.984950 0.542536
0.745573 0.985013 0.542898
0.750890 0.985081 0.544108
0.761590 0.985297 0.546429
0.778166 0.985704 0.550372
0.800755 0.986228 0.555794
0.829045 0.986837 0.563062
0.862441 0.987690 0.572025
0.900370 0.988512 0.582887
0.937452 0.989564 0.595827
0.964651 0.990564 0.610681
0.982688 0.991739 0.627517
0.992985 0.992823 0.646322
0.997944 0.993958 0.667035
0.999528 0.994010 0.689643
0.999958 0.994224 0.713877
0.811050 0.996718 0.625497
0.812175 0.996738 0.625790
0.816591 0.996782 0.626930
0.825387 0.996868 0.629135
0.839234 0.996914 0.632705
0.858150 0.997114 0.637737
0.882110 0.997278 0.644460
0.910663 0.997530 0.652815
0.938453 0.997775 0.662898
0.961260 0.997938 0.674868
0.978124 0.998242 0.688645
0.989365 0.998600 0.704225
0.995748 0.998773 0.721619
0.998765 0.999051 0.740715
0.999778 0.999343 0.761564
1.000023 0.999364 0.783982
0.875966 0.999770 0.710373
0.876753 0.999773 0.710577
0.880554 0.999780 0.711639
0.887903 0.999792 0.713870
0.899328 0.999813 0.716980
0.915005 0.999842 0.721646
0.932273 0.999762 0.727677
0.949597 0.999802 0.735318
0.965307 0.999843 0.744653
0.978312 0.999884 0.755490
0.987930 0.999925 0.768114
0.994259 0.999960 0.782312
0.997815 0.999990 0.798109
0.999447 1.000012 0.815646
0.999948 1.000026 0.834382
1.000038 1.000033 0.854713
0.094600 0.049639 0.021854
0.113015 0.055320 0.024596
0.153812 0.066195 0.030358
0.202983 0.078204 0.037253
0.258919 0.091193 0.045204
0.322293 0.105389 0.054357
0.393322 0.120998 0.064882
0.470426 0.138294 0.076952
0.551793 0.157501 0.090816
0.635541 0.178896 0.106731
0.719901 0.202702 0.125030
0.803265 0.229254 0.146067
0.883614 0.258553 0.170011
0.949606 0.290764 0.197168
0.981282 0.325578 0.227381
0.994198 0.363305 0.261063
0.115192 0.067247 0.028188
0.125964 0.069219 0.029330
0.159715 0.075853 0.033245
0.206268 0.085549 0.039142
0.261146 0.097217 0.046493
0.323997 0.110569 0.055215
0.394753 0.125632 0.065406
0.471622 0.142512 0.077230
0.552790 0.161422 0.090948
0.636398 0.182622 0.106810
0.720699 0.206260 0.125109
0.803976 0.232669 0.146231
0.884222 0.261888 0.170315
0.949811 0.294006 0.197616
0.981359 0.328786 0.228106
0.994271 0.366346 0.261931
0.145493 0.100630 0.039459
0.152374 0.101452 0.039979
0.177740 0.104811 0.042355
0.218407 0.111632 0.046729
0.270008 0.121271 0.052978
0.331097 0.133434 0.060948
0.400648 0.147826 0.070663
0.476593 0.164213 0.082203
0.557103 0.182628 0.095719
0.640094 0.203188 0.111503
0.723832 0.226091 0.129807
0.806728 0.251578 0.150958
0.886556 0.279693 0.175051
0.951158 0.310550 0.202371
0.981855 0.344023 0.232812
0.994460 0.380293 0.266722
0.178017 0.143645 0.053704
0.183133 0.144182 0.053980
0.204039 0.146391 0.055750
0.238476 0.150820 0.059237
0.286191 0.159675 0.064570
0.344719 0.171469 0.071768
0.412252 0.185705 0.080901
0.486579 0.202010 0.092043
0.565703 0.220179 0.105362
0.647582 0.240214 0.121048
0.730392 0.262284 0.139362
0.812289 0.286542 0.160560
0.891372 0.313067 0.184710
0.953581 0.342048 0.212133
0.982832 0.373321 0.242553
0.994741 0.407330 0.276469
0.213949 0.197878 0.071733
0.218058 0.198321 0.071833
0.236299 0.200151 0.073341
0.267959 0.203799 0.076401
0.309601 0.209591 0.081202
0.365076 0.221783 0.087903
0.429992 0.236494 0.096585
0.502046 0.253139 0.107452
0.579214 0.271497 0.120618
0.659420 0.291390 0.136298
0.740550 0.312927 0.154686
0.821167 0.336031 0.175970
0.899119 0.360895 0.200181
0.957304 0.387641 0.227659
0.984303 0.416300 0.258145
0.995269 0.447299 0.291884
0.254278 0.265726 0.094556
0.257739 0.266096 0.094506
0.274342 0.267717 0.095918
0.304008 0.271006 0.098783
0.344326 0.276241 0.103365
0.392457 0.283605 0.109833
0.454248 0.298854 0.118346
0.523492 0.315978 0.129120
0.598052 0.334636 0.142317
0.675967 0.354536 0.158057
0.755050 0.375573 0.176525
0.833744 0.397742 0.197916
0.909667 0.421022 0.222263
0.962118 0.445580 0.249780
0.986197 0.471463 0.280225
0.995921 0.499045 0.313645
0.299997 0.347170 0.123394
0.303031 0.347551 0.123301
0.318143 0.349030 0.124688
0.345957 0.351998 0.127521
0.384602 0.356779 0.132067
0.431650 0.363575 0.138514
0.484988 0.372454 0.147056
0.550859 0.389773 0.157888
0.622438 0.408487 0.171175
0.697329 0.428273 0.187059
0.773876 0.448713 0.205616
0.850071 0.469845 0.227111
0.922593 0.491499 0.251550
0.967773 0.513833 0.279107
0.988335 0.536586 0.309209
0.996630 0.560611 0.342061
0.351767 0.440668 0.159709
0.354513 0.440903 0.159629
0.368171 0.442267 0.161069
0.393768 0.445061 0.163883
0.430155 0.449462 0.168465
0.475363 0.455666 0.175002
0.527313 0.463859 0.183629
0.584390 0.474193 0.194508
0.652301 0.492513 0.207883
0.723762 0.511598 0.223891
0.797134 0.531194 0.242542
0.870187 0.550964 0.264127
0.936532 0.570736 0.288451
0.973808 0.590317 0.315529
0.990644 0.609860 0.345094
0.997360 0.630343 0.377291
0.409570 0.543657 0.204534
0.412017 0.544006 0.204470
0.424108 0.545237 0.205908
0.447222 0.547789 0.208775
0.480844 0.551794 0.213405
0.523340 0.557450 0.219953
0.572923 0.564990 0.228638
0.628066 0.574402 0.239663
0.687593 0.585794 0.253075
0.755172 0.603754 0.269138
0.824637 0.621894 0.287784
0.893933 0.639623 0.308968
0.950237 0.656697 0.332780
0.979720 0.673370 0.359175
0.992848 0.689466 0.387998
0.998095 0.706454 0.419334
0.472654 0.653406 0.258340
0.474718 0.653654 0.258273
0.485339 0.654672 0.259735
0.505824 0.657075 0.262608
0.536095 0.660613 0.267247
0.575273 0.665766 0.273810
0.621677 0.672509 0.282565
0.673795 0.680910 0.293411
0.730409 0.691011 0.306670
0.790623 0.702920 0.322306
0.855548 0.718674 0.340425
0.919888 0.733905 0.361053
0.963004 0.748033 0.384068
0.985073 0.761171 0.409662
0.994896 0.773787 0.437587
0.998763 0.787357 0.467899
0.539166 0.765381 0.320420
0.541080 0.765623 0.320534
0.550267 0.766561 0.321966
0.568036 0.768588 0.324773
0.594822 0.771681 0.329257
0.629949 0.776076 0.335634
0.672205 0.781732 0.343990
0.720411 0.789116 0.354529
0.773353 0.797815 0.367315
0.829909 0.808074 0.382411
0.889293 0.819794 0.399901
0.942943 0.831829 0.419781
0.973976 0.842613 0.441961
0.989731 0.852011 0.466573
0.996670 0.861172 0.493443
0.999237 0.871276 0.522447
0.607383 0.874895 0.389467
0.609099 0.875248 0.389718
0.616820 0.875958 0.391030
0.632038 0.877598 0.393760
0.655320 0.880316 0.398083
0.686197 0.883982 0.404104
0.724045 0.888576 0.412226
0.767636 0.894223 0.422278
0.816026 0.900587 0.434529
0.868315 0.907940 0.449014
0.922203 0.915509 0.465697
0.961498 0.923772 0.484645
0.982744 0.928493 0.505896
0.993397 0.932350 0.529313
0.997922 0.936090 0.554934
0.999555 0.940393 0.582583
0.675975 0.951920 0.464294
0.677492 0.951993 0.464552
0.683960 0.952296 0.465808
0.696849 0.952953 0.468386
0.716616 0.954076 0.472493
0.743394 0.955494 0.478263
0.776300 0.957448 0.485990
0.814922 0.959618 0.495536
0.858232 0.962276 0.507153
0.905306 0.965132 0.520857
0.946662 0.968342 0.536653
0.973783 0.971559 0.554663
0.989330 0.974947 0.574710
0.996095 0.975594 0.596875
0.998923 0.976462 0.620950
0.999785 0.977758 0.647117
0.744350 0.984971 0.544011
0.745756 0.985002 0.544355
0.751045 0.985056 0.545489
0.761750 0.985319 0.547918
0.778290 0.985701 0.551749
0.800852 0.986248 0.557259
0.829199 0.986857 0.564428
0.862524 0.987685 0.573454
0.900494 0.988529 0.584302
0.937461 0.989556 0.597180
0.964720 0.990579 0.611992
0.982705 0.991736 0.628840
0.992988 0.992816 0.647593
0.997948 0.993969 0.668329
0.999527 0.994011 0.690894
0.999959 0.994245 0.715079
0.811183 0.996725 0.626632
0.812367 0.996732 0.627144
0.816786 0.996788 0.628251
0.825658 0.996875 0.630503
0.839330 0.996920 0.634087
0.858298 0.997121 0.639130
0.882224 0.997273 0.645753
0.910807 0.997529 0.654152
0.938589 0.997780 0.664318
0.961302 0.997943 0.676219
0.978190 0.998247 0.689927
0.989287 0.998604 0.705385
0.995762 0.998777 0.722907
0.998765 0.999049 0.741947
0.999778 0.999346 0.762617
1.000023 0.999368 0.785083
0.876006 0.999771 0.711317
0.877125 0.999774 0.711898
0.880756 0.999781 0.712906
0.888052 0.999793 0.714880
0.899548 0.999814 0.718138
0.915054 0.999841 0.722934
0.932560 0.999763 0.728942
0.949801 0.999800 0.736510
0.965338 0.999842 0.745831
0.978305 0.999884 0.756722
0.987871 0.999925 0.769210
0.994276 0.999960 0.783450
0.997824 0.999990 0.799344
0.999451 1.000012 0.816737
0.999947 1.000026 0.835683
1.000038 1.000033 0.855824
0.106744 0.057021 0.036546
0.119967 0.060051 0.037828
0.156530 0.068677 0.041774
0.204450 0.079791 0.048014
0.259881 0.092365 0.055786
0.323021 0.106334 0.065111
0.393965 0.121802 0.075988
0.470951 0.139021 0.088437
0.552201 0.158172 0.102547
0.635907 0.179528 0.118543
0.720237 0.203291 0.136715
0.803537 0.229818 0.157441
0.883885 0.259102 0.180876
0.949774 0.291298 0.207357
0.981287 0.326155 0.236880
0.994228 0.363803 0.269697
0.119954 0.070191 0.040190
0.129807 0.071724 0.041045
0.161968 0.077719 0.044166
0.207632 0.086922 0.049717
0.262085 0.098290 0.057018
0.324758 0.111473 0.065965
0.395332 0.126406 0.076551
0.472129 0.143246 0.088748
0.553228 0.162087 0.102717
0.636793 0.183218 0.118645
0.720979 0.206847 0.136832
0.804183 0.233258 0.157616
0.884511 0.262462 0.181199
0.950001 0.294505 0.207831
0.981395 0.329325 0.237502
0.994301 0.366869 0.270502
0.147571 0.101829 0.049472
0.154299 0.102623 0.049983
0.179261 0.105896 0.052124
0.219505 0.111959 0.056138
0.270829 0.120614 0.061970
0.331771 0.131662 0.069582
0.401205 0.144957 0.078970
0.477066 0.160514 0.090263
0.557463 0.178444 0.103636
0.640464 0.198842 0.119297
0.724154 0.221941 0.137565
0.806914 0.247868 0.158658
0.886791 0.276573 0.182725
0.951116 0.308140 0.209922
0.981851 0.342504 0.240335
0.994499 0.379542 0.274038
0.179294 0.144408 0.063007
0.184371 0.144950 0.063314
0.204406 0.147163 0.064609
0.239411 0.151554 0.067931
0.286925 0.159674 0.073056
0.345321 0.170568 0.080054
0.412742 0.183940 0.089002
0.487049 0.199494 0.099967
0.566062 0.217133 0.113187
0.647984 0.236994 0.128810
0.730668 0.259093 0.147089
0.812665 0.283607 0.168244
0.891646 0.310546 0.192339
0.953749 0.340088 0.219658
0.982924 0.372069 0.250031
0.994779 0.406801 0.283778
0.214897 0.198513 0.080826
0.218995 0.198903 0.080966
0.235673 0.200735 0.081598
0.267987 0.204406 0.084581
0.310294 0.210171 0.089282
0.365672 0.221686 0.095881
0.430514 0.235653 0.104489
0.502535 0.251705 0.115259
0.579645 0.269574 0.128384
0.659820 0.289243 0.144017
0.740980 0.310653 0.162359
0.821550 0.333913 0.183622
0.899309 0.359008 0.207764
0.957434 0.386161 0.235158
0.984384 0.415467 0.265621
0.995279 0.447013 0.299179
0.255086 0.266258 0.103750
0.258554 0.266644 0.103770
0.272919 0.268278 0.103823
0.303284 0.271571 0.106661
0.344231 0.276759 0.111212
0.393007 0.284132 0.117634
0.454695 0.298748 0.126103
0.523957 0.315401 0.136884
0.598476 0.333656 0.150036
0.676282 0.353255 0.165750
0.755474 0.374140 0.184189
0.833979 0.396291 0.205529
0.909956 0.419738 0.229785
0.962216 0.444695 0.257216
0.986271 0.470943 0.287623
0.995953 0.498993 0.320902
0.300676 0.347637 0.132736
0.303730 0.348031 0.132681
0.316514 0.349467 0.132454
0.344818 0.352496 0.135271
0.384116 0.357311 0.139818
0.431686 0.364052 0.146230
0.485469 0.372920 0.154759
0.551293 0.389824 0.165572
0.622808 0.408157 0.178835
0.697739 0.427643 0.194672
0.774223 0.447981 0.213178
0.850346 0.469016 0.234614
0.922808 0.490764 0.259003
0.967854 0.513298 0.286443
0.988401 0.536438 0.316433
0.996639 0.560908 0.349142
0.352437 0.441067 0.169010
0.355155 0.441413 0.168946
0.366670 0.442710 0.168712
0.392556 0.445499 0.171559
0.429463 0.449919 0.176151
0.475091 0.456116 0.182629
0.527408 0.464331 0.191230
0.584817 0.474630 0.202150
0.652703 0.492628 0.215475
0.724149 0.511522 0.231445
0.797416 0.530921 0.250028
0.870456 0.550707 0.271556
0.936701 0.570419 0.295704
0.973839 0.590100 0.322719
0.990659 0.609925 0.352157
0.997374 0.630715 0.384242
0.410199 0.544180 0.213575
0.412619 0.544453 0.213550
0.422917 0.545629 0.213475
0.446250 0.548168 0.216337
0.480157 0.552180 0.220928
0.522949 0.557876 0.227443
0.572827 0.565361 0.236187
0.628201 0.574780 0.247101
0.687950 0.586209 0.260513
0.755533 0.603965 0.276580
0.824927 0.621905 0.295059
0.894191 0.639556 0.316180
0.950479 0.656698 0.339880
0.979755 0.673394 0.366132
0.992888 0.689764 0.394860
0.998105 0.706959 0.426086
0.473089 0.653734 0.266903
0.475293 0.653975 0.266959
0.484504 0.655130 0.267127
0.505177 0.657449 0.270052
0.535657 0.661024 0.274639
0.574947 0.666122 0.281143
0.621523 0.672883 0.289852
0.673808 0.681212 0.300651
0.730627 0.691372 0.313906
0.790889 0.703275 0.329484
0.855812 0.718926 0.347490
0.920014 0.734010 0.367991
0.963097 0.748156 0.390948
0.985161 0.761450 0.416464
0.994925 0.774165 0.444208
0.998771 0.787867 0.474400
0.539631 0.765798 0.328416
0.541554 0.765976 0.328581
0.549884 0.766912 0.329148
0.567719 0.768855 0.331939
0.594593 0.772045 0.336392
0.629771 0.776390 0.342722
0.672216 0.782224 0.351080
0.720510 0.789403 0.361544
0.773493 0.798136 0.374293
0.830150 0.808341 0.389297
0.889558 0.820117 0.406729
0.943028 0.832045 0.426499
0.974087 0.842874 0.448664
0.989770 0.852270 0.473149
0.996677 0.861599 0.499797
0.999243 0.871902 0.528859
0.607821 0.875317 0.396830
0.609548 0.875489 0.397081
0.616854 0.876418 0.397944
0.632065 0.878067 0.400620
0.655386 0.880663 0.404909
0.686311 0.884186 0.410936
0.724108 0.888842 0.418983
0.767856 0.894311 0.429043
0.816254 0.900788 0.441195
0.868420 0.907953 0.455626
0.922339 0.915738 0.472231
0.961632 0.923963 0.491183
0.982784 0.928716 0.512262
0.993415 0.932602 0.535512
0.997931 0.936350 0.561049
0.999559 0.940783 0.588594
0.676272 0.951994 0.470765
0.677870 0.952065 0.471150
0.684327 0.952402 0.472354
0.697206 0.953152 0.474924
0.717040 0.954143 0.479009
0.743647 0.955705 0.484758
0.776671 0.957554 0.492377
0.815197 0.959808 0.501880
0.858458 0.962376 0.513475
0.905515 0.965277 0.527136
0.946915 0.968401 0.542802
0.973931 0.971614 0.560778
0.989276 0.974953 0.580668
0.996105 0.975726 0.602714
0.998931 0.976599 0.626735
0.999786 0.977912 0.652726
0.744628 0.984928 0.549676
0.745971 0.984967 0.550050
0.751750 0.985129 0.551631
0.762439 0.985361 0.554088
0.778972 0.985745 0.557913
0.801487 0.986206 0.563335
0.829724 0.986892 0.570519
0.863108 0.987707 0.579434
0.900887 0.988550 0.590283
0.937881 0.989572 0.603078
0.964922 0.990624 0.617800
0.982742 0.991780 0.634560
0.993040 0.992851 0.653252
0.997966 0.994014 0.673778
0.999531 0.994057 0.696251
0.999960 0.994265 0.720329
0.811471 0.996740 0.631586
0.812691 0.996746 0.632054
0.817718 0.996798 0.633976
0.826587 0.996893 0.636175
0.840334 0.996935 0.639756
0.859153 0.997138 0.644853
0.883005 0.997286 0.651424
0.911558 0.997553 0.659750
0.939067 0.997795 0.669812
0.961650 0.997952 0.681631
0.978332 0.998251 0.695270
0.989405 0.998611 0.710783
0.995807 0.998794 0.727811
0.998777 0.999056 0.747051
0.999779 0.999349 0.767779
1.000023 0.999371 0.789864
0.876385 0.999773 0.715641
0.877387 0.999774 0.716105
0.881709 0.999783 0.718085
0.889144 0.999795 0.720160
0.900516 0.999814 0.723505
0.915847 0.999843 0.727970
0.933111 0.999765 0.733912
0.950260 0.999803 0.741603
0.965717 0.999843 0.750968
0.978481 0.999885 0.761770
0.988010 0.999926 0.774175
0.994282 0.999961 0.788236
0.997860 0.999990 0.804056
0.999458 1.000012 0.821349
0.999949 1.000026 0.839836
1.000038 1.000033 0.860108
0.118687 0.064530 0.057951
0.129400 0.066428 0.058713
0.162780 0.072992 0.061491
0.207232 0.082793 0.066088
0.261765 0.094658 0.074095
0.324530 0.108203 0.084105
0.395137 0.123441 0.095921
0.471999 0.140491 0.109312
0.553129 0.159512 0.124138
0.636686 0.180771 0.140547
0.720950 0.204528 0.158782
0.804112 0.230998 0.179156
0.884402 0.260284 0.201894
0.949952 0.292451 0.227272
0.981365 0.327232 0.255398
0.994289 0.364914 0.286647
0.127609 0.075049 0.060330
0.136311 0.076023 0.060947
0.167207 0.081150 0.063390
0.210254 0.089576 0.067666
0.263943 0.100436 0.075311
0.326201 0.113267 0.085002
0.396555 0.127988 0.096576
0.473117 0.144646 0.109722
0.554101 0.163434 0.124402
0.637514 0.184502 0.140740
0.721652 0.208078 0.158956
0.804784 0.234454 0.179387
0.884972 0.263600 0.202215
0.950269 0.295668 0.227732
0.981495 0.330419 0.256053
0.994285 0.367945 0.287479
0.151569 0.105019 0.067867
0.158036 0.105614 0.068322
0.182172 0.108020 0.070198
0.221703 0.113871 0.073815
0.272544 0.122347 0.080279
0.333183 0.133214 0.088816
0.402408 0.146383 0.099324
0.478110 0.161853 0.111599
0.558382 0.179693 0.125658
0.641251 0.200050 0.141678
0.724754 0.223131 0.159902
0.807488 0.249056 0.180564
0.887325 0.277732 0.203770
0.951510 0.309395 0.229896
0.982033 0.343635 0.258852
0.994451 0.380613 0.290973
0.181898 0.145947 0.079681
0.186882 0.146483 0.080065
0.206566 0.148673 0.081639
0.241245 0.153011 0.084778
0.288507 0.159700 0.089654
0.346628 0.168792 0.096388
0.413897 0.180349 0.105092
0.488050 0.194434 0.115885
0.566977 0.211162 0.128978
0.648703 0.230586 0.144532
0.731340 0.252774 0.162731
0.813172 0.277836 0.183783
0.892122 0.305678 0.207759
0.954023 0.336457 0.234932
0.982935 0.369881 0.265160
0.994824 0.405999 0.298654
0.216885 0.199763 0.097661
0.220936 0.200180 0.097893
0.237469 0.201979 0.098841
0.268057 0.205618 0.100792
0.311698 0.211393 0.105388
0.366958 0.221526 0.111855
0.431622 0.234074 0.120354
0.503503 0.248904 0.131040
0.580481 0.265904 0.144097
0.660522 0.285053 0.159707
0.741590 0.306299 0.177950
0.822047 0.329777 0.199080
0.899789 0.355504 0.223106
0.957623 0.383615 0.250347
0.984407 0.413945 0.280557
0.995317 0.446683 0.313961
0.256724 0.267386 0.121156
0.260167 0.267772 0.121246
0.274492 0.269394 0.121639
0.301850 0.272673 0.122505
0.344203 0.277878 0.127004
0.394187 0.285265 0.133392
0.455738 0.298695 0.141841
0.524863 0.314332 0.152565
0.599268 0.331680 0.165640
0.677042 0.350841 0.181303
0.756128 0.371435 0.199688
0.834589 0.393602 0.220830
0.910409 0.417412 0.244947
0.962380 0.442943 0.272220
0.986267 0.470106 0.302458
0.995881 0.499027 0.335397
0.302107 0.348718 0.150638
0.305181 0.349052 0.150660
0.317893 0.350490 0.150701
0.342714 0.353508 0.150969
0.383174 0.358310 0.155478
0.431738 0.365003 0.161876
0.486461 0.373933 0.170390
0.552281 0.389968 0.181159
0.623604 0.407602 0.194309
0.698469 0.426556 0.210082
0.774854 0.446517 0.228528
0.850849 0.467561 0.249839
0.923180 0.489497 0.273992
0.967995 0.512432 0.301211
0.988526 0.536210 0.331064
0.996674 0.561366 0.363455
0.353773 0.442059 0.187059
0.356458 0.442262 0.187055
0.367901 0.443720 0.187005
0.390394 0.446439 0.187105
0.428166 0.450808 0.191657
0.474611 0.457041 0.198103
0.527647 0.465246 0.206670
0.585687 0.475535 0.217489
