src/luts/fairytale/1.cube
LUT_3D_SIZE 6
0.000000 0.012804 0.058210
0.108575 0.012804 0.082373
0.457436 0.012804 0.152311
0.851483 0.012804 0.219041
0.996776 0.012804 0.255508
1.128963 0.012804 0.290870
0.000000 0.144109 0.058055
0.114176 0.134281 0.060636
0.476911 0.159986 0.127220
0.876377 0.150500 0.194461
0.999344 0.106649 0.236453
1.131849 0.012804 0.284635
0.000000 0.466040 0.055974
0.131046 0.466367 0.042827
0.441498 0.458824 0.052779
0.886572 0.461696 0.117318
1.009544 0.415698 0.169558
1.166090 0.352009 0.220586
0.000000 0.757804 0.042827
0.144585 0.758002 0.042827
0.445886 0.758997 0.042827
0.792481 0.754887 0.046862
0.997638 0.689465 0.087094
1.159960 0.600123 0.144577
0.000000 0.951622 0.042827
0.130614 0.951702 0.042827
0.408097 0.952191 0.042827
0.715759 0.953136 0.042827
0.962271 0.952619 0.042906
1.104516 0.846471 0.069744
0.000000 1.028755 0.042827
0.109481 1.028783 0.042827
0.349850 1.029119 0.042827
0.627817 1.030230 0.042827
0.885213 1.031191 0.042827
1.054083 1.029821 0.043051
0.000000 0.012804 0.229302
0.060792 0.029239 0.258692
0.392184 0.012804 0.375965
0.781285 0.012804 0.446583
0.976771 0.012804 0.462801
1.090076 0.012804 0.468831
0.000000 0.143897 0.230575
0.079652 0.149817 0.240840
0.459078 0.066521 0.308309
0.849875 0.012804 0.338275
0.995937 0.012804 0.345689
1.093749 0.012804 0.450123
0.000000 0.466733 0.261285
0.050990 0.472344 0.174175
0.441147 0.460548 0.133603
0.898526 0.442639 0.161719
1.020951 0.389340 0.180781
1.137360 0.355842 0.374856
0.000000 0.757756 0.276167
0.033233 0.761803 0.148604
0.417248 0.761642 0.042827
0.794183 0.755517 0.046947
0.998919 0.682372 0.090460
1.146834 0.601574 0.257246
0.000000 0.951711 0.263125
0.028920 0.954376 0.141658
0.373314 0.954204 0.100217
0.705509 0.954441 0.042827
0.962834 0.953003 0.042827
1.106201 0.844900 0.070887
0.000000 1.028735 0.242021
0.096458 1.028751 0.227300
0.343903 1.029026 0.218835
0.625254 1.030131 0.157907
0.884373 1.031126 0.042827
1.054084 1.029778 0.043044
0.000000 0.012804 0.502043
0.130623 0.013977 0.499991
0.272342 0.053893 0.610516
0.669161 0.022377 0.720164
0.919001 0.012804 0.719186
1.036968 0.012804 0.701768
0.000000 0.191827 0.503079
0.089895 0.128452 0.533504
0.309769 0.126607 0.625983
0.705143 0.018649 0.717742
0.941855 0.012804 0.704017
1.038700 0.012804 0.694914
0.000000 0.469325 0.507389
0.000000 0.473416 0.512396
0.399383 0.467437 0.523938
0.838318 0.427233 0.590024
0.993290 0.406461 0.616224
1.089867 0.432902 0.665711
0.000000 0.760370 0.520368
0.000000 0.763455 0.498510
0.340934 0.769292 0.440149
0.794393 0.757568 0.400722
0.997601 0.684468 0.453958
1.108972 0.639352 0.586940
0.000000 0.952264 0.492762
0.005488 0.954446 0.466007
0.279642 0.963429 0.391318
0.682965 0.960597 0.355531
0.964854 0.954831 0.289992
1.088021 0.859956 0.492126
0.000000 1.028969 0.448060
0.093144 1.028874 0.443551
0.414219 1.028782 0.498077
0.659255 1.029665 0.487897
0.894785 1.030784 0.461709
1.053662 1.029682 0.435372
0.000000 0.012804 0.810528
0.145342 0.012804 0.808708
0.394314 0.031986 0.829859
0.507821 0.078551 0.964523
0.770461 0.050294 0.971986
0.991723 0.017924 0.947896
0.000000 0.205304 0.811240
0.070751 0.076450 0.867797
0.409814 0.088031 0.863045
0.529883 0.105588 0.975974
0.788209 0.049790 0.976875
0.996062 0.097727 0.936687
0.000000 0.495273 0.817355
0.000000 0.483255 0.838997
0.408038 0.458515 0.850591
0.659604 0.462309 0.932556
0.923642 0.431636 0.929733
1.034618 0.450015 0.893708
0.000000 0.764108 0.816486
0.000000 0.766905 0.820301
0.280836 0.770727 0.826989
0.761165 0.758563 0.824702
0.979038 0.738577 0.865261
1.070153 0.743047 0.903754
0.000000 0.955552 0.747417
0.000000 0.957458 0.738654
0.236132 0.964330 0.721687
0.737584 0.959156 0.769878
0.964557 0.953292 0.745236
1.074977 0.901998 0.823266
0.000000 1.031342 0.669501
0.000000 1.031093 0.667621
0.405290 1.029721 0.699770
0.773853 1.028796 0.804159
0.930139 1.029834 0.796676
1.052947 1.029287 0.785122
0.000000 0.012804 0.991592
0.129264 0.012804 0.991188
0.403745 0.016531 0.990374
0.592347 0.049894 1.004751
0.660434 0.090085 1.119622
0.892092 0.068379 1.109094
0.000000 0.181942 0.991759
0.063620 0.012804 0.999801
0.401453 0.015329 0.999472
0.612429 0.074272 1.027252
0.675582 0.098617 1.134780
0.922804 0.177783 1.088872
0.000000 0.462402 0.992962
0.011131 0.446841 0.999058
0.404923 0.454629 0.999403
0.675843 0.457174 1.000020
0.803139 0.456307 1.084910
0.985443 0.480239 1.034615
0.000000 0.715628 0.995063
0.000000 0.713186 0.997621
0.334050 0.716748 0.999819
0.770207 0.754331 0.997568
0.912962 0.757991 1.007836
1.010136 0.759383 1.003638
0.000000 0.958582 0.993428
0.000000 0.960220 0.994279
0.072101 0.965770 0.996831
0.704295 0.959614 0.995124
0.962608 0.950525 0.990428
1.051951 0.948091 0.999638
0.000000 1.037269 0.916856
0.000000 1.037076 0.915703
0.334596 1.035409 0.925809
0.752039 1.032211 0.960833
0.957927 1.029912 0.988116
1.052215 1.028742 0.987267
0.000000 0.012804 1.059308
0.106116 0.012804 1.058500
0.352152 0.013521 1.054691
0.567903 0.034863 1.072720
0.654003 0.075582 1.151339
0.790522 0.102609 1.270471
0.000000 0.144799 1.059497
0.091334 0.119117 1.058712
0.346046 0.130636 1.054755
0.571940 0.158942 1.067436
0.673657 0.190077 1.136748
0.826016 0.210832 1.250620
0.000000 0.411530 1.062156
0.082933 0.405724 1.061406
0.414256 0.464245 1.055969
0.629830 0.473566 1.054666
0.754321 0.493329 1.094110
0.930544 0.504954 1.188676
0.000000 0.643247 1.068812
0.024660 0.640634 1.068111
0.406425 0.665566 1.062885
0.772207 0.758003 1.052552
0.879172 0.769212 1.058615
0.990977 0.777184 1.125375
0.000000 0.867516 1.074226
0.000000 0.866245 1.074029
0.361440 0.874585 1.071017
0.763132 0.911004 1.063201
0.960904 0.951540 1.054510
1.013505 0.957872 1.080151
0.000000 1.039317 1.064200
0.000000 1.039199 1.064028
0.275337 1.037650 1.062562
0.728073 1.034196 1.059229
0.950252 1.031408 1.056529
1.051057 1.028728 1.051274
