src/luts/fairytale/1.cube
LUT_3D_SIZE 16
0.000000 0.012804 0.058210
0.010976 0.012804 0.068234
0.044395 0.012804 0.078151
0.108575 0.012804 0.082373
0.200306 0.012804 0.102741
0.319851 0.012804 0.126738
0.457436 0.012804 0.152311
0.600366 0.012804 0.177409
0.734360 0.012804 0.199946
0.851483 0.012804 0.219041
0.937732 0.012804 0.234478
0.980020 0.012804 0.246440
0.996776 0.012804 0.255508
1.006251 0.012804 0.263011
1.080799 0.012804 0.279909
1.128963 0.012804 0.290870
0.000000 0.012804 0.058209
0.010976 0.012804 0.068231
0.044393 0.012804 0.078149
0.108575 0.012804 0.082373
0.200306 0.012804 0.102741
0.319851 0.012804 0.126738
0.457436 0.012804 0.152311
0.600366 0.012804 0.177409
0.734360 0.012804 0.199946
0.851483 0.012804 0.219041
0.937731 0.012804 0.234478
0.980020 0.012804 0.246440
0.996776 0.012804 0.255508
1.006251 0.012804 0.263011
1.080799 0.012804 0.279909
1.128963 0.012804 0.290870
0.000000 0.038189 0.058318
0.013159 0.034770 0.065979
0.045617 0.026376 0.076242
0.110970 0.031423 0.079318
0.203876 0.034773 0.098526
0.323979 0.030796 0.121976
0.460950 0.013229 0.148163
0.600143 0.012804 0.176098
0.733935 0.012804 0.198579
0.851325 0.012804 0.217683
0.937447 0.012804 0.233114
0.979833 0.012804 0.245153
0.996755 0.012804 0.254310
1.006063 0.012804 0.261851
1.080587 0.012804 0.278740
1.128841 0.012804 0.289712
0.000000 0.144109 0.058055
0.013542 0.144217 0.053893
0.050241 0.142255 0.044868
0.114176 0.134281 0.060636
0.211232 0.146139 0.079616
0.335397 0.154926 0.102463
0.476911 0.159986 0.127220
0.622826 0.161117 0.151855
0.758595 0.157812 0.174588
0.876377 0.150500 0.194461
0.953779 0.139491 0.211239
0.988335 0.124879 0.225054
0.999344 0.106649 0.236453
1.018580 0.084390 0.246684
1.089199 0.040817 0.268059
1.131849 0.012804 0.284635
0.000000 0.250332 0.057791
0.015400 0.250323 0.055701
0.052513 0.250566 0.042827
0.110640 0.250442 0.042954
0.201981 0.241633 0.056107
0.333697 0.253505 0.078152
0.480568 0.262047 0.103231
0.630591 0.266719 0.128385
0.769474 0.266387 0.151685
0.889077 0.261471 0.172237
0.962421 0.252424 0.189746
0.992811 0.239688 0.204385
1.000038 0.224070 0.216507
1.031077 0.206459 0.227305
1.103762 0.182620 0.247956
1.150476 0.166515 0.260798
0.000000 0.358342 0.057159
0.017115 0.358341 0.055225
0.058781 0.358459 0.042827
0.120786 0.358843 0.042827
0.200266 0.358804 0.042827
0.313865 0.350479 0.054003
0.469218 0.360872 0.076033
0.626031 0.366947 0.100852
0.770090 0.367559 0.124707
0.893223 0.362888 0.146232
0.966336 0.353440 0.164935
0.994922 0.339594 0.180917
1.006774 0.322612 0.194501
1.039312 0.303478 0.206671
1.112883 0.279611 0.228788
1.159944 0.264317 0.241722
0.000000 0.466040 0.055974
0.018540 0.466071 0.053757
0.064220 0.466197 0.042827
0.131046 0.466367 0.042827
0.214401 0.466850 0.042827
0.312733 0.466730 0.042827
0.441498 0.458824 0.052779
0.605698 0.466234 0.072898
0.757197 0.466969 0.095541
0.886572 0.461696 0.117318
0.964961 0.450965 0.136982
0.995108 0.435108 0.154389
1.009544 0.415698 0.169558
1.043447 0.394160 0.183441
1.118787 0.368042 0.207461
1.166090 0.352009 0.220586
0.000000 0.571054 0.053904
0.019583 0.571068 0.050753
0.068329 0.571143 0.042827
0.139096 0.571307 0.042827
0.226357 0.571750 0.042827
0.326889 0.572149 0.042827
0.436995 0.571836 0.042848
0.571969 0.564920 0.051267
0.728687 0.566316 0.068358
0.865670 0.560095 0.088089
0.956671 0.547628 0.107568
0.993158 0.529369 0.125755
1.006246 0.507177 0.142305
1.042757 0.482316 0.157818
1.120877 0.453206 0.183842
1.168784 0.435819 0.197123
0.000000 0.669048 0.049963
0.020080 0.669052 0.042827
0.070517 0.669081 0.042827
0.143576 0.669204 0.042827
0.233293 0.669569 0.042827
0.335217 0.670051 0.042827
0.445093 0.670390 0.042827
0.559479 0.670044 0.042827
0.691307 0.664329 0.049182
0.830958 0.658533 0.062922
0.938384 0.644485 0.079653
0.986978 0.623686 0.097089
0.999923 0.598106 0.114074
1.035893 0.569958 0.130716
1.118148 0.537262 0.158303
1.166993 0.518192 0.171549
0.000000 0.757804 0.042827
0.020065 0.757813 0.042827
0.070934 0.757758 0.042827
0.144585 0.758002 0.042827
0.234964 0.758093 0.042827
0.337075 0.758480 0.042827
0.445886 0.758997 0.042827
0.558453 0.759142 0.042827
0.670944 0.758976 0.042827
0.792481 0.754887 0.046862
0.908077 0.741003 0.057403
0.973660 0.718089 0.071483
0.997638 0.689465 0.087094
1.021843 0.657664 0.103647
1.109878 0.620898 0.131751
1.159960 0.600123 0.144577
0.000000 0.835449 0.042827
0.019569 0.835455 0.042827
0.069736 0.835487 0.042827
0.142435 0.835597 0.042827
0.231682 0.835712 0.042827
0.332477 0.835893 0.042827
0.439462 0.836376 0.042827
0.549516 0.836912 0.042827
0.659510 0.837061 0.042827
0.766069 0.836738 0.042827
0.873889 0.834505 0.044838
0.951964 0.811552 0.052640
0.989575 0.780488 0.064391
1.000999 0.745222 0.078931
1.095297 0.704647 0.105618
1.147019 0.681959 0.117479
0.000000 0.901065 0.042827
0.018686 0.900878 0.042827
0.067078 0.900909 0.042827
0.137515 0.901005 0.042827
0.224063 0.901082 0.042827
0.322110 0.901466 0.042827
0.426452 0.901731 0.042827
0.533388 0.902146 0.042827
0.640043 0.902498 0.042827
0.744069 0.902782 0.042827
0.843135 0.902503 0.042827
0.929978 0.901503 0.043508
0.975124 0.870456 0.048971
0.997162 0.832980 0.059057
1.074706 0.788747 0.081624
1.128156 0.764123 0.091839
0.000000 0.951622 0.042827
0.017525 0.951629 0.042827
0.063465 0.951662 0.042827
0.130614 0.951702 0.042827
0.213408 0.951778 0.042827
0.307528 0.951868 0.042827
0.408097 0.952191 0.042827
0.511478 0.952532 0.042827
0.614779 0.952895 0.042827
0.715759 0.953136 0.042827
0.812617 0.953288 0.042827
0.901567 0.953111 0.042827
0.962271 0.952619 0.042906
0.988876 0.918455 0.046613
1.049827 0.872706 0.061974
1.104516 0.846471 0.069744
0.000000 0.983755 0.042827
0.016238 0.983760 0.042827
0.059338 0.983731 0.042827
0.122784 0.983795 0.042827
0.201059 0.983850 0.042827
0.290605 0.984011 0.042827
0.386932 0.984007 0.042827
0.486294 0.984399 0.042827
0.586010 0.984522 0.042827
0.683705 0.984805 0.042827
0.777983 0.984927 0.042827
0.867228 0.985032 0.042827
0.939127 0.984887 0.042827
0.982560 0.984817 0.042827
1.024942 0.952230 0.048671
1.079322 0.927539 0.053299
0.000000 0.997391 0.042827
0.014941 0.997394 0.042827
0.055081 0.997406 0.042827
0.114570 0.997376 0.042827
0.188097 0.997404 0.042827
0.272595 0.997529 0.042827
0.364120 0.997518 0.042827
0.459265 0.997648 0.042827
0.555233 0.997784 0.042827
0.649893 0.997814 0.042827
0.741486 0.998002 0.042827
0.829036 0.998075 0.042827
0.908714 0.998133 0.042827
0.962605 0.998096 0.042827
1.009822 0.997685 0.043345
1.059651 0.987946 0.044473
0.000000 1.028755 0.042827
0.014065 1.028756 0.042827
0.052396 1.028764 0.042827
0.109481 1.028783 0.042827
0.180038 1.028830 0.042827
0.261409 1.028929 0.042827
0.349850 1.029119 0.042827
0.442021 1.029390 0.042827
0.535403 1.029760 0.042827
0.627817 1.030230 0.042827
0.717821 1.030632 0.042827
0.804111 1.030967 0.042827
0.885213 1.031191 0.042827
0.946620 1.031211 0.042827
0.986267 1.031030 0.042827
1.054083 1.029821 0.043051
0.000000 0.012804 0.105407
0.008548 0.015625 0.108531
0.033451 0.014578 0.132571
0.093903 0.012804 0.150289
0.183972 0.012804 0.171982
0.301921 0.012804 0.196072
0.438638 0.012804 0.219693
0.581848 0.012804 0.240153
0.717447 0.012804 0.254892
0.837735 0.012804 0.261906
0.933012 0.012804 0.254007
0.980015 0.012804 0.246439
0.996774 0.012804 0.255507
1.006249 0.012804 0.263009
1.080798 0.012804 0.279908
1.128962 0.012804 0.290870
0.000000 0.012804 0.105407
0.008587 0.015640 0.108701
0.039879 0.012804 0.125907
0.106172 0.012804 0.131255
0.198965 0.012804 0.141532
0.320145 0.012804 0.151265
0.462647 0.012804 0.153243
0.604392 0.012804 0.178104
0.737389 0.012804 0.200463
0.853909 0.012804 0.219455
0.939009 0.012804 0.234753
0.980762 0.012804 0.246692
0.996916 0.012804 0.255728
1.007432 0.012804 0.263265
1.080798 0.012804 0.279908
1.128962 0.012804 0.290870
0.000000 0.037447 0.108329
0.006039 0.041590 0.093583
0.039979 0.032681 0.112286
0.105198 0.026720 0.122272
0.198193 0.012804 0.135644
0.320129 0.012804 0.145131
0.461704 0.012804 0.152617
0.603860 0.012804 0.177330
0.737186 0.012804 0.199639
0.853984 0.012804 0.218615
0.938774 0.012804 0.233898
0.980662 0.012804 0.245781
0.996931 0.012804 0.255728
1.007440 0.012804 0.263273
1.080796 0.012804 0.279907
1.128960 0.012804 0.290870
0.000000 0.144769 0.110893
0.004181 0.145863 0.084746
0.045171 0.144467 0.080358
0.110145 0.136587 0.094947
0.208577 0.145384 0.106193
0.338422 0.150104 0.104470
0.479551 0.153566 0.129303
0.624881 0.153499 0.153968
0.760093 0.149279 0.176665
0.877080 0.141229 0.196490
0.954158 0.129591 0.213236
0.988349 0.114233 0.227033
0.999312 0.095126 0.238422
1.018438 0.070887 0.248824
1.088225 0.029846 0.269645
1.128632 0.012804 0.288555
0.000000 0.250358 0.115429
0.003452 0.251345 0.081801
0.047170 0.251392 0.075652
0.108078 0.251124 0.042868
0.202574 0.241647 0.056366
0.335435 0.251926 0.079078
0.482694 0.259307 0.104508
0.632494 0.263135 0.129790
0.771043 0.262205 0.153170
0.890408 0.256957 0.173708
0.963061 0.247722 0.191180
0.992969 0.234807 0.205746
1.000038 0.219202 0.217814
1.031631 0.201588 0.228576
1.103623 0.180073 0.248803
1.150421 0.164043 0.261643
0.000000 0.358328 0.119492
0.003247 0.358939 0.081134
0.051975 0.359064 0.077139
0.116948 0.359337 0.042827
0.198547 0.359153 0.042827
0.314267 0.350571 0.054105
0.470511 0.359789 0.076601
0.627611 0.365215 0.101682
0.771465 0.365249 0.125718
0.894330 0.360351 0.147268
0.966918 0.350624 0.166002
0.995091 0.336735 0.181954
1.007302 0.319648 0.195491
1.040018 0.300550 0.207705
1.112895 0.277917 0.229523
1.159967 0.262778 0.242446
0.000000 0.466032 0.122565
0.003307 0.466505 0.081646
0.056334 0.466504 0.078492
0.126224 0.466682 0.042827
0.211538 0.467125 0.042827
0.311493 0.466775 0.042827
0.441870 0.458863 0.052840
0.606596 0.465565 0.073242
0.758114 0.465761 0.096106
0.887692 0.460055 0.118048
0.965687 0.449167 0.137795
0.995479 0.433251 0.155201
1.010174 0.413795 0.170383
1.044272 0.392183 0.184273
1.118902 0.366929 0.208080
1.166178 0.350890 0.221255
0.000000 0.571037 0.124764
0.003502 0.571445 0.082786
0.059814 0.571430 0.080084
0.133614 0.571587 0.056106
0.222812 0.571835 0.042827
0.324885 0.572266 0.042827
0.436145 0.571994 0.042827
0.572253 0.564803 0.051321
0.729353 0.565806 0.068598
0.866275 0.559276 0.088476
0.957273 0.546476 0.108070
0.993331 0.528145 0.126317
1.006785 0.505815 0.142903
1.043333 0.481096 0.158452
1.121037 0.452397 0.184362
1.168936 0.435034 0.197669
0.000000 0.669041 0.125839
0.003775 0.669415 0.084214
0.061759 0.669389 0.081824
0.137774 0.669484 0.067119
0.229335 0.669621 0.042827
0.332546 0.670149 0.042827
0.443672 0.670456 0.042827
0.558838 0.670094 0.042827
0.691405 0.664380 0.049192
0.831577 0.658195 0.063074
0.938777 0.643877 0.079927
0.987253 0.622845 0.097462
0.999950 0.597387 0.114466
1.036489 0.568942 0.131216
1.118419 0.536480 0.158779
1.167173 0.517560 0.172014
0.000000 0.757794 0.125890
0.004072 0.758123 0.085715
0.062230 0.758129 0.083574
0.138676 0.758203 0.072958
0.230738 0.758290 0.042827
0.334091 0.758653 0.042827
0.444108 0.759160 0.042827
0.557437 0.759325 0.042827
0.670533 0.759023 0.042827
0.792441 0.755077 0.046866
0.908286 0.740683 0.057483
0.973944 0.717631 0.071664
0.997745 0.688874 0.087349
1.022488 0.657012 0.104014
1.110116 0.620238 0.132145
1.160160 0.599506 0.144988
0.000000 0.835440 0.125005
0.004371 0.835719 0.087131
0.061339 0.835706 0.085261
0.136684 0.835759 0.077156
0.227440 0.835816 0.042827
0.329505 0.836182 0.042827
0.437520 0.836463 0.042827
0.548242 0.836918 0.042827
0.658649 0.837216 0.042827
0.765709 0.836828 0.042827
0.873865 0.834590 0.044840
0.952022 0.811275 0.052703
0.989741 0.780134 0.064535
1.001365 0.745055 0.079070
1.095570 0.704085 0.105891
1.147312 0.681423 0.117815
0.000000 0.901056 0.123319
0.004642 0.901237 0.088390
0.059248 0.901323 0.086727
0.132057 0.901310 0.080407
0.220079 0.901443 0.042827
0.319188 0.901454 0.042827
0.424330 0.901886 0.042827
0.532005 0.902279 0.042827
0.639068 0.902731 0.042827
0.743412 0.902779 0.042827
0.842647 0.902494 0.042827
0.930062 0.901531 0.043509
0.975133 0.870102 0.049005
0.997247 0.832803 0.059137
1.074912 0.788398 0.081779
1.128322 0.763932 0.092012
0.000000 0.951612 0.121025
0.004877 0.951622 0.089439
0.056325 0.951643 0.088008
0.125627 0.951658 0.082952
0.209663 0.951777 0.058075
0.304752 0.951937 0.042827
0.406179 0.952113 0.042827
0.509996 0.952509 0.042827
0.613725 0.952808 0.042827
0.715051 0.953089 0.042827
0.812056 0.953296 0.042827
0.901593 0.953101 0.042827
0.962213 0.952628 0.042910
0.988975 0.918585 0.046631
1.049960 0.872426 0.062067
1.104662 0.846172 0.069858
0.000000 0.983748 0.118422
0.005087 0.983783 0.090340
0.052994 0.983798 0.089086
0.118300 0.983811 0.084984
0.197692 0.983867 0.069996
0.288046 0.984001 0.042827
0.385072 0.984035 0.042827
0.484856 0.984389 0.042827
0.584964 0.984550 0.042827
0.683236 0.984860 0.042827
0.777518 0.984944 0.042827
0.866992 0.984947 0.042827
0.939047 0.984914 0.042827
0.982644 0.984794 0.042827
1.025004 0.952255 0.048702
1.079375 0.927523 0.053330
0.000000 0.997387 0.115693
0.005302 0.997384 0.091152
0.049559 0.997393 0.090044
0.110590 0.997421 0.086697
0.185076 0.997378 0.075966
0.270262 0.997486 0.042827
0.362312 0.997614 0.042827
0.457864 0.997639 0.042827
0.554212 0.997743 0.042827
0.649146 0.997875 0.042827
0.741283 0.997921 0.042827
0.828732 0.998092 0.042827
0.908600 0.998185 0.042827
0.962630 0.998078 0.042827
1.009822 0.997681 0.043346
1.059667 0.987938 0.044476
0.000000 1.028752 0.113888
0.009240 1.028754 0.102035
0.049467 1.028761 0.101173
0.107316 1.028780 0.098697
0.178378 1.028825 0.091867
0.260054 1.028923 0.067320
0.348827 1.029111 0.042827
0.441193 1.029381 0.042827
0.534755 1.029751 0.042827
0.627458 1.030221 0.042827
0.717346 1.030625 0.042827
0.803725 1.030961 0.042827
0.885164 1.031187 0.042827
0.946706 1.031208 0.042827
0.986130 1.031029 0.042827
1.054081 1.029819 0.043053
0.000000 0.012804 0.161223
0.012028 0.012895 0.160664
0.027296 0.021617 0.174778
0.073505 0.019739 0.211161
0.165147 0.012804 0.239059
0.282598 0.012804 0.267865
0.417548 0.012804 0.296743
0.558213 0.012804 0.323400
0.690863 0.012804 0.345250
0.807676 0.012804 0.361596
0.902974 0.012804 0.372363
0.959528 0.012804 0.378073
0.986633 0.012804 0.379747
0.998283 0.012804 0.378876
1.057782 0.012804 0.382775
1.108105 0.012804 0.384425
0.000000 0.012804 0.161222
0.010414 0.012804 0.167547
0.029387 0.022179 0.180888
0.080916 0.018623 0.212700
0.174019 0.012804 0.235391
0.291108 0.012804 0.261058
0.425397 0.012804 0.287884
0.565325 0.012804 0.313140
0.697214 0.012804 0.334051
0.813744 0.012804 0.349764
0.908041 0.012804 0.360290
0.962529 0.012804 0.365852
0.988406 0.012804 0.367543
0.998921 0.012804 0.366766
1.059183 0.012804 0.376245
1.109487 0.012804 0.378085
0.000000 0.035805 0.161259
0.006381 0.038246 0.162315
0.028991 0.044539 0.172725
0.087477 0.015555 0.200653
0.193200 0.012804 0.210005
0.320477 0.012804 0.219584
0.460046 0.012804 0.230411
0.603333 0.012804 0.239621
0.738882 0.012804 0.242383
0.865643 0.012804 0.221302
0.945676 0.012804 0.236313
0.983957 0.012804 0.247992
0.997995 0.012804 0.256837
1.014540 0.012804 0.264894
1.065121 0.012804 0.348969
1.115263 0.012804 0.352007
0.000000 0.144628 0.171037
0.000000 0.146244 0.166538
0.031903 0.148093 0.147486
0.102182 0.140307 0.162579
0.204033 0.139479 0.174393
0.331286 0.135718 0.188353
0.473805 0.129350 0.201945
0.620292 0.120361 0.211459
0.760586 0.106850 0.205808
0.881105 0.090658 0.206317
0.954614 0.071899 0.223188
0.987726 0.045332 0.237494
0.998635 0.012804 0.251124
1.014048 0.012804 0.263323
1.065400 0.012804 0.347592
1.115490 0.012804 0.350465
0.000000 0.251394 0.175575
0.000000 0.252128 0.168306
0.022481 0.254653 0.129870
0.097959 0.253485 0.120171
0.197908 0.244297 0.129012
0.332100 0.248896 0.144163
0.481345 0.250852 0.157374
0.636426 0.249065 0.156858
0.779522 0.243638 0.159636
0.896759 0.236448 0.180118
0.965838 0.225827 0.197410
0.993983 0.212175 0.211730
1.001977 0.196046 0.223532
1.035606 0.177889 0.234562
1.089198 0.176854 0.314334
1.138012 0.161108 0.318288
0.000000 0.358581 0.183675
0.000000 0.359196 0.175165
0.017058 0.361800 0.119033
0.099653 0.361448 0.111830
0.191201 0.360644 0.062962
0.316016 0.350795 0.054546
0.476569 0.355512 0.079023
0.635126 0.357732 0.105331
0.778938 0.355516 0.130001
0.900744 0.348930 0.151855
0.969970 0.338262 0.170573
0.996150 0.323691 0.186483
1.010425 0.306407 0.199874
1.044502 0.287114 0.212296
1.102058 0.276573 0.282463
1.151695 0.261168 0.283274
0.000000 0.466185 0.191009
0.002345 0.466493 0.181406
0.014204 0.468724 0.112820
0.103592 0.468481 0.107352
0.198662 0.468487 0.042827
0.306077 0.467894 0.042827
0.443081 0.459134 0.053025
0.611024 0.462662 0.074707
0.763936 0.460566 0.098535
0.892996 0.453511 0.120968
0.968603 0.441589 0.141034
0.996311 0.425124 0.158537
1.013301 0.405425 0.173706
1.048582 0.383480 0.187898
1.119250 0.363060 0.210274
1.166529 0.347469 0.223418
0.000000 0.571058 0.196280
0.003734 0.571440 0.186002
0.012722 0.573139 0.109458
0.107266 0.573089 0.104911
0.206212 0.573183 0.070467
0.315170 0.573264 0.042827
0.432115 0.572615 0.042827
0.573142 0.565095 0.051396
0.732645 0.563735 0.069528
0.871042 0.555614 0.090116
0.960028 0.541944 0.110156
0.994408 0.522877 0.128720
1.009832 0.500138 0.145385
1.047471 0.475242 0.161276
1.121736 0.449484 0.186278
1.169531 0.432454 0.199598
0.000000 0.669091 0.199043
0.004398 0.669397 0.188524
0.011980 0.670761 0.107818
0.109112 0.670655 0.103862
0.210337 0.670757 0.079980
0.320334 0.670984 0.042827
0.436566 0.671218 0.042827
0.556101 0.670592 0.042827
0.692025 0.664583 0.049231
0.833799 0.656739 0.063623
0.940956 0.641282 0.080981
0.988529 0.619616 0.098889
1.000031 0.593520 0.116192
1.040026 0.565038 0.133261
1.119190 0.534291 0.160328
1.167953 0.515478 0.173641
0.000000 0.757775 0.199616
0.004831 0.758118 0.189123
0.011633 0.759291 0.107122
0.109033 0.759174 0.103654
0.210383 0.759281 0.086123
0.320256 0.759527 0.042827
0.435113 0.759892 0.042827
0.552449 0.760073 0.042827
0.668708 0.759459 0.042827
0.793162 0.755045 0.046890
0.910133 0.739626 0.057843
0.975135 0.715762 0.072381
0.998129 0.686424 0.088387
1.025378 0.654279 0.105359
1.110980 0.618613 0.133350
1.161037 0.597875 0.146286
0.000000 0.835435 0.198204
0.005184 0.835801 0.188079
0.011502 0.836776 0.106962
0.106934 0.836720 0.103914
0.206592 0.836824 0.090651
0.314663 0.836974 0.042827
0.427489 0.837211 0.042827
0.541815 0.837528 0.042827
0.655084 0.837758 0.042827
0.764496 0.837266 0.042827
0.874448 0.834591 0.044851
0.952889 0.810542 0.052900
0.990309 0.778765 0.064988
1.003572 0.743386 0.079895
1.096397 0.703001 0.106721
1.148092 0.680232 0.118741
0.000000 0.901056 0.195103
0.005455 0.901208 0.185538
0.011482 0.902113 0.107060
0.103070 0.902002 0.104388
0.199245 0.902065 0.094208
0.304049 0.902300 0.042827
0.413771 0.902455 0.042827
0.524686 0.902791 0.042827
0.634550 0.903207 0.042827
0.741188 0.903191 0.042827
0.841708 0.902897 0.042827
0.930274 0.901481 0.043510
0.975702 0.869666 0.049118
0.997631 0.831774 0.059517
1.075568 0.787627 0.082305
1.128973 0.763183 0.092635
0.000000 0.951583 0.190765
0.005659 0.951586 0.181887
0.011512 0.952545 0.107269
0.097968 0.952568 0.104958
0.189499 0.952614 0.097028
0.289775 0.952589 0.053978
0.395205 0.952704 0.042827
0.502429 0.952997 0.042827
0.608552 0.953300 0.042827
0.711811 0.953440 0.042827
0.810228 0.953376 0.042827
0.901073 0.953259 0.042827
0.962474 0.952717 0.042896
0.989328 0.918173 0.046721
1.050415 0.871811 0.062323
1.105171 0.845767 0.070199
0.000000 0.983727 0.185738
0.005818 0.983758 0.177647
0.011561 0.984381 0.107520
0.092283 0.984351 0.105529
0.178465 0.984388 0.099253
0.273615 0.984279 0.076688
0.374093 0.984403 0.042827
0.476969 0.984654 0.042827
0.579362 0.984915 0.042827
0.679357 0.985000 0.042827
0.775348 0.985116 0.042827
0.866009 0.985186 0.042827
0.938835 0.985146 0.042827
0.982658 0.984807 0.042827
1.025167 0.952041 0.048768
1.079701 0.927139 0.053476
0.000000 0.997375 0.180384
0.005972 0.997370 0.173123
0.011656 0.997568 0.107814
0.086413 0.997560 0.106082
0.167035 0.997664 0.101022
0.256418 0.997696 0.085295
0.351827 0.997653 0.042827
0.449948 0.997795 0.042827
0.548395 0.997861 0.042827
0.645021 0.997999 0.042827
0.738173 0.998121 0.042827
0.826985 0.998171 0.042827
0.907816 0.998136 0.042827
0.962591 0.998113 0.042827
1.009820 0.997667 0.043345
1.059711 0.987784 0.044498
0.000000 1.028745 0.177044
0.009785 1.028746 0.173010
0.040047 1.028753 0.159184
0.100570 1.028769 0.158369
0.173212 1.028810 0.156214
0.255991 1.028901 0.150947
0.345714 1.029098 0.139044
0.438869 1.029349 0.110789
0.533061 1.029719 0.042827
0.626001 1.030191 0.042827
0.716434 1.030600 0.042827
0.802788 1.030942 0.042827
0.884420 1.031174 0.042827
0.946542 1.031199 0.042827
0.986008 1.031021 0.042827
1.054073 1.029796 0.043044
0.000000 0.012804 0.229302
0.013643 0.012804 0.228899
0.042785 0.015447 0.230176
0.060792 0.029239 0.258692
0.136472 0.024884 0.306759
0.256212 0.013873 0.343081
0.392184 0.012804 0.375965
0.532874 0.012804 0.405567
0.665037 0.012804 0.429366
0.781285 0.012804 0.446583
0.878534 0.012804 0.457487
0.942989 0.012804 0.462446
0.976771 0.012804 0.462801
0.993779 0.012804 0.460565
1.040061 0.012804 0.465181
1.090076 0.012804 0.468831
0.000000 0.012804 0.229305
0.008678 0.012804 0.241608
0.044780 0.015116 0.239405
0.064070 0.029895 0.265769
0.142706 0.024280 0.309469
0.263004 0.012960 0.342318
0.398539 0.012804 0.372999
0.538329 0.012804 0.401265
0.669878 0.012804 0.424177
0.785672 0.012804 0.440964
0.882100 0.012804 0.451714
0.945262 0.012804 0.456610
0.978073 0.012804 0.457106
0.994524 0.012804 0.455049
1.040733 0.012804 0.462270
1.090635 0.012804 0.466180
0.000000 0.049604 0.229344
0.005319 0.046662 0.234831
0.038825 0.033827 0.238053
0.066571 0.041698 0.266540
0.155573 0.022156 0.309138
0.284128 0.012804 0.334240
0.422158 0.012804 0.357853
0.561672 0.012804 0.380561
0.691908 0.012804 0.399756
0.806010 0.012804 0.414326
0.899921 0.012804 0.423724
0.956363 0.012804 0.428394
0.984543 0.012804 0.429214
0.997917 0.012804 0.428356
1.042867 0.012804 0.452215
1.092488 0.012804 0.457553
0.000000 0.143897 0.230575
0.000919 0.145075 0.231520
0.031083 0.146623 0.231885
0.079652 0.149817 0.240840
0.179201 0.134775 0.273357
0.313244 0.109193 0.292110
0.459078 0.066521 0.308309
0.599081 0.012804 0.324938
0.733904 0.012804 0.332497
0.849875 0.012804 0.338275
0.935265 0.012804 0.342181
0.978348 0.012804 0.344492
0.995937 0.012804 0.345689
1.015083 0.012804 0.355264
1.044973 0.012804 0.441154
1.093749 0.012804 0.450123
0.000000 0.252262 0.244736
0.000000 0.253180 0.242387
0.006342 0.256095 0.231665
0.082952 0.255037 0.213203
0.191511 0.246095 0.224495
0.326678 0.242159 0.241111
0.476544 0.234855 0.257369
0.626887 0.225303 0.271825
0.763972 0.213566 0.283813
0.881593 0.200094 0.293006
0.956684 0.184978 0.299866
0.989736 0.168152 0.304784
0.999616 0.149872 0.308503
1.036866 0.127926 0.313088
1.068036 0.176952 0.413794
1.115667 0.165016 0.423863
0.000000 0.359939 0.251305
0.000000 0.360472 0.247424
0.004805 0.362499 0.229778
0.065139 0.364868 0.191861
0.177061 0.363093 0.179867
0.310057 0.353494 0.183419
0.470286 0.352463 0.200386
0.628474 0.349084 0.217363
0.772078 0.342249 0.231691
0.894298 0.332005 0.242936
0.966342 0.318694 0.251390
0.994803 0.302594 0.257977
1.006214 0.284428 0.263458
1.049962 0.263973 0.268127
1.080245 0.279826 0.390465
1.127858 0.267177 0.401110
0.000000 0.466733 0.261285
0.000000 0.467063 0.256718
0.008685 0.468851 0.234439
0.050990 0.472344 0.174175
0.172620 0.471433 0.165394
0.295226 0.469949 0.133423
0.441147 0.460548 0.133603
0.611983 0.459316 0.145293
0.766764 0.453232 0.156564
0.898526 0.442639 0.161719
0.974756 0.427024 0.148109
0.998189 0.409529 0.165694
1.020951 0.389340 0.180781
1.061882 0.367016 0.196251
1.089860 0.370140 0.363779
1.137360 0.355842 0.374856
0.000000 0.571391 0.269873
0.000000 0.571583 0.264733
0.010527 0.573216 0.238868
0.042041 0.576569 0.161839
0.171116 0.575993 0.155191
0.295606 0.575580 0.122963
0.424393 0.574325 0.042827
0.575408 0.565304 0.051718
