src/luts/fairytale/10.cube
LUT_3D_SIZE 16
0.000000 0.020906 0.046343
0.011685 0.020906 0.049255
0.040738 0.020906 0.052448
0.085176 0.020906 0.055763
0.140819 0.020906 0.059175
0.198141 0.020906 0.062659
0.256443 0.020906 0.066197
0.315916 0.020906 0.069794
0.376240 0.020906 0.073434
0.436187 0.020906 0.077033
0.494477 0.020906 0.080520
0.550571 0.020906 0.083859
0.602989 0.020906 0.086967
0.650964 0.020906 0.089804
0.693824 0.020906 0.092332
0.758159 0.020906 0.096116
0.000016 0.080788 0.046343
0.012509 0.078601 0.046954
0.042142 0.081092 0.050463
0.086884 0.082645 0.053619
0.142559 0.083658 0.056885
0.199859 0.084381 0.060261
0.258154 0.084873 0.063731
0.317704 0.085157 0.067283
0.377925 0.085263 0.070880
0.437838 0.085066 0.074460
0.496139 0.084645 0.077943
0.552189 0.083912 0.081294
0.604528 0.082949 0.084430
0.652439 0.081725 0.087292
0.695254 0.080341 0.089865
0.759585 0.078672 0.093686
0.000040 0.148114 0.046343
0.000081 0.147359 0.046343
0.043560 0.143583 0.047489
0.089510 0.146981 0.051496
0.145092 0.149701 0.054975
0.202179 0.151844 0.058314
0.260301 0.153539 0.061678
0.319732 0.154827 0.065132
0.379936 0.155737 0.068643
0.439752 0.156030 0.072147
0.498060 0.155747 0.075585
0.554051 0.154895 0.078908
0.606448 0.153436 0.082034
0.654312 0.151402 0.084912
0.697082 0.148984 0.087505
0.761348 0.146213 0.091349
0.000070 0.222512 0.046343
0.000105 0.222101 0.046343
0.031422 0.219525 0.046343
0.090777 0.215480 0.047792
0.148183 0.219443 0.052124
0.205279 0.223069 0.055997
0.263280 0.226146 0.059576
0.322499 0.228520 0.063068
0.382612 0.230319 0.066556
0.442216 0.231199 0.070013
0.500394 0.231099 0.073399
0.556355 0.230071 0.076681
0.608618 0.228096 0.079770
0.656341 0.225167 0.082640
0.699219 0.221580 0.085235
0.763229 0.217606 0.089079
0.000120 0.303402 0.046343
0.000150 0.303143 0.046343
0.000268 0.301954 0.046343
0.075956 0.298101 0.046343
0.148186 0.293916 0.047819
0.208410 0.298078 0.052441
0.266685 0.302310 0.056641
0.325863 0.305803 0.060547
0.385898 0.308570 0.064250
0.445460 0.310002 0.067813
0.503356 0.310170 0.071237
0.559111 0.308963 0.074523
0.611288 0.306438 0.077612
0.658907 0.302585 0.080470
0.701587 0.297796 0.083065
0.765460 0.292522 0.086903
0.000189 0.389510 0.046343
0.000210 0.389241 0.046343
0.000309 0.388459 0.046343
0.032677 0.386022 0.046343
0.132218 0.381859 0.046343
0.206463 0.377457 0.047625
0.269657 0.381444 0.052547
0.329335 0.385962 0.057013
0.389456 0.389585 0.061219
0.448976 0.391523 0.065143
0.506831 0.391830 0.068792
0.562436 0.390486 0.072218
0.614326 0.387398 0.075394
0.661881 0.382522 0.078311
0.704325 0.376517 0.080944
0.768188 0.369959 0.084794
0.000273 0.479098 0.046343
0.000288 0.478911 0.046343
0.000376 0.478380 0.046343
0.000566 0.476970 0.046343
0.090010 0.473548 0.046343
0.189963 0.469062 0.046343
0.265344 0.464578 0.047296
0.331899 0.468085 0.052547
0.392782 0.472117 0.057220
0.452628 0.474549 0.061653
0.510549 0.475048 0.065733
0.566122 0.473504 0.069485
0.617882 0.469877 0.072894
0.665257 0.464058 0.075976
0.707563 0.456844 0.078718
0.771258 0.449083 0.082677
0.000371 0.570269 0.046343
0.000385 0.570183 0.046343
0.000464 0.569675 0.046343
0.000623 0.568639 0.046343
0.000906 0.566838 0.046343
0.153244 0.562516 0.046343
0.248379 0.557924 0.046343
0.325348 0.553295 0.046970
0.394576 0.555992 0.052506
0.455802 0.558196 0.057356
0.514098 0.558679 0.061914
0.569807 0.556818 0.066111
0.621574 0.552569 0.069889
0.668832 0.545895 0.073272
0.711038 0.537601 0.076235
0.774587 0.528583 0.080391
0.000480 0.661199 0.046343
0.000493 0.661121 0.046343
0.000564 0.660735 0.046343
0.000710 0.659884 0.046343
0.000960 0.658430 0.046343
0.079191 0.655334 0.046343
0.215255 0.651149 0.046343
0.308157 0.646370 0.046343
0.386354 0.641682 0.046766
0.456393 0.642120 0.052520
0.517046 0.641755 0.057493
0.573189 0.639516 0.062092
0.625166 0.634804 0.066303
0.672432 0.627375 0.070060
0.714700 0.617956 0.073345
0.777993 0.607815 0.077838
0.000596 0.748857 0.046343
0.000609 0.748758 0.046343
0.000672 0.748326 0.046343
0.000803 0.747621 0.046343
0.001030 0.746460 0.046343
0.001373 0.744696 0.046343
0.159879 0.740767 0.046343
0.277566 0.736322 0.046343
0.368852 0.731350 0.046343
0.447547 0.726708 0.046779
0.516610 0.724299 0.052631
0.575893 0.720817 0.057691
0.628257 0.715366 0.062216
0.675779 0.707255 0.066356
0.718219 0.696852 0.070000
0.781404 0.685741 0.074927
0.000714 0.830855 0.046343
0.000727 0.830829 0.046343
0.000780 0.830375 0.046343
0.000903 0.830023 0.046343
0.001109 0.828888 0.046343
0.001419 0.827382 0.046343
0.043882 0.824813 0.046343
0.232293 0.820294 0.046343
0.340341 0.815719 0.046343
0.429683 0.810764 0.046343
0.507647 0.806166 0.047038
0.574605 0.800660 0.052906
0.630663 0.793591 0.057933
0.678622 0.784459 0.062331
0.721145 0.773481 0.066299
0.784783 0.761533 0.071670
0.000829 0.905522 0.046343
0.000841 0.905540 0.046343
0.000893 0.905280 0.046343
0.001007 0.904692 0.046343
0.001195 0.903926 0.046343
0.001478 0.902654 0.046343
0.001877 0.900845 0.046343
0.163999 0.896834 0.046343
0.301495 0.892668 0.046343
0.402604 0.887845 0.046343
0.489311 0.882852 0.046343
0.566146 0.878139 0.047597
0.628928 0.869464 0.053330
0.680749 0.858759 0.058222
0.723692 0.846650 0.062403
0.787640 0.834150 0.068150
0.000932 0.963016 0.046343
0.000945 0.963026 0.046343
0.000998 0.962784 0.046343
0.001098 0.962359 0.046343
0.001272 0.961945 0.046343
0.001536 0.960936 0.046343
0.001901 0.959770 0.046343
0.002389 0.958181 0.046343
0.250299 0.954370 0.046343
0.367763 0.950840 0.046343
0.463220 0.946940 0.046343
0.546987 0.942816 0.046343
0.621305 0.938964 0.048400
0.678637 0.928542 0.053904
0.725319 0.915995 0.058521
0.790228 0.903108 0.064523
0.001035 0.996064 0.046343
0.001045 0.996114 0.046343
0.001088 0.995958 0.046343
0.001189 0.995968 0.046343
0.001349 0.995620 0.046343
0.001587 0.995227 0.046343
0.001924 0.994667 0.046343
0.002372 0.993971 0.046343
0.177340 0.992334 0.046343
0.324390 0.990341 0.046343
0.430087 0.988095 0.046343
0.520588 0.985500 0.046343
0.600648 0.982846 0.046343
0.672206 0.980272 0.049296
0.723341 0.970913 0.054452
0.792258 0.960046 0.060982
0.001103 1.023279 0.046343
0.001114 1.023237 0.046343
0.001160 1.023051 0.046343
0.001245 1.022683 0.046343
0.001398 1.022057 0.046343
0.001618 1.021170 0.046343
0.001933 1.019926 0.046343
0.002348 1.018292 0.046343
0.065336 1.015447 0.046343
0.279333 1.011120 0.046343
0.396810 1.006844 0.046343
0.492922 1.002214 0.046343
0.577148 0.999802 0.046343
0.652477 0.998987 0.046343
0.718895 0.997996 0.050938
0.791757 0.995104 0.057480
0.001109 1.026038 0.046343
0.001120 1.025997 0.046343
0.001163 1.025817 0.046343
0.001246 1.025464 0.046343
0.001394 1.024854 0.046343
0.001607 1.024006 0.046343
0.001910 1.022810 0.046343
0.002308 1.021235 0.046343
0.002822 1.019258 0.046343
0.258257 1.014441 0.046343
0.379966 1.010260 0.046343
0.477193 1.005742 0.046343
0.562100 1.001040 0.046343
0.638183 0.999716 0.046343
0.705664 0.998874 0.049619
0.791663 0.997704 0.057038
0.001144 0.020906 0.140039
0.013656 0.020906 0.132193
0.039080 0.020959 0.141722
0.082278 0.020906 0.148089
0.137567 0.020906 0.153379
0.194819 0.020906 0.158205
0.253091 0.020906 0.162770
0.312587 0.020906 0.167095
0.372872 0.020906 0.171199
0.432801 0.020906 0.174934
0.491088 0.020906 0.178174
0.547177 0.020906 0.180960
0.599526 0.020906 0.183146
0.647541 0.020906 0.184681
0.690522 0.020906 0.185707
0.754932 0.020906 0.187754
0.000657 0.076196 0.151270
0.012579 0.077968 0.140519
0.039672 0.079279 0.136879
0.083698 0.078751 0.139868
0.139256 0.078202 0.142876
0.196594 0.077640 0.145949
0.254917 0.077058 0.149066
0.314388 0.076470 0.152249
0.374705 0.075878 0.155482
0.434645 0.075276 0.158657
0.492967 0.074699 0.161744
0.549077 0.074139 0.164723
0.601503 0.073614 0.167519
0.649436 0.073132 0.170050
0.692305 0.072709 0.172338
0.756686 0.072056 0.175771
0.000000 0.148010 0.129928
0.000000 0.148069 0.119610
0.040127 0.145190 0.128566
0.085915 0.146944 0.138161
0.141497 0.148835 0.141187
0.198780 0.150340 0.144111
0.257082 0.151577 0.147082
0.316540 0.152499 0.150142
0.376866 0.153098 0.153244
0.436745 0.153218 0.156347
0.495003 0.152883 0.159417
0.551058 0.152036 0.162400
0.603357 0.150747 0.165174
0.651352 0.148939 0.167740
0.694253 0.146847 0.170047
0.758509 0.144409 0.173530
0.000013 0.222994 0.046343
0.000034 0.222687 0.046343
0.026260 0.220316 0.046343
0.087235 0.216735 0.119018
0.144364 0.219950 0.138667
0.201615 0.223042 0.142034
0.259753 0.225672 0.145190
0.319180 0.227782 0.148256
0.379273 0.229372 0.151329
0.439104 0.230068 0.154408
0.497310 0.229946 0.157406
0.553307 0.228863 0.160336
0.605550 0.226972 0.163090
0.653406 0.224151 0.165650
0.696209 0.220728 0.167976
0.760385 0.216939 0.171445
0.000059 0.303757 0.046343
0.000093 0.303524 0.046343
0.000197 0.302376 0.046343
0.072670 0.298563 0.046343
0.147719 0.294057 0.047769
0.204592 0.298831 0.138909
0.262973 0.302693 0.142557
0.322279 0.305949 0.145976
0.382410 0.308424 0.149250
0.441985 0.309749 0.152401
0.500114 0.309790 0.155436
0.555955 0.308583 0.158363
0.608106 0.306078 0.161112
0.655777 0.302240 0.163677
0.698519 0.297574 0.166002
0.762574 0.292408 0.169458
0.000132 0.389768 0.046343
0.000165 0.389547 0.046343
0.000258 0.388730 0.046343
0.026748 0.386467 0.046343
0.130067 0.382135 0.046343
0.206063 0.377614 0.047584
0.265899 0.382334 0.138771
0.325611 0.386537 0.142847
0.385863 0.389926 0.146523
0.445396 0.391710 0.149982
0.503417 0.391897 0.153218
0.559061 0.390485 0.156267
0.611129 0.387475 0.159102
0.658740 0.382659 0.161697
0.701150 0.376740 0.164062
0.765075 0.370239 0.167526
0.000223 0.479344 0.046343
0.000251 0.479089 0.046343
0.000333 0.478527 0.046343
0.000513 0.477188 0.046343
0.086331 0.473841 0.046343
0.188568 0.469390 0.046343
0.265013 0.464725 0.047256
0.329029 0.468793 0.119178
0.389088 0.473070 0.142997
0.448949 0.475253 0.146870
0.506940 0.475584 0.150467
0.562605 0.473846 0.153790
0.614466 0.470258 0.156809
0.661999 0.464539 0.159553
0.704282 0.457328 0.162049
0.767953 0.449547 0.165571
0.000325 0.570435 0.046343
0.000351 0.570298 0.046343
0.000423 0.569866 0.046343
0.000585 0.568784 0.046343
0.000869 0.566998 0.046343
0.150900 0.562691 0.046343
0.247298 0.558114 0.046343
0.325011 0.553406 0.046944
0.394505 0.555781 0.052517
0.452036 0.559055 0.143115
0.510385 0.559421 0.147072
0.566226 0.557504 0.150764
0.618054 0.553242 0.154106
0.665329 0.546599 0.157100
0.707708 0.538311 0.159759
0.771273 0.529254 0.163498
0.000438 0.661298 0.046343
0.000462 0.661255 0.046343
0.000525 0.660884 0.046343
0.000672 0.660018 0.046343
0.000918 0.658637 0.046343
0.074756 0.655626 0.046343
0.213602 0.651329 0.046343
0.307451 0.646536 0.046343
0.386113 0.641754 0.046745
0.456383 0.642052 0.052520
0.513293 0.642741 0.143231
0.569413 0.640446 0.147214
0.621545 0.635704 0.150900
0.668977 0.628191 0.154222
0.711034 0.618768 0.157142
0.774670 0.608622 0.161152
0.000557 0.748952 0.046343
0.000579 0.748842 0.046343
0.000634 0.748486 0.046343
0.000767 0.747699 0.046343
0.000997 0.746621 0.046343
0.001339 0.744895 0.046343
0.157396 0.740841 0.046343
0.276478 0.736349 0.046343
0.368318 0.731481 0.046343
0.447300 0.726764 0.046762
0.516584 0.724195 0.052634
0.572527 0.721837 0.135343
0.624528 0.716324 0.147319
0.672175 0.708174 0.150939
0.714514 0.697792 0.154153
0.778024 0.686631 0.158543
0.000676 0.830866 0.046343
0.000698 0.830866 0.046343
0.000752 0.830571 0.046343
0.000875 0.830061 0.046343
0.001075 0.828932 0.046343
0.001389 0.827432 0.046343
0.037094 0.824973 0.046343
0.230697 0.820450 0.046343
0.339499 0.815850 0.046343
0.429052 0.810881 0.046343
0.507484 0.806141 0.047025
0.574535 0.800636 0.052909
0.629344 0.793816 0.089648
0.675073 0.785568 0.147420
0.717541 0.774489 0.150870
0.781217 0.762514 0.155606
0.000791 0.905640 0.046343
0.000813 0.905513 0.046343
0.000867 0.905478 0.046343
0.000978 0.904818 0.046343
0.001166 0.904059 0.046343
0.001445 0.902583 0.046343
0.001845 0.900875 0.046343
0.161523 0.897059 0.046343
0.300321 0.892778 0.046343
0.401910 0.887928 0.046343
0.488869 0.882836 0.046343
0.565951 0.878101 0.047584
0.628863 0.869481 0.053333
0.680818 0.858565 0.058227
0.720171 0.847964 0.147466
0.783943 0.835406 0.152489
0.000901 0.963018 0.046343
0.000917 0.962978 0.046343
0.000970 0.962797 0.046343
0.001071 0.962502 0.046343
0.001244 0.961826 0.046343
0.001508 0.961066 0.046343
0.001872 0.959882 0.046343
0.002361 0.958308 0.046343
0.248758 0.954506 0.046343
0.366926 0.950919 0.046343
0.462696 0.947095 0.046343
0.546694 0.942934 0.046343
0.621262 0.938995 0.048388
0.678610 0.928415 0.053901
0.725243 0.915967 0.058520
0.786377 0.904070 0.149320
0.001005 0.996064 0.046343
0.001022 0.996091 0.046343
0.001064 0.996052 0.046343
0.001164 0.995897 0.046343
0.001324 0.995703 0.046343
0.001563 0.995283 0.046343
0.001897 0.994741 0.046343
0.002345 0.993984 0.046343
0.175065 0.992276 0.046343
0.323288 0.990342 0.046343
0.429485 0.988098 0.046343
0.520143 0.985483 0.046343
0.600410 0.982896 0.046343
0.671960 0.980343 0.049278
0.723379 0.970950 0.054450
0.792246 0.959976 0.060985
0.001074 1.023347 0.046343
0.001089 1.023298 0.046343
0.001135 1.023125 0.046343
0.001224 1.022755 0.046343
0.001375 1.022122 0.046343
0.001595 1.021236 0.046343
0.001908 1.019993 0.046343
0.002322 1.018368 0.046343
0.060089 1.015571 0.046343
0.278114 1.011208 0.046343
0.396033 1.006921 0.046343
0.492349 1.002287 0.046343
0.576753 0.999804 0.046343
0.652355 0.998980 0.046343
0.718794 0.997905 0.050936
0.791767 0.995112 0.057481
0.001079 1.026104 0.046343
0.001094 1.026057 0.046343
0.001139 1.025878 0.046343
0.001224 1.025536 0.046343
0.001371 1.024918 0.046343
0.001584 1.024059 0.046343
0.001884 1.022865 0.046343
0.002282 1.021291 0.046343
0.002797 1.019316 0.046343
0.256838 1.014521 0.046343
0.379043 1.010342 0.046343
0.476546 1.005820 0.046343
0.561779 1.001090 0.046343
0.637985 0.999714 0.046343
0.705435 0.998855 0.049604
0.791611 0.997714 0.057034
0.003866 0.020906 0.229435
0.021425 0.020906 0.220485
0.047256 0.020906 0.214342
0.083465 0.020906 0.224489
0.135695 0.020998 0.233611
0.192142 0.020906 0.240394
0.250110 0.020906 0.246265
0.309453 0.020906 0.251561
0.369610 0.020906 0.256416
0.429449 0.020906 0.260533
0.487735 0.020906 0.263806
0.543837 0.020906 0.266302
0.596274 0.020906 0.267907
0.644343 0.020906 0.268607
0.687284 0.020906 0.268564
0.751870 0.020906 0.269428
0.003122 0.074138 0.239552
0.018202 0.073191 0.229667
0.045699 0.076603 0.219252
0.083111 0.079367 0.223527
0.136476 0.079360 0.230354
0.193331 0.078924 0.236104
0.251406 0.078388 0.241315
0.310797 0.077819 0.246129
0.371055 0.077228 0.250624
0.430951 0.076631 0.254514
0.489276 0.076048 0.257700
0.545364 0.075468 0.260264
0.597810 0.074921 0.262007
0.645787 0.074418 0.262949
0.688805 0.073950 0.263224
0.753214 0.073271 0.264448
0.002069 0.138994 0.251035
0.002099 0.138768 0.251028
0.043115 0.142481 0.230738
0.082773 0.145265 0.220575
0.137677 0.144879 0.223605
0.195015 0.144319 0.226556
0.253365 0.143751 0.229526
0.312895 0.143164 0.232537
0.373207 0.142572 0.235581
0.433113 0.141977 0.238623
0.491453 0.141388 0.241540
0.547570 0.140835 0.244382
0.600011 0.140314 0.247026
0.647906 0.139840 0.249419
0.690891 0.139399 0.251571
0.755197 0.138752 0.254802
0.000102 0.220080 0.234178
0.000081 0.220204 0.230992
0.015058 0.221124 0.217961
0.075616 0.220116 0.209144
0.140255 0.219415 0.221997
0.197552 0.221057 0.225122
0.255822 0.222461 0.227993
0.315281 0.223574 0.230869
0.375603 0.224363 0.233761
0.435450 0.224589 0.236670
0.493741 0.224225 0.239525
0.549751 0.223253 0.242282
0.602113 0.221719 0.244893
0.649914 0.219571 0.247299
0.692793 0.217051 0.249473
0.757198 0.214223 0.252714
0.000000 0.303610 0.198305
0.000000 0.303611 0.192787
0.000000 0.303516 0.175630
0.054565 0.301846 0.173383
0.137268 0.297314 0.199206
0.200489 0.298809 0.222217
0.258932 0.301660 0.225627
0.318269 0.304054 0.228826
0.378432 0.305963 0.231847
0.438191 0.306825 0.234800
0.496445 0.306548 0.237664
0.552343 0.305361 0.240423
0.604561 0.303029 0.243019
0.652379 0.299569 0.245418
0.695080 0.295484 0.247580
0.759187 0.290949 0.250827
0.000000 0.390410 0.081769
0.000010 0.390342 0.046343
0.000052 0.389769 0.046343
0.000218 0.388210 0.046343
0.118058 0.384221 0.096009
0.197734 0.380242 0.180843
0.261826 0.382730 0.221692
0.321621 0.386143 0.225884
0.381847 0.388840 0.229326
0.441486 0.390286 0.232561
0.499571 0.390206 0.235581
0.555432 0.388728 0.238436
0.607426 0.385697 0.241101
0.655164 0.381125 0.243550
0.697803 0.375593 0.245727
0.761676 0.369508 0.249000
0.000057 0.479978 0.046343
0.000071 0.479825 0.046343
0.000145 0.479374 0.046343
0.000299 0.478107 0.046343
0.070420 0.475092 0.046343
0.181948 0.470316 0.046343
0.259315 0.466490 0.135744
0.324344 0.469632 0.214556
0.385065 0.472962 0.225997
0.444881 0.474719 0.229632
0.503027 0.474840 0.232983
0.558813 0.473031 0.236097
0.610817 0.469372 0.238931
0.658177 0.463706 0.241501
0.700627 0.456764 0.243810
0.764440 0.449370 0.247154
0.000160 0.571078 0.046343
0.000177 0.570935 0.046343
0.000256 0.570501 0.046343
0.000394 0.569505 0.046343
0.000676 0.567741 0.046343
0.140737 0.563655 0.046343
0.242682 0.558862 0.046343
0.323454 0.553786 0.046797
0.387706 0.557457 0.197394
0.448067 0.559391 0.226096
0.506457 0.559402 0.229802
0.562232 0.557339 0.233253
0.614242 0.553002 0.236361
0.661680 0.546413 0.239191
0.703993 0.538331 0.241660
0.767651 0.529382 0.245169
0.000275 0.661924 0.046343
0.000290 0.661820 0.046343
0.000373 0.661461 0.046343
0.000503 0.660552 0.046343
0.000750 0.659218 0.046343
0.055994 0.656374 0.046343
0.206740 0.652035 0.046343
0.303976 0.647093 0.046343
0.384859 0.642052 0.046599
0.451159 0.643291 0.164277
0.509368 0.643247 0.226187
0.565454 0.640853 0.229918
0.617616 0.635922 0.233361
0.665058 0.628384 0.236460
0.707367 0.619065 0.239210
0.770831 0.609116 0.242971
0.000399 0.749469 0.046343
0.000421 0.749327 0.046343
0.000496 0.748988 0.046343
0.000620 0.748252 0.046343
0.000842 0.747118 0.046343
0.001183 0.745393 0.046343
0.146922 0.741495 0.046343
0.271469 0.736983 0.046343
0.365561 0.731946 0.046343
0.446148 0.726952 0.046684
0.516307 0.724015 0.052627
0.568277 0.722522 0.223181
0.620639 0.717041 0.229972
0.668222 0.708740 0.233360
0.710618 0.698419 0.236369
0.774167 0.687282 0.240479
0.000530 0.831288 0.046343
0.000550 0.831433 0.046343
0.000620 0.830910 0.046343
0.000738 0.830355 0.046343
0.000935 0.829351 0.046343
0.001242 0.828005 0.046343
0.001682 0.825945 0.046343
0.224059 0.820943 0.046343
0.335676 0.816290 0.046343
0.427073 0.811168 0.046343
0.506602 0.806152 0.046949
0.574281 0.800426 0.052900
0.623541 0.795448 0.214258
0.671010 0.786398 0.230053
0.713551 0.775364 0.233279
0.777256 0.763337 0.237710
0.000655 0.906181 0.046343
0.000674 0.906026 0.046343
0.000742 0.905681 0.046343
0.000852 0.905135 0.046343
0.001034 0.904374 0.046343
0.001315 0.903212 0.046343
0.001712 0.901218 0.046343
0.151033 0.897579 0.046343
0.295505 0.893250 0.046343
0.399077 0.888255 0.046343
0.487340 0.883298 0.046343
0.565285 0.878487 0.047515
0.628566 0.869397 0.053313
0.674287 0.860538 0.201360
0.716075 0.849012 0.230091
0.779959 0.836415 0.234762
0.000770 0.963270 0.046343
0.000788 0.963287 0.046343
0.000856 0.962950 0.046343
0.000954 0.962679 0.046343
0.001124 0.962148 0.046343
0.001382 0.961239 0.046343
0.001745 0.960011 0.046343
0.002231 0.958509 0.046343
0.242750 0.954804 0.046343
0.363514 0.951258 0.046343
0.460430 0.947218 0.046343
0.545346 0.943226 0.046343
0.620589 0.939215 0.048332
0.678436 0.928321 0.053885
0.719665 0.917422 0.184610
0.782453 0.905152 0.231824
0.000884 0.996342 0.046343
0.000898 0.996327 0.046343
0.000956 0.996085 0.046343
0.001050 0.995957 0.046343
0.001208 0.995665 0.046343
0.001440 0.995381 0.046343
0.001775 0.994853 0.046343
0.002221 0.994191 0.046343
0.165884 0.992573 0.046343
0.319009 0.990514 0.046343
0.426843 0.988336 0.046343
0.518297 0.985795 0.046343
0.599291 0.983045 0.046343
0.671521 0.980452 0.049231
0.722963 0.970735 0.054438
0.785181 0.961612 0.215305
0.000963 1.023624 0.046343
0.000978 1.023573 0.046343
0.001031 1.023388 0.046343
0.001117 1.023000 0.046343
0.001261 1.022418 0.046343
0.001484 1.021507 0.046343
0.001791 1.020273 0.046343
0.002204 1.018635 0.046343
0.038092 1.016086 0.046343
0.273060 1.011574 0.046343
0.393017 1.007268 0.046343
0.490309 1.002592 0.046343
0.575443 0.999831 0.046343
0.651408 0.998988 0.046343
0.718374 0.997955 0.050895
0.791567 0.995136 0.057466
0.000973 1.026375 0.046343
0.000986 1.026330 0.046343
0.001035 1.026136 0.046343
0.001119 1.025773 0.046343
0.001257 1.025186 0.046343
0.001473 1.024345 0.046343
0.001769 1.023162 0.046343
0.002168 1.021601 0.046343
0.002680 1.019616 0.046343
0.251567 1.014900 0.046343
0.375926 1.010688 0.046343
0.474476 1.006123 0.046343
0.560451 1.001348 0.046343
0.637123 0.999720 0.046343
0.704870 0.998921 0.049552
0.791608 0.997761 0.057022
0.007770 0.020906 0.313286
0.028797 0.020906 0.304731
0.060800 0.020906 0.295990
0.097652 0.020906 0.291455
0.141751 0.020906 0.300525
0.192348 0.021095 0.312145
0.248570 0.020998 0.320120
0.307225 0.020906 0.326686
0.366976 0.020906 0.332366
0.426676 0.020906 0.336983
0.484783 0.020906 0.340469
0.540832 0.020906 0.342890
0.593273 0.020906 0.344165
0.641326 0.020906 0.344200
0.684384 0.020906 0.343309
0.748855 0.020906 0.343298
0.006553 0.071101 0.322295
0.023794 0.067704 0.313615
0.057466 0.070858 0.302798
0.095334 0.074827 0.295776
0.140728 0.078757 0.301194
0.192729 0.079549 0.310524
0.249391 0.079357 0.317553
0.308146 0.078924 0.323633
0.368161 0.078401 0.329031
0.427886 0.077833 0.333366
0.486167 0.077250 0.336814
0.542250 0.076681 0.339181
0.594729 0.076112 0.340443
0.642698 0.075603 0.340618
0.685771 0.075124 0.339893
0.750208 0.074415 0.339997
0.005989 0.137296 0.335451
0.014175 0.137116 0.330218
0.053021 0.137665 0.314352
0.094253 0.141289 0.301863
0.139889 0.144744 0.300637
0.192987 0.145308 0.307027
0.250438 0.144958 0.312352
0.309614 0.144469 0.317237
0.369790 0.143902 0.321684
0.429624 0.143315 0.325517
0.487853 0.142713 0.328611
0.544004 0.142147 0.331052
0.596465 0.141613 0.332607
0.644545 0.141097 0.333386
0.687537 0.140632 0.333402
0.751798 0.139956 0.334462
0.003642 0.209434 0.344211
0.003661 0.209289 0.344201
0.034920 0.212084 0.330517
0.087376 0.214385 0.315952
0.140051 0.217165 0.300623
0.193762 0.217789 0.302379
0.252010 0.217272 0.305256
0.311503 0.216658 0.308150
0.371823 0.216085 0.311155
0.431797 0.215462 0.314023
0.490126 0.214883 0.316893
0.546187 0.214350 0.319591
0.598575 0.213817 0.322081
0.646540 0.213356 0.324438
0.689458 0.212901 0.326496
0.753791 0.212267 0.329601
0.000415 0.298383 0.326044
0.000387 0.298471 0.324502
0.000308 0.298699 0.319489
0.047870 0.300595 0.303009
0.121183 0.300633 0.291611
0.196355 0.298389 0.300409
0.254778 0.299637 0.303813
0.314235 0.300705 0.306749
0.374490 0.301510 0.309614
0.434366 0.301703 0.312442
0.492686 0.301231 0.315176
0.548604 0.300148 0.317798
0.600998 0.298391 0.320311
0.648942 0.296000 0.322569
0.691689 0.293166 0.324647
0.755832 0.290039 0.327739
0.000000 0.388546 0.294216
0.000000 0.388600 0.291598
0.000000 0.388772 0.283555
0.000000 0.388713 0.270019
0.092311 0.387983 0.261336
0.185156 0.383629 0.271894
0.257525 0.382732 0.298530
0.317471 0.384914 0.304089
0.377770 0.386729 0.307363
0.437515 0.387399 0.310459
0.495672 0.387064 0.313313
0.551587 0.385553 0.315974
0.603747 0.382903 0.318530
0.651569 0.378967 0.320869
0.694261 0.374265 0.322994
0.758280 0.369170 0.326093
0.000000 0.479862 0.246257
0.000000 0.479864 0.242331
0.000000 0.479769 0.229700
0.000009 0.479433 0.207888
0.036582 0.478108 0.204625
0.160988 0.474468 0.220751
0.248465 0.469681 0.256107
0.319744 0.470100 0.293441
0.380999 0.472290 0.304139
0.440969 0.473464 0.307645
0.499043 0.473080 0.310905
0.554906 0.471185 0.313839
0.606894 0.467728 0.316506
0.654615 0.462539 0.318922
0.697037 0.456178 0.321124
0.761068 0.449394 0.324328
0.000000 0.571668 0.118149
0.000000 0.571671 0.088102
0.000017 0.571370 0.046343
0.000097 0.570671 0.046343
0.000283 0.569209 0.046343
0.118290 0.565687 0.046343
0.228457 0.561800 0.155537
0.311502 0.557441 0.231292
