src/luts/fairytale/10.cube
LUT_3D_SIZE 6
0.000000 0.020906 0.046343
0.085176 0.020906 0.055763
0.256443 0.020906 0.066197
0.436187 0.020906 0.077033
0.602989 0.020906 0.086967
0.758159 0.020906 0.096116
0.000070 0.222512 0.046343
0.090777 0.215480 0.047792
0.263280 0.226146 0.059576
0.442216 0.231199 0.070013
0.608618 0.228096 0.079770
0.763229 0.217606 0.089079
0.000273 0.479098 0.046343
0.000566 0.476970 0.046343
0.265344 0.464578 0.047296
0.452628 0.474549 0.061653
0.617882 0.469877 0.072894
0.771258 0.449083 0.082677
0.000596 0.748857 0.046343
0.000803 0.747621 0.046343
0.159879 0.740767 0.046343
0.447547 0.726708 0.046779
0.628257 0.715366 0.062216
0.781404 0.685741 0.074927
0.000932 0.963016 0.046343
0.001098 0.962359 0.046343
0.001901 0.959770 0.046343
0.367763 0.950840 0.046343
0.621305 0.938964 0.048400
0.790228 0.903108 0.064523
0.001109 1.026038 0.046343
0.001246 1.025464 0.046343
0.001910 1.022810 0.046343
0.258257 1.014441 0.046343
0.562100 1.001040 0.046343
0.791663 0.997704 0.057038
0.007770 0.020906 0.313286
0.097652 0.020906 0.291455
0.248570 0.020998 0.320120
0.426676 0.020906 0.336983
0.593273 0.020906 0.344165
0.748855 0.020906 0.343298
0.003642 0.209434 0.344211
0.087376 0.214385 0.315952
0.252010 0.217272 0.305256
0.431797 0.215462 0.314023
0.598575 0.213817 0.322081
0.753791 0.212267 0.329601
0.000000 0.479862 0.246257
0.000009 0.479433 0.207888
0.248465 0.469681 0.256107
0.440969 0.473464 0.307645
0.606894 0.467728 0.316506
0.761068 0.449394 0.324328
0.000168 0.750097 0.046343
0.000350 0.749100 0.046343
0.124834 0.742794 0.046343
0.443818 0.727504 0.046343
0.616677 0.717374 0.307890
0.770282 0.688086 0.317935
0.000552 0.963687 0.046343
0.000727 0.963151 0.046343
0.001485 0.960568 0.046343
0.356479 0.951966 0.046343
0.619354 0.939457 0.048203
0.778492 0.906477 0.309609
0.000770 1.026829 0.046343
0.000911 1.026275 0.046343
0.001541 1.023697 0.046343
0.241598 1.015630 0.046343
0.557477 1.001895 0.046343
0.784085 0.998437 0.216376
0.023596 0.020906 0.528816
0.144184 0.020906 0.502991
0.273995 0.020906 0.490171
0.425221 0.021272 0.520073
0.587298 0.020906 0.529804
0.741608 0.020906 0.525539
0.018709 0.206929 0.560669
0.123056 0.201037 0.530976
0.268761 0.212630 0.501137
0.426314 0.218087 0.515715
0.590660 0.217008 0.522388
0.745791 0.215339 0.519024
0.004609 0.462136 0.568946
0.004525 0.461739 0.567941
0.231740 0.469207 0.525812
0.429676 0.467984 0.508650
0.596478 0.466329 0.516008
0.751611 0.464859 0.522851
0.000000 0.747786 0.473805
0.000000 0.747998 0.465017
0.000000 0.747529 0.437994
0.403707 0.738567 0.444597
0.605705 0.719472 0.508882
0.760007 0.696931 0.517923
0.000000 0.964632 0.298529
0.000000 0.964478 0.279777
0.000097 0.963489 0.250542
0.307257 0.957629 0.288213
0.592105 0.946465 0.415057
0.767906 0.911832 0.510320
0.000041 1.028538 0.046343
0.000080 1.028201 0.046343
0.000364 1.026280 0.046343
0.189936 1.019786 0.046343
0.531699 1.008429 0.282706
0.768881 0.999592 0.469006
0.042485 0.020906 0.704224
0.176767 0.020906 0.679110
0.318409 0.020906 0.656154
0.449567 0.020906 0.655088
0.589245 0.021317 0.674290
0.738198 0.020972 0.669781
0.034902 0.202450 0.732906
0.148740 0.189057 0.706167
0.306281 0.200007 0.674516
0.444876 0.213440 0.662185
0.590007 0.218232 0.672263
0.741021 0.217502 0.665761
0.027229 0.453811 0.776157
0.027699 0.448060 0.775401
0.283788 0.451925 0.716534
0.444657 0.463436 0.674169
0.590955 0.468842 0.670756
0.745021 0.467441 0.666042
0.002996 0.733395 0.730269
0.002909 0.733422 0.728940
0.042690 0.735121 0.714833
0.377789 0.740557 0.672657
0.595668 0.731723 0.669205
0.751800 0.729433 0.680353
0.000009 0.961062 0.636693
0.000000 0.961095 0.633067
0.000000 0.960900 0.622248
0.272379 0.960753 0.605207
0.555877 0.953770 0.606178
0.758590 0.924495 0.671819
0.000000 1.026621 0.555825
0.000000 1.026550 0.552459
0.000000 1.025966 0.549654
0.183071 1.024349 0.562611
0.498044 1.017141 0.564004
0.752772 1.001430 0.634489
0.062497 0.020906 0.851844
0.198298 0.020906 0.828277
0.344982 0.020906 0.803078
0.480407 0.020906 0.787995
0.610703 0.020906 0.796427
0.740771 0.021455 0.797212
0.052784 0.189911 0.877971
0.169564 0.177321 0.853914
0.330441 0.187371 0.823162
0.471173 0.200293 0.801544
0.607023 0.214660 0.801425
0.741752 0.218305 0.795829
0.047546 0.438527 0.920784
0.047321 0.432579 0.918991
0.310686 0.442167 0.862610
0.465803 0.453420 0.824896
0.604778 0.465659 0.807013
0.742889 0.468917 0.796175
0.024378 0.702499 0.938246
0.024738 0.700104 0.938601
0.185538 0.704944 0.910208
0.426009 0.722529 0.866890
0.603280 0.726987 0.830395
0.745087 0.732004 0.802562
0.002858 0.950722 0.869796
0.002800 0.950697 0.868862
0.002479 0.950531 0.863429
0.282709 0.955072 0.828048
0.529189 0.956041 0.796831
0.742001 0.947865 0.795517
0.000370 1.018709 0.796126
0.000353 1.018742 0.794360
0.000286 1.018567 0.789906
0.182026 1.020107 0.776476
0.494848 1.019397 0.770379
0.724523 1.009418 0.770223
0.083932 0.020906 0.974555
0.210894 0.020906 0.959434
0.358204 0.020906 0.938625
0.493477 0.020906 0.919445
0.621464 0.020906 0.911182
0.761084 0.020906 0.925590
0.072873 0.168810 0.988104
0.187375 0.165046 0.976130
0.344134 0.174102 0.955703
0.482597 0.185050 0.935122
0.613790 0.200006 0.922235
0.758156 0.215285 0.929099
0.066623 0.409662 1.000967
0.104286 0.408640 0.998974
0.332853 0.433301 0.980651
0.476623 0.443251 0.958340
0.609821 0.454901 0.937012
0.755712 0.466409 0.932587
0.054957 0.654610 1.047221
0.055139 0.652932 1.046811
0.266833 0.669182 1.000034
0.466490 0.709417 0.986894
0.613783 0.716791 0.964076
0.755928 0.729353 0.937453
0.023345 0.896675 1.035954
0.023438 0.895630 1.035934
0.023165 0.897093 1.034529
0.357172 0.920312 0.993458
0.557273 0.945657 0.973518
0.730377 0.947813 0.951511
0.008127 1.000057 0.998324
0.008060 1.000023 0.998112
0.007686 1.000034 0.997347
0.230244 1.005882 0.982895
0.507014 1.011157 0.958777
0.701002 1.012300 0.934094
