src/luts/fairytale/11.cube
LUT_3D_SIZE 16
0.012369 0.000000 0.080339
0.110128 0.000741 0.090875
0.207021 0.003025 0.102513
0.304737 0.006811 0.114525
0.400004 0.011640 0.125937
0.489757 0.017287 0.136809
0.570113 0.023233 0.146656
0.639770 0.029050 0.155248
0.698730 0.034467 0.162598
0.747667 0.039261 0.168687
0.787659 0.043422 0.173734
0.821146 0.047035 0.177940
0.849678 0.050252 0.181567
0.875266 0.053208 0.184820
1.009710 0.077578 0.209121
1.043653 0.082656 0.213744
0.013290 0.016809 0.093251
0.112116 0.016628 0.081544
0.208626 0.018858 0.102762
0.306912 0.023271 0.115830
0.401837 0.027986 0.127149
0.491293 0.033463 0.137904
0.571474 0.039193 0.147631
0.641079 0.044709 0.156171
0.699896 0.049783 0.163412
0.748635 0.054146 0.169490
0.788682 0.057749 0.174489
0.821973 0.060706 0.178653
0.850668 0.063099 0.182166
0.876056 0.065146 0.185397
1.010142 0.087836 0.209528
1.044092 0.091931 0.214123
0.016156 0.067026 0.108387
0.097812 0.069841 0.084256
0.212506 0.067218 0.085067
0.311024 0.074438 0.113888
0.405832 0.081267 0.128000
0.495116 0.088368 0.139563
0.575152 0.095047 0.149589
0.644474 0.100934 0.158222
0.703230 0.105733 0.165497
0.751866 0.109242 0.171555
0.791654 0.111375 0.176480
0.824971 0.112277 0.180583
0.853220 0.112111 0.184047
0.878616 0.111244 0.187153
1.012084 0.127543 0.211009
1.045802 0.127843 0.215370
0.020377 0.151596 0.126039
0.084267 0.158460 0.100822
0.210443 0.153443 0.087822
0.314352 0.151690 0.089211
0.410104 0.160602 0.117612
0.499476 0.168863 0.136563
0.579649 0.175965 0.149024
0.648919 0.181458 0.158785
0.707607 0.185352 0.166682
0.756163 0.187593 0.173099
0.795792 0.187955 0.178242
0.829055 0.186571 0.182458
0.857039 0.183715 0.186032
0.882161 0.179538 0.189144
1.014961 0.187731 0.213070
1.048544 0.183718 0.217121
0.023400 0.244515 0.144023
0.071709 0.251868 0.119594
0.187463 0.253833 0.093589
0.317609 0.244509 0.090837
0.413140 0.244216 0.092225
0.503568 0.253641 0.094227
0.584122 0.261784 0.137616
0.653614 0.267574 0.152886
0.712285 0.271237 0.163423
0.760831 0.272811 0.171344
0.800331 0.271977 0.177470
0.833348 0.268770 0.182458
0.861412 0.263437 0.186541
0.886348 0.256393 0.190068
1.018537 0.258665 0.214885
1.051859 0.250392 0.218724
0.026565 0.342607 0.163225
0.056810 0.349493 0.140588
0.170686 0.355503 0.109678
0.293453 0.351592 0.093292
0.417971 0.341642 0.093941
0.506261 0.341480 0.095176
0.587591 0.350214 0.097014
0.657645 0.356572 0.113285
0.716683 0.360437 0.145876
0.765584 0.361575 0.160095
0.805039 0.359485 0.169781
0.838051 0.354917 0.177103
0.866137 0.347376 0.182974
0.890739 0.337556 0.187867
1.022367 0.335214 0.215611
1.055639 0.323047 0.219352
0.029806 0.443717 0.183195
0.035811 0.449167 0.164159
0.156466 0.458360 0.129154
0.270822 0.459233 0.104205
0.394051 0.452230 0.096456
0.508746 0.442551 0.097070
0.590038 0.441682 0.098002
0.660855 0.448157 0.099541
0.720316 0.451949 0.100876
0.769254 0.452733 0.101909
0.809422 0.449990 0.138036
0.842471 0.443764 0.157363
0.870351 0.433865 0.169514
0.895193 0.421427 0.178604
1.026748 0.415160 0.213834
1.059642 0.399371 0.217809
0.033073 0.545998 0.203787
0.033076 0.548135 0.194826
0.142227 0.561342 0.150366
0.252049 0.565309 0.121669
0.366884 0.562632 0.102309
0.482697 0.554756 0.099601
0.586489 0.546027 0.100157
0.662661 0.543011 0.100756
0.722878 0.546411 0.101867
0.772381 0.546551 0.102917
0.812734 0.542624 0.103766
0.845995 0.534544 0.104398
0.874186 0.522554 0.104850
0.899231 0.507751 0.147974
1.030747 0.497976 0.207138
1.063745 0.478205 0.212213
0.036328 0.648092 0.224529
0.036294 0.648091 0.222156
0.126714 0.663246 0.172640
0.235129 0.669386 0.141643
0.343271 0.670248 0.117567
0.452296 0.665870 0.102816
0.556646 0.658344 0.102676
0.649055 0.650351 0.103158
0.721646 0.645524 0.103590
0.774229 0.643120 0.104114
0.814919 0.637763 0.104767
0.848820 0.627999 0.105366
0.877358 0.613607 0.105860
0.902511 0.595687 0.106241
1.034912 0.582598 0.190274
1.067719 0.559227 0.198843
0.039489 0.747630 0.244943
0.039466 0.747604 0.242995
0.109198 0.762137 0.195543
0.218512 0.770017 0.162734
0.322330 0.772909 0.135907
0.424810 0.771542 0.116284
0.523893 0.767026 0.105116
0.615595 0.760139 0.105599
0.696666 0.753217 0.106011
0.764094 0.747693 0.106385
0.814105 0.737470 0.106528
0.850672 0.723937 0.106628
0.879429 0.706916 0.106872
0.904925 0.685761 0.107159
1.038317 0.668796 0.121538
1.071431 0.641813 0.164576
0.042471 0.841883 0.264551
0.042455 0.841894 0.262862
0.088902 0.855136 0.218664
0.201388 0.864490 0.184042
0.302459 0.869257 0.155521
0.399882 0.870488 0.132955
0.493388 0.868023 0.116999
0.581117 0.863524 0.107911
0.660804 0.857786 0.108326
0.731027 0.852044 0.108682
0.791685 0.846720 0.109003
0.840551 0.827689 0.108910
0.878312 0.803912 0.108634
0.906688 0.778378 0.108384
1.041407 0.756754 0.112091
1.074545 0.725662 0.112075
0.045226 0.927199 0.282783
0.045217 0.927390 0.281278
0.065130 0.937197 0.241765
0.183338 0.945773 0.204910
0.282629 0.950647 0.175328
0.376500 0.952669 0.150927
0.465300 0.952577 0.132154
0.548798 0.950645 0.118915
0.625285 0.947519 0.110596
0.694237 0.943686 0.110804
0.755142 0.939918 0.111118
0.810419 0.935869 0.111402
0.857387 0.910298 0.111044
0.898436 0.877196 0.110554
1.043818 0.846109 0.112999
1.077231 0.811523 0.112961
0.047672 0.982910 0.299082
0.047658 0.982927 0.297766
0.047760 0.987545 0.265077
0.164344 0.992825 0.224699
0.262824 0.995372 0.194390
0.353837 0.996586 0.168843
0.439200 0.996889 0.148259
0.518905 0.996780 0.132579
0.592416 0.996000 0.121396
0.658881 0.994885 0.113963
0.718570 0.993446 0.112981
0.773127 0.991758 0.113255
0.825243 0.990120 0.113523
0.871184 0.969664 0.112945
1.045504 0.934646 0.114090
1.079307 0.898471 0.113880
0.049763 1.013547 0.313117
0.049738 1.013299 0.312017
0.049793 1.018040 0.290938
0.144561 1.030310 0.242988
0.242908 1.036946 0.212099
0.331774 1.041079 0.185876
0.414135 1.043103 0.164173
0.490954 1.043415 0.146845
0.561707 1.042488 0.133609
0.626139 1.040760 0.123978
0.684373 1.037999 0.117242
0.737516 1.035417 0.114817
0.787635 1.032439 0.115086
0.839308 1.028698 0.115346
1.044145 0.994548 0.115899
1.080755 0.972425 0.115235
0.050930 1.045010 0.321041
0.050919 1.045011 0.320033
0.050866 1.045010 0.316016
0.128075 1.060908 0.255010
0.226323 1.067866 0.223875
0.313435 1.072399 0.197488
0.393847 1.074979 0.175266
0.468563 1.075964 0.157056
0.537745 1.075722 0.142723
0.600947 1.074400 0.131796
0.658046 1.072590 0.123774
0.710105 1.070245 0.117983
0.758756 1.067673 0.115913
0.807471 1.064816 0.116171
1.033390 1.044921 0.117680
1.073495 1.019391 0.117285
0.051220 1.052778 0.322994
0.051207 1.052778 0.322101
0.051158 1.052774 0.318385
0.114402 1.067587 0.261024
0.211842 1.074753 0.230052
0.297181 1.079499 0.203878
0.375742 1.082460 0.181569
0.448967 1.083841 0.162999
0.516910 1.083927 0.148069
0.579329 1.083015 0.136416
0.636097 1.081427 0.127644
0.687890 1.079395 0.121150
0.735741 1.077172 0.116378
0.781880 1.074602 0.116284
0.831542 1.071493 0.116539
1.066005 1.053368 0.118196
0.027398 0.000069 0.124064
0.109479 0.001227 0.124653
0.206775 0.003378 0.129355
0.304820 0.007140 0.136503
0.400061 0.011891 0.144251
0.489812 0.017463 0.152483
0.570231 0.023339 0.160414
0.639916 0.029143 0.167640
0.698761 0.034563 0.173888
0.747731 0.039364 0.179136
0.787704 0.043531 0.183417
0.821147 0.047143 0.186914
0.849838 0.050356 0.189775
0.875332 0.053303 0.192284
1.009793 0.077682 0.214652
1.043742 0.082773 0.218631
0.025128 0.013558 0.147166
0.111218 0.016334 0.124616
0.212976 0.017594 0.127875
0.320148 0.014644 0.125466
0.412366 0.015859 0.130221
0.498156 0.020306 0.139121
0.575876 0.025768 0.148225
0.643919 0.031363 0.156496
0.701638 0.036655 0.163677
0.749800 0.041444 0.169739
0.789357 0.045628 0.174771
0.822661 0.049322 0.179012
0.851082 0.052583 0.182640
0.876809 0.055648 0.185949
1.010102 0.088254 0.215278
1.044156 0.093161 0.219665
0.015732 0.062269 0.156455
0.070595 0.071034 0.110196
0.213361 0.066904 0.104184
0.317857 0.072010 0.120014
0.412924 0.076121 0.130862
0.500691 0.081256 0.141234
0.579143 0.086717 0.150695
0.647372 0.091855 0.159043
0.705337 0.096354 0.166185
0.753128 0.099853 0.172167
0.792720 0.102182 0.177077
0.825872 0.103511 0.181262
0.853927 0.103858 0.184785
0.879404 0.103594 0.187915
1.012022 0.127855 0.216773
1.045867 0.128876 0.220941
0.020438 0.147311 0.167377
0.033993 0.157449 0.115199
0.200884 0.155891 0.087814
0.315323 0.152083 0.089225
0.413295 0.159356 0.121096
0.502902 0.166345 0.138495
0.582525 0.172265 0.150455
0.651259 0.177074 0.159926
0.709245 0.180536 0.167663
0.757282 0.182432 0.174001
0.796824 0.182785 0.179136
0.829660 0.181463 0.183401
0.857920 0.178717 0.186952
0.882998 0.174850 0.190107
1.014915 0.188051 0.218820
1.048588 0.184516 0.222732
0.023437 0.242570 0.163841
0.023440 0.246179 0.143204
0.174523 0.255704 0.095674
0.314101 0.245673 0.090841
0.413817 0.244488 0.092240
0.504989 0.253077 0.105392
0.585801 0.260301 0.139800
0.655261 0.265502 0.154512
0.713655 0.268748 0.164779
0.761937 0.269930 0.172572
0.801342 0.268868 0.178668
0.834261 0.265665 0.183598
0.862237 0.260347 0.187692
0.887052 0.253434 0.191215
1.018484 0.258876 0.220730
1.051921 0.250941 0.224381
0.026580 0.342569 0.164277
0.026591 0.343690 0.162605
0.157322 0.356354 0.112954
0.287295 0.352977 0.093279
0.416419 0.342229 0.093943
0.506644 0.341593 0.095182
0.588581 0.349640 0.097027
0.658710 0.355511 0.121122
0.717831 0.359152 0.148364
0.766268 0.360047 0.162030
0.805683 0.357801 0.171463
0.838730 0.353099 0.178681
0.866656 0.345419 0.184479
0.891466 0.335680 0.189347
1.022551 0.335433 0.221605
1.055671 0.323435 0.225112
0.029817 0.443672 0.184085
0.029824 0.444474 0.182761
0.142942 0.458571 0.133018
0.264056 0.460034 0.105397
0.390691 0.453031 0.096455
0.508001 0.443034 0.097076
0.590234 0.441764 0.098012
0.661303 0.447923 0.099557
0.720919 0.451495 0.100885
0.769794 0.451833 0.101913
0.810043 0.448979 0.142472
0.842865 0.442560 0.160186
0.871128 0.432757 0.171770
0.895833 0.420236 0.180596
1.026734 0.415542 0.220109
1.059673 0.399693 0.223814
0.033081 0.546012 0.204469
0.033088 0.546724 0.203391
0.128421 0.560980 0.154572
0.245275 0.565879 0.123297
0.362960 0.563543 0.102823
0.480877 0.555320 0.099602
0.585964 0.546351 0.100164
0.662860 0.543139 0.100759
0.723204 0.546263 0.101863
0.772944 0.546144 0.102920
0.813094 0.541913 0.103769
0.846476 0.533804 0.104402
0.874760 0.521809 0.104856
0.899883 0.506757 0.152437
1.031052 0.498075 0.214128
1.063782 0.478604 0.218798
0.036334 0.648028 0.225104
0.036338 0.648714 0.224155
0.112511 0.662560 0.177073
0.228459 0.669740 0.143510
0.339337 0.670863 0.118357
0.450003 0.666318 0.103056
0.555524 0.658697 0.102671
0.648739 0.650648 0.103161
0.721838 0.645570 0.103590
0.774606 0.643084 0.104118
0.815299 0.637505 0.104774
0.849256 0.627604 0.105372
0.877920 0.613133 0.105866
0.903021 0.595214 0.106250
1.034919 0.582754 0.199200
1.067776 0.559477 0.206767
0.039496 0.747663 0.245460
0.039495 0.748123 0.244598
0.094366 0.761066 0.200215
0.211936 0.769935 0.164701
0.318420 0.773364 0.136887
0.422394 0.772234 0.116707
0.522409 0.767395 0.105122
0.614994 0.760431 0.105601
0.696456 0.753512 0.106017
0.764095 0.747633 0.106387
0.814271 0.737195 0.106524
0.850986 0.723841 0.106624
0.880024 0.706665 0.106873
0.905274 0.685583 0.107167
1.038475 0.669015 0.157916
1.071498 0.641986 0.178438
0.042480 0.841902 0.264933
0.042485 0.842509 0.264233
0.073041 0.854000 0.223665
0.194972 0.864297 0.186031
0.298616 0.869489 0.156598
0.397604 0.870449 0.133466
0.491902 0.868234 0.117244
0.580237 0.863950 0.107911
0.660371 0.858128 0.108328
0.730748 0.852050 0.108687
0.791672 0.846769 0.109006
0.840812 0.827659 0.108912
0.878498 0.803688 0.108632
0.906872 0.778022 0.108384
1.041408 0.756795 0.112097
1.074546 0.725762 0.112081
0.045231 0.927164 0.283152
0.045240 0.927578 0.282456
0.047160 0.936069 0.247432
0.177175 0.945761 0.206923
0.279106 0.950861 0.176430
0.374197 0.952906 0.151514
0.463885 0.952910 0.132472
0.547757 0.950793 0.119088
0.624835 0.947677 0.110657
0.693871 0.943919 0.110807
0.755048 0.939925 0.111118
0.810494 0.935798 0.111403
0.857388 0.910225 0.111043
0.898465 0.877297 0.110559
1.043819 0.846212 0.113011
1.077236 0.811506 0.112976
0.047678 0.982955 0.299361
0.047674 0.983037 0.298700
0.047742 0.986658 0.272471
0.158383 0.992742 0.226672
0.259477 0.995351 0.195466
0.351685 0.996692 0.169488
0.437733 0.997005 0.148634
0.517987 0.996793 0.132792
0.591726 0.996074 0.121508
0.658524 0.994863 0.114024
0.718344 0.993428 0.112981
0.772982 0.991890 0.113260
0.825212 0.990138 0.113524
0.871470 0.969604 0.112950
1.045501 0.934558 0.114089
1.079306 0.898429 0.113881
0.049764 1.013529 0.313375
0.049761 1.013608 0.312759
0.049709 1.013661 0.308230
0.138949 1.030282 0.244842
0.239803 1.036976 0.213123
0.329768 1.041138 0.186489
0.412938 1.043201 0.164510
0.490124 1.043618 0.147026
0.561119 1.042521 0.133708
0.625861 1.040775 0.124030
0.684131 1.038004 0.117260
0.737269 1.035482 0.114821
0.787518 1.032353 0.115080
0.839350 1.028850 0.115355
1.044148 0.994452 0.115893
1.080753 0.972337 0.115234
0.050933 1.045005 0.321284
0.050925 1.045055 0.320624
0.050873 1.045053 0.316574
0.122918 1.060554 0.256742
0.223465 1.067715 0.224794
0.311660 1.072320 0.198064
0.392640 1.075107 0.175622
0.467803 1.076073 0.157274
0.537138 1.075713 0.142826
0.600550 1.074528 0.131863
0.657812 1.072523 0.123801
0.709854 1.070274 0.117992
0.758624 1.067759 0.115915
0.807478 1.064751 0.116169
1.033392 1.044917 0.117679
1.073497 1.019456 0.117288
0.051223 1.052775 0.323179
0.051217 1.052777 0.322629
0.051171 1.052774 0.318848
0.109866 1.067231 0.262545
0.209470 1.074606 0.230853
0.295703 1.079427 0.204324
0.374737 1.082405 0.181865
0.448183 1.083848 0.163187
0.516366 1.083944 0.148173
0.579048 1.083002 0.136477
0.635938 1.081442 0.127676
0.687761 1.079412 0.121153
0.735605 1.077146 0.116382
0.781927 1.074614 0.116285
0.831571 1.071501 0.116537
1.066004 1.053367 0.118196
0.043129 0.000288 0.171569
0.109240 0.002673 0.168459
0.206025 0.005107 0.174083
0.304667 0.008791 0.180880
0.400031 0.013428 0.187245
0.489763 0.018937 0.193757
0.570168 0.024758 0.199875
0.639938 0.030472 0.205276
0.699019 0.035781 0.209823
0.747698 0.040486 0.213350
0.788038 0.044528 0.215903
0.821319 0.048054 0.217569
0.850045 0.051110 0.218446
0.875456 0.053964 0.218850
1.009896 0.077907 0.235378
1.043823 0.082939 0.237241
0.053331 0.013438 0.184156
0.110054 0.016930 0.170983
0.211803 0.018239 0.177017
0.319747 0.015312 0.182599
0.412743 0.016125 0.184636
0.498734 0.020395 0.188920
0.576389 0.025769 0.194041
0.644269 0.031277 0.198994
0.702047 0.036511 0.203395
0.750096 0.041219 0.206973
0.789630 0.045345 0.209667
0.822662 0.048946 0.211583
0.851342 0.052160 0.212811
0.877061 0.055111 0.213632
1.010468 0.088623 0.236110
1.044289 0.093572 0.238332
0.039684 0.054177 0.222363
0.089087 0.061511 0.196140
0.209031 0.064606 0.173496
0.312926 0.069702 0.179527
0.415596 0.069957 0.181110
0.513997 0.058349 0.172636
0.593306 0.050289 0.167446
0.658547 0.048102 0.167641
0.713288 0.049253 0.170686
0.758667 0.051737 0.174569
0.796817 0.054589 0.178427
0.829039 0.057456 0.181962
0.856892 0.060251 0.185252
0.884017 0.063157 0.188507
1.012266 0.129830 0.238718
1.046107 0.133750 0.242352
0.027906 0.138636 0.237245
0.034145 0.143319 0.225617
0.189503 0.151541 0.161195
0.314646 0.150390 0.161713
0.422032 0.155083 0.162728
0.515043 0.155356 0.161960
0.594284 0.155472 0.163998
0.661092 0.156065 0.168071
0.716971 0.156750 0.172840
0.763195 0.157159 0.177481
0.801327 0.156749 0.181596
0.833683 0.155354 0.185201
0.861288 0.153164 0.188432
0.888103 0.150412 0.191522
1.015054 0.189507 0.240835
1.048768 0.188050 0.244190
0.023561 0.233278 0.251811
0.023598 0.236473 0.240507
0.121601 0.257813 0.141707
0.298088 0.250253 0.090833
0.416076 0.245290 0.110703
0.511938 0.250137 0.138999
0.593619 0.253632 0.152590
0.662518 0.255821 0.162442
0.719859 0.256822 0.170283
0.766853 0.256332 0.176582
0.805323 0.254264 0.181750
0.837908 0.250487 0.186110
0.865500 0.245046 0.189760
0.892024 0.238360 0.193175
1.018534 0.259919 0.242914
1.052058 0.253625 0.245965
0.026703 0.332319 0.265403
0.026724 0.335028 0.251642
0.073713 0.356626 0.136910
0.257553 0.358489 0.095452
0.408752 0.345160 0.093953
0.508363 0.342181 0.095224
0.592522 0.347787 0.097099
0.663470 0.351564 0.137147
0.722229 0.353202 0.155749
0.770319 0.352443 0.167189
0.809380 0.349305 0.175450
0.841964 0.343786 0.181899
0.869906 0.335790 0.187139
0.895834 0.326052 0.191769
1.022787 0.336203 0.244173
1.055815 0.325548 0.247072
0.029926 0.434457 0.275525
0.029938 0.437380 0.258244
0.042409 0.454467 0.163248
0.230756 0.464185 0.112074
0.374728 0.456927 0.096446
0.504045 0.445059 0.097095
0.591296 0.442361 0.098037
0.663910 0.446578 0.099608
0.723867 0.448486 0.100923
0.772880 0.447758 0.115791
0.812732 0.443961 0.150331
0.845643 0.436937 0.165175
0.873704 0.426634 0.175570
0.899418 0.414094 0.183784
1.026815 0.415976 0.243605
1.059768 0.401217 0.246541
0.033174 0.538802 0.278040
0.033173 0.542389 0.250299
0.033207 0.552122 0.195600
0.210801 0.568158 0.132117
0.344339 0.566891 0.105452
0.472007 0.558153 0.099613
0.583594 0.547784 0.100182
0.663640 0.543620 0.100769
0.724712 0.545349 0.101892
0.774841 0.544210 0.102948
0.815083 0.539124 0.103784
0.848387 0.530396 0.104407
0.876833 0.518116 0.125882
0.902722 0.502903 0.158440
1.031203 0.498659 0.239548
1.063882 0.479858 0.243088
0.036381 0.645978 0.247811
0.036378 0.648730 0.226913
0.036408 0.651429 0.223055
0.193301 0.670781 0.153596
0.319801 0.673388 0.122434
0.439046 0.669111 0.104292
0.550309 0.660640 0.102683
0.647251 0.651573 0.103166
0.722311 0.645949 0.103599
0.775647 0.642424 0.104119
0.816770 0.636256 0.104786
0.850694 0.625633 0.105388
0.879467 0.610870 0.105884
0.905289 0.592617 0.106266
1.035121 0.583224 0.229252
1.067932 0.560577 0.234528
0.039521 0.747650 0.247553
0.039528 0.748263 0.247000
0.039559 0.750572 0.243736
0.176227 0.769966 0.175628
0.298617 0.775349 0.141891
0.410563 0.774553 0.118848
0.515727 0.769457 0.105539
0.611777 0.762211 0.105622
0.695584 0.754327 0.106030
0.764523 0.748143 0.106396
0.815132 0.736774 0.106522
0.851887 0.722751 0.106627
0.881073 0.705335 0.106883
0.907028 0.684048 0.107188
1.038817 0.669433 0.206862
1.071665 0.642960 0.216683
0.042505 0.841755 0.266780
0.042513 0.842287 0.266199
0.042543 0.844423 0.263438
0.158704 0.863861 0.197533
0.278748 0.871008 0.162242
0.385386 0.872610 0.136261
0.484484 0.870361 0.118472
0.575899 0.865529 0.107940
0.658327 0.859155 0.108345
0.730201 0.853024 0.108702
0.792018 0.846953 0.109018
0.841636 0.826956 0.108899
0.879560 0.803089 0.108621
0.908070 0.777168 0.108385
1.041476 0.756816 0.122881
1.074836 0.726747 0.174791
0.045260 0.927526 0.284677
0.045269 0.927961 0.284216
0.045294 0.929436 0.281817
0.140124 0.944873 0.218824
0.259441 0.951375 0.182405
0.362057 0.953792 0.154695
0.456140 0.954161 0.134129
0.543082 0.952197 0.119855
0.622099 0.948943 0.110978
0.692530 0.944588 0.110819
0.754807 0.940487 0.111127
0.810805 0.935902 0.111409
0.858074 0.909755 0.111043
0.899820 0.876733 0.110553
1.043824 0.846435 0.113029
1.077239 0.812032 0.112993
0.047692 0.982891 0.300702
0.047702 0.983173 0.300342
0.047720 0.984187 0.298162
0.120579 0.992138 0.238924
0.240002 0.995546 0.201623
0.339645 0.996982 0.172969
0.429868 0.997522 0.150589
0.512852 0.997180 0.133859
0.588567 0.996540 0.122047
0.656537 0.995312 0.114275
0.717526 0.993801 0.112988
0.772752 0.992012 0.113264
0.825600 0.990190 0.113536
0.872247 0.969449 0.112949
1.045482 0.934658 0.114096
1.079350 0.899058 0.113898
0.049781 1.013565 0.314595
0.049778 1.013623 0.314112
0.049796 1.014811 0.312252
0.100036 1.028338 0.257469
0.220649 1.037003 0.219288
0.317987 1.041901 0.190104
0.405145 1.044163 0.166624
0.484931 1.044576 0.148261
0.557778 1.043600 0.134409
0.623759 1.041544 0.124395
0.682969 1.039093 0.117460
0.736826 1.035978 0.114829
0.787345 1.032743 0.115092
0.839833 1.028966 0.115358
1.044173 0.994464 0.115894
1.080761 0.972496 0.115236
0.050945 1.044980 0.322334
0.050938 1.045068 0.321833
0.050933 1.045649 0.319928
0.083367 1.057858 0.269378
0.204863 1.067022 0.230782
0.300219 1.072314 0.201529
0.385165 1.075322 0.177679
0.462681 1.076513 0.158523
0.533798 1.076164 0.143547
0.598298 1.074875 0.132248
0.656494 1.072838 0.123981
0.709230 1.070575 0.118089
0.758238 1.067934 0.115918
0.807490 1.064818 0.116171
1.033398 1.044895 0.117678
1.073498 1.019525 0.117291
0.051234 1.052737 0.324191
0.051233 1.052740 0.323692
0.051207 1.052776 0.321745
0.070583 1.063970 0.274973
0.191570 1.073421 0.236514
0.284628 1.078976 0.207649
0.367413 1.082178 0.183835
0.443247 1.083780 0.164381
0.512915 1.083946 0.148880
0.576816 1.083068 0.136861
0.634578 1.081493 0.127848
0.686869 1.079454 0.121251
0.735114 1.077167 0.116435
0.781895 1.074616 0.116285
0.831675 1.071498 0.116539
1.065989 1.053362 0.118202
0.060558 0.000718 0.225671
0.123141 0.003053 0.217397
0.209029 0.008874 0.224851
0.304146 0.012187 0.230620
0.399746 0.016590 0.237790
0.489666 0.021953 0.244484
0.570100 0.027682 0.250421
0.639832 0.033302 0.255263
0.698990 0.038527 0.258935
0.747850 0.043132 0.261403
0.788063 0.047097 0.262584
0.821388 0.050463 0.262579
0.849936 0.053403 0.261474
0.875302 0.056046 0.259561
1.010027 0.079680 0.270370
1.043830 0.084609 0.269303
0.067998 0.014159 0.235365
0.122331 0.016055 0.225136
0.215609 0.019392 0.233621
0.317529 0.017817 0.238327
0.411315 0.019229 0.240779
0.497875 0.023477 0.244403
0.576028 0.028744 0.248583
0.644039 0.034158 0.252463
0.701936 0.039281 0.255668
0.750053 0.043918 0.257778
0.789737 0.047888 0.258820
0.822949 0.051407 0.258809
0.851243 0.054420 0.257808
0.876754 0.057197 0.256096
1.010312 0.090111 0.270862
1.044355 0.094893 0.270059
0.084044 0.055059 0.264979
0.111809 0.057999 0.257480
0.205779 0.065929 0.227904
0.310707 0.070857 0.234500
0.414075 0.072694 0.241496
0.512964 0.060178 0.242037
0.593603 0.050091 0.239983
0.659174 0.046448 0.238964
0.713808 0.046763 0.239100
0.759383 0.048756 0.239625
0.797291 0.051309 0.239922
0.829309 0.053962 0.239722
0.857284 0.056577 0.238981
0.884879 0.059358 0.238034
1.012384 0.130681 0.273009
1.046245 0.134548 0.273450
0.057462 0.127013 0.310253
0.079355 0.131880 0.298746
0.193556 0.144564 0.228755
0.308825 0.146398 0.229540
0.413617 0.154993 0.237941
0.505644 0.157009 0.240615
0.591611 0.150939 0.237048
0.667333 0.133835 0.225514
0.726547 0.116321 0.214026
0.772201 0.103239 0.205996
0.809127 0.095149 0.201509
0.840806 0.090906 0.199609
0.868489 0.089125 0.199393
0.910225 0.090632 0.202035
1.015497 0.196566 0.279400
1.049254 0.199379 0.282232
0.042907 0.223769 0.327740
0.041353 0.225995 0.324212
0.140282 0.245510 0.263870
0.301444 0.241139 0.219565
0.413859 0.244119 0.225710
0.513572 0.248069 0.224746
0.600211 0.246027 0.218024
0.671935 0.241051 0.210784
0.729691 0.235187 0.205199
0.775926 0.229392 0.201881
0.813602 0.223741 0.200463
0.845287 0.218049 0.200419
0.873034 0.212046 0.201218
0.910384 0.206568 0.203925
1.019032 0.265152 0.281679
1.052492 0.262151 0.284143
0.031872 0.323466 0.344072
0.030062 0.325557 0.338530
0.082178 0.341312 0.289399
0.240904 0.356935 0.205431
0.400370 0.347698 0.175632
0.510602 0.343245 0.180304
0.599150 0.344944 0.184237
0.671808 0.344311 0.186760
0.730566 0.341767 0.188885
0.778181 0.337796 0.191171
0.816762 0.332121 0.193625
0.848585 0.324969 0.196208
0.876658 0.316167 0.198854
0.910196 0.306690 0.202560
1.022881 0.340210 0.283408
1.056141 0.332112 0.285603
0.030048 0.425812 0.360028
0.030067 0.427656 0.353432
0.030141 0.435809 0.317985
0.168981 0.464830 0.173470
0.343178 0.464080 0.096404
0.496011 0.448550 0.097118
0.593364 0.443146 0.098101
0.668818 0.444252 0.099709
0.729932 0.443506 0.147501
0.778996 0.440165 0.163323
0.818617 0.434169 0.173941
0.851400 0.425717 0.182038
0.879784 0.414728 0.188780
0.910458 0.402045 0.195426
1.026804 0.419157 0.283677
1.060101 0.406472 0.285895
0.033300 0.529254 0.374294
0.033316 0.530993 0.366706
0.033373 0.538958 0.325432
0.116575 0.569216 0.160211
0.303712 0.573384 0.112532
0.453052 0.563772 0.099616
0.578627 0.550728 0.100207
0.665238 0.544383 0.100813
