src/luts/fairytale/11.cube
LUT_3D_SIZE 6
0.012369 0.000000 0.080339
0.304737 0.006811 0.114525
0.570113 0.023233 0.146656
0.747667 0.039261 0.168687
0.849678 0.050252 0.181567
1.043653 0.082656 0.213744
0.020377 0.151596 0.126039
0.314352 0.151690 0.089211
0.579649 0.175965 0.149024
0.756163 0.187593 0.173099
0.857039 0.183715 0.186032
1.048544 0.183718 0.217121
0.029806 0.443717 0.183195
0.270822 0.459233 0.104205
0.590038 0.441682 0.098002
0.769254 0.452733 0.101909
0.870351 0.433865 0.169514
1.059642 0.399371 0.217809
0.039489 0.747630 0.244943
0.218512 0.770017 0.162734
0.523893 0.767026 0.105116
0.764094 0.747693 0.106385
0.879429 0.706916 0.106872
1.071431 0.641813 0.164576
0.047672 0.982910 0.299082
0.164344 0.992825 0.224699
0.439200 0.996889 0.148259
0.658881 0.994885 0.113963
0.825243 0.990120 0.113523
1.079307 0.898471 0.113880
0.051220 1.052778 0.322994
0.114402 1.067587 0.261024
0.375742 1.082460 0.181569
0.579329 1.083015 0.136416
0.735741 1.077172 0.116378
1.066005 1.053368 0.118196
0.060558 0.000718 0.225671
0.304146 0.012187 0.230620
0.570100 0.027682 0.250421
0.747850 0.043132 0.261403
0.849936 0.053403 0.261474
1.043830 0.084609 0.269303
0.057462 0.127013 0.310253
0.308825 0.146398 0.229540
0.591611 0.150939 0.237048
0.772201 0.103239 0.205996
0.868489 0.089125 0.199393
1.049254 0.199379 0.282232
0.030048 0.425812 0.360028
0.168981 0.464830 0.173470
0.593364 0.443146 0.098101
0.778996 0.440165 0.163323
0.879784 0.414728 0.188780
1.060101 0.406472 0.285895
0.039677 0.733981 0.391616
0.052546 0.764156 0.214523
0.501336 0.773654 0.107153
0.765571 0.748854 0.106424
0.884063 0.702808 0.106906
1.071921 0.645660 0.267685
0.047729 0.982910 0.303607
0.047812 0.986007 0.296766
0.413445 0.998260 0.154849
0.653055 0.996087 0.114781
0.826012 0.990361 0.113548
1.079360 0.899890 0.113947
0.051261 1.052722 0.326226
0.051181 1.052774 0.319861
0.352280 1.081757 0.188042
0.572409 1.083190 0.137626
0.734262 1.077217 0.116499
1.065979 1.053324 0.118202
0.120478 0.003531 0.425312
0.323954 0.027228 0.413847
0.568472 0.049400 0.432016
0.746653 0.062967 0.444046
0.849239 0.070151 0.431701
1.043627 0.097265 0.411654
0.160080 0.140466 0.478362
0.322153 0.154917 0.430203
0.589774 0.161204 0.451532
0.770116 0.112511 0.447470
0.867727 0.093258 0.420880
1.049006 0.206277 0.420795
0.115536 0.389336 0.631997
0.259184 0.424953 0.555475
0.584897 0.436286 0.435250
0.776518 0.446789 0.448144
0.891527 0.416465 0.422530
1.062991 0.467517 0.470408
0.066370 0.704087 0.679770
0.055572 0.716473 0.645740
0.519089 0.765901 0.420295
0.773192 0.748609 0.362191
0.895625 0.702111 0.355821
1.073742 0.677317 0.466530
0.048167 0.960270 0.689817
0.048311 0.967984 0.645313
0.371729 0.998561 0.363497
0.650128 0.998256 0.232309
0.828202 0.991567 0.113642
1.080836 0.913435 0.437550
0.051622 1.027259 0.653035
0.051548 1.031128 0.604214
0.441988 1.066575 0.462159
0.616261 1.072864 0.373251
0.750193 1.073148 0.254536
1.071914 1.052661 0.396951
0.183674 0.008479 0.654480
0.373817 0.028960 0.623894
0.571833 0.083078 0.644490
0.744413 0.105814 0.657113
0.847149 0.107740 0.635460
1.042431 0.124277 0.591706
0.210920 0.141225 0.695340
0.369010 0.144526 0.666952
0.591504 0.164807 0.687791
0.764440 0.145302 0.687950
0.863899 0.128767 0.647695
1.047623 0.222386 0.599356
0.272419 0.392874 0.811379
0.347123 0.404072 0.801611
0.589039 0.447770 0.671481
0.777416 0.465451 0.694110
0.889519 0.428550 0.668501
1.062205 0.476222 0.634783
0.179031 0.660064 0.971126
0.243785 0.679134 0.952453
0.573786 0.740213 0.749071
0.763415 0.730917 0.660555
0.892002 0.739034 0.672233
1.077628 0.760171 0.699770
0.115538 0.933346 0.969896
0.109990 0.940254 0.962364
0.446702 0.987035 0.769186
0.727728 0.988939 0.692062
0.855679 0.986349 0.655590
1.082285 0.945219 0.684465
0.076670 1.003686 0.925150
0.071242 1.005669 0.907589
0.485632 1.051794 0.722347
0.703132 1.061208 0.696451
0.800646 1.062991 0.637630
1.076810 1.051953 0.667480
0.237874 0.014295 0.861454
0.408124 0.031364 0.827155
0.587125 0.081044 0.822954
0.728291 0.131410 0.845238
0.845196 0.155025 0.855370
1.040273 0.164804 0.792802
0.255630 0.129628 0.894160
0.396167 0.113028 0.907880
0.609731 0.141129 0.887453
0.747678 0.161782 0.890016
0.859583 0.172612 0.881846
1.045136 0.249431 0.799305
0.315023 0.374024 0.956357
0.377018 0.376491 0.969192
0.636113 0.448056 0.898297
0.767165 0.470552 0.895017
0.886849 0.445918 0.912090
1.060588 0.492177 0.826101
0.360582 0.623032 1.008776
0.389470 0.630806 1.010917
0.667148 0.693545 0.955953
0.772350 0.720969 0.875344
0.877568 0.737722 0.892990
1.079075 0.772271 0.868787
0.234138 0.889946 1.174429
0.234249 0.894818 1.177799
0.556981 0.960634 1.012612
0.770969 0.980035 0.959054
0.858970 0.978565 0.901062
1.084070 0.982912 0.898697
0.167692 0.991578 1.092706
0.165300 0.992027 1.086803
0.549065 1.030179 0.974885
0.733221 1.050489 0.923159
0.846301 1.055833 0.907037
1.080416 1.051273 0.889895
0.270949 0.018549 0.965504
0.416248 0.032224 0.946739
0.585458 0.072116 0.933918
0.713059 0.121999 0.941830
0.811339 0.157576 0.953054
1.038262 0.209303 0.966808
0.282712 0.109934 0.978111
0.419235 0.113927 0.981661
0.603139 0.146711 0.966806
0.732789 0.166648 0.967749
0.826147 0.174396 0.969083
1.042743 0.282163 0.969682
0.329225 0.329607 0.996239
0.415165 0.337912 0.998218
0.657687 0.437238 0.984506
0.765940 0.454572 0.980456
0.854321 0.456375 0.982489
1.058974 0.512784 0.978770
0.388974 0.560539 1.051672
0.414911 0.568039 1.060577
0.680226 0.643231 0.998670
0.830867 0.749242 0.992133
0.891860 0.756650 0.988805
1.081702 0.792595 0.988530
0.405240 0.791572 1.200922
0.424058 0.799479 1.200218
0.661563 0.863482 1.099599
0.834360 0.921511 1.006451
0.885205 0.955767 0.992815
1.072390 0.977428 0.980360
0.277420 0.969266 1.334898
0.309492 0.973268 1.319638
0.642616 1.001064 1.140538
0.802018 1.029444 1.048249
0.884167 1.043950 0.999868
1.069490 1.037787 0.975431
