src/luts/fairytale/12.cube
LUT_3D_SIZE 6
0.000000 0.000000 0.000000
0.205166 0.000755 0.000800
0.447267 0.002327 0.002389
0.695773 0.004361 0.004400
0.885106 0.006208 0.006202
1.077523 0.008513 0.008429
0.000000 0.171095 0.000000
0.207559 0.187395 0.003842
0.460745 0.206532 0.009386
0.707558 0.198171 0.011050
0.894409 0.166624 0.011888
1.077784 0.008652 0.008563
0.000000 0.404485 0.000000
0.178942 0.408649 0.000000
0.454929 0.440757 0.012502
0.722560 0.468487 0.023729
0.911029 0.460327 0.024666
1.102480 0.429428 0.025224
0.000000 0.639181 0.000000
0.105033 0.640993 0.000000
0.427548 0.655665 0.000279
0.710432 0.696553 0.024655
0.921500 0.710295 0.039146
1.118199 0.680122 0.039787
0.000000 0.852599 0.000000
0.000000 0.854180 0.000000
0.385009 0.860996 0.000000
0.663570 0.885623 0.005406
0.897757 0.922151 0.031525
1.125587 0.915193 0.053888
0.000000 0.992893 0.000000
0.000000 0.993616 0.000000
0.323805 0.995742 0.000000
0.608529 1.004251 0.000000
0.835968 1.031222 0.011706
1.103513 1.073639 0.046421
0.000000 0.000000 0.085654
0.202609 0.000651 0.089453
0.446920 0.002476 0.092114
0.695768 0.004508 0.056889
0.884962 0.006159 0.006154
1.077368 0.008486 0.008403
0.000000 0.168452 0.076265
0.200647 0.180328 0.079451
0.464988 0.180468 0.065186
0.719250 0.101978 0.008034
0.898703 0.006388 0.006377
1.077536 0.008590 0.008503
0.000000 0.402741 0.039646
0.112571 0.409191 0.000000
0.456782 0.441515 0.012636
0.731403 0.456485 0.023120
0.918683 0.440561 0.023661
1.101754 0.422137 0.024792
0.000000 0.638190 0.000000
0.000000 0.643329 0.000000
0.408673 0.655833 0.000000
0.711872 0.697246 0.024792
0.925323 0.705741 0.038975
1.117992 0.677190 0.039550
0.000000 0.851987 0.000000
0.000000 0.855531 0.000000
0.356049 0.861684 0.000000
0.655829 0.885956 0.004789
0.898445 0.922624 0.031595
1.125622 0.913948 0.053869
0.000000 0.992640 0.000000
0.000000 0.993093 0.000000
0.288017 0.995322 0.000000
0.597531 1.003243 0.000000
0.833277 1.030754 0.011422
1.103494 1.073619 0.046418
0.000000 0.000000 0.290303
0.210658 0.000000 0.290093
0.437201 0.001418 0.298850
0.691559 0.004334 0.323040
0.883047 0.006567 0.317230
1.076558 0.009058 0.281818
0.000000 0.185193 0.285440
0.191199 0.170110 0.292328
0.450769 0.174327 0.311936
0.714733 0.104763 0.323220
0.897258 0.006820 0.296995
1.076910 0.009173 0.269975
0.000000 0.396520 0.273250
0.118044 0.397837 0.273329
0.439859 0.424938 0.291884
0.724459 0.444637 0.306080
0.916223 0.427508 0.281496
1.100951 0.425218 0.274688
0.000000 0.630920 0.268282
0.000000 0.635722 0.243889
0.381370 0.645758 0.220857
0.713498 0.698302 0.213256
0.932108 0.698199 0.127188
1.117881 0.678305 0.227516
0.000000 0.846301 0.227693
0.000000 0.850787 0.183034
0.279264 0.861247 0.005850
0.635626 0.884640 0.002498
0.900407 0.923309 0.031643
1.125795 0.914384 0.054158
0.000000 0.990410 0.146708
0.000000 0.991020 0.063729
0.261468 0.993282 0.000000
0.584754 1.000031 0.000000
0.827497 1.028578 0.010152
1.103260 1.073427 0.046406
0.000000 0.000000 0.591570
0.218892 0.000000 0.590759
0.444246 0.000000 0.591364
0.671701 0.001165 0.598922
0.869580 0.004471 0.611669
1.067982 0.008060 0.586623
0.000000 0.195439 0.587686
0.186629 0.165188 0.599302
0.444757 0.151297 0.613309
0.688501 0.129856 0.620291
0.882345 0.004672 0.617488
1.069703 0.025973 0.583769
0.000000 0.417271 0.580579
0.138956 0.412141 0.599345
0.417172 0.400728 0.589032
0.683099 0.420298 0.611423
0.896333 0.421827 0.623316
1.090248 0.425732 0.600802
0.000000 0.626579 0.569011
0.055557 0.628474 0.570728
0.383506 0.624076 0.565860
0.671831 0.655772 0.595047
0.919147 0.703608 0.642739
1.111262 0.700013 0.640622
0.000000 0.837434 0.551995
0.000000 0.840198 0.540631
0.278103 0.841897 0.511756
0.626244 0.850865 0.543803
0.895467 0.918957 0.597134
1.129092 0.926547 0.636687
0.000000 0.983501 0.502925
0.000000 0.984019 0.485396
0.260027 0.983958 0.471427
0.594837 0.990659 0.501808
0.822513 1.015172 0.504655
1.105346 1.075472 0.598237
0.000000 0.000000 0.843569
0.218572 0.000000 0.842580
0.443350 0.000000 0.842386
0.664990 0.000000 0.843806
0.850518 0.000793 0.848749
1.050333 0.004855 0.838541
0.000000 0.195449 0.839930
0.173383 0.150011 0.864521
0.439424 0.135731 0.865734
0.674253 0.118744 0.863482
0.862435 0.104862 0.863016
1.054998 0.136397 0.841996
0.000000 0.419380 0.834607
0.133273 0.409886 0.854973
0.415878 0.399401 0.842957
0.659122 0.402537 0.847032
0.861771 0.404438 0.861544
1.064989 0.425064 0.851824
0.000000 0.631428 0.825920
0.095687 0.630061 0.834235
0.392930 0.625051 0.833770
0.651621 0.634352 0.834396
0.856058 0.653473 0.854506
1.079244 0.684356 0.872996
0.000000 0.836526 0.813868
0.008890 0.838170 0.814905
0.322888 0.838807 0.813815
0.623409 0.831564 0.808091
0.842138 0.860658 0.838225
1.112897 0.934807 0.918246
0.000000 0.980380 0.775595
0.000000 0.980443 0.771812
0.290339 0.978067 0.764704
0.584125 0.975521 0.766028
0.793362 0.979321 0.782123
1.101080 1.071165 0.898683
0.000000 0.000000 0.988662
0.210968 0.000000 0.988083
0.428683 0.000000 0.987657
0.644028 0.000000 0.988191
0.826336 0.000000 0.989998
1.035298 0.001841 0.997128
0.000000 0.187889 0.985859
0.169815 0.146207 0.996779
0.421596 0.137474 0.996685
0.648933 0.118651 0.997922
0.834986 0.100385 1.000025
1.037905 0.173653 0.999411
0.000000 0.405865 0.981891
0.137822 0.395301 0.992653
0.411993 0.394502 0.992715
0.643231 0.392207 0.995107
0.834965 0.388878 0.999461
1.041174 0.421354 1.001549
0.000000 0.613321 0.975684
0.097833 0.610774 0.984165
0.388571 0.609773 0.986348
0.650052 0.631646 0.988660
0.834384 0.635764 0.996177
1.044870 0.664883 1.005193
0.000000 0.813583 0.966421
0.073530 0.813550 0.969615
0.341106 0.814260 0.975157
0.622488 0.820811 0.973806
0.830183 0.846313 0.980178
1.050229 0.887493 1.010494
0.000000 0.980320 0.956217
0.000000 0.980335 0.957113
0.324835 0.977932 0.954735
0.598646 0.975798 0.951427
0.794920 0.973990 0.947620
1.043694 1.013679 1.000025
