src/luts/fairytale/12.cube
LUT_3D_SIZE 16
0.000000 0.000000 0.000000
0.058524 0.000100 0.000111
0.128244 0.000277 0.000301
0.205166 0.000755 0.000800
0.283675 0.001247 0.001303
0.364349 0.001736 0.001798
0.447267 0.002327 0.002389
0.531743 0.002957 0.003017
0.615872 0.003665 0.003716
0.695773 0.004361 0.004400
0.767946 0.005043 0.005068
0.830792 0.005657 0.005666
0.885106 0.006208 0.006202
0.931912 0.006701 0.006680
0.969617 0.007161 0.007125
1.077523 0.008513 0.008429
0.000000 0.039784 0.000000
0.057512 0.041077 0.000251
0.130143 0.040268 0.000789
0.207842 0.039216 0.001643
0.286972 0.034379 0.002502
0.366095 0.017580 0.002488
0.447341 0.002352 0.002415
0.531759 0.002980 0.003040
0.615914 0.003684 0.003735
0.695785 0.004379 0.004418
0.767924 0.005059 0.005084
0.830839 0.005673 0.005681
0.885152 0.006221 0.006214
0.931982 0.006714 0.006693
0.969646 0.007173 0.007137
1.077543 0.008523 0.008439
0.000000 0.099044 0.000000
0.047404 0.100202 0.000000
0.127886 0.105971 0.001286
0.211206 0.112273 0.003369
0.292725 0.116903 0.005163
0.372920 0.116642 0.005615
0.455194 0.113566 0.006110
0.538921 0.106329 0.006573
0.622103 0.093416 0.006915
0.700658 0.072460 0.007003
0.770272 0.033153 0.006350
0.830862 0.005733 0.005739
0.885297 0.006277 0.006268
0.932092 0.006767 0.006743
0.969650 0.007222 0.007184
1.077605 0.008566 0.008480
0.000000 0.171095 0.000000
0.027464 0.171676 0.000000
0.118710 0.176265 0.000085
0.207559 0.187395 0.003842
0.296368 0.200482 0.008157
0.378090 0.204477 0.008859
0.460745 0.206532 0.009386
0.544650 0.206316 0.009949
0.628158 0.203516 0.010523
0.707558 0.198171 0.011050
0.778832 0.190225 0.011469
0.840886 0.179856 0.011758
0.894409 0.166624 0.011888
0.939700 0.149892 0.011847
0.975167 0.128405 0.011630
1.077784 0.008652 0.008563
0.000000 0.247224 0.000000
0.000000 0.247776 0.000000
0.107818 0.249967 0.000000
0.198381 0.257272 0.000819
0.287986 0.270462 0.006525
0.380093 0.286183 0.011872
0.465221 0.292034 0.013127
0.549819 0.294860 0.013761
0.633594 0.295498 0.014336
0.712983 0.294078 0.014886
0.784444 0.290684 0.015370
0.846717 0.285338 0.015748
0.900443 0.278031 0.016006
0.945225 0.268550 0.016133
0.980070 0.257202 0.016164
1.090568 0.230635 0.016582
0.000000 0.325399 0.000000
0.000000 0.325777 0.000000
0.091888 0.327018 0.000000
0.189685 0.331502 0.000000
0.279251 0.340809 0.002180
0.370108 0.354837 0.009238
0.465686 0.372437 0.015865
0.553629 0.379418 0.017818
0.638467 0.382292 0.018588
0.718273 0.382799 0.019141
0.789882 0.381302 0.019595
0.852112 0.377771 0.019932
0.905718 0.372127 0.020162
0.950123 0.364202 0.020253
0.983897 0.354621 0.020264
1.096725 0.337268 0.020918
0.000000 0.404485 0.000000
0.000000 0.404820 0.000000
0.063893 0.405727 0.000000
0.178942 0.408649 0.000000
0.271286 0.415077 0.000118
0.361978 0.426022 0.004134
0.454929 0.440757 0.012502
0.552807 0.458766 0.020174
0.641481 0.466085 0.022826
0.722560 0.468487 0.023729
0.794849 0.468109 0.024225
0.857211 0.465504 0.024529
0.911029 0.460327 0.024666
0.954594 0.452628 0.024660
0.987427 0.443393 0.024573
1.102480 0.429428 0.025224
0.000000 0.483652 0.000000
0.000000 0.484000 0.000000
0.000000 0.484944 0.000000
0.163579 0.486470 0.000000
0.262218 0.491173 0.000000
0.353820 0.499189 0.000993
0.446501 0.511604 0.006675
0.541662 0.527028 0.016339
0.639651 0.544481 0.024742
0.724793 0.551334 0.027981
0.798462 0.552479 0.028999
0.861659 0.550514 0.029414
0.915773 0.545620 0.029534
0.958943 0.537820 0.029435
0.990567 0.528128 0.029214
1.108071 0.515617 0.029776
0.000000 0.562131 0.000000
0.000000 0.562324 0.000000
0.000000 0.563225 0.000000
0.140656 0.564312 0.000000
0.250519 0.567660 0.000000
0.344807 0.573726 0.000000
0.437538 0.583450 0.002584
0.532538 0.597091 0.009834
0.628458 0.612786 0.020576
0.721772 0.628671 0.029288
0.799791 0.634169 0.032993
0.864637 0.633644 0.034206
0.919545 0.628985 0.034540
0.962524 0.620899 0.034462
0.993297 0.610688 0.034170
1.113352 0.598775 0.034647
0.000000 0.639181 0.000000
0.000000 0.639363 0.000000
0.000000 0.640088 0.000000
0.105033 0.640993 0.000000
0.234978 0.643410 0.000000
0.333872 0.648054 0.000000
0.427548 0.655665 0.000279
0.522008 0.666801 0.004833
0.617633 0.681308 0.013429
0.710432 0.696553 0.024655
0.795525 0.709882 0.033391
0.864448 0.713275 0.037559
0.921500 0.710295 0.039146
0.965055 0.702344 0.039430
0.995441 0.691702 0.039250
1.118199 0.680122 0.039787
0.000000 0.713862 0.000000
0.000000 0.714083 0.000000
0.000000 0.714803 0.000000
0.036028 0.715610 0.000000
0.214168 0.717227 0.000000
0.320207 0.720814 0.000000
0.416087 0.726918 0.000000
0.510334 0.735844 0.001530
0.604799 0.747894 0.007568
0.696976 0.762379 0.016912
0.783174 0.776767 0.027952
0.858661 0.786833 0.036744
0.919614 0.787714 0.041425
0.965714 0.781563 0.043512
0.996550 0.771080 0.044033
1.122384 0.760013 0.045026
0.000000 0.785379 0.000000
0.000000 0.785577 0.000000
0.000000 0.786135 0.000000
0.000000 0.787239 0.000000
0.186090 0.788203 0.000000
0.303102 0.790997 0.000000
0.402044 0.795679 0.000000
0.496859 0.803034 0.000000
0.590292 0.813053 0.003365
0.681193 0.825618 0.010341
0.766839 0.839307 0.019764
0.845229 0.852390 0.030196
0.912253 0.858817 0.039143
0.962831 0.856142 0.044483
0.996321 0.847786 0.047257
1.125196 0.838637 0.050022
0.000000 0.852599 0.000000
0.000000 0.852783 0.000000
0.000000 0.853141 0.000000
0.000000 0.854180 0.000000
0.146379 0.854901 0.000000
0.281572 0.857042 0.000000
0.385009 0.860996 0.000000
0.480845 0.866993 0.000000
0.574007 0.875155 0.000682
0.663570 0.885623 0.005406
0.747903 0.897646 0.012722
0.825849 0.910353 0.021729
0.897757 0.922151 0.031525
0.955003 0.924001 0.040686
0.993633 0.919187 0.046874
1.125587 0.915193 0.053888
0.000000 0.914604 0.000000
0.000000 0.914731 0.000000
0.000000 0.915032 0.000000
0.000000 0.915956 0.000000
0.082282 0.916714 0.000000
0.254884 0.918248 0.000000
0.364653 0.921245 0.000000
0.462173 0.925919 0.000000
0.555206 0.932350 0.000000
0.643822 0.940598 0.001989
0.727053 0.949764 0.007297
0.803982 0.959545 0.014471
0.875343 0.968951 0.022962
0.941288 0.977669 0.032244
0.986676 0.976616 0.041647
1.122027 0.978762 0.054761
0.000000 0.966223 0.000000
0.000000 0.966361 0.000000
0.000000 0.966667 0.000000
0.000000 0.967215 0.000000
0.000000 0.968231 0.000000
0.222243 0.968882 0.000000
0.341354 0.970945 0.000000
0.441360 0.974009 0.000000
0.534776 0.978353 0.000000
0.622863 0.983564 0.000098
0.705480 0.989540 0.003389
0.781366 0.995329 0.008851
0.851905 0.999873 0.015756
0.918274 1.009529 0.023801
0.975566 1.020574 0.032823
1.113072 1.030679 0.051451
0.000000 0.992893 0.000000
0.000000 0.993036 0.000000
0.000000 0.993252 0.000000
0.000000 0.993616 0.000000
0.000000 0.994251 0.000000
0.195321 0.994539 0.000000
0.323805 0.995742 0.000000
0.426418 0.997538 0.000000
0.520378 0.999648 0.000000
0.608529 1.004251 0.000000
0.690528 1.012357 0.001486
0.766254 1.021459 0.005846
0.835968 1.031222 0.011706
0.902125 1.041435 0.018788
0.961011 1.051860 0.026838
1.103513 1.073639 0.046421
0.000000 0.000000 0.017993
0.057929 0.000097 0.018330
0.128015 0.000277 0.015762
0.205070 0.000747 0.006607
0.283603 0.001240 0.001296
0.364370 0.001731 0.001793
0.447267 0.002321 0.002383
0.531683 0.002951 0.003010
0.615850 0.003656 0.003707
0.695733 0.004351 0.004390
0.767888 0.005031 0.005056
0.830725 0.005644 0.005654
0.885098 0.006194 0.006188
0.931898 0.006686 0.006665
0.969568 0.007144 0.007107
1.077485 0.008493 0.008409
0.000000 0.039567 0.016514
0.056888 0.040513 0.015334
0.130826 0.039444 0.011516
0.213176 0.029512 0.001529
0.290163 0.001292 0.001348
0.370112 0.001789 0.001850
0.452069 0.002366 0.002428
0.535631 0.002995 0.003054
0.619101 0.003695 0.003746
0.698317 0.004388 0.004426
0.769927 0.005065 0.005089
0.832238 0.005675 0.005684
0.886287 0.006223 0.006216
0.933005 0.006715 0.006693
0.970724 0.007176 0.007139
1.077526 0.008518 0.008434
0.000000 0.098836 0.003822
0.038966 0.100849 0.000000
0.128546 0.106210 0.001301
0.214830 0.110330 0.003376
0.296801 0.111737 0.005000
0.376738 0.108655 0.005377
0.458396 0.103026 0.005810
0.541516 0.093094 0.006200
0.624035 0.076438 0.006415
0.701549 0.047143 0.006200
0.769709 0.005133 0.005155
0.832260 0.005736 0.005743
0.886386 0.006279 0.006271
0.933005 0.006767 0.006743
0.970651 0.007225 0.007187
1.077588 0.008561 0.008476
0.000000 0.170830 0.000000
0.000000 0.172742 0.000000
0.114200 0.176708 0.000000
0.208178 0.187669 0.003877
0.298500 0.199412 0.008148
0.380551 0.201991 0.008766
0.463269 0.202811 0.009250
0.546895 0.201641 0.009783
0.630226 0.197999 0.010333
0.709103 0.191776 0.010838
0.779991 0.183046 0.011240
0.841720 0.171814 0.011491
0.895066 0.157609 0.011600
0.940109 0.139670 0.011522
0.975596 0.116041 0.011255
1.077749 0.008647 0.008559
0.000000 0.247053 0.000000
0.000000 0.248447 0.000000
0.099756 0.250405 0.000000
0.196116 0.257503 0.000703
0.288364 0.270662 0.006550
0.381404 0.285605 0.011892
0.466831 0.290671 0.013074
0.551547 0.292802 0.013676
0.635209 0.292876 0.014227
0.714396 0.291002 0.014761
0.785668 0.287292 0.015231
0.847528 0.281692 0.015610
0.901275 0.274148 0.015857
0.945822 0.264436 0.015976
0.980754 0.252965 0.016008
1.090473 0.229209 0.016524
0.000000 0.325275 0.000000
0.000000 0.326181 0.000000
0.080213 0.327468 0.000000
0.185804 0.331762 0.000000
0.277999 0.340972 0.002105
0.370393 0.354991 0.009258
0.466611 0.372175 0.015895
0.554715 0.378554 0.017788
0.639657 0.381046 0.018530
0.719181 0.381131 0.019061
0.790691 0.379463 0.019506
0.852931 0.375642 0.019842
0.906533 0.369859 0.020063
0.950494 0.361900 0.020152
0.984368 0.352194 0.020160
1.096699 0.336377 0.020877
0.000000 0.404406 0.000000
0.000000 0.405183 0.000000
0.044024 0.406124 0.000000
0.173836 0.408847 0.000000
0.269077 0.415196 0.000081
0.361189 0.426075 0.004067
0.455159 0.440802 0.012524
0.553386 0.458568 0.020209
0.642280 0.465506 0.022806
0.723378 0.467516 0.023687
0.795509 0.467069 0.024166
0.857947 0.464116 0.024457
0.911614 0.458848 0.024595
0.955067 0.451188 0.024591
0.987821 0.441800 0.024494
1.102434 0.428903 0.025198
0.000000 0.483632 0.000000
0.000000 0.484191 0.000000
0.000000 0.485263 0.000000
0.157188 0.486730 0.000000
0.259343 0.491148 0.000000
0.352361 0.499324 0.000938
0.445939 0.511602 0.006619
0.541898 0.527098 0.016358
0.640141 0.544292 0.024775
0.725290 0.550937 0.027970
0.798790 0.551889 0.028963
0.861993 0.549727 0.029373
0.916182 0.544717 0.029487
0.959302 0.536868 0.029378
0.990987 0.527102 0.029156
1.108008 0.515195 0.029752
0.000000 0.562037 0.000000
0.000000 0.562498 0.000000
0.000000 0.563339 0.000000
0.132530 0.564427 0.000000
0.247132 0.567727 0.000000
0.342967 0.573814 0.000000
0.436528 0.583446 0.002531
0.532273 0.597087 0.009791
0.628660 0.612838 0.020595
0.722173 0.628463 0.029302
0.799948 0.633901 0.032988
0.865005 0.633189 0.034188
0.919901 0.628508 0.034518
0.962869 0.620245 0.034429
0.993570 0.610034 0.034135
1.113370 0.598410 0.034622
0.000000 0.639155 0.000000
0.000000 0.639504 0.000000
0.000000 0.640162 0.000000
0.093905 0.641104 0.000000
0.231114 0.643419 0.000000
0.331830 0.648097 0.000000
0.426361 0.655653 0.000233
0.521381 0.666776 0.004781
0.617464 0.681291 0.013397
0.710518 0.696689 0.024664
0.795577 0.709815 0.033419
0.864785 0.713217 0.037566
0.921741 0.709958 0.039135
0.965151 0.701976 0.039412
0.995611 0.691249 0.039219
1.118230 0.679753 0.039772
0.000000 0.713797 0.000000
0.000000 0.714144 0.000000
0.000000 0.714835 0.000000
0.000000 0.716034 0.000000
0.209802 0.717212 0.000000
0.317975 0.720829 0.000000
0.414664 0.726917 0.000000
0.509364 0.735718 0.001479
0.604220 0.748009 0.007509
0.696785 0.762418 0.016891
0.783366 0.776854 0.027956
0.858721 0.786686 0.036745
0.920011 0.787629 0.041439
0.965823 0.781238 0.043508
0.996757 0.770736 0.044017
1.122373 0.759917 0.045007
0.000000 0.785416 0.000000
0.000000 0.785752 0.000000
0.000000 0.786104 0.000000
0.000000 0.787279 0.000000
0.180855 0.788317 0.000000
0.300557 0.791061 0.000000
0.400388 0.795845 0.000000
0.495705 0.802966 0.000000
0.589652 0.813135 0.003319
0.680899 0.825703 0.010298
0.766690 0.839335 0.019742
0.845216 0.852470 0.030191
0.912314 0.858741 0.039152
0.962919 0.855999 0.044494
0.996414 0.847411 0.047256
1.125194 0.838622 0.050020
0.000000 0.852531 0.000000
0.000000 0.852828 0.000000
0.000000 0.853153 0.000000
0.000000 0.854200 0.000000
0.139694 0.854945 0.000000
0.278893 0.857130 0.000000
0.383335 0.861026 0.000000
0.479761 0.866942 0.000000
0.573203 0.875214 0.000656
0.663016 0.885725 0.005366
0.747639 0.897917 0.012690
0.825709 0.910457 0.021727
0.897766 0.922168 0.031520
0.955047 0.923944 0.040690
0.993621 0.919061 0.046896
1.125590 0.915149 0.053890
0.000000 0.914574 0.000000
0.000000 0.914857 0.000000
0.000000 0.915261 0.000000
0.000000 0.915967 0.000000
0.071369 0.916879 0.000000
0.252047 0.918326 0.000000
0.362932 0.921238 0.000000
0.461072 0.925851 0.000000
0.554405 0.932277 0.000000
0.643297 0.940522 0.001960
0.726756 0.949886 0.007261
0.803604 0.959533 0.014443
0.875302 0.969066 0.022947
0.941175 0.977636 0.032229
0.986823 0.976604 0.041664
1.122030 0.978753 0.054766
0.000000 0.966338 0.000000
0.000000 0.966419 0.000000
0.000000 0.966672 0.000000
0.000000 0.967324 0.000000
0.000000 0.968413 0.000000
0.219101 0.969118 0.000000
0.339584 0.970866 0.000000
0.440302 0.973880 0.000000
0.533937 0.978341 0.000000
0.622374 0.983498 0.000085
0.704991 0.989566 0.003359
0.781171 0.995466 0.008825
0.851734 0.999878 0.015733
0.918253 1.009573 0.023782
0.975545 1.020603 0.032821
1.113085 1.030704 0.051452
0.000000 0.993025 0.000000
0.000000 0.992944 0.000000
0.000000 0.993265 0.000000
0.000000 0.993520 0.000000
0.000000 0.994217 0.000000
0.192025 0.994732 0.000000
0.322145 0.995762 0.000000
0.425369 0.997522 0.000000
0.519709 0.999590 0.000000
0.608003 1.004193 0.000000
0.690308 1.012310 0.001466
0.765906 1.021404 0.005817
0.835956 1.031200 0.011693
0.901978 1.041398 0.018778
0.960936 1.051848 0.026831
1.103512 1.073638 0.046421
0.000000 0.000000 0.046068
0.055677 0.000014 0.046107
0.126750 0.000250 0.047533
0.204477 0.000744 0.047996
0.283494 0.001318 0.046174
0.364351 0.001838 0.039929
0.447274 0.002381 0.024084
0.531500 0.002932 0.002991
0.615700 0.003642 0.003694
0.695765 0.004345 0.004385
0.767832 0.005030 0.005055
0.830688 0.005644 0.005653
0.885079 0.006194 0.006187
0.931937 0.006686 0.006665
0.969615 0.007144 0.007108
1.077480 0.008492 0.008409
0.000000 0.038832 0.045568
0.055942 0.039559 0.046623
0.128851 0.038485 0.047672
0.211620 0.028498 0.048158
0.290162 0.001372 0.042859
0.370221 0.001876 0.033153
0.452037 0.002338 0.002401
0.535748 0.002972 0.003031
0.619234 0.003680 0.003731
0.698443 0.004374 0.004413
0.770062 0.005053 0.005077
0.832417 0.005662 0.005670
0.886458 0.006206 0.006200
0.933000 0.006698 0.006676
0.970742 0.007157 0.007120
1.077408 0.008492 0.008409
0.000000 0.098137 0.041586
0.039352 0.099943 0.042090
0.124975 0.103136 0.040964
0.209095 0.104994 0.039060
0.293851 0.104178 0.033461
0.379897 0.088876 0.004740
0.464160 0.063374 0.004639
0.544662 0.003107 0.003165
0.628154 0.003792 0.003842
0.706438 0.004484 0.004521
0.776740 0.005146 0.005168
0.838082 0.005743 0.005750
0.891369 0.006285 0.006276
0.937082 0.006771 0.006747
0.974948 0.007248 0.007209
1.077530 0.008542 0.008458
0.000000 0.169831 0.032526
0.000000 0.171468 0.029130
0.110319 0.175415 0.025489
0.208114 0.187486 0.003832
0.301028 0.196050 0.008048
0.385294 0.193585 0.008415
0.469453 0.188986 0.008726
0.553733 0.182323 0.009111
0.636748 0.173442 0.009527
0.714697 0.161865 0.009876
0.784439 0.147315 0.010110
0.845055 0.129277 0.010173
0.897414 0.106272 0.010021
0.941086 0.075362 0.009516
0.974876 0.007341 0.007300
1.077672 0.008629 0.008541
0.000000 0.246250 0.014388
0.000000 0.247655 0.000339
0.074461 0.250531 0.000000
0.188985 0.257307 0.000376
0.289249 0.270988 0.006590
0.385016 0.283121 0.011932
0.471676 0.284857 0.012829
0.557035 0.284064 0.013287
0.640854 0.281584 0.013754
0.719482 0.277504 0.014219
0.789948 0.271826 0.014627
0.851296 0.264521 0.014954
0.904379 0.255544 0.015155
0.948297 0.244580 0.015238
0.983290 0.231502 0.015241
1.090008 0.222102 0.016250
0.000000 0.324686 0.000000
0.000000 0.325718 0.000000
0.000000 0.328727 0.000000
0.170544 0.332038 0.000000
0.272981 0.341131 0.001754
0.371348 0.355392 0.009323
0.469678 0.370561 0.016000
0.558581 0.374568 0.017636
0.643826 0.375264 0.018261
0.723505 0.373845 0.018716
0.794588 0.370839 0.019103
0.856147 0.366095 0.019406
0.909517 0.359469 0.019600
0.953141 0.350803 0.019672
0.987053 0.340526 0.019679
1.096405 0.332529 0.020685
0.000000 0.404020 0.000000
0.000000 0.404791 0.000000
0.000000 0.407326 0.000000
0.150889 0.409384 0.000000
0.259599 0.415344 0.000000
0.357765 0.426317 0.003767
0.455926 0.441277 0.012576
0.555788 0.457619 0.020325
0.645212 0.462779 0.022715
0.726396 0.463522 0.023487
0.798307 0.461981 0.023905
0.860618 0.458354 0.024154
0.914159 0.452495 0.024266
0.957198 0.444265 0.024241
0.989952 0.434372 0.024145
1.102174 0.426237 0.025045
0.000000 0.483170 0.000000
0.000000 0.483832 0.000000
0.000000 0.485918 0.000000
0.125263 0.487434 0.000000
0.246392 0.491595 0.000000
0.345958 0.499446 0.000668
0.443644 0.511927 0.006370
0.542561 0.527486 0.016414
0.641981 0.543644 0.024882
0.727483 0.548988 0.027923
0.801219 0.549041 0.028829
0.864444 0.546177 0.029176
0.918232 0.540552 0.029249
0.960930 0.532260 0.029127
0.992613 0.522180 0.028900
1.107832 0.513310 0.029625
0.000000 0.561757 0.000000
0.000000 0.562287 0.000000
0.000000 0.564132 0.000000
0.087287 0.565347 0.000000
0.231043 0.568099 0.000000
0.334362 0.573938 0.000000
0.431990 0.583535 0.002250
0.530463 0.597292 0.009590
0.629259 0.613090 0.020657
0.723441 0.627888 0.029412
0.801543 0.632479 0.032988
0.866534 0.630994 0.034087
0.921645 0.625751 0.034372
0.964215 0.617342 0.034262
0.994824 0.606675 0.033945
1.113294 0.596994 0.034516
0.000000 0.638820 0.000000
0.000000 0.639279 0.000000
0.000000 0.640810 0.000000
0.000000 0.642300 0.000000
0.211673 0.643966 0.000000
0.321399 0.648351 0.000000
0.420264 0.655781 0.000122
0.517994 0.666825 0.004512
0.616258 0.681437 0.013237
0.711020 0.696857 0.024709
0.796624 0.709317 0.033512
0.865839 0.712198 0.037588
0.923133 0.708479 0.039076
0.966471 0.700097 0.039312
0.996574 0.688970 0.039103
1.118134 0.678759 0.039683
0.000000 0.713716 0.000000
0.000000 0.713983 0.000000
0.000000 0.715151 0.000000
0.000000 0.716626 0.000000
0.186195 0.717794 0.000000
0.305942 0.721221 0.000000
0.407206 0.727068 0.000000
0.504911 0.735988 0.001270
0.601856 0.747890 0.007288
0.696018 0.762769 0.016768
0.783547 0.777009 0.027986
0.859704 0.786562 0.036850
0.920863 0.786839 0.041483
0.966786 0.780169 0.043500
0.997345 0.769301 0.043965
1.122339 0.759033 0.044946
0.000000 0.785304 0.000000
0.000000 0.785539 0.000000
0.000000 0.786645 0.000000
0.000000 0.787750 0.000000
0.150722 0.788649 0.000000
0.287040 0.791290 0.000000
0.391980 0.796107 0.000000
0.490332 0.803202 0.000000
0.586242 0.813216 0.003097
0.679066 0.825699 0.010103
0.766004 0.839403 0.019638
0.845460 0.852799 0.030211
0.912896 0.858508 0.039242
0.963684 0.855644 0.044558
0.996951 0.846761 0.047304
1.125172 0.837904 0.049979
0.000000 0.852269 0.000000
0.000000 0.852542 0.000000
0.000000 0.853718 0.000000
0.000000 0.854619 0.000000
0.095824 0.855610 0.000000
0.263660 0.857436 0.000000
0.374273 0.861113 0.000000
0.473655 0.866885 0.000000
0.569133 0.875230 0.000517
0.660563 0.885641 0.005181
0.746400 0.897800 0.012527
0.825259 0.910608 0.021639
0.897936 0.922352 0.031565
0.955521 0.923951 0.040796
0.994026 0.918978 0.046988
1.125605 0.914623 0.053875
0.000000 0.914393 0.000000
0.000000 0.914773 0.000000
0.000000 0.915548 0.000000
0.000000 0.916365 0.000000
0.000000 0.917780 0.000000
0.234668 0.918729 0.000000
0.353043 0.921472 0.000000
0.454422 0.926126 0.000000
0.549824 0.932394 0.000000
0.640295 0.940765 0.001784
0.724840 0.949861 0.007097
0.802803 0.959581 0.014338
0.874989 0.969129 0.022883
0.941443 0.977823 0.032258
0.987204 0.976647 0.041743
1.122054 0.978615 0.054776
0.000000 0.966200 0.000000
0.000000 0.966390 0.000000
0.000000 0.967037 0.000000
0.000000 0.967565 0.000000
0.000000 0.968608 0.000000
0.198425 0.969365 0.000000
0.329003 0.971007 0.000000
0.433281 0.974002 0.000000
0.529079 0.978299 0.000000
0.619066 0.983743 0.000000
0.702892 0.989642 0.003224
0.779839 0.995279 0.008686
0.851116 0.999921 0.015639
0.918255 1.009647 0.023738
0.975778 1.020836 0.032834
1.113107 1.030570 0.051472
0.000000 0.992945 0.000000
0.000000 0.993035 0.000000
0.000000 0.993048 0.000000
0.000000 0.993515 0.000000
0.000000 0.993962 0.000000
0.167817 0.994539 0.000000
0.311087 0.995580 0.000000
0.418125 0.997374 0.000000
0.514597 0.999349 0.000000
0.604428 1.003875 0.000000
0.687960 1.012037 0.001360
0.764364 1.021210 0.005711
0.835028 1.031043 0.011591
0.901498 1.041310 0.018712
0.960867 1.051831 0.026814
1.103507 1.073632 0.046420
0.000000 0.000000 0.085654
0.056740 0.000000 0.085614
0.126313 0.000125 0.086706
0.202609 0.000651 0.089453
0.282362 0.001278 0.092852
0.363696 0.001860 0.093911
0.446920 0.002476 0.092114
0.531580 0.003150 0.086506
0.615795 0.003836 0.075672
0.695768 0.004508 0.056889
0.767508 0.004975 0.005002
0.830433 0.005601 0.005612
0.884962 0.006159 0.006154
0.931590 0.006658 0.006638
0.969489 0.007124 0.007089
1.077368 0.008486 0.008403
0.000000 0.039836 0.085097
0.055144 0.038863 0.086778
0.128162 0.036996 0.089726
0.208862 0.028080 0.093228
0.288560 0.001327 0.093936
0.369348 0.001913 0.092969
0.451864 0.002514 0.089457
0.535617 0.003183 0.082256
0.619174 0.003855 0.069500
0.698371 0.004508 0.047173
0.769715 0.005004 0.005029
0.832273 0.005626 0.005635
0.886255 0.006180 0.006175
0.933009 0.006677 0.006657
0.970584 0.007143 0.007108
1.077386 0.008492 0.008409
0.000000 0.100017 0.083033
0.042407 0.101168 0.086995
0.121984 0.100191 0.086311
0.205317 0.101926 0.088006
0.290113 0.101562 0.091862
0.379122 0.089074 0.091336
0.464012 0.062731 0.081572
0.544954 0.003269 0.063120
0.628530 0.003879 0.037012
0.706584 0.004443 0.004480
0.776934 0.005112 0.005135
0.838336 0.005717 0.005725
0.891833 0.006261 0.006252
0.937341 0.006747 0.006725
0.975324 0.007224 0.007186
1.077317 0.008511 0.008428
0.000000 0.168452 0.076265
0.000000 0.169561 0.076574
0.110320 0.173192 0.078322
0.200647 0.180328 0.079451
0.290741 0.185805 0.080179
0.379606 0.189117 0.079810
0.464988 0.180468 0.065186
0.553859 0.162112 0.016299
0.640331 0.136420 0.008301
0.719250 0.101978 0.008034
0.787589 0.051546 0.007130
0.845619 0.005855 0.005858
0.898703 0.006388 0.006377
0.943458 0.006873 0.006846
0.983554 0.007400 0.007356
1.077536 0.008590 0.008503
0.000000 0.244440 0.070166
0.000000 0.245579 0.068322
0.072806 0.247620 0.062855
0.186323 0.253827 0.063478
0.286516 0.268619 0.061579
0.384472 0.280560 0.039781
0.472565 0.277956 0.012447
0.560457 0.272316 0.012695
0.646203 0.264445 0.012995
0.725822 0.254898 0.013300
0.796087 0.244000 0.013560
0.856950 0.231946 0.013734
0.909305 0.218565 0.013814
0.952254 0.203571 0.013784
0.989088 0.185111 0.013687
1.089273 0.211085 0.015800
0.000000 0.323119 0.059589
0.000000 0.324053 0.055816
0.000000 0.327061 0.041259
0.156503 0.330122 0.023214
0.267089 0.339701 0.001179
0.371646 0.355385 0.009302
0.472430 0.367956 0.016100
0.562828 0.368426 0.017346
0.649307 0.365734 0.017769
0.729311 0.361390 0.018100
0.800157 0.355647 0.018388
0.861758 0.348555 0.018612
0.914395 0.340114 0.018753
0.957057 0.329981 0.018788
0.992196 0.318115 0.018796
1.095839 0.326510 0.020379
0.000000 0.402741 0.039646
0.000000 0.403447 0.033060
0.000000 0.406355 0.000000
0.112571 0.409191 0.000000
0.245470 0.414783 0.000000
0.352382 0.425859 0.003221
0.456782 0.441515 0.012636
0.559218 0.455618 0.020498
0.649682 0.458026 0.022530
0.731403 0.456485 0.023120
0.803446 0.453060 0.023424
0.865363 0.447805 0.023607
0.918683 0.440561 0.023661
0.960839 0.431467 0.023608
0.994248 0.420715 0.023523
1.101754 0.422137 0.024792
0.000000 0.482399 0.000000
0.000000 0.482905 0.000000
0.000000 0.485310 0.000000
0.041372 0.488369 0.000000
0.223453 0.491709 0.000000
0.334963 0.499326 0.000259
0.439517 0.511813 0.005893
0.543740 0.527878 0.016508
