src/luts/fairytale/13.cube
LUT_3D_SIZE 16
0.135903 0.000000 0.134657
0.237329 0.000130 0.135952
0.330419 0.000805 0.139795
0.423204 0.001650 0.143292
0.515013 0.002542 0.146418
0.602881 0.003544 0.149539
0.682623 0.004553 0.152447
0.752900 0.005540 0.155067
0.813361 0.006446 0.157369
0.864736 0.007257 0.159362
0.908784 0.007990 0.161076
0.946291 0.008639 0.162564
0.976965 0.009223 0.163896
1.000435 0.009758 0.165059
1.078194 0.010833 0.167375
1.111435 0.011305 0.168371
0.136059 0.027084 0.134820
0.238238 0.027658 0.137843
0.332525 0.021953 0.142526
0.423213 0.001668 0.143355
0.515011 0.002554 0.146468
0.602889 0.003556 0.149569
0.682604 0.004565 0.152481
0.752910 0.005551 0.155088
0.813415 0.006457 0.157397
0.864743 0.007266 0.159379
0.908792 0.007998 0.161099
0.946297 0.008647 0.162586
0.976969 0.009230 0.163905
1.000436 0.009762 0.165073
1.078216 0.010838 0.167385
1.111442 0.011310 0.168369
0.136562 0.073967 0.135329
0.234713 0.076836 0.138372
0.335115 0.080705 0.147504
0.431262 0.082526 0.154435
0.522064 0.074606 0.156282
0.607924 0.054564 0.156906
0.682617 0.004615 0.152601
0.752879 0.005594 0.155218
0.813362 0.006498 0.157506
0.864753 0.007304 0.159470
0.908804 0.008034 0.161183
0.946324 0.008680 0.162667
0.976974 0.009260 0.163984
1.000537 0.009790 0.165133
1.078231 0.010860 0.167444
1.111473 0.011331 0.168418
0.137542 0.139023 0.136313
0.237144 0.141186 0.138445
0.340889 0.153736 0.152825
0.435181 0.157004 0.162119
0.527591 0.160448 0.164962
0.614992 0.160044 0.167438
0.693875 0.154964 0.169412
0.763047 0.144532 0.170690
0.822393 0.128033 0.171204
0.872211 0.103007 0.170689
0.913209 0.061219 0.168177
0.946313 0.008745 0.162816
0.977032 0.009322 0.164107
1.000509 0.009849 0.165261
1.078246 0.010912 0.167539
1.111524 0.011378 0.168528
0.138217 0.213195 0.136993
0.240614 0.215052 0.138887
0.341311 0.224695 0.149080
0.445116 0.239947 0.167797
0.530877 0.239331 0.172906
0.619859 0.246426 0.176132
0.699596 0.249890 0.178748
0.769431 0.249655 0.180815
0.829352 0.245667 0.182325
0.880100 0.237924 0.183246
0.923092 0.226225 0.183645
0.958743 0.210201 0.183450
0.987189 0.188824 0.182639
1.013877 0.160242 0.181082
1.085548 0.084304 0.176264
1.111571 0.011452 0.168680
0.138947 0.294105 0.137737
0.242938 0.295496 0.139149
0.344165 0.301928 0.145764
0.444284 0.316944 0.162030
0.542273 0.330094 0.179288
0.622437 0.329511 0.184228
0.703854 0.338552 0.187591
0.774494 0.343342 0.190092
0.834859 0.344045 0.191938
0.885934 0.340779 0.193169
0.929018 0.333534 0.193827
0.964794 0.322463 0.193993
0.992702 0.307157 0.193630
1.023695 0.288007 0.192838
1.098722 0.254904 0.191790
1.129517 0.220869 0.189612
0.139727 0.379913 0.138524
0.243823 0.380916 0.139660
0.347734 0.385663 0.144380
0.444403 0.396642 0.155841
0.542006 0.413913 0.175035
0.632042 0.425100 0.190322
0.705323 0.425328 0.195513
0.777794 0.434600 0.199004
0.839046 0.438555 0.201222
0.890623 0.437806 0.202686
0.934088 0.432391 0.203445
0.969688 0.422568 0.203633
0.996949 0.408396 0.203284
1.031395 0.390521 0.202517
1.107004 0.363138 0.201818
1.138285 0.334120 0.200047
0.140528 0.468795 0.139336
0.242772 0.469728 0.140283
0.350447 0.473241 0.143899
0.445878 0.481419 0.152203
0.538801 0.495352 0.166936
0.630114 0.512649 0.186381
0.710988 0.523000 0.200383
0.777946 0.524637 0.206258
0.841375 0.532380 0.209930
0.894082 0.533682 0.211875
0.938101 0.529290 0.212851
0.973802 0.519854 0.213076
1.000029 0.505443 0.212697
1.038041 0.486831 0.211768
1.114172 0.460538 0.211032
1.145612 0.431266 0.209171
0.141336 0.558460 0.140152
0.239322 0.559300 0.140959
0.351569 0.562123 0.143867
0.446924 0.568342 0.150164
0.536886 0.579084 0.161250
0.623272 0.593957 0.177128
0.705582 0.610146 0.195324
0.778538 0.620761 0.208958
0.839442 0.623998 0.215734
0.894575 0.628661 0.219759
0.940162 0.625795 0.221676
0.976318 0.616426 0.222216
1.004568 0.601336 0.221893
1.043747 0.581390 0.220901
1.120355 0.554461 0.220048
1.152272 0.523297 0.217973
0.142127 0.646148 0.140951
0.232988 0.646952 0.141645
0.350887 0.649216 0.144069
0.446562 0.654234 0.149032
0.534616 0.662572 0.157575
0.617421 0.674502 0.170006
0.695554 0.689069 0.185451
0.768832 0.704001 0.201984
0.834495 0.715103 0.215581
0.890636 0.720069 0.223404
0.938772 0.720128 0.227932
0.976894 0.712217 0.230103
1.007119 0.696791 0.230506
1.047544 0.675515 0.229702
1.125626 0.647282 0.228919
1.157891 0.613521 0.226643
0.142878 0.729686 0.141714
0.222829 0.730362 0.142303
0.348359 0.732364 0.144378
0.444375 0.736232 0.148409
0.531226 0.742944 0.155186
0.611378 0.752728 0.165003
0.686123 0.764748 0.177520
0.755978 0.778245 0.191864
0.820822 0.791789 0.206658
0.880259 0.803207 0.220042
0.932662 0.809898 0.229023
0.973940 0.804864 0.234337
1.005734 0.790385 0.236907
1.048556 0.768795 0.237460
1.129080 0.739712 0.237451
1.162163 0.703161 0.235058
0.143574 0.806941 0.142414
0.206645 0.807428 0.142896
0.344060 0.809363 0.144726
0.440308 0.812605 0.148092
0.526191 0.818100 0.153592
0.604618 0.825996 0.161506
0.676649 0.835896 0.171674
0.743427 0.847367 0.183643
0.805696 0.859708 0.196617
0.863411 0.871823 0.209822
0.917627 0.883157 0.222537
0.966367 0.891434 0.232771
0.999742 0.880000 0.239092
1.045189 0.859500 0.242344
1.129985 0.831533 0.244977
1.164506 0.792245 0.242887
0.144182 0.875534 0.143037
0.170468 0.876081 0.143377
0.338040 0.877504 0.145065
0.434500 0.880561 0.147931
0.519311 0.885036 0.152509
0.596305 0.891420 0.159015
0.666443 0.899670 0.167384
0.731060 0.909426 0.177351
0.790797 0.920020 0.188470
0.846304 0.930826 0.200193
0.898606 0.941261 0.212123
0.948202 0.951575 0.223995
0.992628 0.960224 0.235186
1.036317 0.944138 0.242669
1.126862 0.920071 0.249891
1.163553 0.879378 0.248906
0.144717 0.934515 0.143574
0.144947 0.934691 0.143812
0.330487 0.936014 0.145367
0.427037 0.938597 0.147841
0.510855 0.941999 0.151720
0.586480 0.947246 0.157172
0.655091 0.953687 0.164171
0.717778 0.961306 0.172572
0.775639 0.969692 0.182063
0.829209 0.978287 0.192294
0.879610 0.986633 0.202957
0.927964 0.994651 0.213959
0.973243 1.001309 0.225225
1.021856 1.011094 0.236976
1.119142 0.995708 0.250960
1.158344 0.960953 0.251828
0.145098 0.973686 0.143960
0.145296 0.973717 0.144166
0.322207 0.974959 0.145570
0.418579 0.976855 0.147750
0.501119 0.979578 0.151118
0.575558 0.983733 0.155829
0.642742 0.988574 0.161877
0.704229 0.994044 0.169149
0.760690 0.999585 0.177464
0.812917 1.006923 0.186470
0.861737 1.015755 0.196031
0.908235 1.024793 0.206016
0.953059 1.034061 0.216415
0.994472 1.043774 0.227483
1.107738 1.060412 0.247582
1.148546 1.028180 0.250567
0.145303 0.993088 0.144173
0.145486 0.993306 0.144358
0.312376 0.993911 0.145621
0.407870 0.995619 0.147566
0.488773 0.997622 0.150524
0.561596 1.000027 0.154659
0.627590 1.004443 0.159990
0.687753 1.010529 0.166413
0.742941 1.017434 0.173778
0.794239 1.024943 0.181880
0.841748 1.033008 0.190560
0.886828 1.041262 0.199645
0.930340 1.049920 0.209136
0.971961 1.058882 0.219202
1.015049 1.068450 0.230153
1.137865 1.080960 0.246221
0.135987 0.000034 0.227001
0.233206 0.000099 0.228518
0.329171 0.000833 0.231180
0.422890 0.001796 0.225475
0.514774 0.002650 0.200541
0.602478 0.003511 0.149433
0.682323 0.004525 0.152371
0.752612 0.005515 0.155005
0.813235 0.006426 0.157325
0.864765 0.007241 0.159328
0.908716 0.007975 0.161052
0.946213 0.008628 0.162544
0.977038 0.009212 0.163857
1.000382 0.009744 0.165041
1.078151 0.010818 0.167349
1.111392 0.011289 0.168340
0.136250 0.027157 0.227254
0.233587 0.027233 0.228805
0.337937 0.015716 0.222935
0.432537 0.001774 0.165725
0.522545 0.002616 0.146667
0.608212 0.003604 0.149715
0.686250 0.004600 0.152567
0.755474 0.005571 0.155155
0.815262 0.006467 0.157426
0.866243 0.007269 0.159386
0.909855 0.007998 0.161098
0.947138 0.008646 0.162580
0.977704 0.009228 0.163908
1.001555 0.009758 0.165062
1.078120 0.010817 0.167347
1.111365 0.011288 0.168338
0.135914 0.073381 0.228111
0.214079 0.075277 0.209685
0.334593 0.079123 0.181156
0.435940 0.078670 0.154064
0.526627 0.065241 0.155397
0.610578 0.033824 0.154580
0.685913 0.004647 0.152693
0.755274 0.005618 0.155276
0.815249 0.006515 0.157542
0.866252 0.007316 0.159498
0.909888 0.008041 0.161189
0.947208 0.008686 0.162684
0.977935 0.009266 0.163984
1.001599 0.009798 0.165152
1.078096 0.010849 0.167406
1.111354 0.011321 0.168404
0.136231 0.137726 0.232177
0.195916 0.140312 0.191829
0.333508 0.153725 0.151448
0.436017 0.157163 0.162157
0.529930 0.158539 0.164801
0.617350 0.156019 0.167092
0.695736 0.148933 0.168876
0.764480 0.136341 0.169966
0.823155 0.116914 0.170220
0.872241 0.086926 0.169229
0.911092 0.020951 0.163422
0.946993 0.008749 0.162829
0.977720 0.009326 0.164116
1.001655 0.009856 0.165281
1.078116 0.010899 0.167527
1.111410 0.011365 0.168492
0.137248 0.212234 0.236680
0.183779 0.214410 0.179290
0.330236 0.223725 0.147083
0.442257 0.240401 0.167487
0.531427 0.239466 0.172931
0.621088 0.245336 0.176053
0.700859 0.247675 0.178538
0.770485 0.246537 0.180534
0.830153 0.241750 0.181962
0.880675 0.233294 0.182841
0.923506 0.220969 0.183160
0.959193 0.204194 0.182892
0.987394 0.181958 0.182031
1.014165 0.152029 0.180348
1.084880 0.077071 0.175542
1.111463 0.011438 0.168639
0.138217 0.293362 0.239785
0.169999 0.295032 0.162474
0.331788 0.301241 0.144305
0.438981 0.316446 0.160863
0.540896 0.330406 0.179177
0.622781 0.329567 0.184227
0.704426 0.337762 0.187519
0.775148 0.341855 0.189954
0.835544 0.342156 0.191755
0.886559 0.338401 0.192922
0.929569 0.330838 0.193573
0.964955 0.319441 0.193699
0.993054 0.303938 0.193356
1.024215 0.284589 0.192539
1.098525 0.253135 0.191586
1.129342 0.219251 0.189431
0.139156 0.379333 0.241066
0.139745 0.380483 0.138540
0.334557 0.385165 0.143323
0.438384 0.396057 0.154772
0.539033 0.413718 0.174333
0.631277 0.425359 0.190258
0.705572 0.425402 0.195539
0.778074 0.434103 0.198957
0.839551 0.437652 0.201147
0.891113 0.436424 0.202545
0.934463 0.430709 0.203285
0.970124 0.420717 0.203462
0.997241 0.406527 0.203106
1.031922 0.388414 0.202317
1.106799 0.362061 0.201687
1.138168 0.333140 0.199907
0.140080 0.468274 0.240146
0.140541 0.469402 0.139349
0.336805 0.472927 0.143093
0.439625 0.480964 0.151363
0.535433 0.495029 0.166184
0.628367 0.512519 0.185981
0.710688 0.523184 0.200366
0.778034 0.524768 0.206282
0.841413 0.532063 0.209917
0.894315 0.532948 0.211816
0.938354 0.528303 0.212760
0.973965 0.518689 0.212978
1.000070 0.504143 0.212557
1.038585 0.485449 0.211628
1.114078 0.459687 0.210909
1.145538 0.430471 0.209091
0.140971 0.558126 0.236618
0.141349 0.558923 0.140165
0.337676 0.561905 0.143234
0.440551 0.568049 0.149497
0.533251 0.578802 0.160607
0.621282 0.593772 0.176647
0.704605 0.610124 0.195095
0.778162 0.620921 0.208933
0.839688 0.624043 0.215751
0.894874 0.628438 0.219756
0.940343 0.625358 0.221631
0.976609 0.615790 0.222149
1.004815 0.600581 0.221814
1.044121 0.580542 0.220813
1.120304 0.553866 0.219953
1.152167 0.522733 0.217904
0.141819 0.645924 0.229924
0.142139 0.646658 0.140963
0.336882 0.649184 0.143547
0.440098 0.654051 0.148497
0.530922 0.662361 0.157037
0.615301 0.674441 0.169564
0.694283 0.689035 0.185117
0.768183 0.704042 0.201793
0.834386 0.715203 0.215542
0.890601 0.720177 0.223414
0.938811 0.720075 0.227942
0.977028 0.711831 0.230090
1.007437 0.696248 0.230471
1.047733 0.674850 0.229653
1.125563 0.646699 0.228861
1.157792 0.613124 0.226585
0.142624 0.729517 0.219029
0.142890 0.729956 0.141726
0.334378 0.732201 0.143944
0.437939 0.736066 0.147976
0.527543 0.742821 0.154743
0.609327 0.752466 0.164612
0.684782 0.764707 0.177212
0.755095 0.778302 0.191654
0.820440 0.791745 0.206517
0.880136 0.803240 0.220010
0.932598 0.809970 0.229049
0.974007 0.804637 0.234363
1.005938 0.790249 0.236931
1.048781 0.768339 0.237451
1.129053 0.739117 0.237402
1.162111 0.702827 0.235026
0.143345 0.806811 0.201074
0.143581 0.807234 0.142425
0.330226 0.809161 0.144360
0.434120 0.812547 0.147736
0.522618 0.817916 0.153228
0.602454 0.825806 0.161171
0.675285 0.835848 0.171377
0.742732 0.847237 0.183403
0.805059 0.859710 0.196476
0.863254 0.871910 0.209751
0.917597 0.883164 0.222532
0.966462 0.891482 0.232829
0.999855 0.879999 0.239114
1.045291 0.859379 0.242354
1.129983 0.830981 0.244971
1.164500 0.791896 0.242874
0.143952 0.875377 0.142801
0.144198 0.876085 0.143045
0.324465 0.877537 0.144749
0.428465 0.880552 0.147633
0.515925 0.885081 0.152197
0.594138 0.891378 0.158719
0.665027 0.899634 0.167129
0.730074 0.909460 0.177151
0.790053 0.920013 0.188288
0.845864 0.930875 0.200082
0.898380 0.941305 0.212064
0.948207 0.951483 0.223976
0.992671 0.960308 0.235208
1.036433 0.944153 0.242684
1.126882 0.919881 0.249908
1.163537 0.879261 0.248912
0.144516 0.934258 0.143375
0.144722 0.934637 0.143585
0.317371 0.935904 0.145095
0.421301 0.938364 0.147586
0.507499 0.942108 0.151452
0.584441 0.947217 0.156929
0.653701 0.953776 0.163948
0.716899 0.961346 0.172380
0.775055 0.969656 0.181883
0.828766 0.978334 0.192129
0.879303 0.986605 0.202829
0.927748 0.994625 0.213873
0.973200 1.001303 0.225197
1.021937 1.011133 0.236979
1.119161 0.995534 0.250979
1.158392 0.961045 0.251843
0.144919 0.973503 0.143783
0.145101 0.973772 0.143969
0.309526 0.974798 0.145327
0.413180 0.976728 0.147527
0.497974 0.979452 0.150894
0.573561 0.983506 0.155614
0.641527 0.988412 0.161678
0.703291 0.993883 0.168974
0.760180 0.999643 0.177301
0.812419 1.006830 0.186348
0.861380 1.015670 0.195932
0.908061 1.024688 0.205949
0.952943 1.034088 0.216364
0.994354 1.043702 0.227441
1.107738 1.060431 0.247598
1.148565 1.028182 0.250599
0.145150 0.992842 0.144018
0.145312 0.993227 0.144182
0.300518 0.994073 0.145402
0.402975 0.995480 0.147366
0.485936 0.997598 0.150328
0.559891 0.999978 0.154479
0.626319 1.004318 0.159802
0.686901 1.010402 0.166229
0.742514 1.017306 0.173648
0.793643 1.024806 0.181757
0.841390 1.032869 0.190423
0.886621 1.041224 0.199537
0.930310 1.049809 0.209094
0.971921 1.058749 0.219195
1.014992 1.068339 0.230145
1.137868 1.080948 0.246236
0.136243 0.000061 0.312792
0.233721 0.000099 0.313400
0.322375 0.000634 0.317099
0.419163 0.001732 0.329376
0.512899 0.002817 0.335803
0.601664 0.003925 0.337566
0.681873 0.004993 0.334732
0.752384 0.006000 0.327182
0.812952 0.006890 0.314652
0.864528 0.007656 0.295924
0.908355 0.008274 0.266277
0.945444 0.008529 0.162325
0.976462 0.009126 0.163657
1.000029 0.009670 0.164869
1.077503 0.010760 0.167211
1.110852 0.011238 0.168215
0.137039 0.028142 0.313433
0.231298 0.026796 0.321444
0.329672 0.024313 0.324470
0.428312 0.001837 0.330246
0.520461 0.002908 0.330055
0.607023 0.003983 0.326529
0.685614 0.005018 0.319255
0.754919 0.005987 0.307137
0.814952 0.006839 0.288675
0.865801 0.007554 0.259043
0.909034 0.007904 0.160889
0.946430 0.008567 0.162408
0.977225 0.009158 0.163741
1.000881 0.009702 0.164941
1.077574 0.010769 0.167246
1.110892 0.011246 0.168237
0.137302 0.074469 0.313685
0.213644 0.075219 0.315723
0.323041 0.075764 0.317711
0.434444 0.071303 0.322045
0.531427 0.035462 0.301363
0.617733 0.004008 0.258034
0.695428 0.004703 0.152838
0.763343 0.005674 0.155422
0.821669 0.006563 0.157663
0.871579 0.007359 0.159607
0.914356 0.008073 0.161260
0.950949 0.008715 0.162750
0.981081 0.009291 0.164041
1.006673 0.009829 0.165221
1.077860 0.010812 0.167313
1.111098 0.011282 0.168320
0.136605 0.138076 0.320097
0.196935 0.139090 0.314577
0.303947 0.140948 0.298218
0.429398 0.148596 0.295211
0.535715 0.151921 0.274950
0.624072 0.139308 0.165455
0.701994 0.120881 0.166318
0.768867 0.092960 0.166080
0.824489 0.044564 0.163176
0.871253 0.007433 0.159774
0.914132 0.008142 0.161424
0.950974 0.008780 0.162899
0.981076 0.009360 0.164184
1.007020 0.009896 0.165375
1.077646 0.010844 0.167404
1.110987 0.011313 0.168375
0.135932 0.210978 0.327534
0.188625 0.211978 0.318261
0.279187 0.217077 0.273669
0.428363 0.239032 0.244930
0.533110 0.239799 0.172947
0.625226 0.240447 0.175531
0.705526 0.238023 0.177619
0.774808 0.232481 0.179241
0.833742 0.223714 0.180331
0.883508 0.211622 0.180867
0.925782 0.195475 0.180882
0.960705 0.174490 0.180257
0.988573 0.146025 0.178833
1.015291 0.103557 0.176052
1.080436 0.034061 0.170810
1.111071 0.011391 0.168546
0.136074 0.291326 0.335065
0.186162 0.292324 0.323934
0.259167 0.298201 0.253613
0.415426 0.313748 0.203601
0.534800 0.331680 0.178737
0.624048 0.330014 0.184320
0.707071 0.334610 0.187250
0.778108 0.335671 0.189380
0.838253 0.333364 0.190937
0.889021 0.327719 0.191961
0.931726 0.318367 0.192445
0.967004 0.305443 0.192448
0.994674 0.288681 0.191975
1.027122 0.268014 0.191061
1.097496 0.245946 0.190815
1.128351 0.212891 0.188739
0.137039 0.377250 0.341822
0.183089 0.378194 0.329417
0.243614 0.383306 0.237751
0.410085 0.393589 0.149978
0.526025 0.412527 0.171207
0.627992 0.426263 0.190019
0.706486 0.425755 0.195624
0.779967 0.431867 0.198777
0.841528 0.433349 0.200779
0.893043 0.430526 0.201996
0.936353 0.423490 0.202623
0.971640 0.412489 0.202699
0.998571 0.397407 0.202274
1.034687 0.378687 0.201437
1.106084 0.357491 0.201133
1.137451 0.329492 0.199441
0.138205 0.466445 0.346588
0.172184 0.467344 0.333300
0.230449 0.471599 0.223799
0.408611 0.479263 0.147652
0.519676 0.493438 0.162896
0.620899 0.512231 0.184135
0.708760 0.523890 0.200189
0.778689 0.525001 0.206349
0.842864 0.530494 0.209837
0.895751 0.529868 0.211576
0.939877 0.524109 0.212398
0.975314 0.513567 0.212529
1.002177 0.498358 0.212030
1.040967 0.479137 0.211074
1.113394 0.456488 0.210508
1.144948 0.427895 0.208706
0.139360 0.556391 0.349124
0.139722 0.557233 0.335208
0.216997 0.560931 0.208520
0.407711 0.566838 0.146603
0.516228 0.577546 0.157809
0.611940 0.593047 0.174492
0.699956 0.610102 0.193938
0.776977 0.621444 0.208777
0.840039 0.624366 0.215835
0.895610 0.627307 0.219745
0.941355 0.623040 0.221484
0.977761 0.612680 0.221897
1.006699 0.596743 0.221474
1.046130 0.576255 0.220435
1.119946 0.551279 0.219615
1.151643 0.520621 0.217594
0.140452 0.644457 0.349326
0.140777 0.645133 0.335052
0.199730 0.648235 0.185890
0.406084 0.653261 0.146196
0.513146 0.661532 0.154749
0.604999 0.673695 0.167570
0.688449 0.688649 0.183702
0.765341 0.704086 0.201060
0.833471 0.715612 0.215414
0.891034 0.720308 0.223503
0.939605 0.719360 0.227980
0.977867 0.710292 0.230018
1.008894 0.693955 0.230318
1.049561 0.672147 0.229431
1.125279 0.644920 0.228610
1.157459 0.611434 0.226339
0.141465 0.728096 0.347389
0.141741 0.728751 0.333008
0.160908 0.731441 0.141797
0.403174 0.735764 0.146097
0.509268 0.742036 0.152870
0.598566 0.751979 0.162896
0.678217 0.764263 0.175828
0.751260 0.777975 0.190699
0.818504 0.791851 0.206011
0.879624 0.803644 0.219900
0.932939 0.809988 0.229113
0.974497 0.804004 0.234429
1.007108 0.789101 0.236961
1.050188 0.766695 0.237397
1.128935 0.737900 0.237253
1.161942 0.701500 0.234872
0.142368 0.805820 0.343392
0.142614 0.806168 0.329024
0.143608 0.808471 0.142457
0.398879 0.812085 0.146163
0.504144 0.817536 0.151685
0.591425 0.825323 0.159723
0.668463 0.835509 0.170136
0.738484 0.847033 0.182448
0.802680 0.859750 0.195793
0.861810 0.871942 0.209364
0.917168 0.883445 0.222402
0.966571 0.891786 0.232842
1.000029 0.879623 0.239205
1.046354 0.858401 0.242405
1.129999 0.830167 0.244951
1.164473 0.790930 0.242815
0.143162 0.874492 0.337445
0.143378 0.874985 0.323221
0.144217 0.877032 0.143069
0.393179 0.880043 0.146290
0.497299 0.884840 0.150901
0.583070 0.891288 0.157508
0.658016 0.899662 0.166041
0.725487 0.909506 0.176241
0.787332 0.920044 0.187599
0.844245 0.930985 0.199630
0.897540 0.941529 0.211770
0.947899 0.951676 0.223859
0.992783 0.960582 0.235257
1.037162 0.943920 0.242800
1.127094 0.919343 0.249998
1.163691 0.878485 0.248955
0.143844 0.933628 0.329902
0.144025 0.933949 0.315922
0.144744 0.935722 0.143608
0.386148 0.938279 0.146430
0.488985 0.941829 0.150342
0.573204 0.946970 0.155859
0.646548 0.953545 0.163003
0.712171 0.961270 0.171563
0.771970 0.969557 0.181221
0.826939 0.978300 0.191653
0.878078 0.986908 0.202487
0.927126 0.994894 0.213665
0.973072 1.001506 0.225116
1.022039 1.011327 0.236982
1.119218 0.995492 0.251078
1.158556 0.960628 0.251986
0.144338 0.972810 0.321434
0.144499 0.973145 0.307872
0.145124 0.974259 0.143992
0.378428 0.976561 0.146508
0.479758 0.979280 0.149927
0.562443 0.983274 0.154699
0.634293 0.988278 0.160851
0.698557 0.993930 0.168234
0.756756 0.999586 0.176657
0.810257 1.006876 0.185865
0.859981 1.015721 0.195539
0.907140 1.024824 0.205668
0.952415 1.034097 0.216198
0.994149 1.043807 0.227396
1.107747 1.060483 0.247643
1.148681 1.028011 0.250689
0.144641 0.992562 0.311307
0.144785 0.992729 0.298437
0.145336 0.993625 0.144201
0.369051 0.995324 0.146461
0.468130 0.997355 0.149474
0.548842 0.999878 0.153662
0.619196 1.004250 0.159045
0.682003 1.010352 0.165562
0.739148 1.017212 0.173044
0.791387 1.024857 0.181279
0.839850 1.033018 0.190057
0.885585 1.041253 0.199265
0.929532 1.049891 0.208864
0.971408 1.058938 0.219049
1.014991 1.068456 0.230093
1.137889 1.081007 0.246267
0.136554 0.000080 0.401244
0.237983 0.000169 0.401943
0.327199 0.000397 0.403133
0.410822 0.001134 0.407351
0.507050 0.002482 0.425351
0.597717 0.003794 0.437352
0.679061 0.005019 0.444555
0.750180 0.006146 0.447796
0.811416 0.007150 0.447597
0.863248 0.008028 0.444097
0.907614 0.008783 0.437441
0.945244 0.009450 0.427612
0.976382 0.010023 0.414292
1.000029 0.010521 0.397223
1.077587 0.011492 0.363698
1.110663 0.011815 0.328341
0.137950 0.030407 0.402407
0.227068 0.024961 0.415791
0.332261 0.023082 0.415861
0.419312 0.014041 0.416162
0.513770 0.002564 0.428080
0.602718 0.003879 0.436317
0.682643 0.005083 0.440971
0.752922 0.006188 0.442513
0.813246 0.007174 0.441034
0.864744 0.008042 0.436628
0.908714 0.008785 0.429253
0.946341 0.009447 0.418709
0.977152 0.010012 0.404788
1.000807 0.010502 0.386968
1.077574 0.011474 0.357496
1.110666 0.011790 0.321501
0.138955 0.080380 0.403182
0.210770 0.079809 0.411059
0.319675 0.074778 0.414011
0.422998 0.076170 0.419994
0.525276 0.048794 0.429749
0.613361 0.004082 0.425865
0.693029 0.005268 0.422036
0.761629 0.006315 0.416064
0.820397 0.007248 0.408267
0.870711 0.008068 0.398465
0.913653 0.008767 0.386229
0.950603 0.009386 0.370897
0.980684 0.009913 0.351417
1.006190 0.010357 0.325601
1.077593 0.011373 0.327899
1.110627 0.011671 0.287869
0.139053 0.140164 0.403307
0.198398 0.140922 0.404797
0.303774 0.141443 0.406487
0.414164 0.144112 0.410736
0.529495 0.145141 0.420639
0.623286 0.122157 0.408141
0.704144 0.074379 0.383557
0.769744 0.006368 0.346530
0.829252 0.007172 0.307995
0.878693 0.007754 0.248710
0.920894 0.008142 0.161428
0.957020 0.008793 0.162931
0.986599 0.009387 0.164258
1.017870 0.009967 0.165523
1.077332 0.011102 0.252182
1.110002 0.011206 0.168150
0.137939 0.212716 0.413626
0.190292 0.213617 0.411510
0.278383 0.215261 0.401740
0.393053 0.216184 0.387235
0.524893 0.230550 0.397184
0.627934 0.234229 0.389255
0.710758 0.223200 0.360112
0.780748 0.207653 0.319192
0.839009 0.187729 0.243609
0.887572 0.163557 0.176420
0.928689 0.133366 0.175220
0.962183 0.088804 0.172536
0.986471 0.009492 0.164476
1.017852 0.010059 0.165713
1.076638 0.010800 0.167296
1.110057 0.011273 0.168278
0.136370 0.291558 0.422697
0.186076 0.292251 0.418483
0.259036 0.294497 0.399386
0.369365 0.300345 0.364524
0.519658 0.327741 0.358060
0.626851 0.331595 0.343524
0.711560 0.329501 0.302175
0.782796 0.324016 0.188064
0.842926 0.316666 0.189197
0.893509 0.306479 0.189860
0.935852 0.293355 0.190064
0.970655 0.277063 0.189803
0.997604 0.257155 0.189121
1.034360 0.232587 0.187967
1.095628 0.235738 0.189571
1.126694 0.205754 0.187784
0.135911 0.376264 0.430894
0.185614 0.376669 0.425593
0.246978 0.379073 0.400347
0.345883 0.387340 0.340576
0.500663 0.409199 0.324853
0.621736 0.428320 0.189839
0.708187 0.426348 0.195851
0.783093 0.427645 0.198393
0.845155 0.425163 0.199960
0.896826 0.419049 0.200868
0.939893 0.409481 0.201250
0.975089 0.396334 0.201174
1.001369 0.379740 0.200639
1.041540 0.359548 0.199730
1.104596 0.351145 0.200203
1.136101 0.325104 0.198715
0.136030 0.464371 0.437336
0.187215 0.464992 0.431549
0.240157 0.467786 0.402753
0.325397 0.475680 0.319658
0.486997 0.489869 0.297626
0.605581 0.510941 0.180081
0.704911 0.525492 0.200010
0.780094 0.525679 0.206648
