src/luts/fairytale/13.cube
LUT_3D_SIZE 6
0.135903 0.000000 0.134657
0.423204 0.001650 0.143292
0.682623 0.004553 0.152447
0.864736 0.007257 0.159362
0.976965 0.009223 0.163896
1.111435 0.011305 0.168371
0.137542 0.139023 0.136313
0.435181 0.157004 0.162119
0.693875 0.154964 0.169412
0.872211 0.103007 0.170689
0.977032 0.009322 0.164107
1.111524 0.011378 0.168528
0.139727 0.379913 0.138524
0.444403 0.396642 0.155841
0.705323 0.425328 0.195513
0.890623 0.437806 0.202686
0.996949 0.408396 0.203284
1.138285 0.334120 0.200047
0.142127 0.646148 0.140951
0.446562 0.654234 0.149032
0.695554 0.689069 0.185451
0.890636 0.720069 0.223404
1.007119 0.696791 0.230506
1.157891 0.613521 0.226643
0.144182 0.875534 0.143037
0.434500 0.880561 0.147931
0.666443 0.899670 0.167384
0.846304 0.930826 0.200193
0.992628 0.960224 0.235186
1.163553 0.879378 0.248906
0.145303 0.993088 0.144173
0.407870 0.995619 0.147566
0.627590 1.004443 0.159990
0.794239 1.024943 0.181880
0.930340 1.049920 0.209136
1.137865 1.080960 0.246221
0.136554 0.000080 0.401244
0.410822 0.001134 0.407351
0.679061 0.005019 0.444555
0.863248 0.008028 0.444097
0.976382 0.010023 0.414292
1.110663 0.011815 0.328341
0.139053 0.140164 0.403307
0.414164 0.144112 0.410736
0.704144 0.074379 0.383557
0.878693 0.007754 0.248710
0.986599 0.009387 0.164258
1.110002 0.011206 0.168150
0.135911 0.376264 0.430894
0.345883 0.387340 0.340576
0.708187 0.426348 0.195851
0.896826 0.419049 0.200868
1.001369 0.379740 0.200639
1.136101 0.325104 0.198715
0.138139 0.642154 0.444478
0.295083 0.651792 0.288209
0.676572 0.687791 0.180593
0.891835 0.720747 0.223709
1.012031 0.689831 0.230044
1.156940 0.609374 0.225966
0.141497 0.872983 0.436281
0.260973 0.879822 0.250656
0.643438 0.899292 0.163707
0.840634 0.931256 0.198559
0.993244 0.960875 0.235390
1.163928 0.877947 0.249111
0.143487 0.991724 0.409906
0.235347 0.995217 0.218622
0.604566 1.004092 0.157460
0.787001 1.024935 0.180221
0.928272 1.050171 0.208400
1.137957 1.080888 0.246328
0.137312 0.000156 0.667562
0.436861 0.000691 0.669873
0.657875 0.002833 0.677104
0.849347 0.006993 0.711749
0.968393 0.009830 0.702166
1.103788 0.012405 0.657693
0.141774 0.166272 0.670777
0.401705 0.135137 0.693863
0.677936 0.122981 0.700017
0.863343 0.007376 0.709084
0.979313 0.010192 0.687956
1.104363 0.012489 0.649932
0.142343 0.381829 0.671235
0.346408 0.387358 0.678056
0.672381 0.401062 0.692645
0.890483 0.390930 0.700454
1.005792 0.345693 0.673398
1.132022 0.370670 0.695499
0.136950 0.641030 0.687170
0.301289 0.645007 0.670232
0.616531 0.659576 0.629668
0.900294 0.728639 0.639922
1.027234 0.677684 0.614584
1.154803 0.626075 0.693159
0.135903 0.867488 0.674695
0.286063 0.871270 0.651054
0.566657 0.891717 0.573541
0.823623 0.929481 0.552894
0.996966 0.964410 0.465371
1.168630 0.887314 0.666255
0.137722 0.987171 0.638772
0.280613 0.989721 0.614778
0.576583 1.000027 0.584540
0.773540 1.022238 0.555791
0.923268 1.051331 0.460296
1.141425 1.083743 0.622782
0.137984 0.000245 0.886764
0.448830 0.000768 0.888720
0.671174 0.001873 0.891831
0.829928 0.003961 0.896739
0.951346 0.007458 0.895147
1.086431 0.011071 0.855748
0.142962 0.177196 0.890182
0.383344 0.118725 0.921559
0.677547 0.107340 0.919885
0.843961 0.093455 0.915301
0.960827 0.007686 0.899931
1.086949 0.011162 0.853440
0.146117 0.406410 0.892321
0.338074 0.399490 0.909109
0.654370 0.379886 0.921734
0.854459 0.379345 0.927004
0.984371 0.354683 0.917891
1.112655 0.381289 0.882509
0.144315 0.647432 0.891212
0.306217 0.651386 0.895067
0.615898 0.659243 0.903534
0.843733 0.667750 0.912020
0.993984 0.689243 0.938273
1.131792 0.701819 0.946143
0.137926 0.869327 0.871937
0.286871 0.872434 0.866773
0.561287 0.880991 0.852792
0.803472 0.877319 0.863318
0.986239 0.944356 0.898973
1.162534 0.918057 0.955036
0.136049 0.985998 0.823469
0.280605 0.987614 0.815662
0.568606 0.992587 0.806595
0.798586 0.995934 0.855825
0.922605 1.028555 0.863292
1.146855 1.088096 0.933943
0.138508 0.000328 1.000027
0.442188 0.000836 1.001051
0.660766 0.001664 1.003859
0.816911 0.002868 1.007271
0.938197 0.004558 1.011428
1.062553 0.008269 0.988465
0.143455 0.171785 1.002999
0.364070 0.101787 1.006413
0.660715 0.094839 1.010194
0.826128 0.086471 1.014163
0.948698 0.081026 1.018881
1.068380 0.095421 0.990111
0.147501 0.394911 1.006384
0.331263 0.383057 1.010658
0.645428 0.368364 1.015373
0.831552 0.363316 1.021824
0.965236 0.350257 1.029292
1.083483 0.394881 0.996103
0.148758 0.631500 1.007437
0.308053 0.630606 1.011504
0.614708 0.630483 1.015444
0.835447 0.652333 1.025910
0.965421 0.654397 1.037620
1.095496 0.688419 1.011596
0.145185 0.875553 1.004438
0.292392 0.878521 1.007635
0.563571 0.886789 1.009359
0.811874 0.887455 1.014573
0.945778 0.887887 1.021976
1.090957 0.927157 1.055583
0.139109 0.988002 0.976396
0.282926 0.989596 0.975307
0.561287 0.994281 0.975002
0.794535 0.993248 0.984809
0.923165 0.990796 0.998750
1.054381 1.001469 1.016206
0.138599 0.000347 1.033219
0.420256 0.000800 1.035158
0.628522 0.001516 1.037632
0.781626 0.002553 1.040693
0.898260 0.003902 1.044092
1.053825 0.007010 1.054000
0.143133 0.153355 1.036969
0.402581 0.137443 1.038575
0.626849 0.140752 1.041738
0.783913 0.144858 1.045674
0.902336 0.149469 1.050050
1.060840 0.139502 1.060998
0.147031 0.356014 1.040221
0.404802 0.351444 1.042084
0.649917 0.377497 1.047035
0.795049 0.382776 1.052085
0.910234 0.388980 1.057984
1.072151 0.396507 1.072308
0.148926 0.569906 1.041825
0.406137 0.568578 1.043519
0.649721 0.582587 1.048194
0.833600 0.654330 1.057602
0.927973 0.662740 1.065617
1.084198 0.678542 1.084382
0.147127 0.791928 1.040297
0.404247 0.792033 1.041483
0.646808 0.798804 1.044587
0.828236 0.831461 1.051041
0.945937 0.891950 1.058382
1.093970 0.927497 1.094179
0.141812 0.989986 1.035875
0.399439 0.990160 1.036323
0.640734 0.990605 1.037199
0.818495 0.991186 1.038453
0.930085 0.990125 1.036732
1.051585 1.000982 1.051761
