src/luts/fairytale/14.cube
LUT_3D_SIZE 6
0.000387 0.000000 0.035938
0.205443 0.001953 0.039153
0.424684 0.004571 0.042790
0.637509 0.007335 0.046329
0.819449 0.009831 0.049392
1.047317 0.013250 0.053434
0.000387 0.174178 0.035938
0.210377 0.191121 0.047863
0.437625 0.206651 0.055418
0.649544 0.203176 0.057832
0.829583 0.181345 0.059253
1.052250 0.091322 0.058150
0.000387 0.393185 0.035938
0.186085 0.397817 0.035938
0.433976 0.428919 0.061298
0.664393 0.456044 0.075618
0.846466 0.449849 0.076844
1.072084 0.420964 0.077536
0.000387 0.623663 0.035938
0.131537 0.625617 0.035938
0.405748 0.640087 0.037344
0.645921 0.674429 0.070930
0.855738 0.694606 0.093668
1.087502 0.665969 0.095295
0.000387 0.839518 0.035938
0.000387 0.841442 0.035938
0.364914 0.847998 0.035938
0.599965 0.868014 0.044017
0.822425 0.900840 0.076369
1.094730 0.903488 0.111297
0.000387 0.989125 0.035938
0.000387 0.989886 0.035938
0.310469 0.992873 0.035938
0.549482 1.001255 0.035938
0.761141 1.023570 0.051929
1.073571 1.073571 0.102995
0.000387 0.000000 0.214571
0.198022 0.000609 0.216402
0.422568 0.004624 0.236183
0.636782 0.007754 0.236947
0.819144 0.010354 0.220021
1.047247 0.013589 0.154061
0.000387 0.170952 0.208856
0.196927 0.177476 0.215130
0.438293 0.184992 0.222398
0.660033 0.126965 0.166912
0.834635 0.010018 0.049622
1.046815 0.013216 0.053396
0.000387 0.388560 0.201419
0.123382 0.395375 0.142185
0.434884 0.429807 0.094595
0.672293 0.444884 0.074795
0.855297 0.430676 0.075419
1.070979 0.413910 0.076768
0.000387 0.620581 0.156220
0.000387 0.627406 0.035938
0.386627 0.639988 0.035938
0.646463 0.675095 0.070842
0.860373 0.690290 0.093706
1.086965 0.662691 0.094857
0.000387 0.837812 0.035938
0.000387 0.842644 0.035938
0.336787 0.848805 0.035938
0.591931 0.868333 0.042727
0.822925 0.901387 0.076272
1.094827 0.902372 0.111348
0.000387 0.987747 0.035938
0.000387 0.988892 0.035938
0.302435 0.991843 0.035938
0.545876 1.000027 0.035938
0.759216 1.022444 0.050926
1.073496 1.073496 0.102989
0.000387 0.000000 0.439189
0.209999 0.000000 0.438720
0.407938 0.000894 0.441956
0.627684 0.005936 0.471514
0.813726 0.009665 0.473456
1.044908 0.013914 0.451770
0.000387 0.187535 0.435102
0.191108 0.171849 0.439640
0.414707 0.173660 0.449388
0.648892 0.133190 0.475485
0.829596 0.010143 0.460261
1.045255 0.014105 0.443513
0.000387 0.385516 0.425616
0.144587 0.386779 0.426955
0.405152 0.399084 0.439164
0.660143 0.429960 0.470894
0.846496 0.420829 0.461738
1.068996 0.416924 0.458644
0.000387 0.612786 0.425289
0.000387 0.616441 0.407277
0.357306 0.619543 0.390764
0.644305 0.672908 0.419743
0.868258 0.685623 0.414041
1.086722 0.663969 0.449651
0.000387 0.829753 0.397102
0.000387 0.833832 0.368640
0.263552 0.843647 0.293285
0.568622 0.863471 0.280685
0.822430 0.901351 0.256079
1.097171 0.904707 0.413846
0.000387 0.982700 0.350003
0.000387 0.983374 0.341727
0.301413 0.985295 0.339357
0.540020 0.995052 0.337302
0.753811 1.016408 0.338633
1.074465 1.074465 0.335106
0.000387 0.000000 0.684545
0.217765 0.000000 0.683674
0.420394 0.000000 0.684121
0.611053 0.000890 0.687395
0.799171 0.005875 0.700588
1.036411 0.012176 0.687010
0.000387 0.196349 0.680748
0.187493 0.168100 0.690915
0.420016 0.156130 0.701353
0.624697 0.139915 0.704581
0.815812 0.086591 0.709899
1.040850 0.096411 0.688261
0.000387 0.405893 0.674077
0.142985 0.400748 0.688813
0.395911 0.389633 0.681094
0.615077 0.399665 0.692287
0.821893 0.410839 0.712306
1.057526 0.416143 0.702659
0.000387 0.611793 0.662769
0.091237 0.613304 0.664368
0.365803 0.610285 0.661185
0.604497 0.629146 0.680472
0.836467 0.672071 0.726242
1.077909 0.683600 0.738466
0.000387 0.824010 0.647280
0.000387 0.826639 0.639729
0.267180 0.828077 0.618385
0.555917 0.824664 0.633247
0.805337 0.883150 0.683800
1.098386 0.915354 0.742439
0.000387 0.975421 0.606169
0.000387 0.975805 0.603053
0.300751 0.974224 0.599402
0.545368 0.977859 0.625150
0.742951 0.998179 0.643763
1.075651 1.075651 0.708744
0.000387 0.000000 0.906930
0.217531 0.000000 0.906083
0.419665 0.000000 0.905759
0.608302 0.000000 0.906953
0.784678 0.000834 0.909880
1.021565 0.008088 0.900633
0.000387 0.196352 0.903386
0.172882 0.153185 0.928591
0.415164 0.141622 0.929118
0.615740 0.127193 0.926471
0.796744 0.116554 0.924054
1.026258 0.150269 0.904391
0.000387 0.407595 0.898137
0.137271 0.398056 0.918364
0.394022 0.387446 0.910539
0.602485 0.389119 0.911852
0.793503 0.390846 0.920097
1.035661 0.413983 0.913426
0.000387 0.616207 0.889509
0.105020 0.614667 0.898177
0.369767 0.610063 0.900341
0.593172 0.617487 0.897000
0.785004 0.630667 0.910949
1.049120 0.668190 0.932254
0.000387 0.823585 0.877345
0.036787 0.825035 0.878691
0.305478 0.826121 0.879562
0.567205 0.819169 0.872760
0.768973 0.839196 0.893656
1.070643 0.912280 0.960157
0.000387 0.972793 0.838392
0.000387 0.972870 0.837314
0.324981 0.969406 0.832792
0.545612 0.966859 0.837759
0.725923 0.964933 0.853755
1.062422 1.062423 0.949717
0.000387 0.000000 1.000003
0.210705 0.000000 0.999933
0.406875 0.000000 0.999864
0.590121 0.000000 0.999921
0.760709 0.000000 1.000022
1.007067 0.003283 1.007078
0.000387 0.189462 0.999676
0.190940 0.171730 0.999610
0.399094 0.171588 0.999614
0.586164 0.172727 0.999769
0.759207 0.175358 0.999974
1.009442 0.178314 1.009452
0.000387 0.394609 0.999015
0.186406 0.388281 0.998946
0.396156 0.389893 0.998984
0.583379 0.391865 0.999331
0.757852 0.396146 0.999803
1.012290 0.408931 1.012300
0.000387 0.598064 0.997663
0.179467 0.594574 0.997437
0.389121 0.595095 0.997407
0.594146 0.618604 0.997795
0.759373 0.625173 0.999136
1.015081 0.647438 1.015091
0.000387 0.800344 0.994795
0.169192 0.797807 0.994414
0.378079 0.797041 0.994070
0.581650 0.805770 0.993898
0.758749 0.828713 0.995039
1.016492 0.869305 1.016502
0.000387 0.972922 0.991006
0.129758 0.971571 0.990402
0.357852 0.969468 0.989321
0.564227 0.967839 0.988538
0.738558 0.965823 0.987508
1.000017 1.000018 1.000080
