src/luts/fairytale/14.cube
LUT_3D_SIZE 16
0.000387 0.000000 0.035938
0.069873 0.000308 0.036305
0.135958 0.000811 0.037339
0.205443 0.001953 0.039153
0.277148 0.002773 0.040357
0.350675 0.003651 0.041564
0.424684 0.004571 0.042790
0.497720 0.005488 0.043998
0.568980 0.006417 0.045181
0.637509 0.007335 0.046329
0.702463 0.008217 0.047421
0.763178 0.009049 0.048440
0.819449 0.009831 0.049392
0.870632 0.010554 0.050256
0.917652 0.011229 0.051058
1.047317 0.013250 0.053434
0.000387 0.050269 0.035938
0.069524 0.051843 0.037297
0.137633 0.050704 0.039007
0.207863 0.049404 0.041385
0.280071 0.043352 0.043054
0.352156 0.023278 0.042957
0.424744 0.004612 0.042843
0.497833 0.005521 0.044043
0.569032 0.006450 0.045219
0.637545 0.007362 0.046363
0.702513 0.008239 0.047446
0.763088 0.009069 0.048467
0.819491 0.009851 0.049416
0.870672 0.010572 0.050280
0.917704 0.011245 0.051076
1.047332 0.013266 0.053450
0.000387 0.109328 0.035938
0.060421 0.110625 0.035938
0.137253 0.116706 0.041154
0.211079 0.121619 0.045178
0.285378 0.125401 0.048271
0.358631 0.125319 0.049105
0.432287 0.123185 0.049974
0.504855 0.118351 0.050752
0.575500 0.110131 0.051367
0.643144 0.097267 0.051731
0.706977 0.077072 0.051653
0.764884 0.031959 0.050049
0.819371 0.009932 0.049516
0.870733 0.010647 0.050371
0.917801 0.011314 0.051159
1.047395 0.013325 0.053517
0.000387 0.174178 0.035938
0.043922 0.174924 0.035938
0.129920 0.179814 0.037025
0.210377 0.191121 0.047863
0.289242 0.200778 0.053577
0.363565 0.204450 0.054576
0.437625 0.206651 0.055418
0.510452 0.207295 0.056263
0.581380 0.206270 0.057085
0.649544 0.203176 0.057832
0.713915 0.198217 0.058462
0.774202 0.191045 0.058950
0.829583 0.181345 0.059253
0.880022 0.168908 0.059347
0.926041 0.153294 0.059229
1.052250 0.091322 0.058150
0.000387 0.244132 0.035938
0.000387 0.244704 0.035938
0.121266 0.247222 0.035938
0.202443 0.255208 0.040591
0.284556 0.268105 0.053089
0.366306 0.280544 0.059656
0.442188 0.286042 0.061175
0.515602 0.289175 0.062052
0.586824 0.290715 0.062823
0.655117 0.290467 0.063533
0.719688 0.288445 0.064160
0.779909 0.284564 0.064688
0.835475 0.278590 0.065068
0.886105 0.270536 0.065299
0.932187 0.260832 0.065408
1.060719 0.238122 0.066216
0.000387 0.317528 0.035938
0.000387 0.317944 0.035938
0.109184 0.319386 0.035938
0.194832 0.324430 0.035938
0.276542 0.334182 0.044314
0.359240 0.347432 0.057298
0.443175 0.362404 0.065456
0.519326 0.369234 0.067831
0.591558 0.372605 0.068853
0.660225 0.374096 0.069566
0.725258 0.373448 0.070109
0.785477 0.370727 0.070538
0.841134 0.365820 0.070822
0.891558 0.358703 0.070964
0.937482 0.350069 0.071001
1.066581 0.334387 0.071965
0.000387 0.393185 0.035938
0.000387 0.393534 0.035938
0.088907 0.394545 0.035938
0.186085 0.397817 0.035938
0.268947 0.404642 0.037689
0.351193 0.415430 0.048060
0.433976 0.428919 0.061298
0.518513 0.445285 0.070815
0.594199 0.452939 0.074365
0.664393 0.456044 0.075618
0.729844 0.456539 0.076295
0.790617 0.454458 0.076674
0.846466 0.449849 0.076844
0.897043 0.442775 0.076837
0.942771 0.433986 0.076723
1.072084 0.420964 0.077536
0.000387 0.469901 0.035938
0.000387 0.470173 0.035938
0.045448 0.470979 0.035938
0.174051 0.473215 0.035938
0.260675 0.478008 0.035938
0.342959 0.486187 0.040618
0.425290 0.497727 0.051692
0.507325 0.511078 0.064953
0.591172 0.528019 0.075620
0.665739 0.536111 0.080416
0.733075 0.538377 0.082169
0.794826 0.537095 0.082849
0.851246 0.532620 0.083048
0.902184 0.525213 0.082949
0.947554 0.515908 0.082688
1.077522 0.503949 0.083251
0.000387 0.547051 0.035938
0.000387 0.547263 0.035938
0.000387 0.548261 0.035938
0.156874 0.549503 0.035938
0.250384 0.553148 0.035938
0.334148 0.559189 0.035938
0.415763 0.568268 0.043622
0.497335 0.580031 0.055018
0.578256 0.593288 0.068181
0.660474 0.609773 0.079748
0.732737 0.617383 0.085744
0.797047 0.618426 0.088312
0.854705 0.614511 0.089043
0.906252 0.606885 0.089087
0.951805 0.596912 0.088803
1.082723 0.585320 0.089192
0.000387 0.623663 0.035938
0.000387 0.623790 0.035938
0.000387 0.624710 0.035938
0.131537 0.625617 0.035938
0.237025 0.628263 0.035938
0.323830 0.633035 0.035938
0.405748 0.640087 0.037344
0.486366 0.649566 0.046499
0.566530 0.661483 0.057981
0.645921 0.674429 0.070930
0.725205 0.689340 0.083093
0.794830 0.695672 0.090243
0.855738 0.694606 0.093668
0.908940 0.687640 0.094745
0.955168 0.677351 0.094759
1.087502 0.665969 0.095295
0.000387 0.698752 0.035938
0.000387 0.698775 0.035938
0.000387 0.699692 0.035938
0.090010 0.700466 0.035938
0.219692 0.702318 0.035938
0.311160 0.706142 0.035938
0.394338 0.711706 0.035938
0.474516 0.719260 0.039680
0.553656 0.729151 0.049149
0.632087 0.740737 0.060545
0.709518 0.753351 0.073178
0.784937 0.765712 0.085591
0.851278 0.769771 0.093846
0.908420 0.765816 0.098134
0.956725 0.756280 0.099843
1.091559 0.745960 0.101368
0.000387 0.771172 0.035938
0.000387 0.771211 0.035938
0.000387 0.771897 0.035938
0.000387 0.773039 0.035938
0.196913 0.774201 0.035938
0.295502 0.777049 0.035938
0.380838 0.781456 0.035938
0.461251 0.787659 0.035938
0.539525 0.795795 0.041929
0.616751 0.805660 0.051493
0.693095 0.816986 0.062689
0.768551 0.829294 0.074961
0.839300 0.837516 0.087261
0.901984 0.838492 0.096584
0.954696 0.832271 0.101803
1.094249 0.825647 0.107038
0.000387 0.839518 0.035938
0.000387 0.839759 0.035938
0.000387 0.840322 0.035938
0.000387 0.841442 0.035938
0.166674 0.842089 0.035938
0.276399 0.844444 0.035938
0.364914 0.847998 0.035938
0.446051 0.853026 0.035938
0.523979 0.859773 0.036102
0.599965 0.868014 0.044017
0.674864 0.877679 0.053519
0.749029 0.888926 0.064454
0.822425 0.900840 0.076369
0.888410 0.904238 0.088426
0.947129 0.902430 0.098614
1.094730 0.903488 0.111297
0.000387 0.903427 0.035938
0.000387 0.903678 0.035938
0.000387 0.904117 0.035938
0.000387 0.904945 0.035938
0.123147 0.905748 0.035938
0.253032 0.907341 0.035938
0.346003 0.910275 0.035938
0.428575 0.914379 0.035938
0.506196 0.919862 0.035938
0.581484 0.926598 0.037885
0.655034 0.934446 0.045864
0.727598 0.943755 0.055235
0.799496 0.953800 0.065857
0.871513 0.964110 0.077478
0.932806 0.963776 0.089299
1.091150 0.973706 0.112128
0.000387 0.959676 0.035938
0.000387 0.959760 0.035938
0.000387 0.960088 0.035938
0.000387 0.961031 0.035938
0.030057 0.961726 0.035938
0.225422 0.962770 0.035938
0.324834 0.964957 0.035938
0.409403 0.968006 0.035938
0.487461 0.971944 0.035938
0.562059 0.977291 0.035938
0.634551 0.982958 0.039620
0.705670 0.989794 0.047603
0.775863 0.996919 0.056789
0.846275 1.004547 0.067172
0.916664 1.015708 0.078545
1.082107 1.034654 0.108189
0.000387 0.989125 0.035938
0.000387 0.988915 0.035938
0.000387 0.989331 0.035938
0.000387 0.989886 0.035938
0.000387 0.991015 0.035938
0.205579 0.991273 0.035938
0.310469 0.992873 0.035938
0.396565 0.995246 0.035938
0.475066 0.998185 0.035938
0.549482 1.001255 0.035938
0.621457 1.007568 0.036327
0.691669 1.015013 0.043543
0.761141 1.023570 0.051929
0.830335 1.033212 0.061483
0.899880 1.043772 0.072106
1.073571 1.073571 0.102995
0.000387 0.000000 0.092422
0.067998 0.000220 0.092817
0.135289 0.000794 0.092849
0.205115 0.001949 0.091488
0.277133 0.002896 0.085797
0.350636 0.003733 0.069439
0.424562 0.004537 0.042746
0.497652 0.005464 0.043965
0.568898 0.006398 0.045159
0.637447 0.007320 0.046312
0.702491 0.008200 0.047405
0.763115 0.009031 0.048423
0.819367 0.009810 0.049364
0.870562 0.010534 0.050232
0.917546 0.011207 0.051027
1.047277 0.013223 0.053404
0.000387 0.049721 0.091866
0.067891 0.050352 0.092452
0.137111 0.049542 0.091614
0.211954 0.039313 0.081095
0.283477 0.002837 0.040460
0.356320 0.003725 0.041661
0.429415 0.004628 0.042867
0.501581 0.005534 0.044061
0.572074 0.006461 0.045237
0.639994 0.007370 0.046374
0.704640 0.008244 0.047455
0.765046 0.009074 0.048472
0.820875 0.009851 0.049417
0.871976 0.010575 0.050279
0.918985 0.011246 0.051078
1.047283 0.013250 0.053433
0.000387 0.108776 0.085278
0.051168 0.110953 0.076898
0.136218 0.115625 0.067757
0.214412 0.119925 0.045170
0.289322 0.120707 0.047943
0.362397 0.117947 0.048667
0.435540 0.113331 0.049428
0.507467 0.105918 0.050086
0.577414 0.094539 0.050541
0.644348 0.076766 0.050633
0.706821 0.041632 0.049672
0.765113 0.009165 0.048587
0.820890 0.009934 0.049514
0.872002 0.010649 0.050370
0.919050 0.011316 0.051159
1.047348 0.013310 0.053504
0.000387 0.173279 0.069851
0.000387 0.175474 0.035938
0.124842 0.179883 0.036298
0.210727 0.191423 0.047917
0.291194 0.199860 0.053541
0.366036 0.202197 0.054416
0.440106 0.203263 0.055185
0.512666 0.202911 0.055990
0.583268 0.201080 0.056780
0.651129 0.197409 0.057493
0.715294 0.191764 0.058097
0.775397 0.183958 0.058559
0.830654 0.173659 0.058829
0.880819 0.160366 0.058886
0.926685 0.143707 0.058720
1.051926 0.086064 0.057851
0.000387 0.243572 0.035938
0.000387 0.245159 0.035938
0.112753 0.247440 0.035938
0.199827 0.255281 0.040128
0.284806 0.268323 0.053110
0.367456 0.280068 0.059671
0.443676 0.284774 0.061087
0.517140 0.287280 0.061917
0.588229 0.288211 0.062650
0.656434 0.287589 0.063341
0.720798 0.285258 0.063958
0.781063 0.281061 0.064473
0.836397 0.274900 0.064854
0.886915 0.266683 0.065069
0.933001 0.256865 0.065175
1.060582 0.236826 0.066124
0.000387 0.317104 0.035938
0.000387 0.318287 0.035938
0.097457 0.319700 0.035938
0.190685 0.324499 0.035938
0.275059 0.334238 0.044027
0.359442 0.347607 0.057308
0.443981 0.362150 0.065499
0.520251 0.368359 0.067791
0.592576 0.371414 0.068770
0.661282 0.372451 0.069446
0.726016 0.371510 0.069975
0.786450 0.368694 0.070402
0.841994 0.363622 0.070682
0.892595 0.356387 0.070817
0.938404 0.347703 0.070860
1.066470 0.333570 0.071896
0.000387 0.392862 0.035938
0.000387 0.393678 0.035938
0.071309 0.394716 0.035938
0.180923 0.397871 0.035938
0.266541 0.404640 0.037381
0.350336 0.415542 0.047883
0.434247 0.429106 0.061310
0.519017 0.445031 0.070859
0.594840 0.452415 0.074344
0.665042 0.455302 0.075561
0.730422 0.455510 0.076215
0.791418 0.453163 0.076573
0.847112 0.448555 0.076748
0.897765 0.441325 0.076729
0.943285 0.432535 0.076618
1.072002 0.420390 0.077480
0.000387 0.469611 0.035938
0.000387 0.470328 0.035938
0.000387 0.471518 0.035938
0.167915 0.473270 0.035938
0.257715 0.478132 0.035938
0.341458 0.486300 0.040393
0.424721 0.497864 0.051563
0.507445 0.511234 0.064952
0.591575 0.527869 0.075670
0.666265 0.535729 0.080424
0.733854 0.537862 0.082140
0.795528 0.536355 0.082795
0.851663 0.531748 0.082993
0.902700 0.524283 0.082876
0.948136 0.514914 0.082610
1.077459 0.503543 0.083209
0.000387 0.546826 0.035938
0.000387 0.547397 0.035938
0.000387 0.548342 0.035938
0.149553 0.549612 0.035938
0.247028 0.553179 0.035938
0.332256 0.559289 0.035938
0.414822 0.568232 0.043453
0.496924 0.580065 0.054917
0.578234 0.593299 0.068162
0.660721 0.609730 0.079808
0.733352 0.617224 0.085779
0.797642 0.618057 0.088288
0.854964 0.613932 0.089014
0.906695 0.606222 0.089053
0.952389 0.596299 0.088745
1.082651 0.584927 0.089153
0.000387 0.623432 0.035938
0.000387 0.623927 0.035938
0.000387 0.624752 0.035938
0.122194 0.625692 0.035938
0.233328 0.628380 0.035938
0.321637 0.633034 0.035938
0.404472 0.640089 0.037171
0.485576 0.649600 0.046356
0.566225 0.661476 0.057906
0.645932 0.674417 0.070918
0.725448 0.689351 0.083129
0.795331 0.695583 0.090286
0.855923 0.694350 0.093679
0.909190 0.687300 0.094721
0.955644 0.676918 0.094735
1.087464 0.665669 0.095271
0.000387 0.698594 0.035938
0.000387 0.699095 0.035938
0.000387 0.699752 0.035938
0.074345 0.700586 0.035938
0.215474 0.702430 0.035938
0.308831 0.706138 0.035938
0.392844 0.711671 0.035938
0.473574 0.719223 0.039544
0.553075 0.729049 0.049042
0.631871 0.740856 0.060496
0.709611 0.753503 0.073175
0.785132 0.765823 0.085640
0.851433 0.769702 0.093893
0.908547 0.765493 0.098151
0.956934 0.756137 0.099843
1.091541 0.745949 0.101363
0.000387 0.770989 0.035938
0.000387 0.771296 0.035938
0.000387 0.771996 0.035938
0.000387 0.773300 0.035938
0.192189 0.774245 0.035938
0.292988 0.777260 0.035938
0.379329 0.781663 0.035938
0.460252 0.787704 0.035938
0.538846 0.795865 0.041814
0.616312 0.805747 0.051404
0.692886 0.817026 0.062622
0.768570 0.829358 0.074948
0.839343 0.837435 0.087296
0.902278 0.838495 0.096619
0.954815 0.832226 0.101829
1.094236 0.825358 0.107027
0.000387 0.839542 0.035938
0.000387 0.839919 0.035938
0.000387 0.840450 0.035938
0.000387 0.841556 0.035938
0.161156 0.842154 0.035938
0.273718 0.844575 0.035938
0.363231 0.847940 0.035938
0.444973 0.853236 0.035938
0.523146 0.859922 0.035989
0.599438 0.868004 0.043917
0.674510 0.877844 0.053440
0.748852 0.888889 0.064392
0.822470 0.900889 0.076355
0.888581 0.904107 0.088459
0.947339 0.902477 0.098658
1.094757 0.903337 0.111300
0.000387 0.903321 0.035938
0.000387 0.903686 0.035938
0.000387 0.904125 0.035938
0.000387 0.904972 0.035938
0.115548 0.905729 0.035938
0.250243 0.907429 0.035938
0.344367 0.910274 0.035938
0.427400 0.914402 0.035938
0.505537 0.919902 0.035938
0.580898 0.926546 0.037789
0.654703 0.934389 0.045795
0.727470 0.943662 0.055196
0.799477 0.953757 0.065816
0.871575 0.964145 0.077471
0.932988 0.963678 0.089321
1.091160 0.973682 0.112136
0.000387 0.959726 0.035938
0.000387 0.959939 0.035938
0.000387 0.960242 0.035938
0.000387 0.960863 0.035938
0.000387 0.962231 0.035938
0.222575 0.962899 0.035938
0.323193 0.964922 0.035938
0.408166 0.968068 0.035938
0.486570 0.972016 0.035938
0.561536 0.977237 0.035938
0.634161 0.982954 0.039545
0.705423 0.989767 0.047546
0.775789 0.996754 0.056740
0.846231 1.004462 0.067142
0.916676 1.015629 0.078544
1.082118 1.034591 0.108201
0.000387 0.988891 0.035938
0.000387 0.989123 0.035938
0.000387 0.989317 0.035938
0.000387 0.989778 0.035938
0.000387 0.990901 0.035938
0.204467 0.991413 0.035938
0.309795 0.992836 0.035938
0.396131 0.995067 0.035938
0.474729 0.997958 0.035938
0.549217 1.001155 0.035938
0.621179 1.007472 0.036241
0.691636 1.014932 0.043472
0.760932 1.023478 0.051853
0.830160 1.033130 0.061422
0.899706 1.043723 0.072071
1.073567 1.073568 0.102995
0.000387 0.000000 0.150536
0.066862 0.000000 0.150458
0.131721 0.000372 0.151554
0.202999 0.001707 0.156974
0.275885 0.002819 0.160200
0.349961 0.003852 0.161485
0.424313 0.004826 0.160650
0.497543 0.005804 0.157354
0.568924 0.006744 0.151240
0.637510 0.007635 0.141543
0.702463 0.008463 0.126535
0.763125 0.009190 0.100350
0.818989 0.009739 0.049276
0.870376 0.010475 0.050158
0.917391 0.011161 0.050976
1.047145 0.013204 0.053384
0.000387 0.049187 0.149959
0.066909 0.049711 0.151363
0.132979 0.049597 0.152736
0.209145 0.039676 0.158619
0.282273 0.002960 0.157608
0.355669 0.003950 0.155609
0.429104 0.004891 0.152114
0.501461 0.005846 0.146357
0.571998 0.006757 0.137531
0.639986 0.007618 0.123899
0.704420 0.008398 0.100418
0.764772 0.008996 0.048374
0.820787 0.009784 0.049332
0.871684 0.010514 0.050210
0.918595 0.011196 0.051019
1.047170 0.013217 0.053399
0.000387 0.107820 0.148129
0.056154 0.109654 0.149848
0.131269 0.110665 0.150779
0.205803 0.112516 0.152485
0.283049 0.113199 0.153111
0.364012 0.102745 0.143261
0.440205 0.078866 0.120515
0.511174 0.033015 0.073715
0.580111 0.006571 0.045371
0.647745 0.007473 0.046500
0.711573 0.008338 0.047575
0.771683 0.009163 0.048583
0.826992 0.009935 0.049515
0.877570 0.010650 0.050374
0.924271 0.011322 0.051169
1.047134 0.013249 0.053430
0.000387 0.171706 0.144420
0.000387 0.172911 0.140450
0.121243 0.176723 0.141104
0.203518 0.184095 0.140995
0.287671 0.191574 0.135354
0.369984 0.195235 0.121796
0.445378 0.191195 0.080868
0.518450 0.185756 0.054834
0.589013 0.179239 0.055430
0.656394 0.171116 0.055959
0.719871 0.161068 0.056367
0.779256 0.148475 0.056602
0.833828 0.132502 0.056604
0.883282 0.111248 0.056270
0.928038 0.079586 0.055327
1.049697 0.051033 0.055854
0.000387 0.241163 0.138653
0.000387 0.242512 0.131349
0.087353 0.245581 0.108368
0.191298 0.253477 0.104285
0.285387 0.268925 0.091151
0.370418 0.277813 0.059655
0.447765 0.279392 0.060666
0.521954 0.279196 0.061293
0.593200 0.277741 0.061898
0.661253 0.275015 0.062494
0.725446 0.270872 0.063038
0.785319 0.265166 0.063495
0.840344 0.257712 0.063827
0.890555 0.248352 0.064010
0.936334 0.237479 0.064074
1.060040 0.230801 0.065702
0.000387 0.315090 0.129084
0.000387 0.316198 0.118356
0.012772 0.320015 0.035938
0.174977 0.323917 0.035938
0.269199 0.333917 0.042672
0.359829 0.348093 0.057331
0.446638 0.360781 0.065642
0.523648 0.364700 0.067568
0.596302 0.365948 0.068365
0.665068 0.365498 0.068930
0.729875 0.363391 0.069392
0.790271 0.359473 0.069768
0.845648 0.353640 0.070018
0.895904 0.345816 0.070139
0.941427 0.336567 0.070174
1.066067 0.329950 0.071589
0.000387 0.391221 0.111093
0.000387 0.392093 0.094377
0.000387 0.395621 0.035938
0.158414 0.397987 0.035938
0.256455 0.404506 0.035938
0.346410 0.415506 0.047013
0.434518 0.429467 0.061323
0.521037 0.444158 0.071042
0.597470 0.449980 0.074248
0.667992 0.451474 0.075315
0.733534 0.450617 0.075864
0.794619 0.447479 0.076168
0.850121 0.442225 0.076294
0.900638 0.434468 0.076257
0.946144 0.425434 0.076138
1.071650 0.417828 0.077228
0.000387 0.468298 0.070882
0.000387 0.469195 0.035938
0.000387 0.472067 0.035938
0.138182 0.473754 0.035938
0.244497 0.478301 0.035938
0.334630 0.486219 0.039362
0.421990 0.497885 0.050974
0.507688 0.511515 0.064942
0.593154 0.527346 0.075862
0.668195 0.534043 0.080439
0.735890 0.535123 0.081990
0.797959 0.532852 0.082553
0.854228 0.527703 0.082701
0.905158 0.519764 0.082554
0.950652 0.510109 0.082259
1.077148 0.501582 0.082995
0.000387 0.545803 0.035938
0.000387 0.546469 0.035938
0.000387 0.548895 0.035938
0.109395 0.550264 0.035938
0.231027 0.553438 0.035938
0.323489 0.559331 0.035938
0.410073 0.568261 0.042689
0.494978 0.580251 0.054497
0.578530 0.593604 0.068163
0.661909 0.609216 0.079968
0.734836 0.615914 0.085857
0.799474 0.616115 0.088228
0.856971 0.611535 0.088868
0.908813 0.603272 0.088849
0.954358 0.593057 0.088520
1.082376 0.583495 0.088978
0.000387 0.622651 0.035938
0.000387 0.623061 0.035938
0.000387 0.625281 0.035938
0.054897 0.626545 0.035938
0.214621 0.628749 0.035938
0.311339 0.633167 0.035938
0.398383 0.640157 0.036433
0.482201 0.649703 0.045778
0.564884 0.661633 0.057597
0.646132 0.674640 0.070923
0.726355 0.689215 0.083299
0.796506 0.694828 0.090397
0.857463 0.692849 0.093678
0.911030 0.685366 0.094632
0.957190 0.674727 0.094593
1.087314 0.664491 0.095125
0.000387 0.697821 0.035938
0.000387 0.698264 0.035938
0.000387 0.700164 0.035938
0.000387 0.701442 0.035938
0.193646 0.702804 0.035938
0.297115 0.706215 0.035938
0.385730 0.711701 0.035938
0.469104 0.719506 0.038959
0.550580 0.729335 0.048591
0.630871 0.740952 0.060248
0.709674 0.753722 0.073171
0.785972 0.765489 0.085804
0.852501 0.769121 0.094011
0.909971 0.764288 0.098212
0.958379 0.754854 0.099816
1.091389 0.744865 0.101246
0.000387 0.770460 0.035938
0.000387 0.770784 0.035938
0.000387 0.772388 0.035938
0.000387 0.773661 0.035938
0.165802 0.774687 0.035938
0.279944 0.777346 0.035938
0.371292 0.781861 0.035938
0.455029 0.787942 0.035938
0.535526 0.796060 0.041344
0.614474 0.805876 0.051062
0.692103 0.817206 0.062452
0.768826 0.829505 0.074958
0.839954 0.837631 0.087422
0.903320 0.837924 0.096769
0.956054 0.831480 0.101923
1.094239 0.824826 0.106984
0.000387 0.839007 0.035938
0.000387 0.839305 0.035938
0.000387 0.840807 0.035938
0.000387 0.841904 0.035938
0.126371 0.842874 0.035938
0.259283 0.844859 0.035938
0.354465 0.848294 0.035938
0.439157 0.853445 0.035938
0.519246 0.859814 0.035938
0.596891 0.868249 0.043538
0.673055 0.878090 0.053178
0.748375 0.888986 0.064246
0.822657 0.900956 0.076345
0.888984 0.904062 0.088551
0.948095 0.902080 0.098790
1.094784 0.902873 0.111305
0.000387 0.902850 0.035938
0.000387 0.903205 0.035938
0.000387 0.904406 0.035938
0.000387 0.905310 0.035938
0.050274 0.906453 0.035938
0.234031 0.907833 0.035938
0.334881 0.910652 0.035938
0.421086 0.914575 0.035938
0.501115 0.919885 0.035938
0.577917 0.926708 0.037420
0.652692 0.934637 0.045478
0.725984 0.943776 0.054937
0.798918 0.953834 0.065673
0.871691 0.964315 0.077450
0.933449 0.963658 0.089400
1.091222 0.973761 0.112192
0.000387 0.959316 0.035938
0.000387 0.959506 0.035938
0.000387 0.960405 0.035938
0.000387 0.961147 0.035938
0.000387 0.962428 0.035938
0.203998 0.963069 0.035938
0.312971 0.965071 0.035938
0.401496 0.968120 0.035938
0.482024 0.971994 0.035938
0.558225 0.977277 0.035938
0.631761 0.983143 0.039240
0.703869 0.989777 0.047297
0.774877 0.996766 0.056573
0.845768 1.004592 0.067043
0.916949 1.015748 0.078522
1.082157 1.034545 0.108248
0.000387 0.988567 0.035938
0.000387 0.988578 0.035938
0.000387 0.989079 0.035938
0.000387 0.989554 0.035938
0.000387 0.990606 0.035938
0.199485 0.990906 0.035938
0.306953 0.992458 0.035938
0.394125 0.994878 0.035938
0.473095 0.997806 0.035938
0.547989 1.000720 0.035938
0.620109 1.007051 0.035938
0.690692 1.014554 0.043133
0.760240 1.023162 0.051563
0.829733 1.032853 0.061175
0.899332 1.043506 0.071890
1.073551 1.073551 0.102993
0.000387 0.000000 0.214571
0.067856 0.000000 0.214389
0.132908 0.000000 0.214521
0.198022 0.000609 0.216402
0.272225 0.002110 0.225466
0.347483 0.003428 0.231924
0.422568 0.004624 0.236183
0.496281 0.005723 0.238346
0.567989 0.006773 0.238597
0.636782 0.007754 0.236947
0.701981 0.008697 0.233410
0.762869 0.009562 0.227788
0.819144 0.010354 0.220021
0.870493 0.011068 0.209830
0.917560 0.011711 0.197275
1.047247 0.013589 0.154061
0.000387 0.049970 0.213788
0.065806 0.048715 0.215947
0.134226 0.046478 0.218685
0.203091 0.041755 0.221492
0.278899 0.020163 0.228894
0.352881 0.003526 0.231933
0.427214 0.004712 0.234233
0.500119 0.005799 0.234963
0.571107 0.006829 0.234184
0.639386 0.007799 0.231728
0.704233 0.008729 0.227495
0.764810 0.009586 0.221282
0.820894 0.010368 0.212977
0.871809 0.011073 0.202168
0.918854 0.011708 0.188836
1.047245 0.013582 0.149580
0.000387 0.110317 0.212320
0.054143 0.111032 0.217322
0.129681 0.109435 0.215452
0.199128 0.110835 0.217502
0.278085 0.111497 0.226595
0.360974 0.102037 0.231795
0.438220 0.079770 0.228917
0.510475 0.038480 0.222446
0.579559 0.007000 0.214699
0.647431 0.007943 0.207788
0.711599 0.008824 0.199452
0.771697 0.009640 0.189054
0.826913 0.010379 0.176201
0.877546 0.011038 0.159711
0.924207 0.011611 0.137378
1.047201 0.013512 0.123854
0.000387 0.170952 0.208856
0.036993 0.172896 0.210707
0.124036 0.175218 0.212918
0.196927 0.177476 0.215130
0.277206 0.181821 0.219350
0.359041 0.186001 0.223306
0.438293 0.184992 0.222398
0.516077 0.172009 0.209820
0.590681 0.152308 0.190962
0.660033 0.126965 0.166912
0.723688 0.092557 0.134645
0.779074 0.009242 0.048686
0.834635 0.010018 0.049622
0.885462 0.010739 0.050483
0.932141 0.011413 0.051279
1.046815 0.013216 0.053396
0.000387 0.239368 0.208787
0.000387 0.240286 0.206926
0.089494 0.242746 0.202423
0.187064 0.246744 0.205403
0.273848 0.257146 0.211107
0.361384 0.267605 0.212565
0.447674 0.274079 0.208538
0.523944 0.269731 0.191904
0.597175 0.263459 0.170214
0.666385 0.255706 0.139995
0.730904 0.246349 0.061351
0.790955 0.236375 0.061656
0.846145 0.225059 0.061841
0.896345 0.212288 0.061902
0.941408 0.197971 0.061831
1.058984 0.221439 0.064988
0.000387 0.312378 0.206465
0.000387 0.313247 0.202894
0.029037 0.315453 0.189291
0.161381 0.317882 0.179928
0.261125 0.329275 0.182328
0.359439 0.347664 0.187486
0.449277 0.359190 0.176705
0.527276 0.359614 0.151155
0.600626 0.357417 0.102271
0.669959 0.353879 0.067927
0.735103 0.349282 0.068276
0.795836 0.343158 0.068571
0.851192 0.335555 0.068770
0.901656 0.326363 0.068858
0.946943 0.316015 0.068865
1.065261 0.324433 0.071054
0.000387 0.388560 0.201419
0.000387 0.389249 0.196787
0.000387 0.392067 0.176231
0.123382 0.395375 0.142185
0.241319 0.401884 0.136803
0.339891 0.414235 0.128235
0.434884 0.429807 0.094595
0.523817 0.442665 0.071415
0.601194 0.445602 0.074018
0.672293 0.444884 0.074795
0.738431 0.442093 0.075165
0.799263 0.437486 0.075359
0.855297 0.430676 0.075419
0.906146 0.422155 0.075356
0.951124 0.412272 0.075214
1.070979 0.413910 0.076768
0.000387 0.465786 0.192439
0.000387 0.466496 0.186670
0.000387 0.469134 0.158557
0.060787 0.473208 0.076163
0.221356 0.477104 0.035938
0.322767 0.485132 0.036994
0.416926 0.497306 0.049536
0.507996 0.511885 0.064876
