src/luts/fairytale/15.cube
LUT_3D_SIZE 16
0.000017 0.001055 0.112578
0.014134 0.001055 0.112266
0.043840 0.001055 0.110739
0.092485 0.001055 0.104820
0.160814 0.001055 0.096382
0.241768 0.001055 0.096382
0.331747 0.001055 0.096382
0.425534 0.001055 0.096382
0.518310 0.001055 0.096382
0.605159 0.001055 0.096382
0.683459 0.001055 0.096382
0.752100 0.001055 0.096382
0.810180 0.001055 0.096382
0.858951 0.001055 0.096382
0.909139 0.001055 0.096382
1.010127 0.001055 0.096382
0.000017 0.001055 0.112579
0.014134 0.001055 0.112265
0.043840 0.001055 0.110738
0.092485 0.001055 0.104818
0.160814 0.001055 0.096382
0.241768 0.001055 0.096382
0.331747 0.001055 0.096382
0.425534 0.001055 0.096382
0.518310 0.001055 0.096382
0.605159 0.001055 0.096382
0.683460 0.001055 0.096382
0.752100 0.001055 0.096382
0.810180 0.001055 0.096382
0.858951 0.001055 0.096382
0.909139 0.001055 0.096382
1.010127 0.001055 0.096382
0.000017 0.001055 0.112574
0.014617 0.001055 0.112243
0.043839 0.001055 0.110738
0.092484 0.001055 0.104809
0.160813 0.001055 0.096382
0.241768 0.001055 0.096382
0.331747 0.001055 0.096382
0.425534 0.001055 0.096382
0.518309 0.001055 0.096382
0.605159 0.001055 0.096382
0.683459 0.001055 0.096382
0.752100 0.001055 0.096382
0.810180 0.001055 0.096382
0.858951 0.001055 0.096382
0.909139 0.001055 0.096382
1.010127 0.001055 0.096382
0.000214 0.026859 0.124246
0.015937 0.028768 0.111493
0.047771 0.027951 0.109723
0.092485 0.026105 0.103290
0.160849 0.036962 0.096382
0.241782 0.047030 0.096382
0.331807 0.054962 0.096382
0.425616 0.060046 0.096382
0.518373 0.061724 0.096382
0.605180 0.059264 0.096382
0.683520 0.052032 0.096382
0.752042 0.036547 0.096382
0.810156 0.001055 0.096382
0.858989 0.001055 0.096382
0.909207 0.001055 0.096382
1.010140 0.001055 0.096382
0.000000 0.108303 0.144395
0.009475 0.112431 0.121672
0.051317 0.109477 0.096382
0.102679 0.108581 0.096382
0.161032 0.107958 0.096382
0.241981 0.123426 0.096382
0.331919 0.136931 0.096382
0.425745 0.147710 0.096382
0.518457 0.155270 0.096382
0.605237 0.159209 0.096382
0.683599 0.159838 0.096382
0.752105 0.157492 0.096382
0.810252 0.152301 0.096382
0.859008 0.144458 0.096382
0.909296 0.133506 0.096382
1.010205 0.112391 0.096382
0.000000 0.197581 0.169009
0.004973 0.202340 0.147655
0.032160 0.205630 0.108493
0.101019 0.200572 0.096382
0.174985 0.197269 0.096382
0.242010 0.196518 0.096382
0.332101 0.214132 0.096382
0.425944 0.228606 0.096382
0.518824 0.239234 0.096382
0.605498 0.245594 0.096382
0.683702 0.247910 0.096382
0.752327 0.246864 0.096382
0.810553 0.242503 0.096382
0.859198 0.235201 0.096382
0.909458 0.224957 0.096382
1.010345 0.208048 0.096382
0.000000 0.292964 0.195173
0.001659 0.297995 0.173903
0.022622 0.303244 0.134492
0.075578 0.303479 0.108743
0.168746 0.297215 0.096382
0.257715 0.291918 0.096382
0.331674 0.291094 0.096382
0.426054 0.308842 0.096382
0.518940 0.322110 0.096382
0.605788 0.330231 0.096382
0.683968 0.333758 0.096382
0.752757 0.333206 0.096382
0.810731 0.328681 0.096382
0.859535 0.320792 0.096382
0.909661 0.309646 0.096382
1.010556 0.292056 0.096382
0.000000 0.391894 0.221895
0.000000 0.397140 0.200245
0.015816 0.403190 0.162389
0.060253 0.405976 0.133725
0.141887 0.404435 0.107002
0.248291 0.396596 0.096382
0.347279 0.390028 0.096382
0.425068 0.389245 0.096382
0.518556 0.404893 0.096382
0.605779 0.414682 0.096382
0.684135 0.419082 0.096382
0.752747 0.418865 0.096382
0.811051 0.413892 0.096382
0.859613 0.405070 0.096382
0.909971 0.392548 0.096382
1.010799 0.373409 0.096382
0.000000 0.491578 0.248028
0.000000 0.497082 0.225756
0.010088 0.503254 0.190569
0.048909 0.507381 0.161310
0.121322 0.508837 0.129898
0.219617 0.505196 0.104111
0.334161 0.496209 0.096382
0.438183 0.488902 0.096382
0.517281 0.487978 0.096382
0.605092 0.499381 0.096382
0.683749 0.504649 0.096382
0.752728 0.504398 0.096382
0.811181 0.498926 0.096382
0.859767 0.489069 0.096382
0.909933 0.475090 0.096382
1.011067 0.453775 0.096382
0.000000 0.589106 0.271918
0.000000 0.594884 0.247342
0.005286 0.600754 0.218251
0.039009 0.605606 0.189181
0.103966 0.608777 0.156284
0.194431 0.608386 0.124358
0.301984 0.602944 0.101165
0.419578 0.593232 0.096382
0.524990 0.585420 0.096382
0.603246 0.584488 0.096382
0.682761 0.590441 0.096382
0.752161 0.590263 0.096382
0.810757 0.584192 0.096382
0.859730 0.573162 0.096382
0.909983 0.557594 0.096382
1.011292 0.533946 0.096382
0.000000 0.682591 0.289297
0.000000 0.687996 0.269055
0.001711 0.693572 0.244864
0.030036 0.698727 0.216262
0.088165 0.703069 0.183259
0.172437 0.704803 0.148887
0.271513 0.702462 0.118597
0.383501 0.695738 0.098717
0.500217 0.685863 0.096382
0.604099 0.677869 0.096382
0.680673 0.676521 0.096382
0.750804 0.676293 0.096382
0.809985 0.669617 0.096382
0.859247 0.657513 0.096382
0.909935 0.640094 0.096382
1.011394 0.614154 0.096382
0.000000 0.769697 0.313916
0.000000 0.775092 0.293966
0.000000 0.780556 0.270150
0.021912 0.786233 0.242216
0.073684 0.791160 0.209715
0.152364 0.794162 0.174673
0.244024 0.794287 0.141047
0.347559 0.790596 0.113676
0.459912 0.783027 0.096965
0.572658 0.773247 0.096382
0.673223 0.765154 0.096382
0.748073 0.763156 0.096382
0.808179 0.755858 0.096382
0.858012 0.742083 0.096382
0.909046 0.723022 0.096382
1.011204 0.694679 0.096382
0.000000 0.849079 0.336383
0.000000 0.854333 0.316828
0.000000 0.860036 0.293455
0.014790 0.865656 0.266382
0.060321 0.870927 0.234752
0.133023 0.874851 0.200057
0.218770 0.876624 0.165157
0.314438 0.875332 0.133766
0.418958 0.870211 0.109702
0.528273 0.862507 0.096382
0.635424 0.853275 0.096382
0.731223 0.845218 0.096382
0.805247 0.842129 0.096382
0.855709 0.827444 0.096382
0.907619 0.806391 0.096382
1.010590 0.775154 0.096382
0.000000 0.920250 0.356511
0.000000 0.925557 0.337528
0.000000 0.931044 0.314649
0.008828 0.936638 0.288509
0.048072 0.942085 0.258067
0.114247 0.946876 0.224295
0.194875 0.949821 0.189316
0.283814 0.950155 0.156033
0.380504 0.947337 0.127593
0.483076 0.941833 0.106742
0.587340 0.934062 0.096382
0.687971 0.925372 0.096382
0.778224 0.917657 0.096382
0.852114 0.913200 0.096382
0.905314 0.890410 0.096382
1.009320 0.856236 0.096382
0.000000 0.967757 0.369919
0.000000 0.972883 0.351502
0.000000 0.978241 0.329240
0.004891 0.983808 0.304068
0.038617 0.989349 0.274756
0.098466 0.994311 0.242159
0.174967 0.997494 0.207827
0.258710 0.998989 0.174189
0.349394 0.998121 0.143859
0.445720 0.994325 0.119311
0.545159 0.987809 0.102348
0.644134 0.980046 0.096382
0.737459 0.971777 0.096382
0.821211 0.964733 0.096382
0.902323 0.960114 0.096382
1.007399 0.935165 0.096382
0.000000 0.993239 0.377212
0.000000 0.998086 0.359492
0.000000 1.002849 0.338041
0.002239 1.008284 0.314006
0.030590 1.013734 0.286182
0.083713 1.018741 0.255032
0.155657 1.022620 0.221900
0.234436 1.024776 0.188769
0.319558 1.024774 0.157853
0.410091 1.022235 0.131359
0.504405 1.017331 0.111124
0.599790 1.010575 0.098095
0.692398 1.002832 0.096382
0.778965 0.995925 0.096382
0.855395 0.989748 0.096382
1.005840 0.984729 0.096382
0.000029 0.001055 0.157851
0.014006 0.001055 0.157207
0.043486 0.001055 0.158248
0.092184 0.001055 0.160559
0.160639 0.001055 0.162774
0.241640 0.001055 0.164088
0.331551 0.001055 0.163837
0.425548 0.001055 0.161576
0.518314 0.001055 0.156874
0.605113 0.001055 0.149101
0.683410 0.001055 0.136701
0.752095 0.001055 0.101627
0.810176 0.001055 0.096382
0.858945 0.001055 0.096382
0.909133 0.001055 0.096382
1.010125 0.001055 0.096382
0.000029 0.001055 0.157851
0.014086 0.001055 0.156976
0.046464 0.001055 0.153572
0.098146 0.001055 0.145569
0.166259 0.001055 0.137417
0.246162 0.001055 0.128273
0.335151 0.001055 0.108100
0.428312 0.001055 0.096382
0.520440 0.001055 0.096382
0.606756 0.001055 0.096382
0.684671 0.001055 0.096382
0.753056 0.001055 0.096382
0.811031 0.001055 0.096382
0.859722 0.001055 0.096382
0.910548 0.001055 0.096382
1.010126 0.001055 0.096382
0.000030 0.001055 0.158828
0.010173 0.001055 0.146906
0.043986 0.001055 0.145013
0.095107 0.001055 0.140656
0.164210 0.001055 0.135081
0.245002 0.001055 0.127131
0.334446 0.001055 0.106768
0.427930 0.001055 0.096382
0.520127 0.001055 0.096382
0.606614 0.001055 0.096382
0.684639 0.001055 0.096382
0.752885 0.001055 0.096382
0.811042 0.001055 0.096382
0.859694 0.001055 0.096382
0.910714 0.001055 0.096382
1.010126 0.001055 0.096382
0.000173 0.027869 0.163495
0.007613 0.030071 0.139334
0.045221 0.029094 0.138417
0.092714 0.026498 0.136663
0.162324 0.035364 0.132486
0.243659 0.043631 0.125081
0.333686 0.049873 0.096382
0.427275 0.053420 0.096382
0.519842 0.053500 0.096382
0.606378 0.048904 0.096382
0.684433 0.037388 0.096382
0.752781 0.001055 0.096382
0.810851 0.001055 0.096382
0.859578 0.001055 0.096382
0.910640 0.001055 0.096382
1.010104 0.001055 0.096382
0.002804 0.099585 0.212304
0.004253 0.108996 0.162242
0.045842 0.110645 0.129538
0.100963 0.109046 0.126663
0.161253 0.108071 0.124811
0.242813 0.122516 0.110319
0.333038 0.135122 0.096382
0.426876 0.145171 0.096382
0.519591 0.152157 0.096382
0.606196 0.155663 0.096382
0.684317 0.155946 0.096382
0.752866 0.153433 0.096382
0.810835 0.148042 0.096382
0.859558 0.140143 0.096382
0.910458 0.129024 0.096382
1.010184 0.109304 0.096382
0.000000 0.190723 0.234237
0.000933 0.198139 0.185504
0.032177 0.203741 0.149070
0.095949 0.201621 0.096382
0.173823 0.197554 0.096382
0.242151 0.196657 0.096382
0.332598 0.213537 0.096382
0.426710 0.227365 0.096382
0.519477 0.237532 0.096382
0.606173 0.243510 0.096382
0.684297 0.245694 0.096382
0.752906 0.244443 0.096382
0.811056 0.239919 0.096382
0.859592 0.232631 0.096382
0.910187 0.222307 0.096382
1.010324 0.206324 0.096382
0.000000 0.286339 0.261304
0.000000 0.293314 0.212440
0.024534 0.300030 0.177135
0.074095 0.302998 0.129106
0.165416 0.297863 0.096382
0.256924 0.292100 0.096382
0.331808 0.291219 0.096382
0.426332 0.308349 0.096382
0.519332 0.321228 0.096382
0.606177 0.329038 0.096382
0.684413 0.332346 0.096382
0.753075 0.331622 0.096382
0.811305 0.326962 0.096382
0.859723 0.319049 0.096382
0.910396 0.307892 0.096382
1.010507 0.290962 0.096382
0.000000 0.385209 0.290176
0.000000 0.391890 0.241188
0.018253 0.399197 0.206567
0.062221 0.404038 0.164715
0.138091 0.404849 0.107952
0.245951 0.397085 0.096382
0.346737 0.390161 0.096382
0.425160 0.389286 0.096382
0.518811 0.404463 0.096382
0.605913 0.414010 0.096382
0.684449 0.418225 0.096382
0.753032 0.417807 0.096382
0.811413 0.412746 0.096382
0.860016 0.403858 0.096382
0.910452 0.391269 0.096382
1.010796 0.372522 0.096382
0.000000 0.484632 0.319157
0.000000 0.491305 0.270603
0.012636 0.498891 0.236499
0.052635 0.504515 0.197689
0.117471 0.509156 0.131375
0.216788 0.505655 0.104659
0.332472 0.496520 0.096382
0.437873 0.488857 0.096382
0.517309 0.488099 0.096382
0.605257 0.499050 0.096382
0.683979 0.504145 0.096382
0.752850 0.503745 0.096382
0.811376 0.498143 0.096382
0.860274 0.488112 0.096382
0.910680 0.474236 0.096382
1.011051 0.453081 0.096382
0.000000 0.581723 0.347093
0.000000 0.588198 0.299574
0.007709 0.596009 0.265985
0.043755 0.602064 0.229339
0.100349 0.608835 0.157927
0.191475 0.608591 0.125273
0.299909 0.603160 0.101465
0.418431 0.593368 0.096382
0.524634 0.585438 0.096382
0.603172 0.584474 0.096382
0.682864 0.590272 0.096382
0.752101 0.589878 0.096382
0.811008 0.583667 0.096382
0.860050 0.572556 0.096382
0.910584 0.556925 0.096382
1.011279 0.533430 0.096382
0.000000 0.674336 0.373215
0.000000 0.680838 0.327362
0.003710 0.688673 0.294436
0.035366 0.695006 0.259587
0.088096 0.702100 0.197224
0.169629 0.704974 0.150051
0.269313 0.702933 0.119198
0.381798 0.696123 0.098932
0.499319 0.686213 0.096382
0.603845 0.678013 0.096382
0.680674 0.676578 0.096382
0.750799 0.676198 0.096382
0.810026 0.669243 0.096382
0.859388 0.657097 0.096382
0.909946 0.639736 0.096382
1.011385 0.613673 0.096382
0.000000 0.761537 0.397370
0.000000 0.767724 0.353481
0.000921 0.775429 0.321396
0.027523 0.781960 0.288163
0.077908 0.788761 0.238451
0.149706 0.794396 0.175917
0.241880 0.794498 0.141818
0.345954 0.790813 0.114040
0.458660 0.783130 0.097078
0.572047 0.773223 0.096382
0.672907 0.765203 0.096382
0.748156 0.763189 0.096382
0.808144 0.755721 0.096382
0.858060 0.741973 0.096382
0.909302 0.722665 0.096382
1.011199 0.694145 0.096382
0.000000 0.841068 0.418801
0.000000 0.846872 0.377383
0.000000 0.854704 0.346353
0.020389 0.861144 0.314622
0.066481 0.867714 0.270559
0.130536 0.874894 0.201352
0.216752 0.876827 0.166036
0.312785 0.875519 0.134282
0.417593 0.870628 0.109956
0.527414 0.862534 0.096382
0.634980 0.853389 0.096382
0.731063 0.845283 0.096382
0.805290 0.842158 0.096382
0.855740 0.827225 0.096382
0.907855 0.806303 0.096382
1.010588 0.774808 0.096382
0.000000 0.912248 0.437497
0.000000 0.917881 0.398741
0.000000 0.925502 0.368870
0.014146 0.931745 0.338727
0.055330 0.938405 0.298662
0.112042 0.946697 0.225470
0.193028 0.949833 0.190181
0.282258 0.950232 0.156629
0.379295 0.947482 0.127937
0.482160 0.941974 0.106892
0.586895 0.933964 0.096382
0.687529 0.925577 0.096382
0.777976 0.917495 0.096382
0.852102 0.913239 0.096382
0.905394 0.890339 0.096382
1.009319 0.856117 0.096382
0.000000 0.959860 0.449192
0.000000 0.965300 0.413329
0.000000 0.972562 0.384823
0.009771 0.978688 0.356110
0.046566 0.985043 0.319114
0.096437 0.994280 0.243302
0.173287 0.997575 0.208711
0.257239 0.999163 0.174834
0.348075 0.998144 0.144292
0.444762 0.994236 0.119545
0.544444 0.987933 0.102450
0.643631 0.979866 0.096382
0.737143 0.971826 0.096382
0.821187 0.964704 0.096382
0.902377 0.960120 0.096382
1.007399 0.935007 0.096382
0.000000 0.985778 0.454245
0.000000 0.990721 0.421539
0.000000 0.997630 0.394604
0.006558 1.003135 0.367577
0.038894 1.009330 0.333404
0.089591 1.016304 0.282887
0.154123 1.022727 0.222787
0.233103 1.024911 0.189432
0.318414 1.024817 0.158291
0.409160 1.022393 0.131647
0.503711 1.017482 0.111277
0.599221 1.010705 0.098146
0.692037 1.002919 0.096382
0.778832 0.995980 0.096382
0.855137 0.989730 0.096382
1.005839 0.984721 0.096382
0.000042 0.001055 0.205904
0.014492 0.001055 0.205123
0.043370 0.001055 0.204769
0.091549 0.001055 0.209954
0.160081 0.001055 0.216400
0.241178 0.001055 0.222258
0.331237 0.001055 0.226891
0.425274 0.001055 0.229996
0.518041 0.001055 0.231502
0.604858 0.001055 0.231240
0.683213 0.001055 0.229458
0.751906 0.001055 0.226372
0.810076 0.001055 0.222125
0.858761 0.001055 0.216851
0.909224 0.001055 0.209844
1.010050 0.001055 0.194979
0.000042 0.001055 0.205903
0.013690 0.001055 0.209471
0.046067 0.001055 0.208011
0.097211 0.001055 0.209845
0.165695 0.001055 0.212660
0.245874 0.001055 0.215989
0.334965 0.001055 0.218916
0.428102 0.001055 0.220855
0.520401 0.001055 0.221472
0.606601 0.001055 0.220511
0.684489 0.001055 0.218192
0.752988 0.001055 0.214709
0.811044 0.001055 0.210103
0.859585 0.001055 0.204572
0.910719 0.001055 0.197117
1.010061 0.001055 0.187310
0.000042 0.001055 0.205902
0.009605 0.001055 0.205970
0.043630 0.001055 0.204259
0.096799 0.001055 0.201415
0.170848 0.001055 0.194279
0.255274 0.001055 0.183059
0.345272 0.001055 0.171155
0.437728 0.001055 0.158544
0.528589 0.001055 0.143173
0.613652 0.001055 0.114060
0.690514 0.001055 0.096382
0.757932 0.001055 0.096382
0.815319 0.001055 0.096382
0.863198 0.001055 0.096382
0.920105 0.001055 0.096382
1.010098 0.001055 0.134728
0.000096 0.027805 0.211845
0.006619 0.029418 0.207018
0.037358 0.031210 0.193998
0.092747 0.028297 0.190866
0.166615 0.028955 0.184032
0.250593 0.026420 0.175575
0.341417 0.016489 0.166012
0.434989 0.001055 0.154846
0.526738 0.001055 0.139976
0.612297 0.001055 0.102299
0.689483 0.001055 0.096382
0.757382 0.001055 0.096382
0.814812 0.001055 0.096382
0.863012 0.001055 0.096382
0.919456 0.001055 0.096382
1.010102 0.001055 0.134013
0.011296 0.093911 0.265149
0.013159 0.093202 0.264405
0.029332 0.109920 0.198176
0.093652 0.110704 0.176355
0.161880 0.108542 0.173392
0.246228 0.118522 0.166414
0.337783 0.127097 0.157799
0.432239 0.133696 0.146350
0.524784 0.137879 0.127886
0.610983 0.139147 0.096382
0.688509 0.137678 0.096382
0.756785 0.133679 0.096382
0.814291 0.127129 0.096382
0.862551 0.118073 0.096382
0.918056 0.104916 0.096382
1.010101 0.095864 0.127715
0.008266 0.179318 0.312433
0.005806 0.182132 0.300683
0.016104 0.199859 0.212152
0.081347 0.203302 0.166792
0.168924 0.198755 0.151155
0.242829 0.197001 0.149871
0.334966 0.210671 0.139045
0.429943 0.221952 0.116482
0.522989 0.229992 0.096382
0.609791 0.234383 0.096382
0.687601 0.235279 0.096382
0.756190 0.233109 0.096382
0.813785 0.228008 0.096382
0.862203 0.220209 0.096382
0.917182 0.209636 0.096382
1.010255 0.199544 0.096382
0.001561 0.277280 0.337242
0.000676 0.279395 0.325221
0.007622 0.294922 0.232962
0.063735 0.301717 0.185328
0.154215 0.299449 0.136548
0.253474 0.292960 0.096382
0.332366 0.291444 0.096382
0.428098 0.306326 0.096382
0.521605 0.317225 0.096382
0.608615 0.323705 0.096382
0.687049 0.325898 0.096382
0.755452 0.324345 0.096382
0.813585 0.319167 0.096382
0.861953 0.310878 0.096382
0.915957 0.299536 0.096382
1.010446 0.286184 0.096382
0.000000 0.377107 0.365361
0.001102 0.380919 0.346005
0.002235 0.393425 0.257667
0.051723 0.401648 0.210461
0.130085 0.404267 0.158116
0.235751 0.398940 0.096382
0.344196 0.390778 0.096382
0.425672 0.389424 0.096382
0.519906 0.403052 0.096382
0.607591 0.411064 0.096382
0.686067 0.414321 0.096382
0.754866 0.413047 0.096382
0.813252 0.407460 0.096382
0.861701 0.398162 0.096382
0.915273 0.385518 0.096382
1.010735 0.369049 0.096382
0.000000 0.476852 0.394140
0.000000 0.480835 0.373848
0.000000 0.492610 0.284238
0.041760 0.501759 0.237692
0.112673 0.506691 0.186968
0.204322 0.507427 0.107252
0.325297 0.497890 0.096382
0.435850 0.489358 0.096382
0.517672 0.488268 0.096382
0.606023 0.497863 0.096382
0.685133 0.501851 0.096382
0.754297 0.500800 0.096382
0.812788 0.494628 0.096382
0.861529 0.484253 0.096382
0.914231 0.470023 0.096382
1.010998 0.450442 0.096382
0.000000 0.574206 0.421791
0.000000 0.578135 0.401367
0.000000 0.589481 0.311108
0.032863 0.599007 0.265371
0.097773 0.605142 0.217063
0.178737 0.609852 0.129412
0.290674 0.604526 0.102927
0.413107 0.594415 0.096382
0.523178 0.585907 0.096382
0.603492 0.584579 0.096382
0.683463 0.589376 0.096382
0.753095 0.588165 0.096382
0.811942 0.581443 0.096382
0.861163 0.569848 0.096382
0.913426 0.553935 0.096382
1.011236 0.531374 0.096382
0.000000 0.666824 0.447470
0.000000 0.670959 0.427167
0.000000 0.682109 0.337364
0.024869 0.691724 0.292596
0.084040 0.698641 0.246734
0.156888 0.705883 0.155074
0.259551 0.703987 0.121824
0.375013 0.696923 0.099760
0.495525 0.686907 0.096382
0.602606 0.678381 0.096382
0.680687 0.676853 0.096382
0.751281 0.675614 0.096382
0.810740 0.668114 0.096382
0.860301 0.655259 0.096382
0.912512 0.637494 0.096382
1.011338 0.612082 0.096382
0.000000 0.754318 0.470816
0.000000 0.758163 0.450704
0.000000 0.769020 0.362349
0.017789 0.778778 0.318777
0.071282 0.785967 0.275345
0.144159 0.792701 0.207701
0.232099 0.795243 0.145200
0.338453 0.791898 0.115751
0.453495 0.784068 0.097591
0.569197 0.774022 0.096382
0.672068 0.765490 0.096382
0.748263 0.763183 0.096382
0.808598 0.755244 0.096382
0.858579 0.741009 0.096382
0.911110 0.721387 0.096382
1.011182 0.692854 0.096382
0.000000 0.833813 0.491297
0.000000 0.837584 0.471427
0.000000 0.848048 0.385222
0.011775 0.857872 0.343213
0.059416 0.865023 0.302039
0.129088 0.872014 0.244760
0.207187 0.877460 0.169846
0.305234 0.876296 0.136588
0.412015 0.871343 0.111044
0.523437 0.863479 0.096382
0.632627 0.853854 0.096382
0.730443 0.845510 0.096382
0.805558 0.842165 0.096382
0.856202 0.826928 0.096382
0.908754 0.805440 0.096382
1.010583 0.773789 0.096382
0.000000 0.905317 0.508600
0.000000 0.909057 0.489209
0.000000 0.919137 0.405960
0.006859 0.928736 0.365589
0.048426 0.935971 0.326809
0.113371 0.942796 0.275786
0.183734 0.950007 0.194188
0.274750 0.950897 0.159329
0.373504 0.948268 0.129500
0.477743 0.942704 0.107641
0.583774 0.934803 0.096382
0.685922 0.925797 0.096382
0.777522 0.917711 0.096382
0.852283 0.913391 0.096382
0.906079 0.889917 0.096382
1.009320 0.855684 0.096382
0.000000 0.953111 0.518698
0.000000 0.956740 0.499782
0.000000 0.966218 0.419970
0.003800 0.975401 0.381327
0.040082 0.982657 0.344604
0.099939 0.989356 0.298215
0.164349 0.997641 0.212711
0.250046 0.999389 0.177654
0.342363 0.998749 0.146092
0.440293 0.994819 0.120543
0.541098 0.988474 0.102892
0.641425 0.980575 0.096382
0.736125 0.972052 0.096382
0.820813 0.964769 0.096382
0.902567 0.959907 0.096382
1.007397 0.934965 0.096382
0.000000 0.979191 0.521519
0.000000 0.982946 0.503238
0.000000 0.992294 0.427869
0.001840 1.000160 0.391420
0.033006 1.006971 0.357019
0.087114 1.013736 0.314809
0.149782 1.021561 0.242052
0.226092 1.025289 0.192394
0.312604 1.025535 0.160373
0.404510 1.023052 0.132926
0.500135 1.018046 0.111963
0.596722 1.011167 0.098430
0.690542 1.003397 0.096382
0.777879 0.996163 0.096382
0.855173 0.989943 0.096382
1.005833 0.984700 0.096382
0.000087 0.001055 0.261487
0.015812 0.001055 0.260711
0.047283 0.001055 0.259827
0.091483 0.001055 0.259758
0.159408 0.001055 0.269477
0.240460 0.001055 0.279293
0.330600 0.001055 0.287727
0.424731 0.001055 0.294227
0.517666 0.001055 0.298688
0.604469 0.001055 0.300850
0.682951 0.001055 0.301087
0.751475 0.001055 0.299558
0.809747 0.001055 0.296402
0.858640 0.001055 0.291915
0.908890 0.001055 0.285818
1.009881 0.001055 0.275019
0.000087 0.001055 0.261487
0.012755 0.001055 0.268962
0.048988 0.001055 0.267120
0.096354 0.001055 0.264198
0.164453 0.001055 0.270592
0.244799 0.001055 0.278041
0.334158 0.001055 0.284911
0.427537 0.001055 0.290384
0.519870 0.001055 0.294179
0.606177 0.001055 0.295920
0.684144 0.001055 0.295814
0.752573 0.001055 0.294084
0.810669 0.001055 0.290939
0.859348 0.001055 0.286429
0.910623 0.001055 0.280337
1.009890 0.001055 0.271966
0.000087 0.001055 0.261487
0.008778 0.001055 0.265583
0.043114 0.001055 0.265394
0.096181 0.001055 0.263706
0.169580 0.001055 0.267530
0.254300 0.001055 0.269765
0.344846 0.001055 0.270956
0.437546 0.001055 0.271802
0.528532 0.001055 0.272075
0.613655 0.001055 0.271313
0.690446 0.001055 0.269465
0.758062 0.001055 0.266526
0.815302 0.001055 0.262495
0.863269 0.001055 0.257581
0.920565 0.001055 0.250858
1.009930 0.001055 0.258870
0.000103 0.027019 0.261942
0.006328 0.028242 0.262028
0.036785 0.030135 0.260931
0.092011 0.028768 0.258967
0.166534 0.023345 0.255996
0.254038 0.001055 0.250249
0.350468 0.001055 0.239438
0.447268 0.001055 0.226324
0.539723 0.001055 0.213074
0.624728 0.001055 0.200256
0.700617 0.001055 0.187848
0.767169 0.001055 0.175471
0.823279 0.001055 0.162824
0.870473 0.001055 0.149137
0.940362 0.001055 0.176634
1.009993 0.001055 0.235062
0.003590 0.101797 0.291008
0.003708 0.102419 0.289743
0.032660 0.107662 0.270982
0.083301 0.111678 0.248640
0.161307 0.109056 0.244943
0.249975 0.111600 0.237043
0.345260 0.111965 0.227051
0.441893 0.110449 0.216099
0.535150 0.107213 0.204896
0.620993 0.102037 0.193697
0.697886 0.094781 0.182248
0.765022 0.085196 0.170467
0.821951 0.072479 0.157995
0.869353 0.054164 0.144007
0.940517 0.028446 0.163801
1.010026 0.069464 0.234148
0.034627 0.165412 0.387831
0.033309 0.166443 0.384871
0.024500 0.172350 0.366420
0.064980 0.200285 0.261529
0.159541 0.200385 0.224236
0.243591 0.197386 0.220553
0.339259 0.205454 0.212006
0.436392 0.211404 0.202520
0.530558 0.215072 0.192297
0.617507 0.215819 0.181433
0.695117 0.214003 0.169756
0.762932 0.209787 0.156839
0.820325 0.203266 0.141648
0.868164 0.194652 0.117757
0.940241 0.184078 0.114440
1.010094 0.188693 0.231811
0.017143 0.263935 0.422797
0.015274 0.265608 0.416680
0.017476 0.276306 0.374576
0.042040 0.296682 0.273681
0.134846 0.301256 0.217882
0.246533 0.294501 0.192649
0.333368 0.291879 0.189482
0.431481 0.302453 0.180440
0.526497 0.309822 0.169652
0.614265 0.313258 0.156721
0.692344 0.313264 0.139804
0.760875 0.309966 0.096382
0.818773 0.303659 0.096382
0.867125 0.294723 0.096382
0.936122 0.282657 0.096382
1.010321 0.278818 0.226928
0.006455 0.365948 0.449499
0.005426 0.367309 0.442923
0.012258 0.377865 0.395487
0.025708 0.395459 0.291418
0.111611 0.403066 0.233845
0.222218 0.400619 0.183331
0.339143 0.391976 0.126170
0.426535 0.389908 0.096382
