src/luts/fairytale/15.cube
LUT_3D_SIZE 6
0.000017 0.001055 0.112578
0.092485 0.001055 0.104820
0.331747 0.001055 0.096382
0.605159 0.001055 0.096382
0.810180 0.001055 0.096382
1.010127 0.001055 0.096382
0.000214 0.026859 0.124246
0.092485 0.026105 0.103290
0.331807 0.054962 0.096382
0.605180 0.059264 0.096382
0.810156 0.001055 0.096382
1.010140 0.001055 0.096382
0.000000 0.292964 0.195173
0.075578 0.303479 0.108743
0.331674 0.291094 0.096382
0.605788 0.330231 0.096382
0.810731 0.328681 0.096382
1.010556 0.292056 0.096382
0.000000 0.589106 0.271918
0.039009 0.605606 0.189181
0.301984 0.602944 0.101165
0.603246 0.584488 0.096382
0.810757 0.584192 0.096382
1.011292 0.533946 0.096382
0.000000 0.849079 0.336383
0.014790 0.865656 0.266382
0.218770 0.876624 0.165157
0.528273 0.862507 0.096382
0.805247 0.842129 0.096382
1.010590 0.775154 0.096382
0.000000 0.993239 0.377212
0.002239 1.008284 0.314006
0.155657 1.022620 0.221900
0.410091 1.022235 0.131359
0.692398 1.002832 0.096382
1.005840 0.984729 0.096382
0.000087 0.001055 0.261487
0.091483 0.001055 0.259758
0.330600 0.001055 0.287727
0.604469 0.001055 0.300850
0.809747 0.001055 0.296402
1.009881 0.001055 0.275019
0.000103 0.027019 0.261942
0.092011 0.028768 0.258967
0.350468 0.001055 0.239438
0.624728 0.001055 0.200256
0.823279 0.001055 0.162824
1.009993 0.001055 0.235062
0.017143 0.263935 0.422797
0.042040 0.296682 0.273681
0.333368 0.291879 0.189482
0.614265 0.313258 0.156721
0.818773 0.303659 0.096382
1.010321 0.278818 0.226928
0.000000 0.565095 0.503311
0.006460 0.591529 0.335848
0.274672 0.606635 0.127439
0.604176 0.584962 0.096382
0.814294 0.577191 0.096382
1.011151 0.528143 0.177903
0.000000 0.825904 0.568309
0.000000 0.849881 0.403362
0.203600 0.873762 0.240784
0.515685 0.864986 0.096856
0.805696 0.842417 0.096382
1.010562 0.772720 0.096382
0.000000 0.972275 0.591645
0.000000 0.994566 0.443251
0.149808 1.017493 0.310878
0.395268 1.024899 0.135663
0.687147 1.004490 0.096382
1.005820 0.984632 0.096382
0.000280 0.001055 0.474654
0.120941 0.001055 0.471706
0.329042 0.001055 0.470679
0.602167 0.001055 0.505093
0.808188 0.001055 0.505309
1.008670 0.001055 0.476989
0.000363 0.059919 0.475670
0.087810 0.001055 0.490538
0.346353 0.001572 0.484295
0.621283 0.001055 0.497510
0.821645 0.001055 0.486820
1.008768 0.001055 0.466192
0.034373 0.261304 0.567389
0.058545 0.268810 0.557235
0.330555 0.291362 0.468714
0.626130 0.273449 0.454798
0.839940 0.243431 0.430023
1.009116 0.281482 0.465594
0.068274 0.522165 0.787141
0.052834 0.531260 0.758218
0.250145 0.595633 0.499742
0.607216 0.585877 0.388158
0.829355 0.560104 0.374273
1.010220 0.528966 0.458314
0.015296 0.793922 0.831536
0.008285 0.801919 0.794666
0.160947 0.858403 0.537404
0.500387 0.867091 0.358944
0.808573 0.843883 0.264046
1.010175 0.772963 0.435526
0.000687 0.946144 0.826632
0.012094 0.959888 0.769820
0.206400 1.002419 0.625498
0.435367 1.018615 0.484936
0.689470 1.012071 0.349891
1.005700 0.984442 0.397001
0.000596 0.001055 0.721491
0.138603 0.001055 0.718304
0.368746 0.001055 0.715000
0.600512 0.001055 0.714999
0.805174 0.001055 0.717184
1.006296 0.001055 0.676818
0.000693 0.075921 0.722554
0.076551 0.001055 0.755994
0.370190 0.001055 0.742531
0.616504 0.001055 0.729835
0.817282 0.001055 0.718408
1.006380 0.001055 0.671927
0.013448 0.316437 0.762912
0.034082 0.308735 0.766392
0.326870 0.286400 0.740881
0.621269 0.271760 0.732641
0.835416 0.243879 0.712160
1.006660 0.285075 0.671981
0.169165 0.496622 0.977947
0.170383 0.498904 0.979751
0.359681 0.544612 0.870814
0.602867 0.583659 0.711557
0.826505 0.571024 0.700625
1.007396 0.581455 0.713300
0.148694 0.742581 1.066218
0.139859 0.747522 1.053807
0.261542 0.801709 0.956692
0.538176 0.853173 0.742580
0.808899 0.843124 0.651464
1.008752 0.793742 0.705672
0.066106 0.906918 1.028973
0.058199 0.912659 1.011538
0.281402 0.970384 0.918739
0.532575 1.000691 0.802000
0.720374 1.005619 0.692351
1.005336 0.984213 0.691078
0.000958 0.001055 0.940560
0.139948 0.001055 0.938046
0.370251 0.001055 0.934540
0.602258 0.001055 0.933144
0.804176 0.001055 0.933143
1.003506 0.001055 0.880958
0.001016 0.067816 0.941196
0.061037 0.001055 0.970053
0.362486 0.001055 0.960217
0.610156 0.001055 0.950136
0.814569 0.001055 0.943056
1.003528 0.001055 0.879051
0.006655 0.322727 0.956065
0.020031 0.306688 0.966827
0.320970 0.277557 0.968372
0.607936 0.264865 0.962347
0.832352 0.238349 0.957907
1.003618 0.290067 0.879243
0.072637 0.537502 1.014744
0.067587 0.535881 1.015216
0.315977 0.552068 0.990505
0.600447 0.580099 0.952632
0.821897 0.569072 0.946724
1.003950 0.583429 0.897121
0.287622 0.705943 1.315431
0.288540 0.707506 1.318162
0.291413 0.713215 1.327088
0.654483 0.804779 1.011334
0.808877 0.839285 0.931084
1.005012 0.840021 0.932700
0.237145 0.852707 1.331954
0.232236 0.856686 1.326966
0.363257 0.907842 1.199422
0.608463 0.966914 1.003697
0.781226 0.990353 0.965598
1.004776 0.983495 0.927410
0.001208 0.001055 1.005369
0.126247 0.001055 1.002667
0.340201 0.001055 1.000022
0.560550 0.001055 0.999786
0.757450 0.001055 0.999782
1.002795 0.001055 0.999782
0.001246 0.028392 1.005750
0.068904 0.001055 1.008947
0.329024 0.001055 1.004068
0.564787 0.001055 1.000104
0.765551 0.001055 1.000030
1.002795 0.028927 0.999782
0.004051 0.293007 1.017284
0.027952 0.276015 1.018849
0.323779 0.280399 1.005920
0.562000 0.277488 1.000406
0.768849 0.266790 1.000021
1.002795 0.291589 0.999782
0.031193 0.510240 1.079497
0.029086 0.506137 1.079208
0.327175 0.519593 1.033018
0.599007 0.579576 1.003101
0.780398 0.574294 1.000038
1.002794 0.584194 0.999782
0.167131 0.691045 1.276352
0.165243 0.690955 1.275607
0.313431 0.714151 1.209729
0.631868 0.774793 1.063056
0.807565 0.837174 1.002666
1.002793 0.840789 0.999781
0.348242 0.824658 1.534459
0.349347 0.826221 1.536915
0.355250 0.834374 1.547988
0.702906 0.925949 1.240946
0.854718 0.959910 1.097814
1.002816 0.983634 0.999782
