src/luts/fairytale/2.cube
LUT_3D_SIZE 6
0.000000 0.000000 0.000000
0.168084 0.000229 0.011687
0.401790 0.000482 0.012656
0.637692 0.000732 0.001570
0.830514 0.001021 0.022288
1.027147 0.001323 0.002628
0.027698 0.137070 0.031915
0.172149 0.139747 0.024692
0.404975 0.149698 0.025499
0.640258 0.155529 0.015811
0.832903 0.158424 0.029017
1.029185 0.149892 0.004147
0.061663 0.366708 0.064285
0.189253 0.369176 0.060393
0.414114 0.375523 0.008757
0.646458 0.382476 0.007308
0.837184 0.380725 0.006895
1.032972 0.363375 0.006747
0.099549 0.604497 0.096342
0.209122 0.606039 0.093853
0.428030 0.612569 0.070996
0.656202 0.619088 0.014618
0.844488 0.612910 0.012868
1.039016 0.583433 0.011041
0.138834 0.831933 0.126288
0.230146 0.832912 0.124506
0.434047 0.837414 0.112133
0.654771 0.845493 0.055953
0.852580 0.852133 0.020248
1.047778 0.811535 0.017848
0.176262 0.994888 0.154737
0.248377 0.994902 0.153490
0.428983 0.997949 0.146087
0.633569 1.003528 0.124336
0.824247 1.010334 0.059737
1.056564 1.014865 0.024512
0.009141 0.000000 0.147911
0.167255 0.000119 0.149505
0.401573 0.000449 0.157704
0.637690 0.000762 0.161230
0.830633 0.001049 0.161887
1.027271 0.001382 0.151933
0.032455 0.136063 0.150106
0.169418 0.137155 0.151041
0.404428 0.140896 0.153893
0.639960 0.143119 0.154252
0.832611 0.148006 0.156167
1.029223 0.148554 0.152866
0.065187 0.365707 0.166565
0.181341 0.368036 0.161221
0.414559 0.375771 0.159869
0.646337 0.379459 0.157863
0.837126 0.377464 0.158997
1.033015 0.362895 0.155208
0.102008 0.603973 0.182851
0.199110 0.605396 0.174575
0.424892 0.612298 0.170660
0.656444 0.619393 0.158469
0.844701 0.611835 0.158169
1.039101 0.583300 0.154166
0.140543 0.831688 0.198059
0.222605 0.832478 0.191253
0.430824 0.837096 0.186992
0.653701 0.845549 0.174012
0.853031 0.852344 0.154054
1.047946 0.811596 0.144799
0.177491 0.994868 0.211259
0.247885 0.994888 0.209812
0.428664 0.997768 0.206392
0.633447 1.003427 0.196863
0.824501 1.010484 0.180154
1.056795 1.015063 0.141884
0.021451 0.000000 0.323120
0.175538 0.000027 0.323777
0.400072 0.000196 0.326615
0.636918 0.000598 0.335043
0.830050 0.000957 0.334220
1.027047 0.001335 0.319554
0.037792 0.145833 0.323919
0.169676 0.138221 0.324345
0.401357 0.140163 0.327731
0.638734 0.143639 0.334289
0.831889 0.148816 0.333502
1.028927 0.149546 0.321083
0.076514 0.363182 0.327978
0.182147 0.363508 0.328384
0.406896 0.368364 0.330938
0.644853 0.373888 0.335556
0.836166 0.376355 0.336790
1.032821 0.377866 0.336504
0.111701 0.601627 0.344067
0.202034 0.602632 0.342246
0.419134 0.609918 0.342140
0.656974 0.619807 0.344400
0.844473 0.611375 0.342811
1.038965 0.590245 0.340625
0.147673 0.830101 0.352446
0.225930 0.830819 0.350152
0.430082 0.835381 0.350437
0.653228 0.844984 0.351236
0.853470 0.852779 0.349750
1.048139 0.814757 0.345233
0.182417 0.993598 0.350094
0.250751 0.994365 0.349760
0.443079 0.996780 0.360873
0.639511 1.002690 0.360526
0.826663 1.010357 0.359224
1.057344 1.015595 0.352317
0.034887 0.000000 0.519547
0.181171 0.000000 0.519979
0.406995 0.000000 0.521977
0.634847 0.000222 0.525391
0.828748 0.000608 0.523663
1.026257 0.001090 0.500514
0.046786 0.151943 0.520108
0.171935 0.140683 0.520368
0.404650 0.143329 0.522383
0.635609 0.145113 0.526126
0.829930 0.150516 0.523949
1.027836 0.151368 0.502006
0.081558 0.371823 0.522211
0.184306 0.369136 0.522401
0.403828 0.366199 0.523905
0.638575 0.369671 0.529019
0.833009 0.374754 0.527123
1.031252 0.377344 0.511422
0.126859 0.598879 0.528251
0.208346 0.599073 0.528386
0.414505 0.600596 0.529741
0.647021 0.610252 0.535939
0.842192 0.616694 0.542133
1.038050 0.616681 0.541629
0.161181 0.826634 0.533825
0.232681 0.827218 0.533074
0.429760 0.830363 0.534992
0.657454 0.841760 0.548044
0.853899 0.853463 0.554169
1.047988 0.825710 0.550142
0.192465 0.990942 0.519989
0.256615 0.991160 0.520110
0.443970 0.993952 0.527526
0.662660 1.000240 0.554452
0.834478 1.009303 0.559057
1.057871 1.015919 0.560159
0.047813 0.000000 0.730677
0.182527 0.005420 0.731072
0.404127 0.014111 0.732405
0.627829 0.015362 0.735249
0.825738 0.000179 0.739043
1.024403 0.000633 0.704231
0.056791 0.153556 0.731020
0.175134 0.144176 0.731341
0.401434 0.147217 0.732789
0.627166 0.151000 0.735391
0.826027 0.154532 0.739423
1.025412 0.154544 0.705357
0.085595 0.369893 0.732756
0.186493 0.366877 0.732909
0.405170 0.367629 0.733982
0.628696 0.369742 0.737081
0.827230 0.372632 0.741276
1.027774 0.376291 0.710757
0.129719 0.594448 0.736687
0.210064 0.593340 0.736924
0.415203 0.594138 0.737658
0.638902 0.602947 0.739995
0.830128 0.606857 0.745677
1.032872 0.612796 0.727572
0.178231 0.823989 0.744303
0.243043 0.824275 0.744453
0.431482 0.825046 0.745307
0.647084 0.827262 0.747411
0.838908 0.838953 0.756419
1.045744 0.848132 0.765244
0.207661 0.986637 0.716107
0.266231 0.986622 0.716329
0.445665 0.987921 0.720528
0.658160 0.992112 0.735099
0.848518 1.003421 0.769595
1.058422 1.016316 0.779158
0.058448 0.017641 0.923446
0.177580 0.020051 0.923625
0.386569 0.027248 0.924459
0.601445 0.036443 0.926350
0.793912 0.046443 0.928854
1.021375 0.032272 0.932411
0.065297 0.148573 0.923728
0.178457 0.147808 0.923823
0.386952 0.150668 0.924817
0.601599 0.155266 0.926532
0.794043 0.160936 0.928987
1.021651 0.161296 0.932678
0.088713 0.353239 0.924749
0.188351 0.353108 0.924742
0.406562 0.369065 0.925612
0.610285 0.371236 0.927476
0.797219 0.374115 0.929891
1.022720 0.376002 0.933704
0.125940 0.567429 0.926411
0.208276 0.567388 0.926495
0.415148 0.575246 0.927423
0.639538 0.603869 0.929163
0.807799 0.605781 0.931662
1.024880 0.607849 0.935713
0.172793 0.786700 0.929707
0.239201 0.786851 0.929877
0.429891 0.790371 0.930454
0.646474 0.802961 0.931620
0.829441 0.829369 0.934001
1.029471 0.833423 0.939315
0.222688 0.984627 0.935214
0.277119 0.984812 0.935021
0.450128 0.985161 0.935699
0.657100 0.985624 0.936404
0.834661 0.986409 0.937645
1.039981 0.997439 0.947354
