src/luts/fairytale/2.cube
LUT_3D_SIZE 16
0.000000 0.000000 0.000000
0.045008 0.000091 0.004011
0.102005 0.000160 0.008041
0.168084 0.000229 0.011687
0.241494 0.000274 0.014072
0.320261 0.000355 0.014596
0.401790 0.000482 0.012656
0.483105 0.000571 0.004714
0.562222 0.000643 0.001401
0.637692 0.000732 0.001570
0.708036 0.000849 0.001780
0.772440 0.000942 0.005555
0.830514 0.001021 0.022288
0.882139 0.001083 0.032398
0.926972 0.001144 0.040941
1.027147 0.001323 0.002628
0.008497 0.010957 0.011180
0.045768 0.010688 0.011579
0.102395 0.008863 0.013201
0.168343 0.004640 0.015529
0.241623 0.000275 0.017189
0.320348 0.000359 0.017450
0.401818 0.000484 0.015798
0.483068 0.000574 0.011269
0.562257 0.000643 0.001402
0.637693 0.000732 0.001570
0.708039 0.000849 0.001780
0.772552 0.000944 0.010606
0.830577 0.001021 0.023132
0.882077 0.001083 0.032971
0.926886 0.001144 0.041321
1.027159 0.001323 0.002628
0.017709 0.067027 0.021470
0.047684 0.067369 0.020467
0.103890 0.067818 0.019501
0.169625 0.069722 0.021353
0.243243 0.072431 0.023015
0.321854 0.074518 0.023158
0.403134 0.076166 0.021858
0.484388 0.077399 0.018906
0.563575 0.078365 0.014179
0.639003 0.079315 0.006954
0.709258 0.080371 0.007614
0.773662 0.081752 0.017425
0.831686 0.083484 0.026515
0.883394 0.085519 0.035326
0.928133 0.087652 0.043317
1.028211 0.073685 0.003428
0.027698 0.137070 0.031915
0.052786 0.137327 0.031373
0.107602 0.138590 0.028353
0.172149 0.139747 0.024692
0.245466 0.143527 0.026329
0.323840 0.146847 0.026662
0.404975 0.149698 0.025499
0.485888 0.152053 0.023009
0.564915 0.153972 0.019420
0.640258 0.155529 0.015811
0.710414 0.156746 0.015738
0.774748 0.157745 0.021375
0.832903 0.158424 0.029017
0.884360 0.158875 0.037204
0.928995 0.158749 0.044799
1.029185 0.149892 0.004147
0.038659 0.211750 0.042819
0.060276 0.212080 0.042572
0.113141 0.213097 0.040779
0.178239 0.215546 0.035203
0.249142 0.217090 0.026535
0.326781 0.220569 0.026132
0.407399 0.223881 0.025056
0.488090 0.226586 0.022519
0.566783 0.228739 0.018634
0.641812 0.230404 0.014517
0.711938 0.231383 0.014719
0.776150 0.231944 0.021317
0.833926 0.231744 0.029520
0.885502 0.230994 0.037847
0.930323 0.229220 0.045492
1.030262 0.220940 0.004890
0.049873 0.288435 0.053501
0.068623 0.288673 0.053294
0.119403 0.289639 0.052140
0.183485 0.291581 0.048461
0.255493 0.294415 0.037959
0.330261 0.295427 0.014123
0.410537 0.299203 0.006317
0.490650 0.302097 0.005899
0.569141 0.304368 0.005661
0.643921 0.305903 0.005562
0.713681 0.306705 0.005542
0.777811 0.306611 0.005555
0.835439 0.305747 0.025190
0.886669 0.303792 0.035957
0.931346 0.300819 0.044465
1.031475 0.291805 0.005742
0.061663 0.366708 0.064285
0.078135 0.366909 0.064118
0.126344 0.367650 0.063167
0.189253 0.369176 0.060393
0.260682 0.371742 0.053295
0.337175 0.374543 0.034191
0.414114 0.375523 0.008757
0.494180 0.378868 0.008174
0.572092 0.381142 0.007666
0.646458 0.382476 0.007308
0.715815 0.382976 0.007106
0.779821 0.382431 0.006980
0.837184 0.380725 0.006895
0.888411 0.377851 0.027659
0.932799 0.373443 0.040205
1.032972 0.363375 0.006747
0.073879 0.445764 0.075049
0.088537 0.446026 0.074888
0.134056 0.446589 0.074074
0.195529 0.447844 0.071834
0.265977 0.450008 0.066583
0.342093 0.452870 0.054629
0.420558 0.455741 0.010188
0.497743 0.456465 0.010671
0.575551 0.459229 0.010119
0.649433 0.460386 0.009536
0.718468 0.460498 0.009077
0.782231 0.459466 0.008759
0.839309 0.457030 0.008514
0.890211 0.452988 0.008305
0.934546 0.447254 0.025660
1.034648 0.435738 0.007931
0.086530 0.525431 0.085746
0.099693 0.525460 0.085614
0.142345 0.526062 0.084882
0.202218 0.527024 0.083010
0.271517 0.528822 0.078808
0.346606 0.531381 0.070218
0.424739 0.534526 0.051400
0.503193 0.537158 0.012188
0.578924 0.537888 0.012631
0.652929 0.539411 0.012112
0.721709 0.539271 0.011478
0.784830 0.537719 0.010946
0.841828 0.534404 0.010501
0.892594 0.529385 0.010129
0.936744 0.522379 0.009785
1.036685 0.509095 0.009352
0.099549 0.604497 0.096342
0.111425 0.604644 0.096182
0.151268 0.605108 0.095543
0.209122 0.606039 0.093853
0.277098 0.607544 0.090408
0.351017 0.609787 0.083726
0.428030 0.612569 0.070996
0.506113 0.615634 0.040554
0.582960 0.618140 0.014134
0.656202 0.619088 0.014618
0.725083 0.618986 0.014138
0.788017 0.616930 0.013487
0.844488 0.612910 0.012868
0.895120 0.606957 0.012306
0.939044 0.598568 0.011784
1.039016 0.583433 0.011041
0.112757 0.682579 0.106631
0.123366 0.682623 0.106515
0.160520 0.683019 0.105977
0.216242 0.683968 0.104458
0.282460 0.685190 0.101473
0.355033 0.687031 0.096066
0.430804 0.689693 0.086502
0.507815 0.692513 0.069014
0.584188 0.695419 0.014187
0.658175 0.697968 0.016001
0.727825 0.698987 0.016573
0.791221 0.696981 0.016170
0.847715 0.692332 0.015510
0.897874 0.685425 0.014808
0.941797 0.675876 0.014105
1.041657 0.658668 0.013029
0.125941 0.758801 0.116714
0.135526 0.758740 0.116567
0.170012 0.759156 0.116058
0.223341 0.759818 0.114751
0.287635 0.761042 0.112183
0.358579 0.762757 0.107593
0.432905 0.764897 0.100008
0.508631 0.767614 0.087376
0.583928 0.770563 0.064027
0.657463 0.773573 0.016044
0.727771 0.775781 0.017772
0.793611 0.777126 0.018471
0.850612 0.772284 0.018160
0.900818 0.764751 0.017492
0.944746 0.753739 0.016683
1.044594 0.734901 0.015317
0.138834 0.831933 0.126288
0.147502 0.832033 0.126154
0.179511 0.832266 0.125688
0.230146 0.832912 0.124506
0.292396 0.834068 0.122212
0.361436 0.835317 0.118375
0.434047 0.837414 0.112133
0.508150 0.839630 0.102399
0.582231 0.842618 0.086657
0.654771 0.845493 0.055953
0.724493 0.848129 0.017747
0.790896 0.850664 0.019406
0.852580 0.852133 0.020248
0.903154 0.843954 0.020039
0.947677 0.832266 0.019350
1.047778 0.811535 0.017848
0.151425 0.901303 0.135425
0.159272 0.901225 0.135301
0.188783 0.901784 0.134880
0.236812 0.902316 0.133821
0.296568 0.903197 0.131805
0.363362 0.904434 0.128453
0.434168 0.906226 0.123212
0.506537 0.908354 0.115379
0.579065 0.910893 0.103628
0.650237 0.913627 0.085117
0.719173 0.916405 0.044304
0.785033 0.919168 0.019285
0.847167 0.921391 0.020872
0.904790 0.923143 0.021847
0.950577 0.910687 0.021749
1.051005 0.888921 0.020530
0.163524 0.963339 0.144203
0.170584 0.963455 0.144099
0.197742 0.963693 0.143693
0.242816 0.964117 0.142758
0.299943 0.964970 0.140984
0.364440 0.966022 0.138099
0.432998 0.967519 0.133673
0.503436 0.969422 0.127221
0.574253 0.971635 0.118008
0.644051 0.974289 0.104692
0.711888 0.976892 0.084289
0.776753 0.979201 0.026654
0.838268 0.981482 0.020627
0.896090 0.983720 0.022144
0.952714 0.985154 0.023241
1.054074 0.965833 0.023083
0.176262 0.994888 0.154737
0.182578 0.994888 0.154655
0.206884 0.994888 0.154276
0.248377 0.994902 0.153490
0.302070 0.995736 0.152002
0.363207 0.996761 0.149649
0.428983 0.997949 0.146087
0.496968 0.999574 0.140931
0.565599 1.001385 0.133895
0.633569 1.003528 0.124336
0.699800 1.005736 0.111264
0.763503 1.008118 0.092593
0.824247 1.010334 0.059737
0.881838 1.012279 0.021779
0.934955 1.013748 0.023120
1.056564 1.014865 0.024512
0.002539 0.000000 0.046093
0.044844 0.000045 0.046553
0.101932 0.000151 0.046836
0.168017 0.000225 0.048138
0.241499 0.000276 0.049550
0.320298 0.000367 0.050555
0.401748 0.000493 0.051015
0.483140 0.000584 0.050987
0.562287 0.000656 0.050720
0.637714 0.000762 0.050547
0.708138 0.000876 0.050950
0.772538 0.000963 0.052360
0.830587 0.001034 0.054825
0.882157 0.001092 0.058332
0.927051 0.001158 0.062276
1.027191 0.001337 0.027940
0.008877 0.010976 0.046875
0.045578 0.010747 0.047330
0.102328 0.009293 0.047937
0.168316 0.004048 0.048680
0.241623 0.000277 0.049268
0.320371 0.000371 0.049537
0.401812 0.000495 0.049321
0.483110 0.000586 0.048754
0.562263 0.000658 0.048033
0.637716 0.000762 0.047603
0.708166 0.000874 0.047973
0.772617 0.000962 0.049569
0.830660 0.001033 0.052472
0.882149 0.001092 0.056573
0.926880 0.001157 0.061193
1.027202 0.001337 0.027039
0.018500 0.066799 0.049574
0.047904 0.067070 0.049772
0.103531 0.067522 0.049683
0.169413 0.069444 0.050590
0.243016 0.071873 0.051633
0.321833 0.073749 0.051983
0.403144 0.075112 0.051745
0.484369 0.076071 0.051094
0.563566 0.076876 0.050345
0.639015 0.077684 0.049840
0.709284 0.078700 0.050127
0.773679 0.080144 0.051590
0.831689 0.082067 0.054376
0.883396 0.084340 0.058360
0.928138 0.086793 0.062865
1.028230 0.073397 0.029516
0.028159 0.136844 0.054906
0.052605 0.137031 0.054538
0.107101 0.138112 0.053513
0.171551 0.139141 0.052496
0.244973 0.142909 0.053494
0.323828 0.146508 0.054143
0.404931 0.149173 0.053739
0.485896 0.151406 0.053042
0.564916 0.153195 0.052227
0.640270 0.154667 0.051684
0.710444 0.155888 0.051868
0.774763 0.156873 0.053265
0.832916 0.157679 0.055927
0.884375 0.158239 0.059751
0.929009 0.158264 0.064120
1.029208 0.149763 0.031451
0.039042 0.211623 0.062135
0.059525 0.211822 0.061272
0.112493 0.212747 0.060425
0.177469 0.214843 0.058073
0.248678 0.216563 0.055421
0.326803 0.220518 0.055405
0.407425 0.223627 0.054799
0.488110 0.226225 0.053997
0.566794 0.228357 0.053124
0.641834 0.229862 0.052528
0.711945 0.230893 0.052701
0.776163 0.231399 0.054073
0.833927 0.231278 0.056737
0.885524 0.230567 0.060590
0.930343 0.228972 0.064902
1.030285 0.220915 0.032062
0.050213 0.288297 0.069944
0.067549 0.288574 0.068778
0.118767 0.289550 0.068205
0.183177 0.291529 0.066342
0.255397 0.294452 0.061411
0.330401 0.295499 0.055188
0.410610 0.299146 0.053909
0.490748 0.301988 0.052936
0.569152 0.304094 0.052054
0.643950 0.305646 0.051476
0.713703 0.306305 0.051778
0.777884 0.306348 0.053268
0.835336 0.305425 0.056216
0.886705 0.303539 0.060322
0.931371 0.300588 0.064845
1.031495 0.291756 0.029896
0.061920 0.366637 0.078467
0.076805 0.366753 0.077074
0.125535 0.367544 0.076488
0.188732 0.369120 0.074728
0.260388 0.371707 0.070340
0.337085 0.374639 0.061085
0.414277 0.375586 0.050433
0.494309 0.378911 0.048179
0.572142 0.380985 0.047139
0.646471 0.382361 0.046730
0.715964 0.382783 0.047449
0.779895 0.382317 0.049605
0.837255 0.380505 0.053265
0.888478 0.377635 0.058022
0.932768 0.373184 0.063183
1.032979 0.363332 0.019406
0.074115 0.445821 0.087423
0.087071 0.445908 0.085959
0.133099 0.446500 0.085383
0.194937 0.447774 0.083768
0.265591 0.449971 0.079994
0.341860 0.452870 0.072112
0.420604 0.455741 0.056875
0.497860 0.456568 0.036814
0.575587 0.459136 0.031729
0.649463 0.460333 0.031516
0.718566 0.460401 0.034197
0.782288 0.459297 0.039092
0.839340 0.456775 0.045256
0.890354 0.452847 0.052215
0.934568 0.447262 0.058693
1.034638 0.435628 0.007924
0.086730 0.525347 0.096681
0.098229 0.525422 0.095219
0.141350 0.526029 0.094671
0.201526 0.527025 0.093155
0.271067 0.528751 0.089892
0.346375 0.531351 0.083391
0.424675 0.534450 0.071054
0.503168 0.537276 0.046023
0.578925 0.537906 0.012631
0.652923 0.539412 0.012107
0.721675 0.539138 0.011471
0.784806 0.537570 0.010932
0.841801 0.534276 0.010490
0.892602 0.529276 0.036482
0.936748 0.522368 0.048681
1.036676 0.509071 0.009345
0.099717 0.604473 0.106021
0.109976 0.604547 0.104657
0.150243 0.605065 0.104115
0.208455 0.605998 0.102747
0.276562 0.607525 0.099870
0.350684 0.609786 0.094383
0.427850 0.612562 0.084648
0.506044 0.615673 0.066686
0.582909 0.618146 0.014130
0.656204 0.619090 0.014617
0.725073 0.618920 0.014134
0.788004 0.616892 0.013479
0.844532 0.612858 0.012858
0.895346 0.606906 0.012294
0.939019 0.598506 0.011775
1.039008 0.583417 0.011035
0.112910 0.682535 0.115310
0.122087 0.682634 0.114085
0.159532 0.682959 0.113538
0.215453 0.683910 0.112293
0.281963 0.685137 0.109783
0.354687 0.686988 0.105095
0.430529 0.689626 0.097194
0.507652 0.692520 0.083756
0.584195 0.695565 0.058074
0.658188 0.697970 0.016000
0.727843 0.698996 0.016573
0.791222 0.696961 0.016168
0.847707 0.692281 0.015505
0.897855 0.685359 0.014801
0.941772 0.675567 0.014093
1.041649 0.658653 0.013022
0.126076 0.758764 0.124452
0.134392 0.758834 0.123354
0.169119 0.759222 0.122866
0.222643 0.759767 0.121741
0.287217 0.760995 0.119456
0.358178 0.762717 0.115467
0.432640 0.764866 0.108887
0.508378 0.767601 0.098376
0.583819 0.770551 0.080962
0.657389 0.773544 0.041144
0.727813 0.775785 0.017771
0.793619 0.777133 0.018471
0.850611 0.772314 0.018158
0.900828 0.764627 0.017489
0.944739 0.753736 0.016682
1.044589 0.734952 0.015311
0.138971 0.831899 0.133284
0.146585 0.831984 0.132345
0.178759 0.832244 0.131895
0.229646 0.832865 0.130866
0.291967 0.834083 0.128812
0.361096 0.835276 0.125317
0.433763 0.837382 0.119801
0.507957 0.839610 0.111328
0.582102 0.842621 0.098226
0.654703 0.845498 0.076736
0.724510 0.848117 0.017737
0.790901 0.850666 0.019403
0.852584 0.852142 0.020248
0.903157 0.843926 0.020036
0.947678 0.832283 0.019346
1.047774 0.811495 0.017846
0.151542 0.901353 0.141749
0.158608 0.901242 0.141039
0.188274 0.901705 0.140606
0.236297 0.902295 0.139639
0.296237 0.903138 0.137824
0.363114 0.904460 0.134764
0.433926 0.906180 0.129997
0.506373 0.908321 0.122974
0.578968 0.910930 0.112671
0.650201 0.913652 0.097329
0.719132 0.916443 0.072102
0.784883 0.919159 0.019275
0.847118 0.921397 0.020868
0.904796 0.923158 0.021847
0.950588 0.910879 0.021744
1.051003 0.888879 0.020525
0.163609 0.963292 0.149916
0.170130 0.963487 0.149419
0.197341 0.963680 0.149045
0.242513 0.964133 0.148177
0.299731 0.964917 0.146512
0.364164 0.966062 0.143866
0.432834 0.967545 0.139800
0.503323 0.969386 0.133884
0.574205 0.971616 0.125581
0.643934 0.974286 0.113915
0.711777 0.976615 0.097129
0.776709 0.979270 0.069409
0.838220 0.981476 0.020623
0.896096 0.983724 0.022141
0.952728 0.985165 0.023240
1.054074 0.965818 0.023083
0.176376 0.994888 0.159700
0.182449 0.994888 0.159491
0.206853 0.994888 0.159151
0.248303 0.994878 0.158414
0.301977 0.995713 0.157045
0.363151 0.996737 0.154812
0.428953 0.997930 0.151530
0.497033 0.999557 0.146746
0.565599 1.001376 0.140245
0.633513 1.003524 0.131542
0.699775 1.005736 0.119985
0.763458 1.008129 0.104241
0.824290 1.010370 0.081390
0.881791 1.012276 0.021774
0.934941 1.013748 0.023122
1.056565 1.014868 0.024512
0.005628 0.000000 0.095267
0.044521 0.000016 0.095477
0.101549 0.000078 0.096269
0.167793 0.000201 0.098158
0.241356 0.000265 0.100291
0.320155 0.000344 0.102133
0.401682 0.000488 0.103563
0.483135 0.000585 0.104521
0.562288 0.000660 0.105143
0.637722 0.000774 0.105562
0.708083 0.000888 0.105951
0.772587 0.000976 0.106507
0.830663 0.001047 0.107163
0.882168 0.001105 0.108084
0.927167 0.001181 0.108959
1.027263 0.001372 0.095922
0.010090 0.010824 0.095595
0.045580 0.011114 0.095795
0.101874 0.009789 0.096579
0.168014 0.004960 0.098425
0.241480 0.000266 0.100239
0.320309 0.000349 0.101782
0.401834 0.000491 0.102946
0.483084 0.000587 0.103675
0.562333 0.000662 0.104183
0.637746 0.000777 0.104482
0.708175 0.000890 0.104886
0.772701 0.000978 0.105422
0.830639 0.001049 0.106204
0.882204 0.001107 0.107283
0.927028 0.001184 0.108440
1.027278 0.001372 0.095713
0.019781 0.066796 0.096706
0.048355 0.066906 0.096810
0.102952 0.067204 0.097490
0.168848 0.067844 0.098264
0.242588 0.068642 0.099177
0.321642 0.069109 0.099765
0.403055 0.069046 0.099878
0.484333 0.068889 0.099788
0.563513 0.068792 0.099686
0.638891 0.069062 0.099674
0.709123 0.069949 0.099991
0.773625 0.071743 0.100788
0.831588 0.074480 0.102164
0.883371 0.078067 0.104180
0.928055 0.082181 0.106484
1.028231 0.070860 0.095056
0.030161 0.136203 0.100497
0.053367 0.136315 0.100502
0.105174 0.137153 0.099522
0.170535 0.138122 0.099366
0.244110 0.141057 0.100348
0.323554 0.144223 0.101531
0.404744 0.146169 0.101534
0.485836 0.147803 0.101365
0.564885 0.149158 0.101172
0.640101 0.150413 0.101162
0.710438 0.151584 0.101434
0.774816 0.152784 0.102137
0.832866 0.153888 0.103507
0.884377 0.154997 0.105385
0.928919 0.155835 0.107639
1.029231 0.148560 0.096284
0.040444 0.210902 0.105949
0.060110 0.210997 0.105625
0.109388 0.211726 0.103377
0.175106 0.213521 0.102808
0.247131 0.215094 0.102214
0.326234 0.219148 0.103148
0.407221 0.221997 0.103130
0.487940 0.224158 0.102767
0.566667 0.225918 0.102467
0.641749 0.227234 0.102359
0.711758 0.228187 0.102544
0.776068 0.228778 0.103253
0.833934 0.228868 0.104512
0.885599 0.228503 0.106390
0.930322 0.227331 0.108559
1.030281 0.220149 0.097180
0.051488 0.287931 0.111829
0.068378 0.288107 0.111368
0.114996 0.289030 0.108326
0.180885 0.291024 0.108165
0.254113 0.294031 0.107080
0.330462 0.295613 0.105371
0.410609 0.298500 0.104410
0.490662 0.300820 0.103751
0.569154 0.302616 0.103255
0.643908 0.303901 0.103003
0.713687 0.304576 0.103196
0.777801 0.304564 0.103825
0.835410 0.303750 0.105142
0.886676 0.302115 0.106982
0.931322 0.299443 0.109164
1.031528 0.291311 0.097648
0.063048 0.366336 0.117978
0.077602 0.366450 0.117316
0.121007 0.367211 0.113393
0.186032 0.368775 0.112996
0.258791 0.371549 0.111764
0.336532 0.374738 0.108813
0.414382 0.375651 0.105153
0.494227 0.378356 0.103991
0.572142 0.380216 0.103253
0.646455 0.381278 0.102923
0.715879 0.381511 0.103033
0.779850 0.380956 0.103683
0.837220 0.379319 0.105024
0.888434 0.376530 0.106938
0.932746 0.372464 0.109201
1.033010 0.362931 0.097493
0.075099 0.445524 0.124445
0.087840 0.445703 0.123624
0.128113 0.446316 0.119217
0.191774 0.447497 0.118612
0.263536 0.449822 0.117200
0.340707 0.452732 0.114044
0.420128 0.455892 0.108686
0.497862 0.456694 0.103370
0.575699 0.458852 0.102025
0.649561 0.459716 0.101478
0.718564 0.459690 0.101544
0.782294 0.458520 0.102275
0.839470 0.455936 0.103821
0.890506 0.452106 0.105889
0.934524 0.446587 0.108298
1.034709 0.435402 0.096294
0.087585 0.525123 0.131159
0.098925 0.525293 0.130250
0.136172 0.525793 0.125641
0.198126 0.526818 0.124999
0.268745 0.528578 0.123401
0.344805 0.531264 0.120345
0.423791 0.534448 0.114942
0.502959 0.537373 0.106979
0.579153 0.538152 0.099784
0.653124 0.539328 0.098292
0.721765 0.538813 0.098280
0.784972 0.537105 0.099134
0.841950 0.533707 0.100851
0.892615 0.528769 0.103331
0.936834 0.521855 0.106082
1.036765 0.508863 0.093700
0.100492 0.604322 0.138043
0.110660 0.604396 0.137154
0.145116 0.604883 0.132567
0.204928 0.605878 0.131839
0.274104 0.607356 0.130261
0.348989 0.609573 0.127280
0.426813 0.612513 0.122248
0.505501 0.615699 0.114419
0.582844 0.618320 0.103791
0.656345 0.619259 0.094262
0.725255 0.618880 0.092597
0.788231 0.616751 0.093394
0.844704 0.612465 0.095503
0.895264 0.606448 0.098603
0.939228 0.598241 0.102023
1.039066 0.583301 0.088839
0.113561 0.682372 0.145025
0.122665 0.682538 0.144142
0.154688 0.682845 0.139776
0.212078 0.683625 0.139039
0.279550 0.685026 0.137489
0.352854 0.686890 0.134702
0.429247 0.689564 0.130095
0.506874 0.692503 0.122946
0.583812 0.695567 0.112680
0.658174 0.698306 0.099318
0.728135 0.699183 0.086700
0.791455 0.696875 0.084342
0.847894 0.692240 0.086588
0.898074 0.685162 0.090560
0.941980 0.675509 0.095090
1.041726 0.658525 0.080372
0.126656 0.758624 0.151971
0.134913 0.758658 0.151170
0.164752 0.758982 0.147167
0.219420 0.759688 0.146427
0.284780 0.760891 0.144955
0.356432 0.762520 0.142358
0.431310 0.764807 0.138147
0.507515 0.767508 0.131840
0.583304 0.770558 0.122703
0.657325 0.773737 0.110104
0.727842 0.776068 0.094050
0.793895 0.777276 0.077297
0.850620 0.772192 0.072552
0.900856 0.764631 0.077300
0.944997 0.753732 0.083516
1.044649 0.734766 0.064495
0.139480 0.831745 0.158732
0.147086 0.831892 0.158022
0.174983 0.832227 0.154560
0.226818 0.832854 0.153833
0.289822 0.833880 0.152428
0.359498 0.835295 0.150007
0.432602 0.837264 0.146212
0.507154 0.839714 0.140635
0.581492 0.842577 0.132700
0.654314 0.845489 0.121827
0.724512 0.848339 0.107413
0.790953 0.850659 0.088844
0.852727 0.852033 0.066638
0.903319 0.843940 0.054088
0.947729 0.832272 0.062566
1.047757 0.811515 0.017826
0.151998 0.901237 0.165258
0.159016 0.901289 0.164691
0.185203 0.901573 0.161830
0.233980 0.902269 0.161106
0.294436 0.903062 0.159802
0.361739 0.904310 0.157547
0.432873 0.906206 0.154166
0.505628 0.908374 0.149218
0.578355 0.910824 0.142356
0.649878 0.913589 0.133132
0.718938 0.916452 0.120940
0.785059 0.919200 0.105245
0.847135 0.921637 0.084752
0.904862 0.923059 0.056051
0.950630 0.910703 0.021745
1.050995 0.888960 0.020514
0.164036 0.963442 0.171555
0.170570 0.963267 0.171141
0.195299 0.963515 0.169010
0.240873 0.963958 0.168356
0.298504 0.964935 0.167127
0.363188 0.965939 0.165092
0.432000 0.967376 0.162069
0.502680 0.969206 0.157734
0.573708 0.971636 0.151791
0.643657 0.974243 0.144013
0.711464 0.976671 0.133899
0.776651 0.979380 0.121145
0.838197 0.981749 0.105153
0.896104 0.983748 0.084577
0.952628 0.985186 0.041358
1.054074 0.965760 0.023085
0.176718 0.994888 0.178930
0.182752 0.994888 0.178812
0.205953 0.994888 0.177697
0.247640 0.994877 0.177136
0.301374 0.995599 0.176035
0.362883 0.996635 0.174280
0.428559 0.997830 0.171748
0.496695 0.999474 0.168064
0.565346 1.001337 0.163184
0.633459 1.003498 0.156827
0.699588 1.005733 0.148909
0.763545 1.008157 0.139057
0.824401 1.010432 0.127364
0.882011 1.012454 0.113660
0.935014 1.013908 0.098106
1.056569 1.014878 0.024513
0.009141 0.000000 0.147911
0.045595 0.000000 0.148048
0.102714 0.000028 0.148594
0.167255 0.000119 0.149505
0.240981 0.000229 0.152688
0.319969 0.000286 0.155463
0.401573 0.000449 0.157704
0.482961 0.000566 0.159336
0.562258 0.000650 0.160525
0.637690 0.000762 0.161230
0.708048 0.000883 0.161685
0.772587 0.000976 0.161916
0.830633 0.001049 0.161887
0.882141 0.001108 0.161667
0.926905 0.001187 0.161102
1.027271 0.001382 0.151933
0.012425 0.011658 0.148111
0.046060 0.011472 0.148224
0.102949 0.011126 0.148736
0.167480 0.007204 0.149688
0.241105 0.000230 0.152738
0.320052 0.000287 0.155339
0.401645 0.000452 0.157427
0.483073 0.000569 0.158916
0.562300 0.000652 0.159999
0.637674 0.000766 0.160684
0.708040 0.000886 0.161102
0.772694 0.000978 0.161346
0.830664 0.001051 0.161354
0.882180 0.001110 0.161226
0.927037 0.001190 0.160752
1.027291 0.001384 0.151845
0.020941 0.068477 0.148713
0.048850 0.068516 0.148804
0.102750 0.067507 0.149278
0.168140 0.067778 0.150241
0.241989 0.068542 0.152738
0.321280 0.069133 0.154909
0.402740 0.069220 0.156339
0.484160 0.069130 0.157374
0.563336 0.069082 0.158090
0.638844 0.069369 0.158587
0.709079 0.070283 0.158941
0.773630 0.072080 0.159292
0.831590 0.074810 0.159594
0.883414 0.078365 0.159907
0.928068 0.082483 0.160080
1.028278 0.071135 0.151907
0.032455 0.136063 0.150106
0.054639 0.136144 0.150146
0.105461 0.136440 0.150398
0.169418 0.137155 0.151041
0.243128 0.138398 0.152119
0.322618 0.139940 0.153351
0.404428 0.140896 0.153893
0.485483 0.141489 0.153988
0.564629 0.142221 0.154096
0.639960 0.143119 0.154252
0.710297 0.144345 0.154601
0.774674 0.145997 0.155220
0.832611 0.148006 0.156167
0.884134 0.150418 0.157436
0.928919 0.153088 0.158881
1.029223 0.148554 0.152866
0.043181 0.209927 0.155120
0.061635 0.209993 0.155053
0.109498 0.210441 0.154471
0.172022 0.211927 0.153399
0.245466 0.213412 0.153385
0.324786 0.216352 0.154575
0.406898 0.219265 0.155748
0.487569 0.220535 0.155592
0.566476 0.221776 0.155524
0.641603 0.222882 0.155585
0.711610 0.223745 0.155848
0.776097 0.224545 0.156375
0.833778 0.225141 0.157269
0.885317 0.225519 0.158481
0.930134 0.225538 0.159888
1.030285 0.220201 0.153809
0.053913 0.287102 0.160937
0.069953 0.287285 0.160746
0.115296 0.287907 0.159535
0.176427 0.289332 0.157187
0.250674 0.291934 0.157140
0.328738 0.293887 0.157050
0.410510 0.297372 0.157844
0.490500 0.298828 0.157262
0.568944 0.300084 0.156907
0.643699 0.301031 0.156824
0.713392 0.301593 0.156966
0.777731 0.301653 0.157439
0.835260 0.301184 0.158264
0.886588 0.300094 0.159411
0.931221 0.298137 0.160779
1.031515 0.291322 0.154612
0.065187 0.365707 0.166565
0.079191 0.365829 0.166233
0.121683 0.366393 0.164378
0.181341 0.368036 0.161221
0.256020 0.371060 0.161644
0.335411 0.374696 0.161475
0.414559 0.375771 0.159869
0.494286 0.377563 0.158817
0.572037 0.378788 0.158167
0.646337 0.379459 0.157863
0.715680 0.379572 0.157883
0.779882 0.378995 0.158249
0.837126 0.377464 0.158997
0.888421 0.375050 0.160132
0.932745 0.371533 0.161472
1.033015 0.362895 0.155208
0.076992 0.444989 0.172039
0.089372 0.445212 0.171619
0.128915 0.445710 0.169221
0.186447 0.446943 0.165115
0.260060 0.449279 0.165023
0.338658 0.452509 0.164413
0.419355 0.455997 0.162669
0.498069 0.456815 0.160114
