src/luts/fairytale/3.cube
LUT_3D_SIZE 6
0.000000 0.000000 0.000000
0.142938 0.000000 0.000000
0.305962 0.000000 0.000000
0.479752 0.000000 0.000000
0.642780 0.000000 0.000000
0.795507 0.000000 0.000000
0.000000 0.193409 0.011362
0.141775 0.187961 0.000000
0.305962 0.199870 0.000000
0.479752 0.206205 0.000000
0.642780 0.204669 0.000000
0.795507 0.195895 0.000000
0.000000 0.444544 0.026115
0.000000 0.442147 0.017389
0.299542 0.433118 0.000000
0.479752 0.445107 0.000000
0.642780 0.441710 0.000000
0.795507 0.422387 0.000000
0.000000 0.711114 0.041779
0.000000 0.709907 0.036619
0.183956 0.705558 0.010726
0.467110 0.693412 0.000002
0.642780 0.684753 0.000000
0.795507 0.656683 0.000000
0.000000 0.932800 0.054801
0.000000 0.932104 0.051278
0.000000 0.928161 0.037134
0.377233 0.921299 0.005699
0.629376 0.908877 0.000000
0.795507 0.872682 0.000000
0.000000 1.033935 0.060742
0.000000 1.033271 0.057947
0.000000 1.030230 0.046407
0.264371 1.025689 0.015721
0.567353 1.013961 0.000935
0.792942 1.003912 0.000000
0.169797 0.000000 0.172498
0.207771 0.000000 0.118203
0.305962 0.000000 0.225174
0.479752 0.000000 0.231224
0.642780 0.000000 0.229767
0.795507 0.000000 0.221332
0.114356 0.143993 0.332962
0.186371 0.170662 0.246710
0.305962 0.187530 0.213246
0.479752 0.187530 0.213246
0.642780 0.187530 0.213246
0.795507 0.187530 0.213246
0.000000 0.438488 0.220707
0.000000 0.440251 0.176137
0.292287 0.434906 0.175870
0.479752 0.440201 0.213246
0.642780 0.436054 0.213246
0.795507 0.419304 0.213246
0.000000 0.712817 0.056429
0.000000 0.711699 0.049109
0.147715 0.707822 0.017121
0.463649 0.694340 0.000000
0.642780 0.682943 0.213246
0.795507 0.655333 0.213246
0.000000 0.933891 0.064328
0.000000 0.933199 0.059669
0.000000 0.929423 0.043915
0.364653 0.923081 0.007444
0.627769 0.909289 0.000000
0.795507 0.872158 0.213246
0.000000 1.034953 0.068250
0.000000 1.034267 0.064954
0.000000 1.031322 0.052490
0.246704 1.027027 0.018869
0.562110 1.014963 0.001269
0.792473 1.004063 0.132106
0.329492 0.000000 0.334740
0.371875 0.000000 0.229101
0.409378 0.000000 0.260084
0.479752 0.000000 0.423726
0.642780 0.000000 0.421358
0.795507 0.000000 0.407595
0.310157 0.097072 0.520354
0.355170 0.122839 0.408333
0.389936 0.170040 0.334821
0.479752 0.187530 0.420299
0.642780 0.187530 0.417243
0.795507 0.187530 0.405349
0.138464 0.375343 0.633190
0.136907 0.375465 0.631085
0.318372 0.417020 0.485787
0.479752 0.431121 0.413797
0.642780 0.431121 0.413797
0.795508 0.431121 0.413797
0.005616 0.691347 0.495942
0.003485 0.692497 0.482357
0.000000 0.696036 0.433607
0.440411 0.699190 0.362727
0.642780 0.681211 0.413797
0.795508 0.660551 0.413797
0.000000 0.927413 0.315635
0.000000 0.928055 0.294699
0.000000 0.927841 0.254794
0.324171 0.926467 0.234030
0.617871 0.911772 0.329017
0.795508 0.873940 0.413797
0.000000 1.037208 0.096178
0.000000 1.036830 0.092845
0.000000 1.034630 0.079817
0.189198 1.032134 0.034782
0.544906 1.018306 0.210341
0.790388 1.004822 0.376913
0.467998 0.000000 0.475392
0.512137 0.000000 0.365555
0.552454 0.000000 0.292603
0.585500 0.000000 0.435729
0.642780 0.000000 0.584499
0.795507 0.000000 0.565968
0.451413 0.062501 0.663930
0.493194 0.081975 0.548821
0.537455 0.133216 0.432926
0.564772 0.172004 0.485877
0.642780 0.187530 0.583220
0.795507 0.187530 0.565044
0.377549 0.307615 0.881396
0.383995 0.300548 0.877820
0.509108 0.360321 0.667712
0.563724 0.410999 0.537855
0.642780 0.431121 0.582204
0.795508 0.431121 0.568519
0.120644 0.640173 0.850866
0.118779 0.640865 0.847869
0.172255 0.652752 0.799668
0.437272 0.689906 0.642608
0.641746 0.690233 0.584405
0.795507 0.689649 0.587782
0.019159 0.901324 0.711617
0.017828 0.901793 0.705024
0.013381 0.904361 0.680866
0.311878 0.920053 0.586852
0.588676 0.917610 0.532666
0.795331 0.884261 0.585659
0.000000 1.013667 0.612604
0.000000 1.014015 0.606782
0.000000 1.014587 0.594205
0.219308 1.021922 0.556161
0.522715 1.022122 0.501934
0.784120 1.006803 0.550998
0.589026 0.000000 0.598405
0.632037 0.000000 0.492203
0.675357 0.000000 0.387726
0.715845 0.000000 0.395157
0.735379 0.000000 0.611992
0.795507 0.000000 0.715103
0.573646 0.025312 0.782264
0.613179 0.044761 0.672374
0.661767 0.096016 0.545623
0.694264 0.141540 0.507727
0.718389 0.174545 0.644956
0.795507 0.187530 0.714871
0.533470 0.258105 1.010448
0.537078 0.251528 1.004344
0.637909 0.324231 0.788529
0.689636 0.374756 0.653342
0.708815 0.418231 0.672374
0.795508 0.431121 0.716146
0.358335 0.545829 1.159940
0.361570 0.542659 1.160166
0.468035 0.574792 1.049899
0.604634 0.632171 0.898005
0.710366 0.666128 0.772468
0.795507 0.689649 0.724038
0.125496 0.853560 1.047243
0.124178 0.854053 1.044876
0.116843 0.856461 1.030882
0.372946 0.891209 0.889649
0.576336 0.912528 0.774746
0.785561 0.908360 0.723480
0.057133 0.981900 0.933920
0.055909 0.982510 0.930218
0.051444 0.984400 0.916459
0.253987 1.001782 0.835845
0.533200 1.017167 0.752563
0.761699 1.012451 0.702679
0.702394 0.000000 0.713566
0.741714 0.000000 0.616537
0.786944 0.000000 0.502475
0.825213 0.000000 0.439498
0.865506 0.000000 0.513020
0.874134 0.000000 0.776241
0.688096 0.000000 0.884758
0.724846 0.008416 0.788334
0.773868 0.057466 0.663214
0.809459 0.103764 0.579994
0.841111 0.143039 0.609372
0.860861 0.176525 0.798863
0.661861 0.203360 1.105771
0.676593 0.211942 1.071376
0.753318 0.291380 0.902122
0.801350 0.337892 0.777411
0.826169 0.384484 0.717989
0.851043 0.421034 0.818434
0.574215 0.448644 1.314763
0.576841 0.446304 1.313661
0.672236 0.506939 1.160092
0.756280 0.588731 1.029576
0.824594 0.627786 0.903213
0.854558 0.677035 0.833575
0.355482 0.731688 1.372979
0.356283 0.730688 1.373014
0.354114 0.732421 1.371202
0.569672 0.808221 1.166417
0.685524 0.869287 1.043000
0.802642 0.895970 0.939011
0.209833 0.916687 1.300530
0.208849 0.916932 1.299106
0.203420 0.918588 1.290874
0.390809 0.952677 1.165052
0.598017 0.987276 1.027755
0.751478 1.007628 0.921383
