src/luts/fairytale/3.cube
LUT_3D_SIZE 16
0.000000 0.000000 0.000000
0.043696 0.000000 0.000000
0.092069 0.000000 0.000000
0.142938 0.000000 0.000000
0.195719 0.000000 0.000000
0.250166 0.000000 0.000000
0.305962 0.000000 0.000000
0.363277 0.000000 0.000000
0.421649 0.000000 0.000000
0.479752 0.000000 0.000000
0.536606 0.000000 0.000000
0.591458 0.000000 0.000000
0.642780 0.000000 0.000000
0.689954 0.000000 0.000000
0.732169 0.000000 0.000000
0.795507 0.000000 0.000000
0.000000 0.056669 0.003329
0.043544 0.055030 0.000000
0.092069 0.057849 0.000000
0.142938 0.059754 0.000000
0.195719 0.061198 0.000000
0.250166 0.062389 0.000000
0.305962 0.063381 0.000000
0.363277 0.064209 0.000000
0.421649 0.064866 0.000000
0.479752 0.065255 0.000000
0.536606 0.065382 0.000000
0.591458 0.065229 0.000000
0.642780 0.064806 0.000000
0.689953 0.064093 0.000000
0.732169 0.063185 0.000000
0.795507 0.062215 0.000000
0.000000 0.121351 0.007130
0.000000 0.120512 0.004150
0.091606 0.117888 0.000000
0.142938 0.121698 0.000000
0.195719 0.124737 0.000000
0.250166 0.127253 0.000000
0.305962 0.129371 0.000000
0.363277 0.131113 0.000000
0.421649 0.132515 0.000000
0.479752 0.133351 0.000000
0.536606 0.133610 0.000000
0.591458 0.133303 0.000000
0.642780 0.132374 0.000000
0.689954 0.130883 0.000000
0.732169 0.128942 0.000000
0.795507 0.126904 0.000000
0.000000 0.193409 0.011362
0.000000 0.192981 0.009545
0.071166 0.191289 0.001566
0.141775 0.187961 0.000000
0.195719 0.192450 0.000000
0.250166 0.196447 0.000000
0.305962 0.199870 0.000000
0.363277 0.202632 0.000000
0.421649 0.204849 0.000000
0.479752 0.206205 0.000000
0.536606 0.206632 0.000000
0.591458 0.206128 0.000000
0.642780 0.204669 0.000000
0.689954 0.202206 0.000000
0.732169 0.199142 0.000000
0.795507 0.195895 0.000000
0.000000 0.272234 0.015992
0.000000 0.271931 0.014772
0.000000 0.270587 0.010071
0.123358 0.268306 0.001046
0.193313 0.264855 0.000000
0.250166 0.269602 0.000000
0.305962 0.274337 0.000000
0.363277 0.278192 0.000000
0.421649 0.281359 0.000000
0.479752 0.283227 0.000000
0.536606 0.283814 0.000000
0.591458 0.283073 0.000000
0.642780 0.281062 0.000000
0.689954 0.277682 0.000000
0.732169 0.273393 0.000000
0.795507 0.268805 0.000000
0.000000 0.356469 0.020944
0.000000 0.356252 0.020059
0.000000 0.355272 0.016477
0.065533 0.354003 0.007206
0.174763 0.350712 0.000877
0.245985 0.347129 0.000000
0.305958 0.351770 0.000000
0.363277 0.356846 0.000000
0.421649 0.360879 0.000000
0.479752 0.363286 0.000000
0.536606 0.364030 0.000000
0.591458 0.363073 0.000000
0.642780 0.360479 0.000000
0.689954 0.356073 0.000000
0.732169 0.350527 0.000000
0.795507 0.344619 0.000000
0.000000 0.444544 0.026115
0.000000 0.444331 0.025438
0.000000 0.443663 0.022634
0.000000 0.442147 0.017389
0.129308 0.440660 0.005739
0.226633 0.436917 0.000826
0.299542 0.433118 0.000000
0.362925 0.437389 0.000000
0.421649 0.442107 0.000000
0.479752 0.445107 0.000000
0.536606 0.446060 0.000000
0.591458 0.444902 0.000000
0.642780 0.441710 0.000000
0.689954 0.436424 0.000000
0.732169 0.429645 0.000000
0.795507 0.422387 0.000000
0.000000 0.534418 0.031397
0.000000 0.534347 0.030859
0.000000 0.533809 0.028595
0.000000 0.532551 0.024213
0.000000 0.530586 0.017887
0.185997 0.529018 0.004956
0.279494 0.524922 0.000804
0.354375 0.520973 0.000000
0.420555 0.524610 0.000000
0.479752 0.527515 0.000000
0.536606 0.528582 0.000000
0.591458 0.527316 0.000000
0.642780 0.523513 0.000000
0.689954 0.517267 0.000000
0.732169 0.509402 0.000000
0.795507 0.500948 0.000000
0.000000 0.624366 0.036680
0.000000 0.624281 0.036235
0.000000 0.623758 0.034351
0.000000 0.622839 0.030646
0.000000 0.621248 0.025095
0.110264 0.620033 0.012930
0.242038 0.617161 0.004368
0.334061 0.612797 0.000758
0.410623 0.608809 0.000001
0.477746 0.610274 0.000000
0.536606 0.610643 0.000000
0.591458 0.609107 0.000000
0.642780 0.604955 0.000000
0.689954 0.597963 0.000000
0.732169 0.588951 0.000000
0.795507 0.579441 0.000000
0.000000 0.711114 0.041779
0.000000 0.711009 0.041407
0.000000 0.710552 0.039798
0.000000 0.709907 0.036619
0.000000 0.708479 0.031747
0.000000 0.706512 0.025345
0.183956 0.705558 0.010726
0.299064 0.702030 0.003774
0.389973 0.697484 0.000664
0.467110 0.693412 0.000002
0.533572 0.692330 0.000000
0.591401 0.689461 0.000000
0.642780 0.684753 0.000000
0.689954 0.677198 0.000000
0.732169 0.667304 0.000000
0.795507 0.656683 0.000000
0.000000 0.792606 0.046571
0.000000 0.792514 0.046244
0.000000 0.792196 0.044856
0.000000 0.791534 0.042084
0.000000 0.790373 0.037781
0.000000 0.788662 0.031998
0.062728 0.787209 0.021331
0.250360 0.785226 0.008939
0.357246 0.781252 0.003128
0.446495 0.776795 0.000531
0.523018 0.772920 0.000001
0.587637 0.768488 0.000000
0.642566 0.762171 0.000000
0.689954 0.753794 0.000000
0.732169 0.743163 0.000000
0.795507 0.731857 0.000000
0.000000 0.867008 0.050933
0.000000 0.866928 0.050646
0.000000 0.866754 0.049435
0.000000 0.866027 0.046982
0.000000 0.865045 0.043152
0.000000 0.863592 0.037923
0.000000 0.861603 0.031436
0.180867 0.860796 0.016058
0.314804 0.857745 0.007264
0.415612 0.853547 0.002457
0.502410 0.848839 0.000378
0.577655 0.845053 0.000000
0.638488 0.837364 0.000000
0.689488 0.827377 0.000000
0.732169 0.816004 0.000000
0.795507 0.804174 0.000000
0.000000 0.932800 0.054801
0.000000 0.932795 0.054553
0.000000 0.932557 0.053463
0.000000 0.932104 0.051278
0.000000 0.931224 0.047841
0.000000 0.929821 0.043101
0.000000 0.928161 0.037134
0.000000 0.925905 0.030073
0.261220 0.925080 0.012721
0.377233 0.921299 0.005699
0.472924 0.916954 0.001810
0.556854 0.912480 0.000233
0.629376 0.908877 0.000000
0.685369 0.897937 0.000000
0.731415 0.885186 0.000000
0.795507 0.872682 0.000000
0.000000 0.990922 0.058216
0.000000 0.990998 0.057995
0.000000 0.990779 0.057016
0.000000 0.990181 0.055051
0.000000 0.989435 0.051953
0.000000 0.988159 0.047646
0.000000 0.986875 0.042175
0.000000 0.984791 0.035596
0.188175 0.984046 0.019630
0.331177 0.981387 0.010028
0.436658 0.977445 0.004342
0.527626 0.972883 0.001263
0.607709 0.968487 0.000127
0.677216 0.965204 0.000000
0.727425 0.951199 0.000000
0.795409 0.937079 0.000000
0.000000 1.031171 0.060588
0.000000 1.031107 0.060367
0.000000 1.030889 0.059470
0.000000 1.030462 0.057675
0.000000 1.029744 0.054836
0.000000 1.028719 0.050864
0.000000 1.027297 0.045776
0.000000 1.025427 0.039615
0.078477 1.024103 0.027927
0.285008 1.022582 0.014313
0.401202 1.019164 0.007133
0.497703 1.014901 0.002802
0.582528 1.010422 0.000663
0.657446 1.006428 0.000030
0.721468 1.003651 0.000000
0.793287 0.996579 0.000000
0.000000 1.033935 0.060742
0.000000 1.033888 0.060541
0.000000 1.033682 0.059682
0.000000 1.033271 0.057947
0.000000 1.032571 0.055181
0.000000 1.031586 0.051335
0.000000 1.030230 0.046407
0.000000 1.028414 0.040420
0.000000 1.026151 0.033526
0.264371 1.025689 0.015721
0.384295 1.022483 0.008087
0.481784 1.018395 0.003399
0.567353 1.013961 0.000935
0.643272 1.009859 0.000078
0.708445 1.006883 0.000000
0.792942 1.003912 0.000000
0.054016 0.000000 0.054866
0.065642 0.000000 0.036249
0.092069 0.000000 0.071332
0.142938 0.000000 0.073609
0.195719 0.000000 0.075352
0.250166 0.000000 0.076781
0.305962 0.000000 0.077961
0.363277 0.000000 0.078953
0.421649 0.000000 0.079731
0.479752 0.000000 0.080203
0.536606 0.000000 0.080349
0.591458 0.000000 0.080176
0.642780 0.000000 0.079664
0.689954 0.000000 0.078812
0.732169 0.000000 0.077725
0.795507 0.000000 0.076571
0.040841 0.039795 0.103961
0.060806 0.048962 0.075357
0.092069 0.054960 0.067837
0.142938 0.054960 0.067837
0.195719 0.054960 0.067837
0.250166 0.054960 0.067837
0.305962 0.054960 0.067837
0.363277 0.054960 0.067837
0.421649 0.054960 0.067837
0.479752 0.054960 0.067837
0.536606 0.054960 0.067837
0.591458 0.054960 0.067837
0.642780 0.054960 0.067837
0.689953 0.054960 0.067837
0.732169 0.054960 0.067837
0.795507 0.054960 0.067837
0.000590 0.118168 0.082522
0.000000 0.119026 0.070398
0.090434 0.118240 0.062825
0.142938 0.120479 0.067837
0.195719 0.122786 0.067837
0.250166 0.124736 0.067837
0.305962 0.126424 0.067837
0.363277 0.127833 0.067837
0.421649 0.128971 0.067837
0.479752 0.129650 0.067837
0.536606 0.129866 0.067837
0.591458 0.129578 0.067837
0.642780 0.128812 0.067837
0.689954 0.127521 0.067837
0.732169 0.125907 0.067837
0.795507 0.124189 0.067837
0.000000 0.193980 0.017361
0.000000 0.193637 0.014520
0.061900 0.192293 0.003155
0.141232 0.188178 0.054728
0.195719 0.191700 0.067837
0.250166 0.195265 0.067837
0.305962 0.198291 0.067837
0.363277 0.200808 0.067837
0.421649 0.202868 0.067837
0.479752 0.204081 0.067837
0.536606 0.204472 0.067837
0.591458 0.203925 0.067837
0.642780 0.202546 0.067837
0.689954 0.200244 0.067837
0.732169 0.197365 0.067837
0.795507 0.194284 0.067837
0.000000 0.272678 0.019715
0.000000 0.272399 0.017853
0.000000 0.271086 0.012470
0.119325 0.268892 0.001503
0.192919 0.264972 0.000000
0.250166 0.269135 0.067837
0.305962 0.273462 0.067837
0.363277 0.277188 0.067837
0.421649 0.280080 0.067837
0.479752 0.281869 0.067837
0.536606 0.282352 0.067837
0.591458 0.281654 0.067837
0.642780 0.279657 0.067837
0.689954 0.276346 0.067837
0.732169 0.272149 0.067837
0.795507 0.267695 0.067837
0.000000 0.356786 0.023550
0.000000 0.356570 0.022189
0.000000 0.355717 0.018348
0.055999 0.354303 0.008562
0.172441 0.351085 0.001083
0.245588 0.347174 0.000000
0.305954 0.351383 0.067647
0.363277 0.356195 0.067837
0.421649 0.360033 0.067837
0.479752 0.362295 0.067837
0.536606 0.362970 0.067837
0.591458 0.362053 0.067837
0.642780 0.359477 0.067837
0.689954 0.355086 0.067837
0.732169 0.349686 0.067837
0.795507 0.343839 0.067837
0.000000 0.444865 0.028082
0.000000 0.444578 0.027024
0.000000 0.443893 0.024098
0.000000 0.442421 0.018602
0.125323 0.440998 0.006336
0.225080 0.437210 0.000945
0.299258 0.433198 0.000000
0.362888 0.437193 0.051436
0.421649 0.441759 0.067837
0.479752 0.444536 0.067837
0.536606 0.445322 0.067837
0.591458 0.444142 0.067837
0.642780 0.440942 0.067837
0.689953 0.435771 0.067837
0.732169 0.428977 0.067837
0.795507 0.421794 0.067837
0.000000 0.534679 0.032954
0.000000 0.534520 0.032098
0.000000 0.533964 0.029770
0.000000 0.532749 0.025254
0.000000 0.530800 0.018725
0.183470 0.529276 0.005298
0.278311 0.525123 0.000882
0.354170 0.521060 0.000000
0.420492 0.524415 0.000000
0.479752 0.527121 0.067837
0.536606 0.528126 0.067837
0.591458 0.526780 0.067837
0.642780 0.523001 0.067837
0.689954 0.516795 0.067837
0.732169 0.508937 0.067837
0.795507 0.500541 0.067837
0.000000 0.624557 0.037958
0.000000 0.624449 0.037241
0.000000 0.624044 0.035325
0.000000 0.623033 0.031542
0.000000 0.621453 0.025867
0.105438 0.620196 0.013562
0.240234 0.617324 0.004584
0.333236 0.612955 0.000809
0.410404 0.608843 0.000000
0.477693 0.610237 0.000000
0.536606 0.610373 0.067837
0.591458 0.608803 0.067837
0.642780 0.604528 0.067837
0.689954 0.597630 0.067837
0.732169 0.588616 0.067837
0.795507 0.579110 0.067837
0.000000 0.711366 0.042857
0.000000 0.711211 0.042244
0.000000 0.710766 0.040621
0.000000 0.709925 0.037392
0.000000 0.708831 0.032449
0.000000 0.706675 0.025942
0.181426 0.705649 0.011089
0.297868 0.702147 0.003912
0.389354 0.697613 0.000698
0.466927 0.693493 0.000000
0.533551 0.692153 0.000000
0.591398 0.689392 0.061081
0.642780 0.684507 0.067837
0.689954 0.676841 0.067837
0.732169 0.666956 0.067837
0.795507 0.656446 0.067837
0.000000 0.792810 0.047493
0.000000 0.792664 0.046966
0.000000 0.792285 0.045562
0.000000 0.791628 0.042763
0.000000 0.790563 0.038409
0.000000 0.788866 0.032556
0.053497 0.787270 0.022139
0.248649 0.785426 0.009174
0.356293 0.781448 0.003222
0.445948 0.776815 0.000555
0.522864 0.772884 0.000000
0.587555 0.768462 0.000000
0.642582 0.761981 0.023947
0.689953 0.753534 0.067837
0.732169 0.742951 0.067837
0.795507 0.731775 0.067837
0.000000 0.867171 0.051750
0.000000 0.866966 0.051283
0.000000 0.866742 0.050062
0.000000 0.866165 0.047585
0.000000 0.865259 0.043720
0.000000 0.863719 0.038437
0.000000 0.861706 0.031887
0.178387 0.860809 0.016402
0.313475 0.857879 0.007425
0.414884 0.853472 0.002520
0.501957 0.848847 0.000394
0.577547 0.845010 0.000000
0.638426 0.837383 0.000000
0.689476 0.827271 0.000000
0.732169 0.815948 0.067837
0.795507 0.804181 0.067837
0.000000 0.933006 0.055521
0.000000 0.932869 0.055117
0.000000 0.932507 0.054037
0.000000 0.932018 0.051828
0.000000 0.931215 0.048365
0.000000 0.929968 0.043582
0.000000 0.928296 0.037568
0.000000 0.925843 0.030457
0.259634 0.925289 0.012946
0.376353 0.921525 0.005808
0.472357 0.917141 0.001852
0.556523 0.912524 0.000242
0.629340 0.908951 0.000000
0.685225 0.897761 0.000000
0.731512 0.885163 0.000000
0.795507 0.872432 0.067837
0.000000 0.991050 0.058865
0.000000 0.990988 0.058507
0.000000 0.990610 0.057531
0.000000 0.990297 0.055562
0.000000 0.989620 0.052434
0.000000 0.988288 0.048108
0.000000 0.986789 0.042589
0.000000 0.984933 0.035967
0.185931 0.984183 0.019932
0.330056 0.981381 0.010185
0.435984 0.977480 0.004415
0.527155 0.972881 0.001290
0.607401 0.968636 0.000129
0.677042 0.965273 0.000000
0.727374 0.951241 0.000000
0.795402 0.936964 0.000000
0.000000 1.031257 0.061166
0.000000 1.031198 0.060848
0.000000 1.030966 0.059967
0.000000 1.030540 0.058154
0.000000 1.029823 0.055288
0.000000 1.028795 0.051296
0.000000 1.027369 0.046170
0.000000 1.025518 0.039978
0.072473 1.024136 0.028467
0.283711 1.022674 0.014504
0.400329 1.019258 0.007241
0.497142 1.014984 0.002854
0.582087 1.010491 0.000679
0.657194 1.006467 0.000000
0.721479 1.003670 0.000000
0.793251 0.996491 0.000000
0.000000 1.034035 0.061308
0.000000 1.033962 0.061017
0.000000 1.033757 0.060153
0.000000 1.033347 0.058411
0.000000 1.032637 0.055627
0.000000 1.031665 0.051761
0.000000 1.030280 0.046803
0.000000 1.028495 0.040776
0.000000 1.026242 0.033846
0.262931 1.025780 0.015933
0.383291 1.022578 0.008204
0.481095 1.018474 0.003458
0.566953 1.014031 0.000955
0.642997 1.009905 0.000073
0.708480 1.006898 0.000000
0.792899 1.003922 0.000000
0.111913 0.000000 0.113703
0.124890 0.000000 0.081298
0.136420 0.000000 0.076209
0.144779 0.000000 0.142513
0.195719 0.000000 0.148316
0.250166 0.000000 0.151058
0.305962 0.000000 0.153357
0.363277 0.000000 0.155233
0.421649 0.000000 0.156736
0.479752 0.000000 0.157660
0.536606 0.000000 0.157925
0.591458 0.000000 0.157603
0.642780 0.000000 0.156596
0.689953 0.000000 0.154961
0.732169 0.000000 0.152896
0.795507 0.000000 0.150668
0.106937 0.023193 0.167042
0.120033 0.032074 0.133723
0.130995 0.046370 0.107312
0.143659 0.054840 0.142688
0.195719 0.054960 0.146166
0.250166 0.054960 0.148315
0.305962 0.054960 0.150152
0.363277 0.054960 0.151676
0.421649 0.054960 0.152917
0.479752 0.054960 0.153662
0.536606 0.054960 0.153878
0.591458 0.054960 0.153568
0.642780 0.054960 0.152736
0.689954 0.054960 0.151363
0.732169 0.054960 0.149580
0.795507 0.054960 0.147717
0.081254 0.087227 0.217303
0.082450 0.086680 0.217510
0.125031 0.105712 0.158760
0.142938 0.117673 0.140562
0.195719 0.117673 0.140562
0.250166 0.117673 0.140562
0.305962 0.117673 0.140562
0.363277 0.117673 0.140562
0.421649 0.117673 0.140562
0.479752 0.117673 0.140562
0.536606 0.117673 0.140562
0.591458 0.117673 0.140562
0.642780 0.117673 0.140562
0.689954 0.117673 0.140562
0.732169 0.117673 0.140562
0.795507 0.117673 0.140562
0.018515 0.180165 0.198660
0.016759 0.180907 0.194102
0.055691 0.186757 0.164556
0.132523 0.190111 0.134095
0.195719 0.189877 0.140562
0.250166 0.192000 0.140562
0.305962 0.193891 0.140562
0.363277 0.195509 0.140562
0.421649 0.196810 0.140562
0.479752 0.197609 0.140562
0.536606 0.197744 0.140562
0.591458 0.197382 0.140562
0.642780 0.196379 0.140562
0.689954 0.194693 0.140562
0.732169 0.192664 0.140562
0.795507 0.190559 0.140562
0.000000 0.267009 0.159555
0.000000 0.267424 0.153249
0.000000 0.268449 0.132631
0.102986 0.270035 0.110463
0.189610 0.265855 0.123512
0.250166 0.267772 0.140562
0.305962 0.271161 0.140562
0.363277 0.274033 0.140562
0.421649 0.276412 0.140562
0.479752 0.277746 0.140562
0.536606 0.278036 0.140562
0.591458 0.277338 0.140562
0.642780 0.275501 0.140562
0.689954 0.272609 0.140562
0.732169 0.268983 0.140562
0.795507 0.265163 0.140562
0.000000 0.356653 0.061797
0.000000 0.357600 0.034216
0.000000 0.356909 0.028704
0.000000 0.355226 0.019717
0.161613 0.352647 0.042766
0.243515 0.347706 0.107353
0.305963 0.350474 0.140064
0.363277 0.354472 0.140562
0.421649 0.357646 0.140562
0.479752 0.359643 0.140562
0.536606 0.360041 0.140562
0.591458 0.359107 0.140562
0.642780 0.356493 0.140562
0.689953 0.352467 0.140562
0.732169 0.347383 0.140562
0.795507 0.342045 0.140562
0.000000 0.445688 0.036777
0.000000 0.445591 0.035691
0.000000 0.444924 0.031541
0.000000 0.443590 0.025050
0.106933 0.442391 0.009756
0.217601 0.438436 0.001670
0.297528 0.433630 0.068981
0.362823 0.436467 0.133655
0.421649 0.440410 0.140562
0.479752 0.442723 0.140562
0.536606 0.443391 0.140562
0.591458 0.442045 0.140562
0.642780 0.438842 0.140562
0.689953 0.433709 0.140562
0.732169 0.427218 0.140562
0.795507 0.420394 0.140562
0.000000 0.535446 0.039653
0.000000 0.535277 0.038788
0.000000 0.534798 0.035485
0.000000 0.533691 0.030453
0.000000 0.531737 0.022953
0.172563 0.530367 0.007080
0.273144 0.526015 0.001304
0.352757 0.521428 0.000000
0.420299 0.523915 0.118331
0.479752 0.526134 0.140562
0.536606 0.526815 0.140562
0.591458 0.525285 0.140562
0.642780 0.521505 0.140562
0.689954 0.515372 0.140562
0.732169 0.507626 0.140562
0.795507 0.499477 0.140562
0.000000 0.625252 0.043364
0.000000 0.625068 0.042656
0.000000 0.624654 0.039921
0.000000 0.623683 0.035843
0.000000 0.622108 0.029605
0.083556 0.620902 0.016734
0.232721 0.618190 0.005659
0.329380 0.613670 0.001083
0.409222 0.609109 0.000000
0.477404 0.609784 0.089364
0.536606 0.609520 0.140562
0.591458 0.607847 0.140562
0.642780 0.603490 0.140562
0.689953 0.596462 0.140562
0.732169 0.587640 0.140562
0.795507 0.578315 0.140562
0.000000 0.711915 0.047376
0.000000 0.711841 0.046768
0.000000 0.711452 0.044460
0.000000 0.710556 0.041046
0.000000 0.709373 0.035747
0.000000 0.707416 0.028758
0.170578 0.706410 0.012831
0.292302 0.702830 0.004605
0.386444 0.698157 0.000881
0.465968 0.693748 0.000000
0.533318 0.691898 0.000000
0.591360 0.688702 0.137706
0.642780 0.683765 0.140562
0.689954 0.676137 0.140562
0.732169 0.666327 0.140562
0.795507 0.655796 0.140562
0.000000 0.793407 0.051361
0.000000 0.793299 0.050841
0.000000 0.792854 0.048864
0.000000 0.792228 0.045930
0.000000 0.790975 0.041347
0.000000 0.789484 0.035164
0.000000 0.787104 0.027646
0.241589 0.786103 0.010281
0.352045 0.782107 0.003684
0.443597 0.777336 0.000671
0.522104 0.772882 0.000000
0.587371 0.768283 0.000000
0.642550 0.761636 0.129504
0.689954 0.753101 0.140562
0.732169 0.742679 0.140562
0.795507 0.731328 0.140562
0.000000 0.867630 0.055112
0.000000 0.867526 0.054667
0.000000 0.867225 0.052949
0.000000 0.866624 0.050385
0.000000 0.865618 0.046350
0.000000 0.864215 0.040844
0.000000 0.862089 0.033998
0.167817 0.861437 0.018000
0.308262 0.858333 0.008170
0.411618 0.853994 0.002828
0.500262 0.849291 0.000469
0.576923 0.845279 0.000000
0.638188 0.837259 0.000000
0.689480 0.827077 0.117757
0.732169 0.815660 0.140562
0.795507 0.803947 0.140562
0.000000 0.933287 0.058510
0.000000 0.933339 0.058121
0.000000 0.933039 0.056607
0.000000 0.932524 0.054349
0.000000 0.931684 0.050764
0.000000 0.930327 0.045812
0.000000 0.928648 0.039577
0.000000 0.926327 0.032196
0.253277 0.925761 0.013960
0.372543 0.921996 0.006310
0.469942 0.917385 0.002054
0.555152 0.912719 0.000273
0.628843 0.909060 0.000000
0.685014 0.897764 0.000000
0.731387 0.884865 0.102729
0.795507 0.872228 0.140562
0.000000 0.991513 0.061532
0.000000 0.991461 0.061186
0.000000 0.991170 0.059876
0.000000 0.990779 0.057858
0.000000 0.989889 0.054648
0.000000 0.988779 0.050182
0.000000 0.987358 0.044497
0.000000 0.985175 0.037667
0.176662 0.984583 0.021316
0.325390 0.982080 0.010890
0.432908 0.977810 0.004761
0.525145 0.973248 0.001423
0.606345 0.968778 0.000173
0.676592 0.965373 0.000000
0.727066 0.951096 0.000000
0.795512 0.937078 0.128240
0.000000 1.031586 0.063610
0.000000 1.031502 0.063298
0.000000 1.031299 0.062150
0.000000 1.030862 0.060293
0.000000 1.030193 0.057363
0.000000 1.029146 0.053259
0.000000 1.027724 0.048002
0.000000 1.025854 0.041629
0.044707 1.024247 0.031008
0.278371 1.023095 0.015373
0.396968 1.019666 0.007709
0.494800 1.015350 0.003075
0.580594 1.010763 0.000750
0.656348 1.006644 0.000000
0.721252 1.003761 0.000000
0.793047 0.996521 0.000000
0.000000 1.034318 0.063675
0.000000 1.034265 0.063383
0.000000 1.034096 0.062324
0.000000 1.033662 0.060530
0.000000 1.032991 0.057684
0.000000 1.032007 0.053720
0.000000 1.030642 0.048625
0.000000 1.028856 0.042446
0.000000 1.026581 0.035306
0.257355 1.026199 0.016866
0.379857 1.022995 0.008720
0.478770 1.018856 0.003710
0.565426 1.014321 0.001049
0.642068 1.010100 0.000000
0.707961 1.007005 0.000000
0.792787 1.003968 0.000000
0.169797 0.000000 0.172498
0.183089 0.000000 0.139683
0.195774 0.000000 0.109728
0.207771 0.000000 0.118203
0.216188 0.000000 0.190428
0.250166 0.000000 0.221934
0.305962 0.000000 0.225174
0.363277 0.000000 0.227806
0.421649 0.000000 0.229988
0.479752 0.000000 0.231224
0.536606 0.000000 0.231643
0.591458 0.000000 0.231135
0.642780 0.000000 0.229767
0.689954 0.000000 0.227434
0.732169 0.000000 0.224510
0.795507 0.000000 0.221332
0.165286 0.008041 0.226175
0.177518 0.014594 0.192585
0.191845 0.030056 0.155144
0.201187 0.043059 0.148938
0.211570 0.052249 0.197379
0.250166 0.054960 0.220721
0.305962 0.054960 0.223668
0.363277 0.054960 0.226118
0.421649 0.054960 0.228034
0.479752 0.054960 0.229231
0.536606 0.054960 0.229590
0.591458 0.054960 0.229084
0.642780 0.054960 0.227752
0.689954 0.054960 0.225594
0.732169 0.054960 0.222796
0.795507 0.054960 0.219773
0.155510 0.068654 0.286037
0.163578 0.073288 0.268872
0.186472 0.088479 0.217001
0.199333 0.103899 0.181107
0.208025 0.115402 0.201778
0.250166 0.117673 0.217584
0.305962 0.117673 0.219430
0.363277 0.117673 0.221011
0.421649 0.117673 0.222279
0.479752 0.117673 0.223020
0.536606 0.117673 0.223185
0.591458 0.117673 0.222796
0.642780 0.117673 0.221802
0.689954 0.117673 0.220206
0.732169 0.117673 0.218250
0.795507 0.117673 0.216180
0.114356 0.143993 0.332962
0.114853 0.143725 0.333039
0.150817 0.157482 0.290484
0.186371 0.170662 0.246710
0.209065 0.184368 0.205625
0.250166 0.187530 0.213246
0.305962 0.187530 0.213246
0.363277 0.187530 0.213246
0.421649 0.187530 0.213246
0.479752 0.187530 0.213246
0.536606 0.187530 0.213246
0.591458 0.187530 0.213246
0.642780 0.187530 0.213246
0.689954 0.187530 0.213246
0.732169 0.187530 0.213246
0.795507 0.187530 0.213246
0.038765 0.248195 0.310377
0.037613 0.248642 0.307999
0.033555 0.250160 0.299631
0.111306 0.261303 0.251913
0.177488 0.267126 0.216187
0.250151 0.266036 0.213118
0.305962 0.267866 0.213246
0.363277 0.269455 0.213246
0.421649 0.270798 0.213246
0.479752 0.271508 0.213246
0.536606 0.271587 0.213246
0.591458 0.271044 0.213246
0.642780 0.269825 0.213246
0.689954 0.267926 0.213246
0.732169 0.265603 0.213246
0.795507 0.263150 0.213246
0.006704 0.344678 0.268922
0.006026 0.344948 0.265500
0.003944 0.346086 0.254092
0.000995 0.347794 0.233492
0.144007 0.352976 0.195343
0.234853 0.349698 0.191030
0.305656 0.349144 0.211331
0.363277 0.351933 0.213246
0.421649 0.354267 0.213246
0.479752 0.355519 0.213246
0.536606 0.355710 0.213246
0.591458 0.354727 0.213246
0.642780 0.352540 0.213246
0.689954 0.349132 0.213246
0.732169 0.344923 0.213246
0.795507 0.340545 0.213246
0.000000 0.438488 0.220707
0.000000 0.438719 0.216287
0.000000 0.439431 0.201698
0.000000 0.440251 0.176137
0.073286 0.441585 0.155869
0.204077 0.439830 0.151908
0.292287 0.434906 0.175870
0.362297 0.435537 0.206540
0.421649 0.438363 0.213246
0.479752 0.440201 0.213246
0.536606 0.440391 0.213246
0.591458 0.438904 0.213246
0.642780 0.436054 0.213246
0.689953 0.431271 0.213246
0.732169 0.425406 0.213246
0.795507 0.419304 0.213246
0.000000 0.534170 0.108883
0.000000 0.535049 0.084086
0.000000 0.535911 0.049568
0.000000 0.535181 0.043025
0.000000 0.533478 0.034135
0.147774 0.532824 0.012420
0.262792 0.527529 0.092788
0.349005 0.522290 0.153092
