src/luts/fairytale/4.cube
LUT_3D_SIZE 6
0.000000 0.048727 0.105461
0.131702 0.048740 0.129690
0.463448 0.048754 0.196767
0.785107 0.048776 0.258760
0.963532 0.048787 0.292320
1.118498 0.048794 0.323350
0.000000 0.100486 0.105325
0.138034 0.090747 0.119795
0.475944 0.113243 0.181491
0.797871 0.098571 0.244704
0.962998 0.048727 0.290303
1.118227 0.048795 0.321986
0.000000 0.413752 0.103305
0.154774 0.414027 0.089499
0.452403 0.405918 0.101564
0.814071 0.405059 0.167746
1.001634 0.354288 0.219575
1.153882 0.289664 0.267249
0.000000 0.727016 0.089499
0.166101 0.727242 0.089499
0.447214 0.728296 0.089499
0.735533 0.725493 0.092327
0.967776 0.645873 0.134336
1.150864 0.546336 0.192840
0.000000 0.943828 0.089499
0.149565 0.943670 0.089499
0.409853 0.944261 0.089499
0.670579 0.945488 0.089499
0.890607 0.945448 0.089517
1.092000 0.820154 0.115263
0.000000 1.044171 0.089499
0.126524 1.044188 0.089499
0.356576 1.044597 0.089499
0.595325 1.045703 0.089499
0.807254 1.046796 0.089508
1.042946 1.045636 0.089744
0.000000 0.048727 0.280302
0.081307 0.055385 0.300649
0.400563 0.048747 0.413083
0.726916 0.048765 0.471877
0.910820 0.048776 0.483640
1.077260 0.048783 0.487015
0.000000 0.096449 0.278410
0.090628 0.104649 0.292035
0.454260 0.048754 0.357312
0.784882 0.048771 0.374046
0.960407 0.048785 0.379609
1.079713 0.048779 0.477370
0.000000 0.413093 0.309402
0.063930 0.420411 0.225508
0.449595 0.408477 0.197121
0.818071 0.388364 0.240555
1.003758 0.332858 0.274725
1.120884 0.296336 0.420447
0.000000 0.727119 0.322593
0.043578 0.731857 0.200623
0.421878 0.731499 0.089499
0.736571 0.726278 0.092343
0.975777 0.638792 0.137714
1.133631 0.549972 0.321151
0.000000 0.943723 0.308823
0.038422 0.947199 0.193824
0.379333 0.946955 0.166043
0.661994 0.947265 0.089499
0.891128 0.945980 0.089499
1.093636 0.818815 0.116414
0.000000 1.044143 0.288227
0.118143 1.044170 0.279444
0.353644 1.044450 0.273397
0.594249 1.045540 0.229473
0.806870 1.046734 0.089499
1.042914 1.045581 0.089718
0.000000 0.048727 0.530875
0.150348 0.048727 0.526514
0.292242 0.073867 0.613076
0.628304 0.057158 0.710049
0.835559 0.048764 0.705814
1.021316 0.048777 0.688433
0.000000 0.133127 0.526665
0.103424 0.076304 0.554515
0.314199 0.088310 0.635151
0.660074 0.054841 0.709320
0.861354 0.048766 0.694288
1.022389 0.048779 0.685064
0.000000 0.393545 0.517592
0.000000 0.397620 0.520836
0.396858 0.416548 0.541905
0.765499 0.379809 0.609664
0.942808 0.358955 0.631513
1.070827 0.384443 0.673656
0.000000 0.724486 0.538455
0.000000 0.729264 0.520487
0.357588 0.740381 0.476114
0.735523 0.728969 0.442567
0.965630 0.645754 0.487950
1.094788 0.595661 0.607207
0.000000 0.943880 0.515245
0.000000 0.946896 0.492270
0.302300 0.958795 0.432988
0.644121 0.955051 0.407398
0.893025 0.948527 0.351833
1.074794 0.837890 0.524941
0.000000 1.044292 0.475432
0.111794 1.044252 0.473294
0.426208 1.044178 0.529773
0.628033 1.044961 0.523053
0.817582 1.046266 0.502541
1.042423 1.045429 0.480715
0.000000 0.048727 0.779888
0.159452 0.048727 0.775771
0.403824 0.049871 0.786244
0.506368 0.088874 0.909006
0.712633 0.074153 0.924982
0.933606 0.053860 0.895195
0.000000 0.139155 0.775390
0.081702 0.048727 0.823022
0.414405 0.048727 0.816095
0.521574 0.089800 0.930212
0.728118 0.073841 0.934145
0.934666 0.053678 0.893742
0.000000 0.411400 0.764453
0.000000 0.400319 0.781565
0.390271 0.380535 0.789391
0.624054 0.407488 0.872334
0.834994 0.384254 0.881056
1.012795 0.401749 0.852288
0.000000 0.699660 0.758307
0.000000 0.702773 0.760746
0.254558 0.701552 0.758669
0.706887 0.726367 0.780518
0.912180 0.709436 0.824288
1.055024 0.713452 0.857404
0.000000 0.938264 0.717615
0.000000 0.941685 0.711434
0.246292 0.953595 0.700915
0.692517 0.953845 0.749025
0.891605 0.947277 0.730344
1.062000 0.887651 0.790962
0.000000 1.042286 0.658166
0.000000 1.042445 0.657721
0.410550 1.043021 0.689426
0.724904 1.044176 0.778468
0.853543 1.045212 0.773517
1.041692 1.044968 0.763675
0.000000 0.048727 0.944204
0.139860 0.048727 0.940877
0.396863 0.048727 0.936168
0.569274 0.060849 0.978737
0.634218 0.094697 1.101730
0.810928 0.084873 1.099902
0.000000 0.112253 0.941033
0.073594 0.048727 0.974944
0.395679 0.048727 0.967988
0.584336 0.060105 1.002250
0.645350 0.094953 1.119200
0.825727 0.129076 1.088956
0.000000 0.375035 0.929866
0.009746 0.360862 0.951796
0.385663 0.374549 0.951043
0.620750 0.383865 0.966397
0.739776 0.396965 1.064345
0.918772 0.429775 1.027975
0.000000 0.631433 0.921110
0.000000 0.629342 0.929828
0.296679 0.630346 0.937994
0.670790 0.678012 0.925034
0.823987 0.712077 0.974961
0.998559 0.729801 0.990298
0.000000 0.915602 0.917982
0.000000 0.917900 0.919656
0.018642 0.924742 0.924449
0.606388 0.908358 0.910013
0.871708 0.930404 0.931190
1.044840 0.939533 0.972380
0.000000 1.031114 0.836958
0.000000 1.031274 0.836674
0.321874 1.029431 0.846673
0.683287 1.029277 0.885019
0.873735 1.036242 0.931759
1.041047 1.044593 0.938406
0.000000 0.048727 1.033179
0.114425 0.048727 1.029756
0.348217 0.048727 1.023494
0.542012 0.049495 1.037999
0.625829 0.079225 1.120260
0.735087 0.105123 1.249193
0.000000 0.048727 1.033190
0.104537 0.048727 1.030067
0.344425 0.048727 1.023602
0.541082 0.098828 1.033248
0.632950 0.128416 1.110922
0.750890 0.153762 1.237342
0.000000 0.324111 1.018611
0.080762 0.318398 1.015690
0.394025 0.382774 1.004401
0.577397 0.395144 1.007263
0.692757 0.423539 1.057388
0.844259 0.447167 1.166262
0.000000 0.553410 1.009128
0.014625 0.550462 1.007225
0.369927 0.576426 0.995167
0.672657 0.680286 0.984552
0.781447 0.708313 1.005916
0.937430 0.740351 1.095886
0.000000 0.794218 1.003672
0.000000 0.792951 1.003253
0.313736 0.796878 0.991832
0.640502 0.830800 0.976569
0.834834 0.897192 0.985862
1.003970 0.945092 1.049689
0.000000 1.013544 0.999421
0.000000 1.013381 0.999208
0.242357 1.008399 0.994123
0.632366 1.001255 0.986865
0.828514 1.005786 0.991447
1.040677 1.044187 1.030608
