src/luts/fairytale/4.cube
LUT_3D_SIZE 16
0.000000 0.048727 0.105461
0.015637 0.048731 0.115679
0.057057 0.048732 0.125619
0.131702 0.048740 0.129690
0.227733 0.048744 0.149622
0.341379 0.048747 0.172589
0.463448 0.048754 0.196767
0.583550 0.048764 0.220168
0.692425 0.048768 0.241089
0.785107 0.048776 0.258760
0.860722 0.048782 0.272999
0.919402 0.048786 0.284002
0.963532 0.048787 0.292320
0.996935 0.048784 0.298693
1.040359 0.048787 0.307533
1.118498 0.048794 0.323350
0.000000 0.048727 0.105459
0.015636 0.048731 0.115669
0.057057 0.048732 0.125621
0.131702 0.048740 0.129690
0.227733 0.048744 0.149622
0.341379 0.048747 0.172589
0.463448 0.048754 0.196767
0.583550 0.048764 0.220168
0.692425 0.048768 0.241089
0.785107 0.048776 0.258760
0.860722 0.048782 0.272999
0.919400 0.048786 0.284002
0.963531 0.048787 0.292320
0.996935 0.048784 0.298693
1.040359 0.048787 0.307533
1.118498 0.048794 0.323350
0.000000 0.048727 0.105454
0.017292 0.048731 0.116218
0.057058 0.048732 0.125607
0.131701 0.048740 0.129690
0.227732 0.048744 0.149622
0.341377 0.048747 0.172589
0.463447 0.048754 0.196767
0.583550 0.048764 0.220168
0.692421 0.048769 0.241089
0.785105 0.048776 0.258760
0.860720 0.048781 0.272999
0.919400 0.048786 0.284002
0.963531 0.048787 0.292320
0.996935 0.048784 0.298692
1.040359 0.048787 0.307533
1.118498 0.048794 0.323350
0.000000 0.100486 0.105325
0.019404 0.100490 0.097730
0.070630 0.095314 0.107848
0.138034 0.090747 0.119795
0.236452 0.101668 0.137255
0.352153 0.109354 0.158438
0.475944 0.113243 0.181491
0.597050 0.112915 0.204552
0.705909 0.107936 0.225849
0.797871 0.098571 0.244704
0.871826 0.084422 0.260822
0.927356 0.062910 0.274881
0.962998 0.048727 0.290303
0.996727 0.048727 0.297056
1.040060 0.048795 0.306088
1.118227 0.048795 0.321986
0.000000 0.197389 0.105144
0.021360 0.197444 0.102530
0.066725 0.197720 0.089499
0.141817 0.194691 0.093557
0.235589 0.187058 0.112588
0.356202 0.199516 0.134252
0.483506 0.208185 0.157991
0.607184 0.212185 0.181672
0.718043 0.210943 0.203674
0.811809 0.205148 0.223064
0.886990 0.195445 0.239580
0.944794 0.182306 0.253370
0.986931 0.166613 0.264688
1.016759 0.148983 0.274405
1.057389 0.126956 0.287033
1.133423 0.108528 0.305291
0.000000 0.303185 0.104534
0.023487 0.303193 0.102536
0.073500 0.303335 0.089499
0.144485 0.303661 0.089499
0.229665 0.302725 0.090297
0.341360 0.293882 0.106047
0.476823 0.304754 0.128858
0.606430 0.310453 0.153329
0.721192 0.310084 0.176606
0.817945 0.304199 0.197488
0.895250 0.293604 0.215566
0.954187 0.278982 0.230898
0.997064 0.261436 0.243794
1.027322 0.242011 0.254894
1.068874 0.219391 0.268811
1.145723 0.204276 0.286966
0.000000 0.413752 0.103305
0.025171 0.413795 0.101108
0.079477 0.413793 0.089499
0.154774 0.414027 0.089499
0.240111 0.414398 0.089499
0.334371 0.414205 0.089645
0.452403 0.405918 0.101564
0.590138 0.412840 0.122614
0.712150 0.412235 0.145736
0.814071 0.405059 0.167746
0.895156 0.392420 0.187488
0.957254 0.375040 0.204708
1.001634 0.354288 0.219575
1.033376 0.331570 0.232596
1.076274 0.305493 0.248582
1.153882 0.289664 0.267249
0.000000 0.524658 0.101073
0.026294 0.524604 0.097989
0.083685 0.524609 0.089499
0.162361 0.524777 0.089499
0.250240 0.525163 0.089499
0.344867 0.525564 0.089499
0.443621 0.525391 0.089508
0.559880 0.518584 0.098004
0.688081 0.518283 0.115850
0.797084 0.509570 0.136513
0.884209 0.494269 0.156751
0.951362 0.473495 0.175442
0.999554 0.448694 0.192172
1.033951 0.421789 0.207253
1.079366 0.391234 0.225626
1.158185 0.373942 0.244852
0.000000 0.630171 0.096657
0.026723 0.630181 0.089499
0.085642 0.630165 0.089499
0.166081 0.630260 0.089499
0.255503 0.630663 0.089499
0.350498 0.631112 0.089499
0.448540 0.631516 0.089499
0.547163 0.631246 0.089508
0.655323 0.626248 0.094895
0.767779 0.617462 0.109049
0.861213 0.599657 0.126772
0.934100 0.575021 0.145213
0.989230 0.545723 0.162940
1.027640 0.514211 0.179637
1.076942 0.478683 0.200221
1.157353 0.459237 0.219832
0.000000 0.727016 0.089499
0.026500 0.727045 0.089499
0.085554 0.727101 0.089499
0.166101 0.727242 0.089499
0.255775 0.727369 0.089499
0.350457 0.727709 0.089499
0.447214 0.728296 0.089499
0.543889 0.728695 0.089508
0.638475 0.728512 0.089508
0.735533 0.725493 0.092327
0.828699 0.707429 0.102835
0.906509 0.679451 0.117723
0.967776 0.645873 0.134336
1.013055 0.609143 0.151435
1.068027 0.568098 0.173355
1.150864 0.546336 0.192840
0.000000 0.812778 0.089499
0.025737 0.812795 0.089499
0.083684 0.812850 0.089499
0.162977 0.812962 0.089499
0.251420 0.813092 0.089499
0.344945 0.813271 0.089499
0.439921 0.813702 0.089499
0.534382 0.814346 0.089499
0.626593 0.814692 0.089508
0.714918 0.814308 0.089510
0.800189 0.812780 0.090524
0.873977 0.784750 0.097864
0.937898 0.747772 0.110109
0.990899 0.706467 0.125163
1.051690 0.659729 0.146626
1.137625 0.635719 0.165059
0.000000 0.885828 0.089499
0.024501 0.885858 0.089499
0.080282 0.885913 0.089499
0.157271 0.885908 0.089499
0.243163 0.885922 0.089499
0.334264 0.886042 0.089499
0.427091 0.886302 0.089499
0.519056 0.886648 0.089499
0.608903 0.887181 0.089499
0.695039 0.887583 0.089508
0.776345 0.887378 0.089510
0.851138 0.886653 0.089654
0.906828 0.850054 0.094230
0.960408 0.805516 0.104228
1.028494 0.753766 0.122183
1.117320 0.727190 0.138368
0.000000 0.943828 0.089499
0.022976 0.943855 0.089499
0.075910 0.943927 0.089499
0.149565 0.943670 0.089499
0.232222 0.943873 0.089499
0.320014 0.944062 0.089499
0.409853 0.944261 0.089499
0.499242 0.944650 0.089499
0.586580 0.945247 0.089499
0.670579 0.945488 0.089499
0.749780 0.945525 0.089508
0.823875 0.945445 0.089510
0.890607 0.945448 0.089517
0.932491 0.903018 0.091965
1.001469 0.848324 0.103162
1.092000 0.820154 0.115263
0.000000 0.982082 0.089499
0.021298 0.982105 0.089499
0.071027 0.982068 0.089499
0.140822 0.982252 0.089499
0.219571 0.982258 0.089499
0.303730 0.982151 0.089499
0.390011 0.982462 0.089499
0.476425 0.982494 0.089499
0.560983 0.982928 0.089499
0.642691 0.983296 0.089499
0.720388 0.983768 0.089508
0.793205 0.983945 0.089508
0.860114 0.983845 0.089510
0.922014 0.983490 0.089517
0.976321 0.941014 0.091928
1.065326 0.913205 0.098413
0.000000 0.997927 0.089499
0.019551 0.997942 0.089499
0.065765 0.997987 0.089499
0.131214 0.998027 0.089499
0.205444 0.998093 0.089499
0.285189 0.998202 0.089499
0.367465 0.998318 0.089499
0.450310 0.998687 0.089499
0.532011 0.998687 0.089499
0.611154 0.998873 0.089499
0.686976 0.999164 0.089499
0.758662 0.999431 0.089508
0.825708 0.999452 0.089508
0.886695 0.999370 0.089510
0.966638 0.999124 0.089522
1.046998 0.987458 0.090513
0.000000 1.044171 0.089499
0.018541 1.044177 0.089499
0.063217 1.044188 0.089499
0.126524 1.044188 0.089499
0.198701 1.044235 0.089499
0.276208 1.044374 0.089499
0.356576 1.044597 0.089499
0.437507 1.044880 0.089499
0.517584 1.045194 0.089499
0.595325 1.045703 0.089499
0.670043 1.046114 0.089499
0.740966 1.046547 0.089499
0.807254 1.046796 0.089508
0.868510 1.046875 0.089510
0.927140 1.046747 0.089510
1.042946 1.045636 0.089744
0.000000 0.048727 0.155898
0.012878 0.049712 0.157929
0.042412 0.050185 0.182496
0.113759 0.048735 0.199764
0.209999 0.048743 0.220194
0.323487 0.048748 0.242598
0.445843 0.048752 0.264490
0.566784 0.048759 0.283508
0.677269 0.048769 0.297588
0.772487 0.048773 0.305615
0.851561 0.048779 0.305641
0.919380 0.048786 0.283999
0.963510 0.048787 0.292317
0.996932 0.048784 0.298689
1.040357 0.048787 0.307530
1.118497 0.048794 0.323350
0.000000 0.048727 0.155898
0.012877 0.049712 0.157928
0.050568 0.048794 0.175453
0.128729 0.048737 0.179428
0.226427 0.048746 0.188158
0.341630 0.048746 0.196838
0.468276 0.048755 0.197714
0.587288 0.048764 0.220890
0.695400 0.048769 0.241660
0.787615 0.048776 0.259175
0.862243 0.048782 0.273339
0.920991 0.048786 0.284278
0.964730 0.048787 0.292514
0.998098 0.048784 0.298965
1.045247 0.048788 0.308528
1.118497 0.048794 0.323350
0.000000 0.048727 0.158909
0.008408 0.049244 0.143595
0.048973 0.048730 0.163618
0.125168 0.048737 0.172938
0.223846 0.048746 0.185047
0.340367 0.048746 0.195056
0.467332 0.048754 0.197513
0.586766 0.048764 0.220786
0.694992 0.048769 0.241576
0.787272 0.048776 0.259113
0.862140 0.048782 0.273314
0.920729 0.048786 0.284280
0.964733 0.048787 0.292440
0.998039 0.048784 0.298902
1.044953 0.048788 0.308399
1.118497 0.048794 0.323350
0.000000 0.099563 0.162895
0.005479 0.102051 0.133582
0.060888 0.098399 0.144200
0.130332 0.093558 0.158051
0.231095 0.101709 0.169612
0.350609 0.106374 0.176142
0.477949 0.107463 0.183479
0.598467 0.105836 0.206563
0.706902 0.099689 0.227944
0.798313 0.088978 0.246835
0.871370 0.072657 0.263158
0.924912 0.048727 0.278244
0.964305 0.048727 0.290891
0.997801 0.048727 0.297536
1.044602 0.048795 0.307286
1.118488 0.048795 0.323369
0.000000 0.197409 0.165963
0.005339 0.198376 0.130952
0.060243 0.198463 0.123501
0.138511 0.195519 0.093093
0.236141 0.187124 0.112989
0.357696 0.198152 0.135250
0.485158 0.205695 0.159277
0.608573 0.208922 0.183074
0.719426 0.207145 0.205089
0.812903 0.201038 0.224465
0.887821 0.191071 0.240920
0.945222 0.177904 0.254641
0.987500 0.162113 0.265914
1.017150 0.144483 0.275602
1.060571 0.121948 0.288785
1.133240 0.106253 0.306083
0.000000 0.303185 0.170434
0.005100 0.303806 0.130392
0.065562 0.303889 0.126427
0.140203 0.304122 0.089499
0.227590 0.303102 0.090162
0.341642 0.293914 0.106192
0.477883 0.303805 0.129458
0.607506 0.308732 0.154200
0.722364 0.307871 0.177630
0.818957 0.301694 0.198568
0.895937 0.290905 0.216622
0.955028 0.276139 0.231948
0.997543 0.258633 0.244777
1.027889 0.239308 0.255835
1.072014 0.216646 0.270260
1.145733 0.202985 0.287650
0.000000 0.413761 0.173498
0.005216 0.414244 0.131046
0.070417 0.414237 0.128189
0.149582 0.414338 0.089499
0.237294 0.414715 0.089499
0.333076 0.414351 0.089605
0.452444 0.406069 0.101622
0.590861 0.412128 0.123004
0.713023 0.410913 0.146366
0.814973 0.403484 0.168521
0.895609 0.390648 0.188274
0.957686 0.373211 0.205510
1.002172 0.352446 0.220315
1.034064 0.329709 0.233367
1.079147 0.303586 0.249805
1.153997 0.288653 0.267917
0.000000 0.524597 0.175512
0.005491 0.524999 0.132323
0.073917 0.525003 0.129972
0.156581 0.525090 0.112688
0.246777 0.525382 0.089499
0.342882 0.525821 0.089499
0.442819 0.525525 0.089499
0.559951 0.518594 0.098038
0.688714 0.517794 0.116094
0.797640 0.508723 0.136909
0.885058 0.493203 0.157283
0.951990 0.472062 0.176056
1.000074 0.447334 0.192770
1.034668 0.420495 0.207898
1.081807 0.389953 0.226645
1.158300 0.373210 0.245408
0.000000 0.630162 0.176338
0.005852 0.630494 0.133866
0.075658 0.630544 0.131825
0.159995 0.630614 0.120529
0.251651 0.630790 0.089499
0.348154 0.631253 0.089499
0.447066 0.631654 0.089499
0.546560 0.631394 0.089499
0.655640 0.626285 0.094918
0.768155 0.617078 0.109211
0.861792 0.598943 0.127082
0.934884 0.574143 0.145594
0.989763 0.544776 0.163377
1.028079 0.513261 0.180122
1.078872 0.477680 0.201018
1.157630 0.458676 0.220285
0.000000 0.726986 0.176097
0.006232 0.727287 0.135451
0.075714 0.727309 0.133649
0.160016 0.727394 0.125413
0.251784 0.727658 0.089499
0.347848 0.727835 0.089499
0.445476 0.728297 0.089499
0.542939 0.728696 0.089499
0.638079 0.728606 0.089499
0.735703 0.725443 0.092331
0.829314 0.706970 0.102959
0.906992 0.678905 0.117946
0.967790 0.645232 0.134576
1.013543 0.608483 0.151741
1.069671 0.567383 0.173963
1.151122 0.545776 0.193229
0.000000 0.812758 0.175006
0.006600 0.813092 0.136933
0.074278 0.813129 0.135357
0.157165 0.813138 0.129054
0.247463 0.813192 0.089499
0.342173 0.813684 0.089499
0.438143 0.813732 0.089499
0.533312 0.814311 0.089499
0.626081 0.814572 0.089499
0.714917 0.814315 0.089499
0.800131 0.812719 0.090530
0.874319 0.784568 0.097933
0.937798 0.747341 0.110206
0.990781 0.706175 0.125324
1.052715 0.659432 0.146946
1.137852 0.635297 0.165368
0.000000 0.885864 0.173094
0.006930 0.885888 0.138246
0.071610 0.885883 0.136862
0.151719 0.885852 0.131909
0.239378 0.885916 0.106901
0.331606 0.886269 0.089499
0.425268 0.886594 0.089499
0.517998 0.886645 0.089499
0.608144 0.887300 0.089499
0.694568 0.887656 0.089499
0.776241 0.887546 0.089499
0.851046 0.886762 0.089652
0.906945 0.849758 0.094269
0.960233 0.805351 0.104300
1.029571 0.753395 0.122478
1.117692 0.726984 0.138549
0.000000 0.943792 0.170658
0.007210 0.943879 0.139318
0.068093 0.943941 0.138131
0.144437 0.943920 0.134165
0.228652 0.944082 0.119324
0.317519 0.944242 0.089499
0.408045 0.944344 0.089499
0.498004 0.944615 0.089499
0.585788 0.945095 0.089499
0.670110 0.945458 0.089499
0.749677 0.945881 0.089499
0.823447 0.945575 0.089499
0.890643 0.945479 0.089499
0.932577 0.903048 0.091981
1.002075 0.848285 0.103266
1.092183 0.819892 0.115378
0.000000 0.982052 0.167896
0.007477 0.982332 0.140255
0.064151 0.982288 0.139206
0.136228 0.982243 0.135994
0.216346 0.982116 0.125622
0.301272 0.982313 0.089499
0.388378 0.982456 0.089499
0.475139 0.982631 0.089499
0.560053 0.982934 0.089499
0.642169 0.983421 0.089499
0.719747 0.983764 0.089499
0.792942 0.983885 0.089499
0.860129 0.983908 0.089499
0.921891 0.983699 0.089499
0.976667 0.940816 0.091958
1.065371 0.913170 0.098445
0.000000 0.998030 0.164889
0.007752 0.998182 0.141034
0.059859 0.998123 0.140106
0.127154 0.998108 0.137476
0.202586 0.998151 0.129769
0.283139 0.998380 0.089499
0.365993 0.998348 0.089499
0.449258 0.998685 0.089499
0.531231 0.998756 0.089499
0.610692 0.998789 0.089499
0.686830 0.999235 0.089499
0.758700 0.999430 0.089499
0.825477 0.999397 0.089499
0.886755 0.999386 0.089499
0.966838 0.999216 0.089499
1.047011 0.987491 0.090521
0.000000 1.044166 0.163288
0.013240 1.044171 0.152782
0.060296 1.044183 0.152059
0.124514 1.044182 0.150027
0.197251 1.044229 0.144635
0.275242 1.044366 0.128633
0.355891 1.044588 0.089499
0.436908 1.044871 0.089499
0.517091 1.045184 0.089499
0.594989 1.045693 0.089499
0.669934 1.046106 0.089499
0.740832 1.046540 0.089499
0.807030 1.046791 0.089499
0.868462 1.046872 0.089499
0.927397 1.046745 0.089499
1.042943 1.045633 0.089743
0.000000 0.048727 0.213071
0.016652 0.048727 0.212228
0.038646 0.052053 0.222303
0.086444 0.053837 0.259967
0.187973 0.048738 0.286649
0.303456 0.048743 0.312690
0.425705 0.048747 0.338274
0.546007 0.048754 0.361490
0.655102 0.048763 0.380364
0.748838 0.048770 0.394335
0.825172 0.048773 0.403534
0.885259 0.048778 0.408223
0.931457 0.048782 0.409466
0.967853 0.048785 0.408116
1.015054 0.048787 0.407113
1.095507 0.048788 0.413588
0.000000 0.048727 0.213071
0.014362 0.048727 0.219057
0.041415 0.052268 0.228097
0.095532 0.053139 0.261614
0.197899 0.048739 0.282940
0.312293 0.048744 0.305926
0.433212 0.048748 0.329729
0.552551 0.048755 0.351765
0.660838 0.048764 0.369917
0.753977 0.048771 0.383421
0.829983 0.048774 0.392364
0.889989 0.048779 0.397120
0.935663 0.048783 0.398365
0.971933 0.048786 0.397160
1.022869 0.048788 0.396684
1.096786 0.048788 0.408703
0.000000 0.048727 0.213071
0.008960 0.048727 0.213657
0.038648 0.052052 0.222301
0.103743 0.051176 0.249537
0.218503 0.048742 0.257515
0.340997 0.048743 0.264759
0.465707 0.048754 0.273532
0.586581 0.048761 0.281263
0.696496 0.048771 0.284183
0.797873 0.048777 0.261138
0.871031 0.048783 0.274957
0.928077 0.048787 0.285616
0.971102 0.048788 0.293724
1.005220 0.048784 0.300346
1.059345 0.048787 0.355090
1.100855 0.048789 0.392397
0.000000 0.098153 0.220315
0.004824 0.099637 0.215814
0.037320 0.104476 0.198458
0.113800 0.099273 0.223072
0.223346 0.097201 0.233030
0.343958 0.092490 0.244969
0.469187 0.084245 0.257744
0.590304 0.070893 0.269350
0.698412 0.048727 0.276260
0.795732 0.048727 0.260731
0.869838 0.048795 0.274681
0.927244 0.048795 0.285479
0.970543 0.048779 0.293562
1.004583 0.048795 0.300300
1.060496 0.048795 0.350885
1.100897 0.048795 0.391908
0.000000 0.195065 0.226391
0.000000 0.196710 0.219103
0.029412 0.201505 0.180231
0.122001 0.199418 0.175346
0.226691 0.190822 0.192071
0.350641 0.196389 0.206492
0.480212 0.198903 0.220252
0.606373 0.197556 0.229362
0.725747 0.190222 0.211268
0.818076 0.182319 0.230514
0.892124 0.171163 0.246799
0.948347 0.157249 0.260242
0.989920 0.141029 0.271292
1.020151 0.122633 0.281107
1.079041 0.107231 0.320078
1.115738 0.105147 0.375640
0.000000 0.302922 0.234589
0.000000 0.303620 0.226259
0.023209 0.306597 0.169696
0.120714 0.306220 0.162951
0.218505 0.305220 0.133813
0.339360 0.295346 0.147060
0.482821 0.299633 0.132075
0.613490 0.301574 0.157918
0.728127 0.298498 0.181884
0.824138 0.290858 0.202998
0.900589 0.279220 0.221064
0.958691 0.264104 0.236209
1.000723 0.246481 0.248842
1.031934 0.227217 0.259902
1.098035 0.206786 0.278640
1.130844 0.204164 0.351200
0.000000 0.413749 0.242204
0.001861 0.414232 0.232776
0.019705 0.416476 0.163498
0.124689 0.416295 0.158769
0.224274 0.416238 0.120785
0.327571 0.415640 0.089499
0.453185 0.406338 0.101786
0.594434 0.409167 0.124539
0.717258 0.405790 0.148830
0.819201 0.397001 0.171475
0.900247 0.383269 0.191505
0.961804 0.365272 0.208760
1.005509 0.344343 0.223535
1.038095 0.321633 0.236661
1.106489 0.295909 0.258114
1.143237 0.289603 0.318120
0.000000 0.524634 0.247066
0.005440 0.524991 0.237012
0.017884 0.526766 0.160207
0.128071 0.526723 0.156424
0.230442 0.526784 0.131439
0.333814 0.526794 0.089499
0.439311 0.526383 0.089499
0.560421 0.519090 0.098098
0.691183 0.515843 0.117021
0.801122 0.505062 0.138560
0.888657 0.488458 0.159389
0.955613 0.466961 0.178380
1.003229 0.441855 0.195188
1.038320 0.414938 0.210438
1.110833 0.383463 0.235009
1.158914 0.370936 0.247288
0.000000 0.630154 0.249313
0.006748 0.630473 0.239050
0.016943 0.632053 0.158619
0.129393 0.632072 0.155391
0.233232 0.632050 0.137895
0.337010 0.632304 0.089499
0.440890 0.632453 0.089499
0.544123 0.632050 0.089499
0.655950 0.626541 0.094938
0.769921 0.615613 0.109768
0.864213 0.596354 0.128143
0.937924 0.570744 0.147108
0.992446 0.541103 0.165049
1.031448 0.509356 0.182066
1.108949 0.471910 0.209254
1.158383 0.456699 0.221940
0.000000 0.726992 0.249317
0.007383 0.727422 0.239165
0.016489 0.728669 0.157954
0.128502 0.728744 0.155184
0.232097 0.728745 0.142262
0.335310 0.728881 0.089499
0.437592 0.729242 0.089499
0.538618 0.729299 0.089499
0.636429 0.729156 0.089499
0.736019 0.725507 0.092328
0.830695 0.705601 0.103302
0.909006 0.677177 0.118617
0.970418 0.642797 0.135614
1.016252 0.605840 0.153047
1.084014 0.563731 0.178066
1.152161 0.544327 0.194569
0.000000 0.812735 0.247494
0.007843 0.813090 0.237716
0.016299 0.814235 0.157819
0.125674 0.814243 0.155377
0.227301 0.814402 0.145591
0.328866 0.814456 0.089499
0.429303 0.814684 0.089499
0.527717 0.815012 0.089499
0.623000 0.814965 0.089499
0.713876 0.814956 0.089499
0.800635 0.813280 0.090523
0.875278 0.783751 0.098118
0.939520 0.745910 0.110663
0.993495 0.704312 0.126121
1.062874 0.656769 0.149592
1.138650 0.633972 0.166400
0.000000 0.885778 0.244100
0.008182 0.885855 0.234919
0.016245 0.886863 0.157929
0.120969 0.886742 0.155807
0.219378 0.887033 0.148248
0.317933 0.887091 0.111697
0.415784 0.887130 0.089499
0.511677 0.887618 0.089499
0.604318 0.887809 0.089499
0.692667 0.888218 0.089499
0.775214 0.887724 0.089499
0.851137 0.887080 0.089652
0.907379 0.849392 0.094359
0.962015 0.804188 0.104614
1.036158 0.751799 0.123925
1.118338 0.725895 0.139237
0.000000 0.943797 0.239598
0.008406 0.943876 0.231085
0.016250 0.945130 0.158141
0.114986 0.945068 0.156304
0.209137 0.944950 0.150381
0.303991 0.945231 0.129262
0.398475 0.945226 0.089499
0.491290 0.945494 0.089499
0.581346 0.945701 0.089499
0.667060 0.946074 0.089499
0.748091 0.946020 0.089499
0.823156 0.946135 0.089499
0.891102 0.945518 0.089499
0.932957 0.902805 0.092040
1.006236 0.847351 0.103890
1.092618 0.819082 0.115741
0.000000 0.982108 0.234435
0.008607 0.982278 0.226721
0.016310 0.982529 0.158439
0.108339 0.982663 0.156820
0.197685 0.982618 0.152098
0.288031 0.982775 0.137544
0.378870 0.982871 0.089499
0.468401 0.983009 0.089499
0.555352 0.983398 0.089499
0.638841 0.983747 0.089499
0.717807 0.984130 0.089499
0.791933 0.984326 0.089499
0.859571 0.984156 0.089499
0.922000 0.983517 0.089499
0.978566 0.940775 0.092081
1.065618 0.912863 0.098565
0.000000 0.997962 0.228643
0.008762 0.998118 0.221798
0.016421 0.998549 0.158701
0.101108 0.998575 0.157328
0.185030 0.998702 0.153526
0.270342 0.998612 0.142885
0.356786 0.998760 0.089499
0.442487 0.998864 0.089499
0.526359 0.998978 0.089499
0.607208 0.999186 0.089499
0.684488 0.999387 0.089499
0.757131 0.999412 0.089499
0.824538 0.999627 0.089499
0.886526 0.999466 0.089499
0.967553 0.999206 0.089499
1.047009 0.987464 0.090524
0.000000 1.044156 0.225871
0.014056 1.044161 0.222396
0.051863 1.044171 0.211590
0.118693 1.044191 0.210924
0.193240 1.044210 0.209300
0.272173 1.044341 0.205343
0.353670 1.044573 0.196562
0.435339 1.044834 0.177159
0.515941 1.045103 0.089499
0.593967 1.045659 0.089499
0.668984 1.046076 0.089499
0.740330 1.046517 0.089499
0.806900 1.046774 0.089499
0.868256 1.046884 0.089499
0.927352 1.046735 0.089499
1.042935 1.045625 0.089745
0.000000 0.048727 0.280302
0.018116 0.048727 0.279326
0.054858 0.048727 0.279175
0.081307 0.055385 0.300649
0.153487 0.057700 0.350330
0.274479 0.051121 0.384080
0.400563 0.048747 0.413083
0.522479 0.048751 0.438058
0.632514 0.048757 0.457759
0.726916 0.048765 0.471877
0.803774 0.048771 0.480474
0.864355 0.048772 0.484017
0.910820 0.048776 0.483640
0.947878 0.048780 0.480585
0.997132 0.048784 0.478312
1.077260 0.048783 0.487015
0.000000 0.048727 0.280301
0.011578 0.048727 0.291888
0.057027 0.048727 0.288472
0.085509 0.055744 0.307463
0.160325 0.057349 0.353101
0.281449 0.050576 0.383390
0.406548 0.048748 0.410270
0.527625 0.048752 0.434096
0.636945 0.048758 0.453071
0.730497 0.048765 0.466777
0.806887 0.048772 0.475199
0.867540 0.048773 0.478750
0.913377 0.048777 0.478504
0.950468 0.048780 0.475738
1.003297 0.048785 0.474387
1.077847 0.048783 0.484933
0.000000 0.048727 0.280300
0.007193 0.048727 0.284970
0.048981 0.048727 0.287502
0.086584 0.055834 0.309143
0.174010 0.055999 0.352870
0.302835 0.048744 0.375825
0.429063 0.048745 0.396016
0.549098 0.048755 0.414874
0.656404 0.048761 0.430574
0.748282 0.048768 0.442378
0.823320 0.048770 0.449960
0.881935 0.048775 0.453180
0.927276 0.048779 0.453391
0.965033 0.048783 0.451602
1.031624 0.048785 0.465690
1.079349 0.048783 0.478820
0.000000 0.096449 0.278410
0.003873 0.097345 0.279065
0.038093 0.099179 0.279367
0.090628 0.104649 0.292035
0.189642 0.096287 0.327887
0.320399 0.063977 0.345952
0.454260 0.048754 0.357312
0.581495 0.048757 0.364097
0.692315 0.048767 0.369708
0.784882 0.048771 0.374046
0.859172 0.048777 0.377070
0.916766 0.048782 0.378771
0.960407 0.048785 0.379609
1.005592 0.048787 0.381158
1.032925 0.048779 0.460519
1.079713 0.048779 0.477370
0.000000 0.188746 0.287983
0.000000 0.189700 0.285795
0.016620 0.194944 0.278045
0.100489 0.200163 0.263646
0.211681 0.194764 0.285440
0.341162 0.191361 0.298357
0.473644 0.184889 0.312030
0.599136 0.175872 0.324377
0.709573 0.164346 0.335398
0.802062 0.150908 0.344443
0.875546 0.135608 0.351684
0.931406 0.118366 0.357423
0.972990 0.098608 0.362780
1.011512 0.072174 0.368386
1.048112 0.112857 0.443738
1.094554 0.111130 0.461690
0.000000 0.299790 0.298371
0.000000 0.300786 0.294805
0.000000 0.304689 0.278288
0.079584 0.309733 0.242622
0.203052 0.307874 0.233036
0.333562 0.297948 0.242704
0.473182 0.297852 0.258970
0.603969 0.294444 0.275100
0.718994 0.287196 0.289327
0.814898 0.276495 0.301240
0.891330 0.262748 0.310898
0.948964 0.246524 0.319114
0.992202 0.228649 0.326117
1.028861 0.209144 0.333104
1.064025 0.215485 0.422462
1.109529 0.210502 0.442644
0.000000 0.413093 0.309402
0.000000 0.413708 0.305114
0.006629 0.416146 0.284018
0.063930 0.420411 0.225508
0.197683 0.419432 0.218329
0.316879 0.417874 0.192796
0.449595 0.408477 0.197121
0.592268 0.406873 0.211306
0.715808 0.399897 0.226799
0.818071 0.388364 0.240555
0.898874 0.372925 0.252528
0.960390 0.353976 0.263749
1.003758 0.332858 0.274725
1.040061 0.310157 0.285676
1.076078 0.304146 0.396883
1.120884 0.296336 0.420447
0.000000 0.524430 0.317749
0.000000 0.524922 0.312851
0.012964 0.526685 0.288352
0.053744 0.530501 0.213557
0.195340 0.529895 0.208274
0.315534 0.529467 0.183351
0.432005 0.528262 0.089499
0.561662 0.519450 0.098343
