src/luts/fairytale/5.cube
LUT_3D_SIZE 6
0.000017 0.001055 0.112578
0.080337 0.001055 0.116939
0.335400 0.001055 0.155946
0.665746 0.001055 0.206250
0.920989 0.001055 0.245126
1.067950 0.001055 0.267692
0.000000 0.086842 0.128328
0.097104 0.076744 0.116613
0.351717 0.099548 0.151136
0.677851 0.070287 0.201886
0.922484 0.001055 0.249186
1.068927 0.001055 0.270461
0.000000 0.401746 0.162203
0.056920 0.406099 0.119083
0.395186 0.370530 0.128018
0.753706 0.390469 0.203936
0.991163 0.377006 0.235147
1.123165 0.327927 0.253901
0.000000 0.718773 0.214148
0.037556 0.726106 0.171594
0.313069 0.718413 0.100348
0.787496 0.657649 0.165015
1.076018 0.634352 0.244164
1.194787 0.582559 0.262960
0.000000 0.951788 0.252352
0.020715 0.959520 0.212661
0.256402 0.961148 0.135356
0.652815 0.928509 0.096382
1.094097 0.865839 0.199378
1.264938 0.794548 0.263690
0.000000 1.010490 0.262040
0.011098 1.017674 0.226561
0.207513 1.021915 0.156645
0.542770 1.002649 0.096382
0.961870 0.950427 0.140865
1.283710 0.905364 0.247033
0.000088 0.001055 0.262745
0.070453 0.001055 0.261005
0.303785 0.001055 0.318883
0.632549 0.001055 0.374211
0.893983 0.001055 0.382402
1.054904 0.001055 0.329757
0.001496 0.082820 0.272744
0.070457 0.086973 0.261001
0.332525 0.001055 0.286592
0.691555 0.001055 0.208291
0.938578 0.001055 0.247627
1.067025 0.001055 0.266303
0.001626 0.381732 0.409274
0.024010 0.403746 0.282983
0.394286 0.372235 0.127075
0.756760 0.372454 0.203571
0.993242 0.348742 0.234766
1.117727 0.313302 0.251127
0.000000 0.702915 0.456122
0.000491 0.719300 0.306493
0.276561 0.724059 0.106322
0.787968 0.658428 0.164908
1.077583 0.627894 0.244715
1.191186 0.577436 0.261245
0.000000 0.937175 0.486160
0.000000 0.950855 0.335492
0.217572 0.964420 0.146850
0.633857 0.932367 0.096382
1.094428 0.866477 0.199357
1.264006 0.792529 0.263549
0.000000 0.997763 0.479701
0.013131 1.005983 0.411588
0.210324 1.016409 0.305776
0.528741 1.004860 0.096559
0.955383 0.951505 0.139014
1.283502 0.905263 0.247013
0.000263 0.001055 0.458933
0.095568 0.001055 0.456410
0.303838 0.001055 0.455109
0.603422 0.001055 0.535051
0.854870 0.001055 0.578135
1.007270 0.001055 0.575170
0.001263 0.125230 0.465359
0.066920 0.077401 0.473869
0.322016 0.054697 0.468103
0.627685 0.001055 0.535549
0.874322 0.001055 0.567144
1.009263 0.001055 0.566134
0.098214 0.334448 0.674483
0.098936 0.338121 0.679184
0.303842 0.395140 0.475965
0.674137 0.357904 0.488265
0.940337 0.303882 0.498891
1.052559 0.340201 0.532096
0.014804 0.672741 0.732201
0.009767 0.680116 0.705130
0.213259 0.722955 0.499065
0.782390 0.661640 0.161349
1.083507 0.613290 0.243273
1.134198 0.597105 0.442505
0.000000 0.915737 0.738500
0.000653 0.922546 0.700280
0.130348 0.957120 0.501441
0.556448 0.950593 0.197655
1.094400 0.868470 0.198476
1.261193 0.792805 0.261836
0.000000 0.979659 0.708875
0.036697 0.989763 0.660863
0.241471 1.005372 0.568818
0.515954 1.008164 0.418249
0.940816 0.955414 0.134217
1.282853 0.904801 0.246934
0.000540 0.001055 0.679184
0.112126 0.001055 0.676432
0.346568 0.001055 0.673062
0.603898 0.001635 0.678357
0.832983 0.001055 0.729463
0.978415 0.001055 0.729351
0.001267 0.148641 0.683721
0.055635 0.044177 0.711428
0.347385 0.034743 0.698762
0.622440 0.010849 0.693281
0.847033 0.001055 0.734092
0.978915 0.001055 0.726039
0.064714 0.399057 0.817463
0.051066 0.392642 0.809418
0.308687 0.387515 0.707307
0.628697 0.375662 0.695274
0.883887 0.329389 0.723263
1.007800 0.363100 0.706886
0.159863 0.615754 0.995786
0.160336 0.617991 0.996518
0.305348 0.662762 0.923441
0.610883 0.710768 0.660075
0.931461 0.673781 0.699309
1.056864 0.676602 0.722330
0.054561 0.874468 0.995898
0.049546 0.878680 0.992237
0.184964 0.918089 0.902043
0.536297 0.955028 0.679993
0.969255 0.908284 0.543955
1.127071 0.855169 0.652263
0.023190 0.947851 0.967122
0.021054 0.949265 0.960644
0.275251 0.986533 0.826672
0.570387 1.005812 0.706442
0.851100 0.988981 0.596832
1.160800 0.944809 0.583827
0.000875 0.001055 0.893093
0.113121 0.001055 0.890500
0.348274 0.001055 0.886216
0.609544 0.001055 0.884845
0.837985 0.001718 0.890816
0.965541 0.002127 0.875313
0.001311 0.146779 0.896091
0.040675 0.001055 0.932473
0.338454 0.001055 0.919523
0.618288 0.003253 0.907047
0.850026 0.001699 0.903644
0.965427 0.002111 0.874147
0.024526 0.421527 0.949355
0.018105 0.405379 0.954644
0.298406 0.378689 0.936839
0.614740 0.366813 0.924558
0.870347 0.338844 0.922206
0.977590 0.386853 0.864812
0.201813 0.613155 1.139525
0.193534 0.612432 1.135951
0.314164 0.637114 1.049567
0.625470 0.698651 0.931212
0.858845 0.696952 0.909592
0.997534 0.699014 0.881071
0.254621 0.807886 1.322540
0.255333 0.809142 1.325160
0.256671 0.814286 1.333113
0.606146 0.914155 0.999950
0.848859 0.940594 0.868534
1.042005 0.920761 0.893738
0.165809 0.891730 1.239476
0.162945 0.892881 1.235142
0.348481 0.937697 1.083765
0.597344 0.988282 0.963502
0.836966 1.001345 0.873843
1.055483 0.977670 0.868555
0.001219 0.001055 1.010566
0.099358 0.001055 1.008376
0.315727 0.001055 1.004316
0.561450 0.001055 1.000125
0.789086 0.001055 1.000019
0.977552 0.001151 1.000499
0.001422 0.122794 1.012426
0.066865 0.062442 1.009598
0.302642 0.070875 1.004633
0.555476 0.086035 1.000186
0.787003 0.086966 1.000019
0.977552 0.087030 1.000458
0.010208 0.395527 1.039727
0.051525 0.383038 1.032092
0.310695 0.391811 1.012142
0.556213 0.396688 1.001208
0.787131 0.397329 1.000019
0.977552 0.397369 1.000309
0.082049 0.613021 1.166464
0.076678 0.609246 1.159551
0.352148 0.630735 1.083675
0.623402 0.703955 1.017838
0.804863 0.711028 1.000019
0.977552 0.710977 1.000158
0.267791 0.762321 1.417873
0.264998 0.761326 1.414401
0.398532 0.789051 1.320502
0.693938 0.861260 1.134032
0.869684 0.929825 1.033131
0.977569 0.941481 1.000047
0.356489 0.837303 1.554401
0.356430 0.837187 1.554189
0.356101 0.836694 1.552800
0.724838 0.935760 1.230864
0.888448 0.977671 1.083002
0.977592 0.999403 1.000018
