src/luts/fairytale/5.cube
LUT_3D_SIZE 16
0.000017 0.001055 0.112578
0.010521 0.001055 0.116122
0.035798 0.001055 0.117945
0.080337 0.001055 0.116939
0.147968 0.001055 0.127395
0.234172 0.001055 0.140531
0.335400 0.001055 0.155946
0.445807 0.001055 0.172753
0.558255 0.001055 0.189876
0.665746 0.001055 0.206250
0.763524 0.001055 0.221153
0.849353 0.001055 0.234203
0.920989 0.001055 0.245126
0.978440 0.001055 0.253979
1.025250 0.001055 0.261151
1.067950 0.001055 0.267692
0.000017 0.001055 0.112579
0.010521 0.001055 0.116121
0.035798 0.001055 0.117941
0.080337 0.001055 0.116939
0.147967 0.001055 0.127395
0.234172 0.001055 0.140531
0.335400 0.001055 0.155946
0.445807 0.001055 0.172753
0.558255 0.001055 0.189876
0.665746 0.001055 0.206250
0.763523 0.001055 0.221153
0.849353 0.001055 0.234203
0.920989 0.001055 0.245126
0.978440 0.001055 0.253979
1.025250 0.001055 0.261151
1.067950 0.001055 0.267692
0.000017 0.002116 0.112582
0.010907 0.001055 0.116248
0.035800 0.001055 0.117936
0.080367 0.001055 0.117006
0.147996 0.001055 0.127590
0.234334 0.001055 0.140968
0.335659 0.001055 0.156564
0.446043 0.001055 0.173488
0.558575 0.001055 0.190720
0.665991 0.001055 0.207117
0.763843 0.001055 0.222056
0.849733 0.001055 0.235123
0.921334 0.001055 0.246032
0.978595 0.001055 0.254865
1.025535 0.001055 0.262010
1.068152 0.001055 0.268538
0.000000 0.086842 0.128328
0.008500 0.088451 0.109824
0.051581 0.080544 0.104695
0.097104 0.076744 0.116613
0.164940 0.087380 0.125562
0.250858 0.095713 0.137051
0.351717 0.099548 0.151136
0.461371 0.097707 0.167213
0.572591 0.088683 0.184409
0.677851 0.070287 0.201886
0.771835 0.034420 0.219834
0.850888 0.001055 0.238729
0.922484 0.001055 0.249186
0.979694 0.001055 0.257610
1.026473 0.001055 0.264401
1.068927 0.001055 0.270461
0.000000 0.184203 0.142076
0.004765 0.186373 0.127104
0.028562 0.186618 0.101707
0.090293 0.179576 0.097145
0.187583 0.165969 0.123373
0.277342 0.179744 0.140248
0.376063 0.191584 0.153726
0.483596 0.199088 0.167798
0.593689 0.201539 0.182604
0.699078 0.198754 0.197381
0.794764 0.191282 0.211368
0.878105 0.179817 0.224128
0.947388 0.164631 0.235299
1.001902 0.145683 0.244938
1.045727 0.122285 0.253479
1.083929 0.086264 0.262619
0.000000 0.290457 0.154343
0.001538 0.293162 0.133945
0.021444 0.294454 0.119019
0.066975 0.292811 0.102537
0.157090 0.284387 0.096382
0.282243 0.266789 0.123159
0.404758 0.276893 0.154542
0.512958 0.288869 0.171824
0.620842 0.296473 0.186215
0.723682 0.298640 0.199635
0.817677 0.295923 0.212090
0.899774 0.289107 0.223378
0.968115 0.278671 0.233117
1.021924 0.265077 0.241320
1.065336 0.248600 0.248283
1.103896 0.225975 0.255067
0.000000 0.401746 0.162203
0.000029 0.403891 0.152291
0.016513 0.405767 0.137514
0.056920 0.406099 0.119083
0.134279 0.402576 0.100770
0.249530 0.391067 0.096853
0.395186 0.370530 0.128018
0.539692 0.376176 0.168669
0.651942 0.385631 0.189358
0.753706 0.390469 0.203936
0.845452 0.390394 0.216028
0.925362 0.385797 0.226389
0.991163 0.377006 0.235147
1.044058 0.364720 0.242320
1.086125 0.349364 0.248283
1.123165 0.327927 0.253901
0.000000 0.512792 0.180398
0.000000 0.514923 0.170760
0.012159 0.517314 0.155950
0.049922 0.518626 0.137121
0.121593 0.517459 0.115038
0.225735 0.510840 0.097294
0.363438 0.495405 0.100064
0.523534 0.472484 0.137895
0.675478 0.473451 0.182871
0.784186 0.478229 0.205333
0.876398 0.479342 0.219897
0.954693 0.475807 0.230736
1.018463 0.467885 0.239144
1.069494 0.455951 0.245731
1.109766 0.440633 0.250962
1.144879 0.418887 0.255673
0.000000 0.619950 0.197915
0.000000 0.622031 0.188765
0.008219 0.624723 0.173761
0.043646 0.626633 0.154904
0.111936 0.626920 0.131477
0.209645 0.623132 0.107881
0.335579 0.612715 0.096382
0.490681 0.593696 0.106794
0.657769 0.569282 0.150905
0.804626 0.564913 0.196396
0.904921 0.564649 0.219229
0.984215 0.561082 0.233409
1.047798 0.553371 0.243034
1.097393 0.541442 0.249874
1.135951 0.525816 0.254924
1.168949 0.503347 0.259102
0.000000 0.718773 0.214148
0.000000 0.720785 0.205613
0.004824 0.723755 0.190293
0.037556 0.726106 0.171594
0.102693 0.727103 0.147856
0.196290 0.725478 0.121735
0.313069 0.718413 0.100348
0.456189 0.704004 0.096382
0.621664 0.682201 0.117028
0.787496 0.657649 0.165015
0.922072 0.648589 0.208553
1.009830 0.642993 0.230695
1.076018 0.634352 0.244164
1.125553 0.622032 0.252769
1.163274 0.605862 0.258584
1.194787 0.582559 0.262960
0.000000 0.807484 0.228664
0.000000 0.809352 0.221092
0.002178 0.812473 0.205273
0.031644 0.815076 0.186884
0.093236 0.816705 0.163286
0.183653 0.816149 0.136191
0.293531 0.811436 0.110714
0.425896 0.800935 0.096382
0.580386 0.783396 0.099352
0.747858 0.760186 0.129617
0.906131 0.736656 0.178558
1.023828 0.722937 0.218833
1.098220 0.711964 0.239616
1.151065 0.698432 0.252215
1.189580 0.681249 0.260222
1.220783 0.657155 0.265938
0.000000 0.885116 0.241355
0.000000 0.886588 0.235061
0.000430 0.889777 0.218548
0.026039 0.892616 0.200485
0.083694 0.894581 0.177410
0.170843 0.894971 0.150241
0.275116 0.892115 0.122755
0.398387 0.884309 0.101270
0.541606 0.870470 0.096382
0.700597 0.850840 0.107302
0.863079 0.827346 0.143042
1.008873 0.805769 0.190478
1.109142 0.787420 0.226934
1.169962 0.771281 0.246093
1.212088 0.753018 0.258118
1.244781 0.727515 0.266624
0.000000 0.951788 0.252352
0.000000 0.952741 0.248089
0.000000 0.956661 0.230255
0.020715 0.959520 0.212661
0.073938 0.961979 0.190275
0.157312 0.962924 0.163567
0.256402 0.961148 0.135356
0.371801 0.955605 0.110476
0.504605 0.944770 0.096382
0.652815 0.928509 0.096382
0.809558 0.907939 0.117145
0.962637 0.885512 0.155221
1.094097 0.865839 0.199378
1.178009 0.842901 0.232622
1.227707 0.821803 0.250663
1.264938 0.794548 0.263690
0.000000 1.009777 0.261937
0.000000 1.009775 0.261453
0.000000 1.014497 0.240714
0.015670 1.017421 0.223677
0.063962 1.019902 0.202198
0.142688 1.021380 0.176326
0.236796 1.020733 0.148167
0.345073 1.016802 0.121474
0.468287 1.008555 0.101321
0.605738 0.996114 0.096382
0.753440 0.978569 0.101510
0.903174 0.958268 0.126795
1.042349 0.937377 0.164310
1.160934 0.919624 0.204560
1.233178 0.891128 0.236063
1.279000 0.859967 0.255915
0.000000 1.010490 0.262040
0.000000 1.010486 0.261598
0.000000 1.015072 0.241456
0.013722 1.017929 0.224929
0.058898 1.020439 0.204183
0.133945 1.022011 0.179160
0.224794 1.021670 0.151651
0.328983 1.018298 0.125034
0.447451 1.010924 0.103940
0.579914 0.999389 0.096382
0.723052 0.983162 0.098374
0.870425 0.963350 0.119794
1.010081 0.942996 0.154402
1.132497 0.924698 0.194189
1.230529 0.911024 0.229459
1.283710 0.905364 0.247033
0.000000 1.010490 0.262040
0.000000 1.010487 0.261651
0.000000 1.014891 0.242365
0.011098 1.017674 0.226561
0.051864 1.020170 0.206914
0.121368 1.021871 0.183146
0.207513 1.021915 0.156645
0.305900 1.019309 0.130362
0.417597 1.013111 0.108236
0.542770 1.002649 0.096382
0.679286 0.988510 0.096382
0.821824 0.970420 0.110954
0.961870 0.950427 0.140865
1.087576 0.931267 0.178746
1.192049 0.916087 0.215627
1.283710 0.905364 0.247033
0.000030 0.001055 0.159409
0.010305 0.001055 0.158787
0.032034 0.001181 0.160831
0.070469 0.001055 0.173182
0.136381 0.001055 0.185697
0.223356 0.001055 0.195814
0.327296 0.001055 0.197266
0.445161 0.001055 0.171592
0.557918 0.001055 0.189254
0.665588 0.001055 0.206005
0.763470 0.001055 0.221134
0.849315 0.001055 0.234200
0.921055 0.001055 0.245115
0.978422 0.001055 0.253976
1.025239 0.001055 0.261149
1.067943 0.001055 0.267690
0.000030 0.001055 0.159409
0.010305 0.001055 0.158787
0.033946 0.001213 0.158438
0.077871 0.001055 0.162364
0.148089 0.001055 0.160116
0.239469 0.001055 0.140883
0.339980 0.001055 0.156632
0.449513 0.001055 0.173309
0.561253 0.001055 0.190335
0.668034 0.001055 0.206609
0.765577 0.001055 0.221435
0.850743 0.001055 0.234424
0.922180 0.001055 0.245305
0.979311 0.001055 0.254122
1.026066 0.001055 0.261267
1.067946 0.001055 0.267691
0.000030 0.001055 0.160423
0.007051 0.003797 0.148901
0.032035 0.001101 0.151222
0.075793 0.001055 0.157020
0.146332 0.001055 0.156376
0.237999 0.001055 0.140811
0.339151 0.001055 0.156499
0.448925 0.001055 0.173225
0.560873 0.001055 0.190274
0.667792 0.001055 0.206566
0.765394 0.001055 0.221420
0.850663 0.001055 0.234416
0.922176 0.001055 0.245292
0.979310 0.001055 0.254122
1.026073 0.001055 0.261269
1.067935 0.001055 0.267688
0.004665 0.076707 0.205271
0.003972 0.086817 0.160410
0.039848 0.085526 0.128328
0.093121 0.078443 0.127777
0.165280 0.085985 0.124951
0.251816 0.092258 0.136786
0.352852 0.094110 0.151196
0.462203 0.090120 0.167561
0.573021 0.078559 0.185081
0.677660 0.055236 0.203111
0.766632 0.001055 0.225762
0.852019 0.001055 0.238350
0.923308 0.001055 0.248799
0.980336 0.001055 0.257256
1.027075 0.001055 0.264065
1.068720 0.001055 0.270004
0.000000 0.179099 0.211276
0.000779 0.184452 0.167802
0.026211 0.186915 0.139666
0.085638 0.181088 0.096659
0.187693 0.166190 0.123360
0.277721 0.178770 0.140224
0.376387 0.189651 0.153573
0.484060 0.196197 0.167662
0.594134 0.197867 0.182577
0.699357 0.194361 0.197406
0.794680 0.186345 0.211449
0.878119 0.174267 0.224304
0.946967 0.158543 0.235539
1.001577 0.138990 0.245283
1.045201 0.114633 0.253920
1.083034 0.080692 0.262732
0.000000 0.285784 0.226911
0.000000 0.290067 0.182764
0.020659 0.293394 0.156642
0.062805 0.293815 0.103878
0.154058 0.285277 0.096382
0.282255 0.266981 0.123080
0.405089 0.276215 0.154693
0.513182 0.287554 0.171791
0.620900 0.294587 0.186147
0.723898 0.296287 0.199528
0.817748 0.293152 0.212030
0.899786 0.286191 0.223328
0.968006 0.275510 0.233097
1.021750 0.261796 0.241302
1.065273 0.245275 0.248305
1.103286 0.223987 0.254866
0.000000 0.396538 0.245410
0.000000 0.399818 0.202206
0.015910 0.404155 0.173750
0.053060 0.406771 0.120878
0.130717 0.403312 0.101496
0.247430 0.391555 0.096693
0.395124 0.370569 0.127948
0.539975 0.375577 0.168840
0.652044 0.384629 0.189391
0.753673 0.389245 0.203909
0.845492 0.388820 0.215922
0.925401 0.383980 0.226309
0.991055 0.375143 0.235030
1.043921 0.362814 0.242205
1.085917 0.347415 0.248186
1.122753 0.326684 0.253656
0.000000 0.507584 0.264122
0.000000 0.510776 0.219039
0.011495 0.515521 0.190584
0.046135 0.519024 0.139080
0.117817 0.517939 0.116213
0.222835 0.511386 0.097650
0.361728 0.495903 0.099837
0.523441 0.472531 0.137855
0.675685 0.473089 0.183005
0.784305 0.477597 0.205399
0.876350 0.478366 0.219869
0.954664 0.474669 0.230655
1.018404 0.466630 0.239062
1.069282 0.454691 0.245612
1.109473 0.439344 0.250838
1.144339 0.417969 0.255442
0.000000 0.614763 0.281719
0.000000 0.617844 0.235191
0.007487 0.622789 0.206321
0.040012 0.626793 0.156869
0.108094 0.627254 0.132860
0.206616 0.623580 0.108599
0.333193 0.613117 0.096382
0.489587 0.593874 0.106591
0.657800 0.569311 0.150887
0.804769 0.564596 0.196512
0.904798 0.564152 0.219260
0.984205 0.560469 0.233404
1.047688 0.552515 0.242973
1.097189 0.540542 0.249801
1.135666 0.524912 0.254816
1.168514 0.502666 0.258888
0.000000 0.713706 0.297311
0.000000 0.716931 0.249930
0.004100 0.722138 0.220718
0.034111 0.726070 0.173571
0.098800 0.727393 0.149348
0.193178 0.725867 0.122673
0.310501 0.718660 0.100756
0.454388 0.704527 0.096382
0.620585 0.682542 0.116773
0.787408 0.657820 0.164960
0.922113 0.648369 0.208612
1.009956 0.642549 0.230773
1.075981 0.633949 0.244162
1.125525 0.621497 0.252755
1.163096 0.605240 0.258530
1.194305 0.582006 0.262820
0.000000 0.802512 0.310628
0.000000 0.805553 0.262913
0.001561 0.810835 0.233342
0.028490 0.815085 0.188764
0.089560 0.816738 0.164766
0.180536 0.816301 0.137261
0.290962 0.811721 0.111302
0.423755 0.801200 0.096382
0.578974 0.783669 0.099214
0.747145 0.760456 0.129443
0.906229 0.736806 0.178549
1.023869 0.722691 0.218912
1.098239 0.711781 0.239643
1.151044 0.698064 0.252226
1.189601 0.680926 0.260222
1.220573 0.656788 0.265832
0.000000 0.880138 0.321411
0.000000 0.883041 0.274184
0.000112 0.888154 0.244424
0.023207 0.892505 0.202334
0.080268 0.894636 0.178881
0.167801 0.895113 0.151358
0.272585 0.892342 0.123476
0.396264 0.884427 0.101593
0.539980 0.870731 0.096382
0.699491 0.850874 0.107109
0.862635 0.827444 0.142853
1.008811 0.805782 0.190441
1.109146 0.787199 0.226961
1.169893 0.771246 0.246121
1.212119 0.752786 0.258111
1.244709 0.727372 0.266556
0.000000 0.947100 0.329980
0.000000 0.949919 0.283827
0.000000 0.955071 0.254244
0.018249 0.959387 0.214376
0.070826 0.961907 0.191691
0.154383 0.962956 0.164693
0.253939 0.961393 0.136162
0.369758 0.955738 0.110941
0.502820 0.944968 0.096382
0.651615 0.928951 0.096382
0.808902 0.908032 0.117016
0.962137 0.885747 0.155035
1.093865 0.865962 0.199334
1.178158 0.842745 0.232654
1.227663 0.821600 0.250703
1.264826 0.794235 0.263693
0.000000 1.005165 0.336554
0.000000 1.007985 0.292140
0.000000 1.013002 0.263015
0.013599 1.017348 0.225317
0.061239 1.019919 0.203558
0.139970 1.021461 0.177455
0.234517 1.020867 0.149007
0.342961 1.016984 0.122031
0.466475 1.008773 0.101599
0.604259 0.996452 0.096382
0.752346 0.978808 0.101393
0.902458 0.958317 0.126625
1.042227 0.937450 0.164261
1.160958 0.919684 0.204545
1.233057 0.890826 0.236087
1.278953 0.859839 0.255928
0.000000 1.005992 0.334945
0.000000 1.008378 0.296133
0.000000 1.013136 0.270162
0.011917 1.017813 0.226472
0.056467 1.020412 0.205497
0.131410 1.022048 0.180268
0.222626 1.021785 0.152497
0.327037 1.018463 0.125611
0.445705 1.011126 0.104250
0.578511 0.999389 0.096382
0.721846 0.983376 0.098272
0.869697 0.963545 0.119639
1.009733 0.943064 0.154280
1.132218 0.924750 0.194090
1.230515 0.911008 0.229462
1.283685 0.905340 0.247028
0.000000 1.006149 0.332361
0.000000 1.007514 0.310093
0.000000 1.012008 0.287899
0.012682 1.015782 0.258220
0.050171 1.020184 0.208115
0.119500 1.021942 0.184170
0.205777 1.022036 0.157460
0.304271 1.019470 0.130943
0.416124 1.013303 0.108577
0.541581 1.002849 0.096382
0.678254 0.988859 0.096382
0.820809 0.970450 0.110791
0.961190 0.950435 0.140662
1.087247 0.931421 0.178601
1.192047 0.916091 0.215607
1.283685 0.905340 0.247028
0.000045 0.001055 0.208120
0.010654 0.001055 0.207514
0.032458 0.001055 0.206968
0.070347 0.001087 0.212277
0.129509 0.001099 0.229508
0.212564 0.001055 0.250232
0.313015 0.001055 0.268998
0.423951 0.001055 0.283897
0.538094 0.001055 0.293013
0.648684 0.001055 0.293397
0.752039 0.001055 0.277850
0.847918 0.001055 0.231795
0.919902 0.001055 0.243218
0.977552 0.001055 0.252476
1.024612 0.001055 0.259984
1.067445 0.001055 0.266895
0.000045 0.001055 0.208120
0.009979 0.001055 0.211919
0.034458 0.001055 0.210425
0.074725 0.001152 0.213068
0.135364 0.001055 0.228359
0.218771 0.001055 0.246327
0.318924 0.001055 0.262585
0.429413 0.001055 0.275012
0.543509 0.001055 0.280903
0.654388 0.001055 0.275139
0.764325 0.001055 0.219010
0.849728 0.001055 0.232567
0.921179 0.001055 0.243861
0.978576 0.001055 0.253037
1.025481 0.001055 0.260469
1.067539 0.001055 0.267072
0.000045 0.001055 0.208119
0.006876 0.001055 0.208589
0.032457 0.002561 0.206967
0.073541 0.001254 0.206141
0.141587 0.001055 0.216223
0.234858 0.001055 0.219839
0.342227 0.001055 0.212433
0.461452 0.001055 0.174167
0.572330 0.001055 0.191751
0.677796 0.001055 0.208067
0.773768 0.001055 0.222701
0.857544 0.001055 0.235494
0.927833 0.001055 0.246155
0.984214 0.001055 0.254867
1.030523 0.001055 0.261941
1.067906 0.001055 0.267671
0.004402 0.078820 0.237938
0.005055 0.079431 0.237328
0.031957 0.086451 0.207342
0.071584 0.087022 0.197324
0.147743 0.086244 0.201871
0.241867 0.081206 0.201697
0.350580 0.069392 0.185860
0.465442 0.046958 0.170309
0.570494 0.001055 0.193861
0.676548 0.001055 0.209886
0.772897 0.001055 0.224450
0.857342 0.001055 0.237189
0.927763 0.001055 0.247756
0.984162 0.001055 0.256328
1.030534 0.001055 0.263278
1.068003 0.001055 0.268465
0.007215 0.167121 0.297549
0.005129 0.170126 0.287273
0.016120 0.185396 0.217017
0.066161 0.186942 0.175869
0.188109 0.166620 0.123347
0.278574 0.174636 0.139730
0.378072 0.180799 0.152913
0.486520 0.182955 0.167406
0.596651 0.180643 0.182801
0.701584 0.173605 0.198105
0.796429 0.162247 0.212619
0.878835 0.146782 0.225886
0.946989 0.127185 0.237593
1.000522 0.102365 0.247965
1.043067 0.068281 0.257769
1.079026 0.052946 0.264059
0.000264 0.278489 0.306716
0.000024 0.280487 0.295525
0.007072 0.291808 0.219201
0.053810 0.294645 0.182456
0.141184 0.288843 0.096382
0.282031 0.267629 0.122756
0.406701 0.273148 0.155288
0.514478 0.281655 0.171771
0.622378 0.286226 0.185951
0.725292 0.285777 0.199425
0.818908 0.281035 0.212064
0.900894 0.272538 0.223549
0.968524 0.260734 0.233421
1.022104 0.246156 0.241802
1.065478 0.228759 0.248972
1.101203 0.215569 0.254253
0.000000 0.390788 0.322632
0.000064 0.393276 0.307574
0.001611 0.402040 0.229157
0.044976 0.405776 0.193745
0.115551 0.406178 0.104842
0.238517 0.394153 0.096382
0.395261 0.371204 0.127764
0.541457 0.373321 0.169566
0.653109 0.380537 0.189642
0.754609 0.383491 0.203880
0.846170 0.381821 0.215836
0.925989 0.375952 0.226192
0.991391 0.366276 0.234956
1.044368 0.353452 0.242219
1.086368 0.337585 0.248289
1.120962 0.321445 0.252849
0.000000 0.502389 0.341047
0.000000 0.504716 0.325448
0.000000 0.512366 0.242578
0.037586 0.517093 0.207080
0.101467 0.520110 0.121208
0.210750 0.513706 0.099178
0.355242 0.497654 0.099002
0.523733 0.472868 0.137785
0.676930 0.471245 0.183663
0.785108 0.474533 0.205736
0.876963 0.474298 0.219953
0.955232 0.469847 0.230640
1.018678 0.461153 0.238946
1.069729 0.448714 0.245536
1.109948 0.433009 0.250779
1.142761 0.414403 0.254635
0.000000 0.609790 0.359223
0.000000 0.611795 0.344020
0.000000 0.619026 0.257452
0.030957 0.624359 0.221009
0.090887 0.628772 0.138662
0.193143 0.625450 0.111619
0.323523 0.615035 0.096382
0.484518 0.595358 0.105625
0.657909 0.569583 0.150843
0.805629 0.563357 0.196997
0.905662 0.562004 0.219627
0.984755 0.557625 0.233581
1.048021 0.549106 0.243015
1.097602 0.536669 0.249775
1.136014 0.520591 0.254752
1.167102 0.500121 0.258241
0.000000 0.708733 0.375460
0.000000 0.710434 0.361898
0.000000 0.717467 0.272536
0.024884 0.723467 0.234539
0.081485 0.728328 0.155477
0.178929 0.727037 0.126604
0.299446 0.720535 0.102344
0.446711 0.706067 0.096382
0.616872 0.683433 0.115903
0.787495 0.658069 0.164949
0.922902 0.647386 0.209044
1.010683 0.641131 0.231122
1.076340 0.631812 0.244354
1.125907 0.618918 0.252839
1.163435 0.602392 0.258547
1.193219 0.580236 0.262298
0.000000 0.797597 0.389242
0.000000 0.798436 0.378641
0.000000 0.804892 0.288529
0.019480 0.811862 0.247139
0.072576 0.817303 0.171040
0.166034 0.817478 0.141677
0.279214 0.813161 0.113743
0.414615 0.802842 0.096382
0.572871 0.785063 0.098565
0.744534 0.761055 0.128699
0.906078 0.736883 0.178524
1.024621 0.722048 0.219262
1.098785 0.710577 0.239952
1.151413 0.696477 0.252441
1.189855 0.679095 0.260330
1.219589 0.655451 0.265535
0.000000 0.875222 0.400362
0.000000 0.875826 0.390089
0.000000 0.882159 0.299325
0.014718 0.889349 0.258641
0.063984 0.895026 0.185096
0.153243 0.895856 0.156049
0.260555 0.893545 0.126495
0.386575 0.886050 0.102932
0.532545 0.872198 0.096382
0.694873 0.851905 0.106357
0.860739 0.828118 0.142219
1.009112 0.805823 0.190515
1.109845 0.786637 0.227243
1.170386 0.770394 0.246395
1.212518 0.751608 0.258295
1.244201 0.726455 0.266412
0.000000 0.942132 0.408795
0.000000 0.943099 0.399089
0.000000 0.949226 0.308866
0.010579 0.956081 0.269206
0.055489 0.962040 0.197847
0.139895 0.963449 0.169486
0.242115 0.962229 0.139473
0.359755 0.956957 0.112825
0.494854 0.946477 0.096382
0.645615 0.930040 0.096382
0.804919 0.908781 0.116191
0.960622 0.886142 0.154525
1.094103 0.866024 0.199377
1.178501 0.842331 0.232866
1.228167 0.820960 0.250934
1.264472 0.793693 0.263672
0.000000 1.000406 0.415141
0.000000 1.000933 0.405996
0.000000 1.006952 0.317228
0.006959 1.013889 0.278798
0.047077 1.019880 0.209478
0.125876 1.021904 0.182172
0.222819 1.021644 0.152529
0.333238 1.017950 0.124285
0.458540 1.009913 0.102636
0.597892 0.997546 0.096382
0.748090 0.979625 0.100877
0.899921 0.958903 0.126017
1.040994 0.937675 0.163849
1.160914 0.919713 0.204571
1.233596 0.890597 0.236306
1.278911 0.859487 0.255954
0.000000 1.001218 0.412215
0.000000 1.001738 0.403793
0.000000 1.006981 0.318600
0.006086 1.013767 0.281808
0.043087 1.019889 0.211154
0.117664 1.021940 0.184846
0.211153 1.021994 0.155945
0.317209 1.018955 0.127932
0.437477 1.011799 0.105441
0.571774 0.999837 0.096382
0.716933 0.984102 0.097846
0.866364 0.964067 0.118982
1.007836 0.943460 0.153729
1.131726 0.924868 0.193868
1.230647 0.910956 0.229517
1.283626 0.905310 0.247028
0.000000 1.001497 0.407738
0.000000 1.001857 0.401844
0.000000 1.006893 0.360735
0.015100 1.010713 0.339822
0.058838 1.014250 0.312353
0.126193 1.017822 0.267925
0.199336 1.022415 0.160346
0.298509 1.020013 0.132995
0.410902 1.013957 0.109828
0.536867 1.003545 0.096382
0.674170 0.989359 0.096382
0.817944 0.970935 0.110286
0.959183 0.950965 0.140065
1.086191 0.931544 0.178193
1.191635 0.916178 0.215394
1.283626 0.905310 0.247028
0.000088 0.001055 0.262745
0.011682 0.001055 0.262131
0.035481 0.001055 0.261385
0.070453 0.001055 0.261005
0.131355 0.001103 0.270582
0.207589 0.001343 0.292879
0.303785 0.001055 0.318883
0.412099 0.001055 0.342085
0.524348 0.001055 0.360827
0.632549 0.001055 0.374211
0.731980 0.001055 0.382271
0.819761 0.001055 0.384935
0.893983 0.001055 0.382402
0.955226 0.001055 0.374486
1.005646 0.001055 0.360349
1.054904 0.001055 0.329757
0.000088 0.001055 0.262745
0.009130 0.001055 0.270165
0.036688 0.001055 0.268535
0.074428 0.001055 0.265622
0.136107 0.001145 0.272327
0.212217 0.001268 0.293266
0.308310 0.001055 0.317766
0.416123 0.001055 0.339622
0.528019 0.001055 0.357277
0.635922 0.001055 0.369802
0.735104 0.001055 0.376899
0.822617 0.001055 0.378763
0.896724 0.001055 0.375061
0.958110 0.001055 0.365798
1.008576 0.001055 0.349023
1.057003 0.001055 0.317544
0.000090 0.001055 0.262758
0.006130 0.001055 0.266737
0.032003 0.001055 0.267005
0.074116 0.001055 0.265243
0.140143 0.001243 0.270498
0.222310 0.001055 0.290153
0.322276 0.001055 0.309918
0.431544 0.001055 0.326362
0.543241 0.001055 0.338874
0.650450 0.001055 0.346269
0.748959 0.001055 0.347811
0.836427 0.001055 0.342574
0.911174 0.001055 0.328094
0.976761 0.001055 0.288890
1.028960 0.001055 0.259128
1.066233 0.001055 0.264588
0.001496 0.082820 0.272744
0.001480 0.083939 0.273431
0.028674 0.087366 0.266399
0.070457 0.086973 0.261001
0.137017 0.082828 0.260383
0.226626 0.065193 0.272993
0.332525 0.001055 0.286592
0.451786 0.001055 0.286499
0.571266 0.001055 0.273926
0.691555 0.001055 0.208291
0.786994 0.001055 0.223652
0.869758 0.001055 0.236807
0.938578 0.001055 0.247627
0.993689 0.001055 0.256279
1.039912 0.001055 0.263380
1.067025 0.001055 0.266303
0.031736 0.153330 0.370510
0.031567 0.154180 0.369953
0.028509 0.157665 0.363875
0.071195 0.178820 0.291334
0.142534 0.181116 0.246318
0.242937 0.178755 0.254972
0.354516 0.172836 0.255553
0.473138 0.162182 0.247523
0.600923 0.143796 0.182461
0.705729 0.125621 0.199629
0.799126 0.101669 0.215918
0.879168 0.068417 0.231376
0.940366 0.001055 0.249212
0.993364 0.001055 0.259700
1.039563 0.001055 0.266298
1.068336 0.001055 0.270021
0.010866 0.265503 0.397611
0.009673 0.267133 0.392547
0.005176 0.273802 0.368350
0.041230 0.291793 0.284431
0.118329 0.294082 0.232764
0.267505 0.272917 0.160569
0.408297 0.267463 0.155454
0.516123 0.270603 0.170659
0.625049 0.269778 0.184918
0.728725 0.264594 0.198878
0.822312 0.255823 0.211993
0.903722 0.244004 0.223936
0.970573 0.229554 0.234242
1.023488 0.212626 0.242989
1.066918 0.193162 0.250629
1.097659 0.202225 0.252789
0.001626 0.381732 0.409274
0.001229 0.382881 0.403393
0.006501 0.390782 0.366007
0.024010 0.403746 0.282983
0.100096 0.406927 0.235683
0.216436 0.399990 0.139132
0.394286 0.372235 0.127075
0.544313 0.369185 0.170801
0.655318 0.372733 0.189803
0.756760 0.372454 0.203571
0.848500 0.368111 0.215449
0.928230 0.360117 0.225912
0.993242 0.348742 0.234766
1.045764 0.334602 0.242192
1.088096 0.317815 0.248490
1.117727 0.313302 0.251127
0.000000 0.495165 0.424702
0.000000 0.496098 0.418589
0.003451 0.502975 0.379469
0.012239 0.514493 0.287855
0.085149 0.518806 0.242709
0.188367 0.517769 0.151138
0.340690 0.501551 0.097454
0.523750 0.473687 0.137475
