src/luts/fairytale/6.cube
LUT_3D_SIZE 6
0.000000 0.000000 0.000000
0.257530 0.000475 0.003171
0.533465 0.001487 0.007434
0.763110 0.002633 0.011383
0.927347 0.003602 0.014384
1.103292 0.004965 0.018251
0.000000 0.143636 0.000000
0.287141 0.163622 0.018619
0.557338 0.168351 0.022918
0.781848 0.145955 0.024297
0.938836 0.087763 0.023742
1.105252 0.005083 0.021421
0.000000 0.388321 0.000000
0.242759 0.399755 0.000208
0.593683 0.431353 0.043141
0.827143 0.444066 0.055072
0.974671 0.425083 0.054239
1.145541 0.370723 0.051549
0.000000 0.641427 0.000000
0.198555 0.646362 0.000000
0.520212 0.675363 0.008550
0.838403 0.704630 0.058542
1.001941 0.695588 0.082960
1.188337 0.638488 0.084387
0.000000 0.866648 0.000000
0.089091 0.869292 0.000000
0.461257 0.885190 0.000000
0.726138 0.915277 0.015667
0.978084 0.939599 0.056664
1.223610 0.890701 0.106827
0.000000 0.992860 0.000000
0.000000 0.994313 0.000000
0.397092 0.998632 0.000000
0.643338 1.015340 0.002881
0.863138 1.039079 0.021315
1.185982 1.065953 0.078588
0.005794 0.000000 0.108377
0.254781 0.000517 0.103368
0.530835 0.001624 0.104683
0.761017 0.002669 0.056309
0.925997 0.003535 0.012723
1.102449 0.004917 0.017224
0.000000 0.139925 0.098419
0.265145 0.155596 0.109102
0.563950 0.127766 0.055748
0.792308 0.002822 0.012834
0.946922 0.003754 0.015266
1.103959 0.005025 0.019867
0.000000 0.385441 0.073774
0.120459 0.398151 0.000000
0.597617 0.432765 0.043605
0.836515 0.428556 0.053356
0.980845 0.400068 0.051322
1.143894 0.368624 0.050157
0.000000 0.639787 0.000000
0.000000 0.648075 0.000000
0.494886 0.675731 0.006283
0.840269 0.705806 0.058816
1.006714 0.690503 0.082949
1.187231 0.637574 0.083593
0.000000 0.865544 0.000000
0.000000 0.871250 0.000000
0.430634 0.885858 0.000000
0.717503 0.916288 0.014631
0.978985 0.940216 0.056853
1.223572 0.890282 0.106820
0.000000 0.992428 0.000000
0.000000 0.993212 0.000000
0.364519 0.997944 0.000000
0.633398 1.014228 0.002331
0.860243 1.038792 0.020975
1.185879 1.065852 0.078577
0.014619 0.000000 0.294923
0.283899 0.000000 0.264090
0.528112 0.001383 0.276140
0.756294 0.003093 0.297251
0.921263 0.004170 0.285498
1.097913 0.005377 0.235255
0.000000 0.154778 0.289687
0.247235 0.138708 0.294659
0.548963 0.126061 0.307351
0.784380 0.003279 0.296101
0.942108 0.004262 0.266652
1.098996 0.005323 0.230516
0.000000 0.379170 0.270152
0.108352 0.383578 0.270922
0.563011 0.434392 0.319512
0.810175 0.426879 0.308929
0.979078 0.380090 0.248558
1.136679 0.406168 0.269326
0.000000 0.632038 0.254442
0.000000 0.639203 0.228285
0.451656 0.666821 0.189242
0.845238 0.706866 0.060368
1.019766 0.680308 0.081847
1.178629 0.654801 0.197586
0.000000 0.859579 0.202343
0.000000 0.865477 0.158568
0.294437 0.887972 0.000000
0.686240 0.919874 0.010553
0.982930 0.942158 0.057587
1.223341 0.895805 0.106842
0.000000 0.989926 0.112830
0.000000 0.990794 0.023250
0.363189 0.995922 0.000000
0.626740 1.010566 0.000873
0.854117 1.037255 0.019589
1.185548 1.065516 0.078560
0.026013 0.000000 0.543443
0.301060 0.000000 0.518370
0.555125 0.000073 0.472894
0.758339 0.001528 0.491961
0.918262 0.003636 0.500004
1.092577 0.005824 0.464136
0.011370 0.156427 0.545978
0.251518 0.124181 0.556168
0.559813 0.094450 0.537358
0.783142 0.001550 0.518449
0.936795 0.003797 0.509749
1.092964 0.005832 0.464880
0.000000 0.393893 0.520720
0.120749 0.389454 0.553258
0.507110 0.387755 0.538580
0.772653 0.418959 0.567776
0.957985 0.381167 0.555456
1.120270 0.411481 0.518596
0.000000 0.626466 0.502671
0.000000 0.631012 0.505656
0.432418 0.625033 0.495520
0.793558 0.710750 0.583977
0.982798 0.720339 0.598821
1.157670 0.718026 0.600153
0.000000 0.850048 0.464055
0.000000 0.854641 0.451922
0.275952 0.868132 0.407943
0.699077 0.899881 0.477069
0.958464 0.948344 0.511736
1.190668 0.934649 0.591700
0.000000 0.984345 0.393832
0.000000 0.984862 0.376535
0.355093 0.987765 0.369630
0.660825 1.000685 0.422934
0.853780 1.032922 0.401291
1.160856 1.076435 0.517402
0.037597 0.000000 0.802198
0.306054 0.000000 0.778506
0.557320 0.000000 0.743682
0.763312 0.000080 0.700158
0.927581 0.001216 0.704148
1.091606 0.004236 0.674769
0.024428 0.146721 0.807795
0.237107 0.087258 0.866529
0.557304 0.061170 0.829831
0.777158 0.040340 0.761446
0.943874 0.001172 0.727345
1.091560 0.004306 0.676527
0.003656 0.381338 0.796169
0.128683 0.371359 0.846501
0.511791 0.371393 0.810851
0.740976 0.379310 0.780137
0.938886 0.367936 0.796556
1.101192 0.414432 0.739890
0.000000 0.615195 0.762743
0.057112 0.615463 0.781186
0.449102 0.612707 0.787664
0.718376 0.642942 0.793232
0.929973 0.690655 0.835976
1.124138 0.714016 0.814288
0.000000 0.846264 0.746371
0.000000 0.849967 0.748823
0.294150 0.855196 0.749670
0.654262 0.841915 0.735068
0.908612 0.918393 0.810514
1.170237 0.976163 0.906734
0.000000 0.979192 0.660243
0.000000 0.979223 0.654479
0.349689 0.976190 0.645879
0.634201 0.981861 0.665820
0.852355 1.009862 0.731295
1.143630 1.082983 0.855964
0.046506 0.000000 0.975694
0.298271 0.000000 0.963246
0.534414 0.000000 0.945354
0.737102 0.000000 0.916410
0.901575 0.000063 0.881543
1.101605 0.001421 0.872785
0.034837 0.128542 0.978745
0.251122 0.090188 0.994672
0.527464 0.077829 0.985815
0.744259 0.047680 0.967997
0.912851 0.023731 0.924644
1.095687 0.123151 0.897799
0.016507 0.348184 0.977086
0.175109 0.338464 0.995770
0.517299 0.361160 0.989893
0.724674 0.356644 0.981556
0.897234 0.349756 0.966215
1.087460 0.408839 0.934719
0.000000 0.570135 0.964782
0.074728 0.569668 0.978982
0.460974 0.578398 0.986598
0.719463 0.623899 0.983228
0.881677 0.627686 0.977852
1.084244 0.686450 0.967033
0.000000 0.790374 0.942548
0.040231 0.792100 0.949456
0.357143 0.799550 0.967910
0.659456 0.813235 0.963910
0.862539 0.865623 0.970894
1.099341 0.941451 0.993704
0.000000 0.977413 0.932501
0.000000 0.977399 0.934026
0.368078 0.973701 0.931328
0.631507 0.970960 0.926420
0.807489 0.974781 0.925381
1.091754 1.046797 0.990162
