src/luts/fairytale/6.cube
LUT_3D_SIZE 16
0.000000 0.000000 0.000000
0.078036 0.000025 0.000496
0.165931 0.000197 0.001706
0.257530 0.000475 0.003171
0.350963 0.000768 0.004549
0.444040 0.001112 0.005994
0.533465 0.001487 0.007434
0.617078 0.001875 0.008842
0.693804 0.002257 0.010165
0.763110 0.002633 0.011383
0.825348 0.002981 0.012500
0.880129 0.003306 0.013493
0.927347 0.003602 0.014384
0.964695 0.003869 0.015170
0.998589 0.004195 0.016107
1.103292 0.004965 0.018251
0.000000 0.024194 0.000000
0.083757 0.024394 0.002516
0.170719 0.022572 0.004104
0.261906 0.015553 0.005648
0.351595 0.000785 0.005369
0.444606 0.001127 0.006660
0.533839 0.001502 0.007999
0.617386 0.001890 0.009334
0.694170 0.002272 0.010603
0.763499 0.002646 0.011786
0.825861 0.002993 0.012862
0.880354 0.003318 0.013830
0.927637 0.003613 0.014682
0.964723 0.003878 0.015444
0.998581 0.004205 0.016358
1.103496 0.004974 0.018470
0.000000 0.073543 0.000000
0.069052 0.076067 0.000178
0.181369 0.080385 0.008657
0.274747 0.084833 0.012733
0.365511 0.082490 0.013218
0.456757 0.075966 0.013826
0.544122 0.064014 0.014358
0.625275 0.044576 0.014522
0.695424 0.002334 0.012536
0.764809 0.002700 0.013527
0.826759 0.003048 0.014450
0.881380 0.003370 0.015274
0.928532 0.003661 0.016004
0.965382 0.003923 0.016639
0.998820 0.004246 0.017429
1.104077 0.005010 0.019434
0.000000 0.143636 0.000000
0.057124 0.145270 0.000000
0.167996 0.155445 0.003562
0.287141 0.163622 0.018619
0.379896 0.167990 0.021501
0.470340 0.169578 0.022304
0.557338 0.168351 0.022918
0.639002 0.163989 0.023483
0.714006 0.156516 0.023958
0.781848 0.145955 0.024297
0.842194 0.131729 0.024427
0.894891 0.112944 0.024269
0.938836 0.087763 0.023742
0.971814 0.053585 0.022572
0.999380 0.004326 0.019649
1.105252 0.005083 0.021421
0.000000 0.221691 0.000000
0.033914 0.222694 0.000000
0.154217 0.229369 0.000247
0.275229 0.242625 0.010288
0.391105 0.249208 0.026729
0.485515 0.256325 0.031133
0.572477 0.259917 0.032486
0.653425 0.260681 0.033143
0.728050 0.258927 0.033582
0.795515 0.254625 0.033856
0.855589 0.247812 0.033965
0.908528 0.238199 0.033867
0.951126 0.225732 0.033549
0.983142 0.210176 0.032999
1.016230 0.189167 0.032336
1.120067 0.140146 0.031809
0.000000 0.303858 0.000000
0.000000 0.304804 0.000000
0.143822 0.308755 0.000000
0.254081 0.319997 0.002998
0.381907 0.332996 0.017802
0.494769 0.339204 0.035135
0.587485 0.347704 0.041128
0.669389 0.351792 0.043209
0.743747 0.353087 0.044073
0.810537 0.351395 0.044382
0.870375 0.347124 0.044376
0.922028 0.339815 0.044064
0.962834 0.329671 0.043484
0.991754 0.316646 0.042670
1.028554 0.299946 0.041734
1.133001 0.269368 0.041645
0.000000 0.388321 0.000000
0.000000 0.389136 0.000000
0.129325 0.391717 0.000000
0.242759 0.399755 0.000208
0.355919 0.412925 0.007224
0.484481 0.425258 0.025112
0.593683 0.431353 0.043141
0.683229 0.439997 0.050870
0.759473 0.443731 0.053861
0.827143 0.444066 0.055072
0.886272 0.441021 0.055340
0.936399 0.434657 0.055016
0.974671 0.425083 0.054239
0.999192 0.412268 0.053088
1.041533 0.396347 0.051757
1.145541 0.370723 0.051549
0.000000 0.473408 0.000000
0.000000 0.474086 0.000000
0.107015 0.475962 0.000000
0.231518 0.481643 0.000000
0.339379 0.492615 0.002386
0.454888 0.506060 0.012139
0.579318 0.517559 0.031303
0.685122 0.523809 0.050094
0.771013 0.531951 0.059677
0.841653 0.534421 0.063898
0.902282 0.532530 0.065590
0.951192 0.526632 0.065900
0.985988 0.517022 0.065285
1.011609 0.503642 0.064040
1.055633 0.487389 0.062426
1.158956 0.463261 0.062133
0.000000 0.558307 0.000000
0.000000 0.558819 0.000000
0.069107 0.560377 0.000000
0.217227 0.564445 0.000000
0.327125 0.572826 0.000000
0.433132 0.585117 0.005389
0.546526 0.597890 0.016815
0.664188 0.608699 0.035862
0.767041 0.615496 0.055364
0.849406 0.621845 0.066880
0.914809 0.622158 0.072645
0.963660 0.616892 0.075035
0.995613 0.607005 0.075508
1.026691 0.592933 0.074738
1.070405 0.575901 0.073301
1.173406 0.551852 0.073248
0.000000 0.641427 0.000000
0.000000 0.641942 0.000000
0.000000 0.643703 0.000000
0.198555 0.646362 0.000000
0.313374 0.652719 0.000000
0.416918 0.662847 0.001606
0.520212 0.675363 0.008550
0.628562 0.687199 0.020653
0.738534 0.697306 0.038781
0.838403 0.704630 0.058542
0.916925 0.708201 0.071960
0.971088 0.704757 0.079456
1.001941 0.695588 0.082960
1.040522 0.681023 0.083816
1.084965 0.662763 0.083416
1.188337 0.638488 0.084387
0.000000 0.721641 0.000000
0.000000 0.721881 0.000000
0.000000 0.723404 0.000000
0.173899 0.725487 0.000000
0.297046 0.730514 0.000000
0.401722 0.738550 0.000000
0.499491 0.749635 0.003728
0.598620 0.761505 0.011446
0.700459 0.772642 0.023478
0.802723 0.782440 0.040233
0.898308 0.789818 0.059526
0.967742 0.789249 0.074616
1.006796 0.781048 0.084072
1.050534 0.767193 0.089006
1.097699 0.748581 0.091394
1.202818 0.723466 0.094659
0.000000 0.797247 0.000000
0.000000 0.797406 0.000000
0.000000 0.798746 0.000000
0.140242 0.800548 0.000000
0.277113 0.804295 0.000000
0.384188 0.810898 0.000000
0.481085 0.819878 0.000709
0.573561 0.830861 0.005836
0.667107 0.841896 0.013834
0.761973 0.852390 0.025324
0.856167 0.861283 0.040493
0.945005 0.869072 0.058573
0.998672 0.863420 0.075176
1.050292 0.850102 0.086740
1.105240 0.832563 0.094770
1.215634 0.808189 0.102899
0.000000 0.866648 0.000000
0.000000 0.866850 0.000000
0.000000 0.868057 0.000000
0.089091 0.869292 0.000000
0.253270 0.872490 0.000000
0.364229 0.877795 0.000000
0.461257 0.885190 0.000000
0.551181 0.894735 0.002165
0.638413 0.905237 0.007727
0.726138 0.915277 0.015667
0.813931 0.924563 0.026389
0.901683 0.932555 0.040167
0.978084 0.939599 0.056664
1.032977 0.929035 0.074366
1.102033 0.912973 0.090444
1.223610 0.890701 0.106827
0.000000 0.927904 0.000000
0.000000 0.928259 0.000000
0.000000 0.929084 0.000000
0.000000 0.930730 0.000000
0.224798 0.932577 0.000000
0.341531 0.936608 0.000000
0.439644 0.942145 0.000000
0.528772 0.949179 0.000000
0.612166 0.957397 0.003646
0.694002 0.965299 0.009342
0.775474 0.973000 0.016998
0.857431 0.979549 0.026974
0.937823 0.985237 0.039505
0.999397 0.990112 0.054791
1.081632 0.980398 0.076586
1.222630 0.964505 0.103769
0.000000 0.973972 0.000000
0.000000 0.974055 0.000000
0.000000 0.974923 0.000000
0.000000 0.976188 0.000000
0.191986 0.977336 0.000000
0.317099 0.979856 0.000000
0.416838 0.983533 0.000000
0.505823 0.987925 0.000000
0.588027 0.992978 0.000940
0.665827 0.997764 0.005135
0.742668 1.002155 0.010819
0.819140 1.010249 0.018225
0.896126 1.017903 0.027589
0.967743 1.025350 0.039348
1.046776 1.033584 0.057479
1.206865 1.019011 0.091681
0.000000 0.992860 0.000000
0.000000 0.993054 0.000000
0.000000 0.993461 0.000000
0.000000 0.994313 0.000000
0.162818 0.995073 0.000000
0.296036 0.996697 0.000000
0.397092 0.998632 0.000000
0.485873 1.001050 0.000000
0.567179 1.007667 0.000000
0.643338 1.015340 0.002881
0.716953 1.023437 0.007594
0.789917 1.031411 0.013657
0.863138 1.039079 0.021315
0.935938 1.046376 0.030941
0.995506 1.053324 0.042993
1.185982 1.065953 0.078588
0.001665 0.000000 0.027217
0.077151 0.000027 0.025300
0.165042 0.000192 0.021200
0.257029 0.000467 0.002771
0.350688 0.000761 0.004295
0.444044 0.001105 0.005832
0.533332 0.001478 0.007246
0.616798 0.001863 0.008605
0.693601 0.002241 0.009898
0.762950 0.002617 0.011089
0.825180 0.002963 0.012169
0.879850 0.003284 0.013147
0.927177 0.003579 0.014005
0.964317 0.003844 0.014770
0.998328 0.004167 0.015688
1.102959 0.004933 0.017774
0.000000 0.023924 0.025681
0.079154 0.024216 0.025270
0.173040 0.020768 0.014019
0.271491 0.000518 0.003638
0.362729 0.000807 0.004834
0.452695 0.001143 0.006196
0.539640 0.001514 0.007591
0.621570 0.001898 0.008962
0.697233 0.002278 0.010258
0.766078 0.002649 0.011469
0.827570 0.002993 0.012572
0.882038 0.003319 0.013563
0.928612 0.003612 0.014442
0.965786 0.003878 0.015227
0.999806 0.004219 0.016205
1.103413 0.004969 0.018363
0.000000 0.073227 0.016879
0.045054 0.076637 0.000000
0.182910 0.080798 0.008760
0.280689 0.081427 0.012390
0.371547 0.075013 0.012595
0.461378 0.064847 0.013009
0.547180 0.048705 0.013301
0.625884 0.020344 0.012791
0.698204 0.002337 0.012195
0.766903 0.002702 0.013216
0.828321 0.003049 0.014161
0.882712 0.003369 0.015010
0.929475 0.003660 0.015761
0.966403 0.003924 0.016429
0.999856 0.004259 0.017267
1.103959 0.005006 0.019324
0.000000 0.143225 0.000000
0.000000 0.145921 0.000000
0.159014 0.155829 0.002735
0.288085 0.163851 0.018687
0.382697 0.166505 0.021374
0.473198 0.166432 0.021984
0.559990 0.163646 0.022488
0.641087 0.157912 0.022984
0.715579 0.149223 0.023406
0.782939 0.137419 0.023695
0.842770 0.121798 0.023768
0.895466 0.100976 0.023547
0.938702 0.073468 0.022901
0.971078 0.032821 0.021224
1.000031 0.004337 0.019486
1.105181 0.005080 0.021313
0.000000 0.221406 0.000000
0.000000 0.223262 0.000000
0.142918 0.229248 0.000000
0.271144 0.242940 0.009656
0.391652 0.249444 0.026772
0.486954 0.255548 0.031090
0.574072 0.258189 0.032304
0.655052 0.258200 0.032885
0.729265 0.255776 0.033266
0.796418 0.250959 0.033502
0.856523 0.243653 0.033587
0.909255 0.233768 0.033476
0.951791 0.220905 0.033148
0.983381 0.205148 0.032612
1.018095 0.183284 0.031950
1.119952 0.139243 0.031674
0.000000 0.303670 0.000000
0.000000 0.305031 0.000000
0.130265 0.308784 0.000000
0.248412 0.319963 0.002600
0.379783 0.333278 0.017405
0.495108 0.339450 0.035163
0.588399 0.347201 0.041120
0.670484 0.350796 0.043112
0.744716 0.351452 0.043902
0.811533 0.349491 0.044165
0.870764 0.344917 0.044123
0.922892 0.337421 0.043804
0.963200 0.327146 0.043220
0.992009 0.313888 0.042386
1.030157 0.296963 0.041466
1.132834 0.268962 0.041535
0.000000 0.388099 0.000000
0.000000 0.389148 0.000000
0.112924 0.391865 0.000000
0.236538 0.399754 0.000000
0.352540 0.412928 0.006878
0.483370 0.425497 0.024871
0.593962 0.431511 0.043181
0.683808 0.439709 0.050890
0.760130 0.443155 0.053812
0.827753 0.443093 0.054968
0.886897 0.439867 0.055203
0.936878 0.433212 0.054845
0.975008 0.423609 0.054049
0.999379 0.410627 0.052878
1.042834 0.394491 0.051551
1.145472 0.370473 0.051448
0.000000 0.473306 0.000000
0.000000 0.474109 0.000000
0.085674 0.476064 0.000000
0.224593 0.481663 0.000000
0.335757 0.492569 0.002164
0.452751 0.506051 0.011878
0.578598 0.517661 0.031133
0.685403 0.523968 0.050125
0.771465 0.531782 0.059694
0.842001 0.534032 0.063882
0.902737 0.531823 0.065523
0.951363 0.525901 0.065803
0.986179 0.515958 0.065171
1.011987 0.502646 0.063904
1.056746 0.486333 0.062287
1.158911 0.463173 0.062042
0.000000 0.558208 0.000000
0.000000 0.558852 0.000000
0.028608 0.560618 0.000000
0.209665 0.564436 0.000000
0.323216 0.572791 0.000000
0.430900 0.585150 0.005200
0.545208 0.598003 0.016613
0.663721 0.608819 0.035758
0.767264 0.615562 0.055384
0.849526 0.621704 0.066905
0.915042 0.621814 0.072650
0.963778 0.616495 0.075006
0.995863 0.606438 0.075456
1.027044 0.592365 0.074661
1.071407 0.575123 0.073188
1.173257 0.551758 0.073167
0.000000 0.641415 0.000000
0.000000 0.641951 0.000000
0.000000 0.643712 0.000000
0.190257 0.646259 0.000000
0.309232 0.652683 0.000000
0.414520 0.662821 0.001475
0.518692 0.675243 0.008404
0.627796 0.687375 0.020516
0.738287 0.697634 0.038711
0.838378 0.704613 0.058551
0.917141 0.707934 0.071997
0.971276 0.704648 0.079457
1.002243 0.695280 0.082950
1.040798 0.680449 0.083813
1.085665 0.662436 0.083383
1.188294 0.638358 0.084326
0.000000 0.721435 0.000000
0.000000 0.721961 0.000000
0.000000 0.723429 0.000000
0.164520 0.725424 0.000000
0.292654 0.730491 0.000000
0.399193 0.738560 0.000000
0.498082 0.749580 0.003624
0.597511 0.761669 0.011332
0.699959 0.772599 0.023371
0.802115 0.782402 0.040157
0.898197 0.789981 0.059490
0.968004 0.788932 0.074687
1.006853 0.780968 0.084113
1.050569 0.766688 0.089013
1.098347 0.748345 0.091425
1.202763 0.723513 0.094627
0.000000 0.797119 0.000000
0.000000 0.797487 0.000000
0.000000 0.798674 0.000000
0.128665 0.800304 0.000000
0.272713 0.804361 0.000000
0.381631 0.810761 0.000000
0.479465 0.819850 0.000614
0.572524 0.830891 0.005748
0.666362 0.841883 0.013743
0.761598 0.852384 0.025247
0.856220 0.861369 0.040458
0.945004 0.869142 0.058591
0.998766 0.863436 0.075213
1.050779 0.850072 0.086790
1.105817 0.832456 0.094824
1.215600 0.808165 0.102888
0.000000 0.866475 0.000000
0.000000 0.866919 0.000000
0.000000 0.868117 0.000000
0.071276 0.869795 0.000000
0.248678 0.872667 0.000000
0.361555 0.877793 0.000000
0.459706 0.885463 0.000000
0.550002 0.894752 0.002103
0.637652 0.905263 0.007659
0.725660 0.915367 0.015598
0.813584 0.924487 0.026339
0.901470 0.932814 0.040131
0.978187 0.939414 0.056652
1.032940 0.929119 0.074409
1.102387 0.912989 0.090508
1.223562 0.890616 0.106824
0.000000 0.927823 0.000000
0.000000 0.928290 0.000000
0.000000 0.929152 0.000000
0.000000 0.930885 0.000000
0.220097 0.932755 0.000000
0.338943 0.936672 0.000000
0.437972 0.942108 0.000000
0.527698 0.949066 0.000000
0.611469 0.957056 0.003597
0.693550 0.965377 0.009291
0.775369 0.973002 0.016966
0.857545 0.979512 0.026962
0.937846 0.985332 0.039482
0.999379 0.990154 0.054796
1.081672 0.980424 0.076605
1.222654 0.964489 0.103776
0.000000 0.974127 0.000000
0.000000 0.974043 0.000000
0.000000 0.974863 0.000000
0.000000 0.976195 0.000000
0.186981 0.977276 0.000000
0.314599 0.979807 0.000000
0.415317 0.983459 0.000000
0.504796 0.987903 0.000000
0.587355 0.993014 0.000911
0.665272 0.997746 0.005092
0.742266 1.002019 0.010788
0.818912 1.010228 0.018193
0.895665 1.017818 0.027559
0.967741 1.025134 0.039332
1.046757 1.033439 0.057498
1.206869 1.019080 0.091692
0.000000 0.992875 0.000000
0.000000 0.992895 0.000000
0.000000 0.993325 0.000000
0.000000 0.994252 0.000000
0.157649 0.995021 0.000000
0.293871 0.996629 0.000000
0.395874 0.998699 0.000000
0.484898 1.000964 0.000000
0.566475 1.007587 0.000000
0.642872 1.015280 0.002846
0.716641 1.023396 0.007567
0.789847 1.031378 0.013634
0.863086 1.039067 0.021305
0.935893 1.046368 0.030928
0.995495 1.053319 0.042979
1.185978 1.065947 0.078587
0.003575 0.000000 0.063471
0.079838 0.000011 0.055168
0.163991 0.000213 0.060185
0.255735 0.000548 0.061701
0.349342 0.000819 0.056688
0.442734 0.001141 0.041634
0.532175 0.001451 0.006275
0.616007 0.001841 0.007872
0.692917 0.002225 0.009348
0.762502 0.002605 0.010698
0.824812 0.002958 0.011925
0.879815 0.003283 0.013021
0.927055 0.003578 0.013983
0.964277 0.003842 0.014770
0.998264 0.004166 0.015687
1.102947 0.004932 0.017773
0.000269 0.023329 0.062640
0.075391 0.023489 0.062596
0.168601 0.020444 0.064457
0.269390 0.000584 0.061535
0.361774 0.000853 0.050348
0.451897 0.001145 0.020943
0.538996 0.001486 0.006644
0.621132 0.001873 0.008189
0.696883 0.002253 0.009628
0.765983 0.002630 0.010947
0.827198 0.002974 0.012139
0.881851 0.003296 0.013180
0.928525 0.003588 0.014030
0.965625 0.003853 0.014802
0.999749 0.004193 0.015756
1.102916 0.004932 0.017773
0.000000 0.072304 0.058762
0.043521 0.074906 0.059836
0.169107 0.077297 0.061483
0.270145 0.078044 0.058725
0.370976 0.064643 0.028637
0.469259 0.012859 0.008492
0.556985 0.001605 0.008345
0.637466 0.001979 0.009514
0.710414 0.002354 0.010692
0.776796 0.002711 0.011822
0.836502 0.003053 0.012862
0.889616 0.003371 0.013820
0.935260 0.003660 0.014669
0.970704 0.003924 0.015441
1.022585 0.004390 0.016768
1.103537 0.004987 0.018837
0.000000 0.141364 0.051897
0.000000 0.143723 0.046583
0.143573 0.152871 0.036982
0.289029 0.164161 0.018712
0.389196 0.160509 0.020426
0.483444 0.151693 0.020363
0.570246 0.140042 0.020374
0.649688 0.126079 0.020489
0.722072 0.109013 0.020575
0.787337 0.087577 0.020494
0.844846 0.060221 0.020015
0.892678 0.013436 0.017870
0.936089 0.003754 0.017442
0.971333 0.004011 0.017943
1.021356 0.004451 0.018911
1.104787 0.005061 0.020825
0.000000 0.219902 0.040786
0.000000 0.221769 0.030583
0.082211 0.228302 0.000000
0.252767 0.243482 0.007085
0.393872 0.250127 0.026967
0.492768 0.251614 0.030753
0.580944 0.249919 0.031402
0.661547 0.246080 0.031604
0.734922 0.240426 0.031725
0.801447 0.232827 0.031809
0.860335 0.223218 0.031780
0.912054 0.211099 0.031594
0.954057 0.196347 0.031226
0.985227 0.178326 0.030659
1.033157 0.148571 0.029914
1.119136 0.134943 0.031018
0.000000 0.302536 0.012339
0.000000 0.304074 0.000000
0.000000 0.309397 0.000000
0.221579 0.319420 0.000993
0.369582 0.334125 0.015543
0.496775 0.339983 0.035323
0.592147 0.344911 0.041033
0.674743 0.345759 0.042609
0.748833 0.344200 0.043094
0.815335 0.340366 0.043146
0.874283 0.334292 0.042974
0.925802 0.325561 0.042561
0.965281 0.314321 0.041927
0.993662 0.300342 0.041092
1.043460 0.280959 0.040227
1.132252 0.267045 0.041002
0.000000 0.387445 0.000000
0.000000 0.388496 0.000000
0.000000 0.392612 0.000000
0.204469 0.399144 0.000000
0.336675 0.412972 0.005383
0.477397 0.426183 0.023649
0.595284 0.431865 0.043313
0.686468 0.438248 0.050940
0.763121 0.439790 0.053564
0.830313 0.438259 0.054468
0.889572 0.433907 0.054522
0.939177 0.426487 0.054040
0.976810 0.416056 0.053175
1.000031 0.402512 0.051968
1.053880 0.385141 0.050643
1.144889 0.369195 0.050986
0.000000 0.472695 0.000000
0.000000 0.473504 0.000000
0.000000 0.476937 0.000000
0.187598 0.481493 0.000000
0.318079 0.492271 0.001216
0.442968 0.506352 0.010675
0.575021 0.518204 0.030352
0.686324 0.524342 0.050245
0.773358 0.530782 0.059835
0.844442 0.531675 0.063801
0.904795 0.528740 0.065240
0.953089 0.521710 0.065357
0.987516 0.511208 0.064612
1.013738 0.497380 0.063281
1.065485 0.480183 0.061633
1.158378 0.462190 0.061650
0.000000 0.557561 0.000000
0.000000 0.558354 0.000000
0.000000 0.561104 0.000000
0.167206 0.564468 0.000000
0.303522 0.572451 0.000000
0.419441 0.585069 0.004346
0.538745 0.598356 0.015707
0.661467 0.609338 0.035232
0.767930 0.615888 0.055490
0.851132 0.621084 0.067074
0.916681 0.620248 0.072692
0.965206 0.614154 0.074873
0.996736 0.603550 0.075198
1.028794 0.589035 0.074317
1.078179 0.571216 0.072779
1.172758 0.551070 0.072837
0.000000 0.640928 0.000000
0.000000 0.641448 0.000000
0.000000 0.643800 0.000000
0.140169 0.646548 0.000000
0.287748 0.652689 0.000000
0.402447 0.662679 0.000901
0.511092 0.675350 0.007706
0.623435 0.687681 0.019857
0.736836 0.697945 0.038359
0.838935 0.705012 0.058639
0.918368 0.707596 0.072193
0.972311 0.703529 0.079603
1.003601 0.693548 0.082950
1.042328 0.678511 0.083698
1.091017 0.659872 0.083210
1.187853 0.637796 0.084082
0.000000 0.720997 0.000000
0.000000 0.721588 0.000000
0.000000 0.723436 0.000000
0.100463 0.725830 0.000000
0.269397 0.730444 0.000000
0.385862 0.738608 0.000000
0.489854 0.749522 0.003101
0.592219 0.761681 0.010779
0.697058 0.773012 0.022907
0.801134 0.782587 0.039907
0.898765 0.790147 0.059603
0.968641 0.788742 0.074902
1.008174 0.780252 0.084292
1.052112 0.765802 0.089111
1.102454 0.746896 0.091487
1.202523 0.723191 0.094449
0.000000 0.796691 0.000000
0.000000 0.797068 0.000000
0.000000 0.798908 0.000000
0.010767 0.801470 0.000000
0.247362 0.804508 0.000000
0.367558 0.811023 0.000000
0.470737 0.819892 0.000299
0.566702 0.831157 0.005318
0.662740 0.842252 0.013315
0.759420 0.852735 0.024902
0.855450 0.861790 0.040276
0.945558 0.869397 0.058641
0.999207 0.863142 0.075421
1.051768 0.849396 0.087017
1.109065 0.831623 0.095171
1.215374 0.807567 0.102784
0.000000 0.866006 0.000000
0.000000 0.866492 0.000000
0.000000 0.868171 0.000000
0.000000 0.870395 0.000000
0.220916 0.872862 0.000000
0.346768 0.877908 0.000000
0.450377 0.885321 0.000000
0.544081 0.894935 0.001768
0.633582 0.905532 0.007318
0.722773 0.915729 0.015277
0.812111 0.924855 0.026101
0.901229 0.932844 0.040028
0.978579 0.939668 0.056714
1.033808 0.928992 0.074606
1.105188 0.912669 0.091038
1.223632 0.890288 0.106816
0.000000 0.927866 0.000000
0.000000 0.927856 0.000000
0.000000 0.929291 0.000000
0.000000 0.931210 0.000000
0.188723 0.932974 0.000000
0.323472 0.936741 0.000000
0.428328 0.942398 0.000000
0.521294 0.949245 0.000000
0.607191 0.957358 0.003322
0.690502 0.965397 0.009018
0.773374 0.973273 0.016716
0.856243 0.979770 0.026773
0.937422 0.985498 0.039413
0.999621 0.990388 0.054868
1.083679 0.980455 0.077036
1.222649 0.964357 0.103821
0.000000 0.973834 0.000000
0.000000 0.974144 0.000000
0.000000 0.974909 0.000000
0.000000 0.976176 0.000000
0.149891 0.977552 0.000000
0.298255 0.979949 0.000000
0.405413 0.983725 0.000000
0.498201 0.988102 0.000000
0.582835 0.993060 0.000729
0.662238 0.997831 0.004868
0.739956 1.002262 0.010582
0.817330 1.010438 0.018011
0.894988 1.018175 0.027444
0.967411 1.025455 0.039256
1.047551 1.033506 0.057650
1.206822 1.019183 0.091746
0.000000 0.992644 0.000000
0.000000 0.992743 0.000000
0.000000 0.993075 0.000000
0.000000 0.994012 0.000000
0.113690 0.994890 0.000000
0.277158 0.996263 0.000000
0.385861 0.998438 0.000000
0.478354 1.000494 0.000000
0.562016 1.007168 0.000000
0.639691 1.014928 0.002672
0.714383 1.023143 0.007398
0.788313 1.031219 0.013480
0.862171 1.038986 0.021188
0.935595 1.046353 0.030862
0.995478 1.053318 0.042984
1.185959 1.065926 0.078584
0.005794 0.000000 0.108377
0.084179 0.000000 0.101671
0.169785 0.000095 0.095596
0.254781 0.000517 0.103368
0.348026 0.000905 0.108232
0.441291 0.001269 0.108612
0.530835 0.001624 0.104683
0.614606 0.001966 0.096045
0.691596 0.002342 0.081540
0.761017 0.002669 0.056309
0.823353 0.002906 0.010405
0.878281 0.003233 0.011625
0.925997 0.003535 0.012723
0.963506 0.003809 0.013714
0.998019 0.004140 0.014870
1.102449 0.004917 0.017224
0.002289 0.023234 0.109080
0.076689 0.021761 0.109408
0.173212 0.017906 0.106351
0.266794 0.000563 0.109267
0.359001 0.000946 0.110247
0.449690 0.001298 0.107519
0.537256 0.001641 0.101258
0.619350 0.001983 0.090461
0.695243 0.002349 0.072919
0.764031 0.002646 0.037407
0.825540 0.002923 0.010622
0.880210 0.003249 0.011831
0.927600 0.003550 0.012916
0.964764 0.003824 0.013889
0.999542 0.004167 0.015077
1.102542 0.004925 0.017435
0.000000 0.074507 0.103484
0.042664 0.075765 0.110465
0.158118 0.075276 0.108102
0.261312 0.076343 0.112953
0.365488 0.066507 0.114999
0.465786 0.012709 0.101308
0.555474 0.001689 0.081891
0.636485 0.002026 0.053967
0.709868 0.002298 0.008972
0.776358 0.002663 0.010337
0.836045 0.003004 0.011580
0.889427 0.003329 0.012709
0.934934 0.003623 0.013721
0.970676 0.003889 0.014623
1.026715 0.004390 0.016217
1.102726 0.004931 0.017768
0.000000 0.139925 0.098419
0.000000 0.141511 0.098907
0.142683 0.147952 0.101733
0.265145 0.155596 0.109102
0.373297 0.161226 0.111445
0.468155 0.152050 0.097412
0.563950 0.127766 0.055748
0.653395 0.075391 0.015782
0.724072 0.002455 0.012024
0.792308 0.002822 0.012834
0.851554 0.003160 0.013680
0.903664 0.003470 0.014503
0.946922 0.003754 0.015266
0.980578 0.004020 0.015988
1.070149 0.004755 0.018571
1.103959 0.005025 0.019867
0.000000 0.217540 0.094502
0.000000 0.219013 0.092129
0.073168 0.223448 0.081846
0.245922 0.238453 0.086154
0.387175 0.252619 0.083809
0.492234 0.247505 0.029283
0.585453 0.238255 0.029185
0.669883 0.224586 0.028769
0.744497 0.208848 0.028378
0.810058 0.191982 0.028034
0.868197 0.173940 0.027682
0.918420 0.153833 0.027238
0.958257 0.130474 0.026619
0.987906 0.101381 0.025729
1.081695 0.096164 0.027317
1.118174 0.133155 0.030024
0.000000 0.300364 0.087286
0.000000 0.301696 0.083096
0.000000 0.306820 0.061111
0.185447 0.315925 0.002918
0.353857 0.334189 0.012802
0.498774 0.340549 0.035579
0.598013 0.340427 0.040583
0.682289 0.335956 0.041363
0.756935 0.329456 0.041254
0.823254 0.321319 0.040915
0.881758 0.311490 0.040461
0.931822 0.299786 0.039887
0.970524 0.286154 0.039180
0.996940 0.270245 0.038322
1.096989 0.257649 0.038707
1.131212 0.266237 0.040095
0.000000 0.385441 0.073774
0.000000 0.386478 0.067785
0.000000 0.390711 0.029537
0.120459 0.398151 0.000000
0.305230 0.412295 0.002790
0.465538 0.427307 0.021305
0.597617 0.432765 0.043605
0.691671 0.435244 0.050957
0.769269 0.433160 0.052959
0.836515 0.428556 0.053356
0.895347 0.421641 0.053056
0.944440 0.412201 0.052345
0.980845 0.400068 0.051322
1.004918 0.385355 0.050069
1.110465 0.368685 0.049310
1.143894 0.368624 0.050157
0.000000 0.470991 0.049698
0.000000 0.471771 0.040059
0.000000 0.475690 0.000000
0.038272 0.482070 0.000000
0.278346 0.491338 0.000000
0.421810 0.506724 0.008291
0.567570 0.519548 0.028724
0.688309 0.525032 0.050500
