src/luts/fairytale/7.cube
LUT_3D_SIZE 6
0.000000 0.000000 0.000000
0.152147 -0.000668 -0.000668
0.379171 -0.001584 -0.001584
0.626559 -0.002593 -0.002593
0.813231 -0.003467 -0.003467
1.000022 -0.004063 -0.004063
-0.001108 0.068708 -0.001108
0.152147 0.068708 -0.001234
0.379170 0.102862 -0.001946
0.626559 0.122731 -0.002837
0.813231 0.123366 -0.003635
1.000022 0.108467 -0.004180
-0.002627 0.322396 -0.002627
0.181469 0.322395 -0.002687
0.379167 0.322395 -0.002927
0.626558 0.362575 -0.003650
0.813231 0.363793 -0.004257
1.000022 0.333722 -0.004636
-0.004299 0.605083 -0.004299
0.198820 0.605083 -0.004337
0.415737 0.605083 -0.004494
0.626557 0.605082 -0.004791
0.813230 0.607095 -0.005233
1.000022 0.561341 -0.005409
-0.005747 0.853473 -0.005747
0.199364 0.853473 -0.005772
0.416906 0.853473 -0.005879
0.628176 0.853472 -0.006089
0.813228 0.853472 -0.006405
1.000022 0.791635 -0.006393
-0.006735 1.000019 -0.006735
0.186331 1.000019 -0.006752
0.389491 1.000019 -0.006826
0.590266 1.000019 -0.006974
0.770017 1.000019 -0.007201
1.000022 1.000019 -0.007507
-0.000426 -0.000426 0.101738
0.152147 -0.000755 0.101738
0.379171 -0.001626 0.121873
0.626559 -0.002619 0.133822
0.813231 -0.003484 0.134189
1.000022 -0.004075 0.125234
-0.001153 0.068708 0.101737
0.152146 0.068708 0.101737
0.396754 0.049619 0.090666
0.646059 0.015526 0.071203
0.826914 0.000000 0.060940
1.000022 0.068691 0.101719
-0.002648 0.322396 0.121870
0.108880 0.327368 0.072233
0.380149 0.323466 0.068154
0.634785 0.346627 0.060575
0.821510 0.340344 0.056281
1.000022 0.321277 0.101716
-0.004312 0.605083 0.133816
0.084356 0.608667 0.055667
0.396230 0.607552 0.054872
0.627146 0.605818 0.053617
0.816552 0.600589 0.052338
1.000022 0.555716 0.101710
-0.005756 0.853473 0.134188
0.077791 0.855983 0.051255
0.390592 0.855693 0.051105
0.620673 0.855058 0.050865
0.813615 0.854087 0.050620
1.000022 0.789464 0.101703
-0.006741 1.000019 0.125209
0.152115 1.000019 0.101708
0.378130 1.000019 0.101707
0.585547 1.000019 0.101705
0.768533 1.000019 0.101702
1.000022 1.000019 0.101699
-0.001010 -0.001010 0.265408
0.181474 -0.001215 0.265408
0.379170 -0.001790 0.265407
0.626559 -0.002727 0.295204
0.813231 -0.003558 0.296234
1.000022 -0.004126 0.273688
-0.001569 0.102864 0.265408
0.147132 0.062808 0.281308
0.394847 0.042933 0.277997
0.644294 0.012583 0.289880
0.826146 0.000000 0.281508
1.000022 0.068690 0.264632
-0.002734 0.322395 0.265406
0.106621 0.325899 0.267996
0.379167 0.322395 0.265405
0.646440 0.308860 0.255681
0.841445 0.286362 0.239828
1.000022 0.322389 0.265400
-0.004366 0.605083 0.295244
0.083935 0.608267 0.279510
0.333020 0.614472 0.229757
0.628495 0.607488 0.219575
0.830295 0.585218 0.208632
1.000022 0.556253 0.265396
-0.005792 0.853473 0.296226
0.077716 0.855878 0.274639
0.280847 0.865750 0.191444
0.594972 0.861799 0.186616
0.815130 0.856212 0.179907
1.000022 0.789603 0.265427
-0.006767 1.000019 0.273674
0.152114 1.000019 0.264619
0.379137 1.000019 0.265424
0.585964 1.000019 0.265423
0.768522 1.000019 0.265421
1.000022 1.000019 0.265419
-0.001653 -0.001653 0.510326
0.198837 -0.001791 0.510326
0.415742 -0.002258 0.510326
0.626559 -0.002929 0.510326
0.813231 -0.003701 0.512380
1.000022 -0.004227 0.466402
-0.002067 0.122735 0.510326
0.132266 0.045237 0.553593
0.416429 0.027002 0.543940
0.641304 0.007578 0.529299
0.824832 0.000000 0.515224
1.000022 0.068689 0.460962
-0.003163 0.362577 0.510325
0.099024 0.351557 0.527650
0.375012 0.317853 0.540581
0.644733 0.304127 0.533798
0.840454 0.281410 0.510184
1.000022 0.322388 0.461435
-0.004475 0.605083 0.510324
0.083134 0.607519 0.512862
0.328197 0.612099 0.517540
0.626557 0.605082 0.510323
0.829584 0.595228 0.500180
1.000022 0.605081 0.510321
-0.005866 0.853473 0.512376
0.077572 0.855669 0.503468
0.278479 0.864307 0.474482
0.598424 0.862298 0.475950
0.814879 0.855865 0.465127
1.000022 0.809556 0.510319
-0.006818 1.000019 0.466397
0.152113 1.000019 0.460957
0.379136 1.000019 0.461431
0.626554 1.000019 0.510318
0.782762 1.000019 0.510317
1.000022 1.000019 0.510316
-0.002210 -0.002210 0.812818
0.199374 -0.002305 0.812818
0.416916 -0.002659 0.812817
0.628179 -0.003225 0.812817
0.813231 -0.003915 0.812816
1.000022 -0.004382 0.728900
-0.002509 0.123376 0.812818
0.116032 0.025917 0.878754
0.408495 0.014941 0.864803
0.635060 0.001906 0.847167
0.823098 0.000000 0.833034
1.000022 0.068687 0.725985
-0.003433 0.363795 0.812816
0.094688 0.346566 0.845097
0.368436 0.310639 0.882254
0.632228 0.296681 0.876474
0.839044 0.273125 0.866801
1.000022 0.322388 0.726158
-0.004653 0.607096 0.812814
0.082184 0.603232 0.824563
0.324050 0.596194 0.861465
0.623780 0.601690 0.853292
0.828094 0.591830 0.843643
1.000022 0.605081 0.752636
-0.005982 0.853473 0.812810
0.077346 0.855222 0.815209
0.274873 0.862271 0.825060
0.595457 0.860062 0.821913
0.813228 0.853471 0.812808
1.000022 0.853470 0.812807
-0.006898 1.000019 0.728891
0.152112 1.000019 0.725975
0.379135 1.000019 0.726150
0.626554 1.000019 0.752631
0.813226 1.000019 0.812805
1.000022 1.000019 0.812804
-0.002591 -0.002591 1.000013
0.186359 -0.002656 1.000013
0.389525 -0.002914 1.000013
0.590270 -0.003358 1.000013
0.770021 -0.003933 1.000013
1.000022 -0.004589 1.000013
-0.002803 0.108478 1.000013
0.152121 0.068706 1.000013
0.378161 0.068704 1.000013
0.585551 0.068701 1.000013
0.768537 0.068692 1.000013
1.000022 0.068689 1.000013
-0.003528 0.333726 1.000013
0.152117 0.321281 1.000013
0.379164 0.322393 1.000013
0.585968 0.322391 1.000013
0.768526 0.322389 1.000013
1.000022 0.322387 1.000013
-0.004571 0.561342 1.000013
0.152121 0.555718 1.000013
0.379158 0.556254 1.000013
0.626557 0.605082 1.000013
0.782765 0.605081 1.000013
1.000022 0.605080 1.000013
-0.005757 0.791636 1.000013
0.152116 0.789465 1.000013
0.379148 0.789604 1.000013
0.626555 0.809557 1.000013
0.813228 0.853471 1.000013
1.000022 0.853470 1.000013
-0.007011 1.000019 1.000013
0.152110 1.000019 1.000013
0.379134 1.000019 1.000013
0.626553 1.000019 1.000013
0.813226 1.000019 1.000013
1.000022 1.000019 1.000013
