src/luts/fairytale/7.cube
LUT_3D_SIZE 16
0.000000 0.000000 0.000000
0.046660 -0.000207 -0.000207
0.095444 -0.000422 -0.000422
0.152147 -0.000668 -0.000668
0.219264 -0.000948 -0.000948
0.295990 -0.001257 -0.001257
0.379171 -0.001584 -0.001584
0.464684 -0.001923 -0.001923
0.548445 -0.002263 -0.002263
0.626559 -0.002593 -0.002593
0.697228 -0.002907 -0.002907
0.759778 -0.003200 -0.003200
0.813231 -0.003467 -0.003467
0.858495 -0.003704 -0.003704
0.896011 -0.003909 -0.003909
1.000022 -0.004063 -0.004063
-0.000343 0.000000 -0.000343
0.046659 0.000000 -0.000382
0.095444 0.000000 -0.000519
0.152147 0.000000 -0.000731
0.219264 0.000000 -0.000995
0.295990 0.000000 -0.001293
0.379171 0.000000 -0.001614
0.464684 0.000000 -0.001948
0.548445 0.000000 -0.002284
0.626559 0.000000 -0.002612
0.697228 0.000000 -0.002923
0.759778 0.000000 -0.003214
0.813231 0.000000 -0.003479
0.858495 0.000000 -0.003715
0.896011 0.000000 -0.003919
1.000022 0.000000 -0.004071
-0.000700 0.001244 -0.000700
0.047663 0.001244 -0.000716
0.095443 0.001244 -0.000780
0.152147 0.007574 -0.000940
0.219264 0.015431 -0.001165
0.295990 0.023254 -0.001434
0.379170 0.030248 -0.001734
0.464684 0.036105 -0.002051
0.548445 0.040579 -0.002373
0.626559 0.043435 -0.002689
0.697228 0.044859 -0.002991
0.759777 0.044973 -0.003274
0.813231 0.043868 -0.003532
0.858495 0.041672 -0.003762
0.896011 0.038564 -0.003960
1.000022 0.033951 -0.004108
-0.001108 0.068708 -0.001108
0.050278 0.068708 -0.001117
0.100718 0.068708 -0.001158
0.152147 0.068708 -0.001234
0.219263 0.080551 -0.001431
0.295989 0.092307 -0.001673
0.379170 0.102862 -0.001946
0.464684 0.111691 -0.002239
0.548445 0.118426 -0.002540
0.626559 0.122731 -0.002837
0.697228 0.124876 -0.003122
0.759777 0.125039 -0.003391
0.813231 0.123366 -0.003635
0.858495 0.120064 -0.003854
0.896011 0.115380 -0.004042
1.000022 0.108467 -0.004180
-0.001572 0.145911 -0.001572
0.053517 0.145911 -0.001579
0.107286 0.145911 -0.001609
0.162281 0.145911 -0.001666
0.219263 0.145911 -0.001752
0.295989 0.161668 -0.001978
0.379169 0.175765 -0.002230
0.464684 0.187562 -0.002501
0.548445 0.196584 -0.002779
0.626559 0.202381 -0.003054
0.697228 0.205248 -0.003318
0.759777 0.205453 -0.003566
0.813231 0.203248 -0.003793
0.858495 0.198831 -0.003995
0.896011 0.192575 -0.004168
1.000022 0.183244 -0.004292
-0.002083 0.231243 -0.002083
0.056729 0.231243 -0.002089
0.113807 0.231243 -0.002112
0.172358 0.231243 -0.002157
0.233256 0.231242 -0.002227
0.295989 0.231242 -0.002322
0.379168 0.248945 -0.002563
0.464683 0.263755 -0.002817
0.548444 0.275082 -0.003076
0.626558 0.282338 -0.003329
0.697228 0.285959 -0.003570
0.759777 0.286276 -0.003796
0.813231 0.283439 -0.004002
0.858495 0.277868 -0.004184
0.896011 0.269997 -0.004339
1.000022 0.258351 -0.004445
-0.002627 0.322396 -0.002627
0.059602 0.322396 -0.002631
0.119663 0.322395 -0.002650
0.181469 0.322395 -0.002687
0.245865 0.322395 -0.002746
0.312104 0.322395 -0.002826
0.379167 0.322395 -0.002927
0.464683 0.340206 -0.003172
0.548443 0.353858 -0.003416
0.626558 0.362575 -0.003650
0.697271 0.366904 -0.003870
0.759777 0.367235 -0.004074
0.813231 0.363793 -0.004257
0.858495 0.357183 -0.004417
0.896011 0.347726 -0.004551
1.000022 0.333722 -0.004636
-0.003188 0.416915 -0.003188
0.062003 0.416915 -0.003192
0.124582 0.416915 -0.003208
0.189191 0.416915 -0.003239
0.256457 0.416915 -0.003289
0.325626 0.416915 -0.003358
0.395422 0.416914 -0.003446
0.464682 0.416914 -0.003553
0.548442 0.432841 -0.003788
0.626558 0.443062 -0.004006
0.697271 0.448138 -0.004208
0.759776 0.448523 -0.004391
0.813231 0.444541 -0.004552
0.858494 0.436825 -0.004689
0.896010 0.425750 -0.004801
1.000022 0.409222 -0.004864
-0.003752 0.512187 -0.003752
0.063828 0.512187 -0.003755
0.128336 0.512187 -0.003768
0.195016 0.512187 -0.003795
0.264601 0.512187 -0.003839
0.335942 0.512187 -0.003898
0.407827 0.512187 -0.003975
0.478906 0.512186 -0.004070
0.548442 0.512186 -0.004182
0.626558 0.523991 -0.004389
0.697270 0.529763 -0.004575
0.759776 0.530226 -0.004740
0.813230 0.525672 -0.004879
0.858494 0.516791 -0.004995
0.896010 0.504028 -0.005084
1.000022 0.485126 -0.005123
-0.004299 0.605083 -0.004299
0.065006 0.605083 -0.004301
0.130746 0.605083 -0.004313
0.198820 0.605083 -0.004337
0.269825 0.605083 -0.004374
0.342566 0.605083 -0.004426
0.415737 0.605083 -0.004494
0.487960 0.605083 -0.004577
0.558485 0.605083 -0.004676
0.626557 0.605082 -0.004791
0.697270 0.611680 -0.004965
0.759775 0.612276 -0.005113
0.813230 0.607095 -0.005233
0.858494 0.596981 -0.005327
0.896010 0.582612 -0.005394
1.000022 0.561341 -0.005409
-0.004819 0.693904 -0.004819
0.065579 0.693904 -0.004822
0.131938 0.693904 -0.004832
0.200699 0.693904 -0.004852
0.272385 0.693903 -0.004885
0.345885 0.693903 -0.004931
0.419655 0.693903 -0.004990
0.492492 0.693903 -0.005063
0.563571 0.693903 -0.005152
0.631957 0.693902 -0.005255
0.697269 0.693902 -0.005371
0.759774 0.694582 -0.005505
0.813229 0.688720 -0.005608
0.858493 0.677554 -0.005682
0.896009 0.661494 -0.005727
1.000022 0.637742 -0.005718
-0.005305 0.777408 -0.005305
0.065615 0.777408 -0.005307
0.132020 0.777408 -0.005316
0.200853 0.777408 -0.005334
0.272587 0.777408 -0.005363
0.346158 0.777408 -0.005403
0.419948 0.777408 -0.005456
0.492815 0.777408 -0.005521
0.563857 0.777408 -0.005600
0.632404 0.777407 -0.005692
0.697831 0.777407 -0.005796
0.759773 0.777407 -0.005913
0.813229 0.771001 -0.006000
0.858493 0.758609 -0.006055
0.896009 0.740853 -0.006080
1.000022 0.714693 -0.006048
-0.005747 0.853473 -0.005747
0.065144 0.853473 -0.005748
0.131087 0.853473 -0.005757
0.199364 0.853473 -0.005772
0.270615 0.853473 -0.005797
0.343564 0.853473 -0.005833
0.416906 0.853473 -0.005879
0.489336 0.853473 -0.005937
0.560031 0.853473 -0.006007
0.628176 0.853472 -0.006089
0.693274 0.853472 -0.006183
0.755072 0.853472 -0.006288
0.813228 0.853472 -0.006405
0.858492 0.839842 -0.006443
0.896008 0.820427 -0.006448
1.000022 0.791635 -0.006393
-0.006141 0.921800 -0.006141
0.064236 0.921800 -0.006142
0.129250 0.921800 -0.006149
0.196484 0.921800 -0.006163
0.266616 0.921800 -0.006185
0.338509 0.921800 -0.006217
0.410831 0.921800 -0.006258
0.482409 0.921800 -0.006309
0.552383 0.921800 -0.006372
0.619907 0.921800 -0.006445
0.684617 0.921799 -0.006529
0.745879 0.921799 -0.006623
0.803876 0.921799 -0.006728
0.858491 0.921798 -0.006844
0.896007 0.900632 -0.006831
1.000022 0.869324 -0.006754
-0.006480 0.972150 -0.006480
0.062946 0.972150 -0.006482
0.126627 0.972150 -0.006488
0.192369 0.972150 -0.006501
0.260959 0.972149 -0.006520
0.331296 0.972149 -0.006548
0.402278 0.972149 -0.006585
0.472545 0.972149 -0.006631
0.541362 0.972149 -0.006686
0.608015 0.972149 -0.006751
0.671930 0.972149 -0.006826
0.732920 0.972149 -0.006911
0.790373 0.972148 -0.007005
0.844720 0.972148 -0.007109
0.896006 0.972148 -0.007223
1.000022 0.946317 -0.007125
-0.006735 1.000019 -0.006735
0.061033 1.000019 -0.006737
0.122752 1.000019 -0.006742
0.186331 1.000019 -0.006752
0.252575 1.000019 -0.006770
0.320683 1.000019 -0.006795
0.389491 1.000019 -0.006826
0.457832 1.000019 -0.006867
0.525009 1.000019 -0.006916
0.590266 1.000019 -0.006974
0.653083 1.000019 -0.007041
0.713110 1.000019 -0.007117
0.770017 1.000019 -0.007201
0.823934 1.000019 -0.007294
0.874602 1.000019 -0.007396
1.000022 1.000019 -0.007507
-0.000132 -0.000132 0.030495
0.046659 -0.000233 0.030494
0.095444 -0.000433 0.031156
0.152147 -0.000675 0.032891
0.219264 -0.000953 0.035042
0.295990 -0.001260 0.037174
0.379171 -0.001588 0.039094
0.464684 -0.001926 0.040695
0.548445 -0.002265 0.041921
0.626559 -0.002595 0.042705
0.697228 -0.002909 0.043096
0.759778 -0.003202 0.043125
0.813231 -0.003468 0.042817
0.858495 -0.003705 0.042218
0.896011 -0.003910 0.041360
1.000022 -0.004064 0.040089
-0.000357 0.000000 0.030494
0.046659 0.000000 0.030494
0.099270 0.000000 0.028515
0.158409 0.000000 0.023797
0.225156 0.000000 0.019727
0.300680 0.000000 0.017269
0.382783 0.000000 0.015998
0.467477 0.000000 0.015483
0.550612 0.000000 0.015439
0.628317 0.000000 0.015675
0.698665 0.000000 0.016092
0.760779 0.000000 0.016589
0.814185 0.000000 0.017114
0.859235 0.000000 0.017633
0.896829 0.000000 0.018116
1.000022 0.000000 0.030466
-0.000705 0.001244 0.031155
0.036701 0.002762 0.023914
0.095715 0.001637 0.022662
0.155081 0.005177 0.020283
0.222892 0.010191 0.018087
0.299412 0.015774 0.016572
0.382067 0.021201 0.015730
0.467079 0.025965 0.015430
0.550375 0.029699 0.015481
0.628138 0.032161 0.015763
0.698558 0.033372 0.016197
0.760776 0.033478 0.016702
0.814123 0.032516 0.017229
0.859219 0.030591 0.017739
0.896799 0.027871 0.018216
1.000022 0.028236 0.030466
-0.001111 0.068708 0.032889
0.028332 0.069957 0.018410
0.096980 0.069585 0.018081
0.152364 0.068971 0.017539
0.220797 0.079270 0.016556
0.297944 0.089636 0.015845
0.381155 0.099038 0.015482
0.466467 0.107052 0.015425
0.549923 0.113202 0.015608
0.627909 0.117109 0.015964
0.698394 0.119020 0.016419
0.760633 0.119109 0.016928
0.814059 0.117442 0.017451
0.859213 0.114267 0.017959
0.896798 0.109752 0.018416
1.000022 0.105290 0.030463
-0.001574 0.145911 0.035041
0.024737 0.146798 0.016060
0.101227 0.146681 0.015982
0.160370 0.146422 0.015847
0.219423 0.146103 0.015684
0.296808 0.160847 0.015457
0.380228 0.174108 0.015425
0.465857 0.185223 0.015578
0.549522 0.193740 0.015885
0.627600 0.199181 0.016299
0.698161 0.201790 0.016788
0.760523 0.201877 0.017305
0.813846 0.199584 0.017814
0.859105 0.195224 0.018298
0.896700 0.189016 0.018735
1.000022 0.181199 0.030459
-0.002085 0.231243 0.037175
0.023752 0.231829 0.015419
0.106389 0.231801 0.015415
0.169193 0.231668 0.015414
0.232072 0.231533 0.015425
0.296115 0.231410 0.015460
0.379617 0.248369 0.015636
0.465341 0.262608 0.015943
0.549168 0.273471 0.016339
0.627355 0.280410 0.016811
0.697920 0.283814 0.017312
0.760391 0.283948 0.017825
0.813817 0.281043 0.018316
0.858945 0.275489 0.018776
0.896612 0.267618 0.019179
1.000022 0.256888 0.030453
-0.002628 0.322396 0.039087
0.024196 0.322774 0.015702
0.111392 0.322795 0.015725
0.177476 0.322706 0.015770
0.243847 0.322675 0.015846
0.311316 0.322547 0.015960
0.379279 0.322428 0.016111
0.464956 0.339807 0.016520
0.548824 0.352958 0.016989
0.627076 0.361425 0.017487
0.697827 0.365542 0.017999
0.760268 0.365767 0.018496
0.813697 0.362238 0.018963
0.858880 0.355490 0.019386
0.896433 0.346038 0.019746
1.000022 0.332620 0.030453
-0.003189 0.416915 0.040688
0.025495 0.417229 0.016558
0.115771 0.417196 0.016588
0.184617 0.417192 0.016647
0.253901 0.417196 0.016742
0.324266 0.417097 0.016877
0.394887 0.417008 0.017059
0.464718 0.416951 0.017289
0.548621 0.432524 0.017812
0.626888 0.442436 0.018332
0.697616 0.447332 0.018842
0.760060 0.447590 0.019318
0.813574 0.443476 0.019746
0.858790 0.435620 0.020127
0.896425 0.424515 0.020437
1.000022 0.408405 0.030450
-0.003753 0.512187 0.041909
0.027301 0.512405 0.017736
0.119253 0.512392 0.017767
0.190200 0.512412 0.017830
0.261669 0.512406 0.017933
0.334172 0.512400 0.018075
0.406813 0.512338 0.018262
0.478538 0.512257 0.018495
0.548452 0.512262 0.018781
0.626768 0.523695 0.019318
0.697433 0.529290 0.019812
0.759934 0.529620 0.020268
0.813506 0.524930 0.020664
0.858741 0.515900 0.020989
0.896302 0.503145 0.021253
1.000022 0.484509 0.030441
-0.004300 0.605083 0.042691
0.029359 0.605325 0.019085
0.121596 0.605320 0.019115
0.193849 0.605310 0.019178
0.266721 0.605358 0.019278
0.340603 0.605312 0.019419
0.414500 0.605286 0.019598
0.487309 0.605256 0.019822
0.558243 0.605251 0.020103
0.626588 0.605120 0.020419
0.697305 0.611484 0.020909
0.759845 0.611871 0.021342
0.813425 0.606612 0.021687
0.858590 0.596449 0.021971
0.896269 0.582023 0.022166
1.000022 0.560847 0.030434
-0.004820 0.693904 0.043074
0.031515 0.694131 0.020504
0.122925 0.694121 0.020533
0.195731 0.694017 0.020591
0.269227 0.694117 0.020685
0.343790 0.693990 0.020816
0.418239 0.693937 0.020982
0.491589 0.693933 0.021199
0.563070 0.693873 0.021459
0.631760 0.693950 0.021760
0.697266 0.693937 0.022107
0.759766 0.694517 0.022505
0.813315 0.688493 0.022810
0.858530 0.677316 0.023040
0.896254 0.661061 0.023177
1.000022 0.637371 0.030426
-0.005306 0.777408 0.043100
0.033661 0.777463 0.021914
0.123308 0.777460 0.021941
0.195950 0.777453 0.021996
0.269470 0.777443 0.022080
0.344016 0.777429 0.022198
0.418520 0.777412 0.022356
0.491886 0.777391 0.022554
0.563251 0.777368 0.022791
0.632065 0.777344 0.023075
0.697628 0.777417 0.023397
0.759776 0.777409 0.023763
0.813268 0.770937 0.024030
0.858553 0.758292 0.024201
0.896141 0.740581 0.024278
1.000022 0.714196 0.030415
-0.005748 0.853473 0.042783
0.035686 0.853665 0.023246
0.122798 0.853662 0.023269
0.194715 0.853656 0.023319
0.267522 0.853648 0.023397
0.341459 0.853636 0.023508
0.415383 0.853621 0.023652
0.488253 0.853604 0.023835
0.559294 0.853585 0.024057
0.627783 0.853564 0.024310
0.693117 0.853542 0.024606
0.755031 0.853520 0.024942
0.813245 0.853499 0.025316
0.858489 0.839775 0.025434
0.896109 0.820143 0.025449
1.000022 0.791460 0.030404
-0.006141 0.921800 0.042177
0.037555 0.921872 0.024474
0.121518 0.921870 0.024497
0.192128 0.921865 0.024541
0.263702 0.921858 0.024613
0.336451 0.921848 0.024711
0.409369 0.921836 0.024841
0.481361 0.921821 0.025005
0.551623 0.921804 0.025205
0.619398 0.921894 0.025442
0.684308 0.921876 0.025704
0.745864 0.921856 0.026014
0.803869 0.921838 0.026355
0.858504 0.921821 0.026728
0.896051 0.900508 0.026687
1.000022 0.869212 0.030391
-0.006481 0.972150 0.041316
0.039198 0.972153 0.025556
0.119533 0.972152 0.025579
0.188355 0.972150 0.025618
0.258271 0.972146 0.025679
0.329396 0.972141 0.025768
0.400892 0.972135 0.025892
0.471562 0.972222 0.026039
0.540573 0.972214 0.026217
0.607524 0.972205 0.026429
0.671599 0.972195 0.026670
0.732694 0.972185 0.026947
0.790289 0.972175 0.027261
0.844698 0.972166 0.027599
0.896016 0.972158 0.027979
1.000022 0.946323 0.030373
-0.006736 1.000019 0.040041
0.046515 1.000019 0.030393
0.117949 1.000019 0.030392
0.183593 1.000019 0.030391
0.250737 1.000019 0.030395
0.319339 1.000019 0.030392
0.388476 1.000019 0.030391
0.457115 1.000019 0.030387
0.524439 1.000019 0.030384
0.589832 1.000019 0.030384
0.652744 1.000019 0.030380
0.712812 1.000019 0.030374
0.769779 1.000019 0.030375
0.823818 1.000019 0.030368
0.874605 1.000019 0.030367
1.000022 1.000019 0.030363
-0.000269 -0.000269 0.063134
0.047665 -0.000324 0.063134
0.095444 -0.000477 0.063134
0.152147 -0.000703 0.066712
0.219264 -0.000973 0.071153
0.295990 -0.001276 0.075576
0.379171 -0.001600 0.079563
0.464684 -0.001937 0.082904
0.548445 -0.002275 0.085462
0.626559 -0.002603 0.087099
0.697228 -0.002916 0.087932
0.759778 -0.003208 0.087990
0.813231 -0.003473 0.087353
0.858495 -0.003710 0.086091
0.896011 -0.003915 0.084310
1.000022 -0.004067 0.081674
-0.000418 0.000000 0.063134
0.045693 0.000000 0.066128
0.099017 0.000000 0.065558
0.157966 0.000000 0.066964
0.224843 0.000000 0.068951
0.300545 0.000000 0.071673
0.382704 0.000000 0.074559
0.467435 0.000000 0.077183
0.550645 0.000000 0.079285
0.628298 0.000000 0.080658
0.698641 0.000000 0.081343
0.760757 0.000000 0.081401
0.814176 0.000000 0.080840
0.859228 0.000000 0.079756
0.896821 0.000000 0.078202
1.000022 0.000000 0.078420
-0.000729 0.001244 0.063134
0.036003 0.002307 0.063749
0.095443 0.001244 0.063134
0.157188 0.000000 0.061374
0.229161 0.000000 0.057450
0.309460 0.000000 0.051190
0.392868 0.000000 0.045313
0.476957 0.000000 0.040785
0.558870 0.000000 0.037557
0.635310 0.000000 0.035364
0.704597 0.000000 0.033913
0.765895 0.000000 0.032970
0.818398 0.000000 0.032383
0.863135 0.000000 0.032024
0.901014 0.000000 0.031824
1.000022 0.001231 0.063128
-0.001125 0.068708 0.066711
0.028148 0.069836 0.064286
0.085773 0.070968 0.056615
0.152621 0.069278 0.054568
0.225137 0.073766 0.050448
0.304853 0.077897 0.045953
0.388957 0.081780 0.041908
0.474079 0.085291 0.038665
0.556871 0.088167 0.036258
0.633979 0.089813 0.034571
0.703664 0.090282 0.033426
0.765201 0.089529 0.032673
0.818040 0.087528 0.032198
0.862761 0.084493 0.031924
0.900598 0.080433 0.031764
1.000022 0.091965 0.063130
-0.001585 0.145911 0.071152
0.024696 0.146765 0.067083
0.070881 0.149076 0.046617
0.152417 0.148036 0.045540
0.219871 0.146604 0.044041
0.300095 0.157189 0.041157
0.385025 0.166696 0.038572
0.471051 0.174750 0.036442
0.554656 0.180831 0.034816
0.632378 0.184478 0.033648
0.702534 0.185867 0.032845
0.764414 0.185123 0.032315
0.817401 0.182421 0.031990
0.862269 0.177900 0.031799
0.900109 0.171819 0.031704
1.000022 0.172727 0.063128
-0.002093 0.231243 0.075574
0.023749 0.231826 0.070555
0.060314 0.234022 0.039565
0.154426 0.233525 0.039078
0.226880 0.232774 0.038381
0.296499 0.231811 0.037528
0.381839 0.245816 0.035896
0.468504 0.257558 0.034561
0.552666 0.266426 0.033535
0.630812 0.271813 0.032797
0.701308 0.274085 0.032300
0.763597 0.273421 0.031982
0.816719 0.269997 0.031792
0.861802 0.264196 0.031699
0.899627 0.256307 0.031665
1.000022 0.250900 0.063126
-0.002635 0.322396 0.079559
0.024210 0.322788 0.073944
0.054001 0.324640 0.035360
0.158024 0.324351 0.035146
0.234504 0.323946 0.034830
0.307766 0.323461 0.034438
0.379569 0.322815 0.033986
0.466478 0.337898 0.033176
0.550966 0.349344 0.032573
0.629448 0.356353 0.032159
0.700263 0.359469 0.031898
0.762547 0.358885 0.031748
0.815990 0.354875 0.031679
0.861239 0.347867 0.031664
0.899052 0.338266 0.031684
1.000022 0.328241 0.063122
-0.003195 0.416915 0.082901
0.025511 0.417218 0.076911
0.050552 0.418722 0.033071
0.161994 0.418590 0.032984
0.241720 0.418306 0.032846
0.317870 0.418039 0.032677
0.392370 0.417670 0.032483
0.464990 0.417244 0.032282
0.549668 0.431134 0.031971
0.628373 0.439783 0.031784
0.699308 0.443632 0.031687
0.761824 0.443118 0.031666
0.815383 0.438504 0.031685
0.860627 0.430261 0.031728
0.898518 0.418972 0.031784
1.000022 0.405109 0.063121
-0.003757 0.512187 0.085461
0.027313 0.512400 0.079278
0.048926 0.513699 0.031992
0.165394 0.513565 0.031962
0.247523 0.513536 0.031919
0.325814 0.513234 0.031860
0.402365 0.513046 0.031800
0.476732 0.512784 0.031740
0.548685 0.512488 0.031692
0.627462 0.522624 0.031667
0.698550 0.527288 0.031689
0.761123 0.526840 0.031756
0.814873 0.521627 0.031831
0.860190 0.512187 0.031914
0.898019 0.499138 0.031984
1.000022 0.481884 0.063123
-0.004304 0.605083 0.087104
0.029374 0.605323 0.080874
0.048435 0.606436 0.031667
0.167640 0.606387 0.031665
0.251219 0.606211 0.031665
0.330872 0.606130 0.031665
0.408536 0.606026 0.031671
0.484053 0.605768 0.031694
0.556977 0.605603 0.031730
0.626817 0.605390 0.031786
0.697886 0.610681 0.031894
0.760660 0.610280 0.032015
0.814323 0.604491 0.032123
0.859716 0.593841 0.032222
0.897579 0.579205 0.032291
1.000022 0.558852 0.063117
-0.004824 0.693904 0.087924
0.031528 0.694127 0.081780
0.048648 0.695127 0.031809
0.168710 0.695046 0.031820
0.252902 0.694951 0.031842
0.333128 0.694913 0.031870
0.411320 0.694684 0.031917
0.487283 0.694741 0.031976
0.560606 0.694608 0.032055
0.630821 0.694330 0.032156
0.697474 0.694157 0.032279
0.760306 0.693825 0.032438
0.813921 0.687381 0.032560
0.859321 0.675498 0.032661
0.897160 0.659112 0.032722
1.000022 0.635832 0.063110
-0.005309 0.777408 0.087988
0.033678 0.777462 0.082037
0.049259 0.778305 0.032210
0.168652 0.778257 0.032233
0.252652 0.778199 0.032261
0.332775 0.778127 0.032313
0.410908 0.778154 0.032375
0.486828 0.778027 0.032455
0.560077 0.777964 0.032554
0.630341 0.777920 0.032680
0.696850 0.777748 0.032824
0.759877 0.777577 0.033005
0.813678 0.770466 0.033140
0.859030 0.757352 0.033223
0.896838 0.739261 0.033257
1.000022 0.713170 0.063105
-0.005750 0.853473 0.087335
0.035704 0.853663 0.081696
0.050094 0.854385 0.032766
0.167432 0.854343 0.032788
0.250559 0.854276 0.032823
0.329913 0.854182 0.032874
0.407439 0.854202 0.032950
0.482694 0.854180 0.033038
0.555574 0.854173 0.033147
0.625381 0.853990 0.033281
0.691751 0.853934 0.033433
0.754418 0.853722 0.033619
0.813372 0.853722 0.033832
0.858793 0.839327 0.033898
0.896613 0.819512 0.033902
1.000022 0.790664 0.063103
-0.006143 0.921800 0.086083
0.037566 0.921871 0.080809
0.051006 0.922394 0.033372
0.165182 0.922399 0.033397
0.246830 0.922339 0.033433
0.324824 0.922418 0.033488
0.401128 0.922354 0.033563
0.475499 0.922332 0.033654
0.547470 0.922311 0.033764
0.616609 0.922204 0.033899
0.682538 0.922150 0.034051
0.744845 0.922108 0.034237
0.803444 0.921897 0.034442
0.858525 0.921852 0.034674
0.896384 0.900211 0.034644
1.000022 0.868644 0.063092
-0.006483 0.972150 0.084297
0.039206 0.972153 0.079472
0.051912 0.972657 0.033974
0.162070 0.972636 0.033996
0.241655 0.972603 0.034034
0.317854 0.972557 0.034087
0.392548 0.972494 0.034157
0.465441 0.972451 0.034245
0.536261 0.972410 0.034357
0.604396 0.972399 0.034484
0.669547 0.972451 0.034634
0.731431 0.972380 0.034803
0.789517 0.972263 0.035002
0.844372 0.972269 0.035226
0.896181 0.972229 0.035473
1.000022 0.946143 0.063087
-0.006737 1.000019 0.081658
0.046515 1.000019 0.078399
0.095371 1.000019 0.063093
0.172043 1.000019 0.063092
0.243125 1.000019 0.063092
0.313892 1.000019 0.063091
0.384471 1.000019 0.063090
0.454097 1.000019 0.063092
0.522161 1.000019 0.063091
0.588137 1.000019 0.063092
0.651477 1.000019 0.063090
0.712104 1.000019 0.063088
0.769165 1.000019 0.063092
0.823515 1.000019 0.063089
0.874408 1.000019 0.063089
1.000022 1.000019 0.063092
-0.000426 -0.000426 0.101738
0.050282 -0.000461 0.101738
0.100719 -0.000582 0.101738
0.152147 -0.000755 0.101738
0.219264 -0.001013 0.108663
0.295990 -0.001307 0.115607
0.379171 -0.001626 0.121873
0.464684 -0.001958 0.127153
0.548445 -0.002293 0.131209
0.626559 -0.002619 0.133822
0.697228 -0.002930 0.135094
0.759778 -0.003220 0.135205
0.813231 -0.003484 0.134189
0.858495 -0.003720 0.132201
0.896011 -0.003923 0.129373
1.000022 -0.004075 0.125234
-0.000533 0.000000 0.101738
0.043073 0.000000 0.107555
0.102794 0.000000 0.106988
0.157104 0.000000 0.105142
0.224298 0.000000 0.109745
0.300248 0.000000 0.114949
0.382537 0.000000 0.120074
0.467346 0.000000 0.124612
0.550585 0.000000 0.128196
0.628257 0.000000 0.130493
0.698597 0.000000 0.131599
0.760885 0.000000 0.131648
0.814183 0.000000 0.130626
0.859213 0.000000 0.128697
0.896807 0.000000 0.125967
1.000022 0.000000 0.123321
-0.000815 0.007574 0.101738
0.033810 0.006798 0.104915
0.094560 0.000204 0.105778
0.156723 0.000000 0.104867
0.228891 0.000000 0.107811
0.308933 0.000000 0.109656
0.392387 0.000000 0.111055
0.476598 0.000000 0.112493
0.558742 0.000000 0.113755
0.635170 0.000000 0.114513
0.704426 0.000000 0.114630
0.765844 0.000000 0.114116
0.818411 0.000000 0.112886
0.863055 0.000000 0.111041
0.900927 0.000000 0.108633
1.000022 0.001231 0.115391
-0.001153 0.068708 0.101737
0.027806 0.069572 0.102233
0.084698 0.070402 0.102714
0.152146 0.068708 0.101737
0.225656 0.065439 0.099828
0.307871 0.059720 0.096506
0.396754 0.049619 0.090666
0.485367 0.037091 0.083475
0.569319 0.025317 0.076754
0.646059 0.015526 0.071203
0.714704 0.007787 0.066837
0.775187 0.001919 0.063477
0.826914 0.000000 0.060940
0.870745 0.000000 0.059029
0.911222 0.000000 0.057607
1.000022 0.068691 0.101719
-0.001605 0.145911 0.108663
0.024614 0.146683 0.107476
0.070318 0.148732 0.102320
0.142412 0.148604 0.095077
0.219875 0.146619 0.092764
0.303748 0.150500 0.088085
0.391991 0.152859 0.082520
0.480252 0.153998 0.076912
0.564724 0.154165 0.071865
0.642312 0.153246 0.067645
0.711905 0.151355 0.064255
0.772938 0.148464 0.061584
0.825298 0.144585 0.059536
0.869498 0.139671 0.057964
0.909599 0.133939 0.056789
1.000022 0.158951 0.101718
-0.002109 0.231243 0.115605
0.023746 0.231797 0.113457
0.060059 0.233899 0.103459
0.124816 0.235891 0.083062
0.217378 0.234387 0.081234
0.296967 0.232324 0.078906
0.385851 0.240975 0.074673
0.474579 0.247815 0.070616
0.559897 0.252522 0.066995
0.638409 0.254622 0.063954
0.708753 0.254364 0.061475
0.770600 0.251984 0.059482
0.823432 0.247490 0.057920
0.867988 0.241167 0.056720
0.907729 0.233208 0.055804
1.000022 0.241467 0.101717
-0.002648 0.322396 0.121870
0.024234 0.322793 0.119135
0.053890 0.324505 0.105833
0.108880 0.327368 0.072233
0.215329 0.326378 0.071162
0.300691 0.324987 0.069776
0.380149 0.323466 0.068154
0.469561 0.334459 0.065256
0.555557 0.342410 0.062715
0.634785 0.346627 0.060575
