src/luts/fairytale/8.cube
LUT_3D_SIZE 6
0.000000 0.005662 0.044344
0.080421 0.005662 0.037793
0.266631 0.005662 0.024705
0.514530 0.005662 0.024705
0.724626 0.005662 0.024705
0.951320 0.005662 0.024705
0.000022 0.081662 0.044232
0.079607 0.079470 0.024705
0.264415 0.109722 0.024705
0.512080 0.121961 0.024705
0.722557 0.109596 0.024705
0.950257 0.048774 0.024705
0.000000 0.342982 0.042501
0.098786 0.341001 0.024705
0.253158 0.329100 0.024705
0.502203 0.365672 0.024705
0.714658 0.365681 0.024705
0.943999 0.331734 0.024705
0.000000 0.626399 0.032925
0.112834 0.625440 0.024705
0.289456 0.619283 0.024705
0.489079 0.603641 0.024705
0.699006 0.598526 0.024705
0.933782 0.555234 0.024705
0.000000 0.871037 0.024705
0.113433 0.870522 0.024705
0.294103 0.866940 0.024705
0.495268 0.857282 0.024705
0.689407 0.841929 0.024705
0.917164 0.771932 0.024705
0.000000 1.000026 0.024705
0.103517 1.000026 0.024705
0.270578 0.998554 0.024705
0.460350 0.993681 0.024705
0.645562 0.984635 0.024705
0.906224 0.966129 0.024705
0.000000 0.005662 0.235142
0.073458 0.005662 0.228535
0.266149 0.005662 0.270194
0.513948 0.005662 0.285734
0.724064 0.005662 0.280839
0.950747 0.005662 0.256615
0.000000 0.069996 0.227654
0.070614 0.069909 0.224912
0.281704 0.051450 0.215051
0.535495 0.005662 0.171189
0.740212 0.005662 0.135110
0.950907 0.005662 0.211064
0.001541 0.351239 0.274868
0.050965 0.349407 0.185859
0.253550 0.329748 0.137844
0.512166 0.350328 0.108298
0.725268 0.342413 0.076052
0.944137 0.319292 0.194498
0.000432 0.629274 0.291919
0.035398 0.630174 0.154269
0.273003 0.622938 0.123175
0.489778 0.604339 0.024705
0.703519 0.592425 0.024705
0.933903 0.549908 0.144360
0.000201 0.872688 0.292177
0.030755 0.873594 0.145190
0.271039 0.869857 0.127170
0.487925 0.859357 0.024705
0.689850 0.842564 0.024705
0.917322 0.769896 0.024705
0.000102 1.000830 0.277026
0.079777 1.000189 0.236665
0.261741 0.999014 0.230948
0.456595 0.994137 0.200536
0.644533 0.984952 0.024705
0.906224 0.966085 0.024705
0.000000 0.005662 0.475953
0.089048 0.005662 0.466860
0.252014 0.005662 0.464618
0.513775 0.005662 0.516321
0.723674 0.005662 0.515369
0.950130 0.005662 0.483224
0.000000 0.091887 0.460352
0.056785 0.047209 0.478911
0.261550 0.033139 0.475324
0.533075 0.005662 0.509656
0.738381 0.005662 0.496823
0.950163 0.005662 0.471390
0.000000 0.332188 0.475654
0.000000 0.334923 0.477980
0.230238 0.304745 0.442571
0.531365 0.322197 0.461419
0.750818 0.292162 0.435197
0.944735 0.323936 0.464512
0.005302 0.646760 0.528674
0.004439 0.647277 0.507108
0.227319 0.641766 0.436853
0.490658 0.605515 0.377294
0.720542 0.578232 0.357503
0.934811 0.552713 0.447242
0.002243 0.881197 0.522056
0.001748 0.881686 0.494917
0.181796 0.884919 0.380525
0.465859 0.869738 0.349793
0.691078 0.844286 0.264886
0.916323 0.769460 0.409804
0.001190 1.005982 0.493229
0.072431 1.005341 0.481809
0.268256 1.002491 0.481993
0.463713 0.997200 0.471958
0.648007 0.986743 0.440940
0.904655 0.964799 0.371479
0.000000 0.005662 0.726727
0.096721 0.005662 0.717816
0.273137 0.005662 0.705170
0.496198 0.005662 0.715344
0.723647 0.005662 0.734292
0.949945 0.005662 0.692148
0.000000 0.102701 0.708276
0.046931 0.005662 0.754193
0.270679 0.005662 0.730004
0.511429 0.005662 0.730387
0.736901 0.005662 0.736547
0.949945 0.005662 0.687197
0.000000 0.332028 0.692061
0.000000 0.318505 0.704038
0.188191 0.258395 0.684441
0.487437 0.278510 0.706856
0.754312 0.299849 0.731555
0.947062 0.331977 0.683760
0.005231 0.648711 0.760795
0.005296 0.651277 0.763077
0.168534 0.652989 0.764281
0.473106 0.588221 0.697832
0.734937 0.607731 0.715668
0.939086 0.610008 0.717321
0.009886 0.903404 0.754950
0.009426 0.904324 0.746070
0.101439 0.908356 0.717217
0.491085 0.892309 0.712225
0.695998 0.848177 0.658377
0.917336 0.791430 0.689478
0.005432 1.020167 0.703314
0.005147 1.019317 0.698074
0.255630 1.017097 0.698944
0.519836 1.009052 0.739411
0.678375 0.994438 0.721845
0.903285 0.963644 0.667167
0.000000 0.005662 0.936145
0.091953 0.005662 0.928518
0.269809 0.005662 0.915936
0.477827 0.005662 0.908832
0.702349 0.005662 0.924859
0.950019 0.005662 0.892789
0.000000 0.095647 0.919721
0.030895 0.005662 0.964445
0.261794 0.005662 0.944665
0.483680 0.005662 0.927321
0.713249 0.005662 0.935693
0.949945 0.076136 0.890760
0.000000 0.318032 0.892366
0.000000 0.300639 0.911807
0.179455 0.247679 0.915133
0.432309 0.228561 0.898684
0.709867 0.251266 0.935771
0.949945 0.341473 0.890502
0.000000 0.581256 0.913494
0.000000 0.574380 0.917783
0.115412 0.546637 0.918746
0.377479 0.491263 0.846829
0.646009 0.522722 0.875095
0.948547 0.623448 0.905984
0.016137 0.917565 0.979145
0.016202 0.919453 0.980172
0.016337 0.926050 0.983557
0.476119 0.923509 0.982252
0.714818 0.870615 0.944820
0.941658 0.861385 0.934442
0.014873 1.044410 0.923641
0.014693 1.043947 0.921388
0.158894 1.043646 0.921666
0.516401 1.041471 0.937413
0.746558 1.033453 0.964466
0.923997 0.980800 0.915431
0.000000 0.005662 0.998742
0.079252 0.005662 0.996535
0.243769 0.005662 0.991675
0.433522 0.005662 0.985800
0.634916 0.005662 0.987339
0.945404 0.005662 0.999491
0.000000 0.075907 0.993695
0.049195 0.015856 0.995049
0.226697 0.012800 0.988474
0.418140 0.021357 0.979937
0.624267 0.032582 0.982768
0.944519 0.075377 0.999370
0.000000 0.285876 0.977664
0.011423 0.269597 0.975267
0.185581 0.256157 0.963482
0.375431 0.245310 0.950443
0.587972 0.260448 0.959620
0.940591 0.333773 0.998562
0.000000 0.509572 0.975988
0.000000 0.502605 0.974919
0.161336 0.482809 0.959698
0.376558 0.490873 0.920399
0.542173 0.484882 0.907637
0.937015 0.613777 0.997583
0.000000 0.798151 1.002320
0.000000 0.794258 1.000602
0.150989 0.784628 0.998414
0.435859 0.775501 0.985694
0.605112 0.762961 0.943556
0.936352 0.857978 0.997430
0.021379 1.058099 1.058100
0.021375 1.058008 1.058009
0.021357 1.057341 1.057343
0.501855 1.061712 1.061714
0.757687 1.061687 1.061689
0.949994 1.000018 1.000021
