src/luts/fairytale/8.cube
LUT_3D_SIZE 16
0.000000 0.005662 0.044344
0.015947 0.005662 0.044097
0.042368 0.005662 0.042600
0.080421 0.005662 0.037793
0.130751 0.005662 0.024705
0.193363 0.005662 0.024705
0.266631 0.005662 0.024705
0.347358 0.005662 0.024705
0.431706 0.005662 0.024705
0.514530 0.005662 0.024705
0.592525 0.005662 0.024705
0.663254 0.005662 0.024705
0.724626 0.005662 0.024705
0.776457 0.005662 0.024705
0.818453 0.005662 0.024705
0.951320 0.005662 0.024705
0.000000 0.005662 0.044343
0.015947 0.005662 0.044096
0.042368 0.005662 0.042600
0.080421 0.005662 0.037791
0.130751 0.005662 0.024705
0.193363 0.005662 0.024705
0.266631 0.005662 0.024705
0.347358 0.005662 0.024705
0.431706 0.005662 0.024705
0.514530 0.005662 0.024705
0.592525 0.005662 0.024705
0.663254 0.005662 0.024705
0.724626 0.005662 0.024705
0.776457 0.005662 0.024705
0.818452 0.005662 0.024705
0.951320 0.005662 0.024705
0.000000 0.008814 0.044314
0.016414 0.005662 0.044073
0.042368 0.005662 0.042594
0.080422 0.005662 0.037699
0.130746 0.005662 0.024705
0.193357 0.005662 0.024705
0.266614 0.005662 0.024705
0.347364 0.005662 0.024705
0.431682 0.005662 0.024705
0.514487 0.005662 0.024705
0.592613 0.005662 0.024705
0.663248 0.005662 0.024705
0.724685 0.005662 0.024705
0.776408 0.005662 0.024705
0.818377 0.005662 0.024705
0.951273 0.005662 0.024705
0.000022 0.081662 0.044232
0.017249 0.081470 0.041989
0.044713 0.080245 0.024705
0.079607 0.079470 0.024705
0.129504 0.090359 0.024705
0.191313 0.100516 0.024705
0.264415 0.109722 0.024705
0.344995 0.116628 0.024705
0.429316 0.120787 0.024705
0.512080 0.121961 0.024705
0.590116 0.120351 0.024705
0.660933 0.116248 0.024705
0.722557 0.109596 0.024705
0.774399 0.100561 0.024705
0.816611 0.088897 0.024705
0.950257 0.048774 0.024705
0.000000 0.162380 0.044013
0.018839 0.162154 0.042757
0.047901 0.161161 0.024705
0.083828 0.158715 0.024705
0.126296 0.156132 0.024705
0.188130 0.170395 0.024705
0.261621 0.184134 0.024705
0.342507 0.195147 0.024705
0.426905 0.202945 0.024705
0.509811 0.207194 0.024705
0.587957 0.208277 0.024705
0.658785 0.206501 0.024705
0.720317 0.202191 0.024705
0.772341 0.195492 0.024705
0.814474 0.186883 0.024705
0.948464 0.169516 0.024705
0.000000 0.250150 0.043474
0.020369 0.250023 0.042323
0.052318 0.249203 0.024705
0.091090 0.247259 0.024705
0.134370 0.243618 0.024705
0.183772 0.239264 0.024705
0.257071 0.255719 0.024705
0.338484 0.270188 0.024705
0.423403 0.281012 0.024705
0.506668 0.287574 0.024705
0.585032 0.290271 0.024705
0.656046 0.289487 0.024705
0.717739 0.285481 0.024705
0.769804 0.278706 0.024705
0.812089 0.269591 0.024705
0.946313 0.253416 0.024705
0.000000 0.342982 0.042501
0.021737 0.342910 0.041299
0.056392 0.342324 0.024705
0.098786 0.341001 0.024705
0.145662 0.338572 0.024705
0.196827 0.334398 0.024705
0.253158 0.329100 0.024705
0.333168 0.344180 0.024705
0.418352 0.357167 0.024705
0.502203 0.365672 0.024705
0.581109 0.369730 0.024705
0.652371 0.369604 0.024705
0.714658 0.365681 0.024705
0.767015 0.358461 0.024705
0.809400 0.348477 0.024705
0.943999 0.331734 0.024705
0.000000 0.438450 0.040860
0.022830 0.438332 0.039458
0.059770 0.437903 0.024705
0.105067 0.436926 0.024705
0.155324 0.435095 0.024705
0.209696 0.432011 0.024705
0.267751 0.427295 0.024705
0.329971 0.421525 0.024705
0.412706 0.433509 0.024705
0.496474 0.442665 0.024705
0.575937 0.447633 0.024705
0.647874 0.448070 0.024705
0.710364 0.444152 0.024705
0.763137 0.436441 0.024705
0.806035 0.425390 0.024705
0.941279 0.407486 0.024705
0.000000 0.533881 0.038151
0.023589 0.533809 0.036218
0.062295 0.533509 0.024705
0.109802 0.532749 0.024705
0.162780 0.531259 0.024705
0.220066 0.528857 0.024705
0.280535 0.525145 0.024705
0.343861 0.520029 0.024705
0.410102 0.514051 0.024705
0.491056 0.521124 0.024705
0.569741 0.525398 0.024705
0.641990 0.525780 0.024705
0.705091 0.521582 0.024705
0.758543 0.513077 0.024705
0.801679 0.500919 0.024705
0.937796 0.481957 0.024705
0.000000 0.626399 0.032925
0.023967 0.626384 0.026144
0.063888 0.626067 0.024705
0.112834 0.625440 0.024705
0.167605 0.624230 0.024705
0.226953 0.622308 0.024705
0.289456 0.619283 0.024705
0.354182 0.615135 0.024705
0.420840 0.609723 0.024705
0.489079 0.603641 0.024705
0.564802 0.605161 0.024705
0.635881 0.603831 0.024705
0.699006 0.598526 0.024705
0.752795 0.589035 0.024705
0.796475 0.575536 0.024705
0.933782 0.555234 0.024705
0.000000 0.714337 0.024705
0.023991 0.714328 0.024705
0.064620 0.713847 0.024705
0.114366 0.713356 0.024705
0.170131 0.712424 0.024705
0.230755 0.710760 0.024705
0.294545 0.708500 0.024705
0.360365 0.704922 0.024705
0.427594 0.700464 0.024705
0.495407 0.694941 0.024705
0.563412 0.688964 0.024705
0.631636 0.684434 0.024705
0.693081 0.676438 0.024705
0.746465 0.665085 0.024705
0.790522 0.649737 0.024705
0.928614 0.627746 0.024705
0.000000 0.796431 0.024705
0.023706 0.796402 0.024705
0.064568 0.796186 0.024705
0.114535 0.795613 0.024705
0.170546 0.794825 0.024705
0.231628 0.793477 0.024705
0.295989 0.791393 0.024705
0.362494 0.788641 0.024705
0.429999 0.784868 0.024705
0.497610 0.780107 0.024705
0.564741 0.774772 0.024705
0.630800 0.768983 0.024705
0.689639 0.757797 0.024705
0.741275 0.742853 0.024705
0.784516 0.725062 0.024705
0.923002 0.699812 0.024705
0.000000 0.871037 0.024705
0.023113 0.871002 0.024705
0.063801 0.870729 0.024705
0.113433 0.870522 0.024705
0.169137 0.869731 0.024705
0.229878 0.868510 0.024705
0.294103 0.866940 0.024705
0.360459 0.864494 0.024705
0.427863 0.861253 0.024705
0.495268 0.857282 0.024705
0.561668 0.852503 0.024705
0.626741 0.847290 0.024705
0.689407 0.841929 0.024705
0.738694 0.823991 0.024705
0.779992 0.801970 0.024705
0.917164 0.771932 0.024705
0.000000 0.937211 0.024705
0.022272 0.937271 0.024705
0.062362 0.937029 0.024705
0.111221 0.936742 0.024705
0.166047 0.936153 0.024705
0.225844 0.935240 0.024705
0.289224 0.933633 0.024705
0.354982 0.931540 0.024705
0.421793 0.929035 0.024705
0.488483 0.925775 0.024705
0.554227 0.921822 0.024705
0.618488 0.917345 0.024705
0.680025 0.912489 0.024705
0.738702 0.907571 0.024705
0.778518 0.882691 0.024705
0.911539 0.845236 0.024705
0.000000 0.977496 0.024705
0.021309 0.977443 0.024705
0.060478 0.977427 0.024705
0.108098 0.977085 0.024705
0.161479 0.976480 0.024705
0.219830 0.975863 0.024705
0.281832 0.974722 0.024705
0.346177 0.973231 0.024705
0.411822 0.971094 0.024705
0.477547 0.968434 0.024705
0.542357 0.964956 0.024705
0.605785 0.961385 0.024705
0.666673 0.957168 0.024705
0.724559 0.952859 0.024705
0.778543 0.948464 0.024705
0.907425 0.918035 0.024705
0.000000 1.000026 0.024705
0.020064 1.000026 0.024705
0.057785 1.000026 0.024705
0.103517 1.000026 0.024705
0.154793 0.999769 0.024705
0.210895 0.999242 0.024705
0.270578 0.998554 0.024705
0.332783 0.997334 0.024705
0.396320 0.995697 0.024705
0.460350 0.993681 0.024705
0.523664 0.991159 0.024705
0.585689 0.988285 0.024705
0.645562 0.984635 0.024705
0.703151 0.980828 0.024705
0.756689 0.977002 0.024705
0.906224 0.966129 0.024705
0.000000 0.005662 0.106294
0.015286 0.005662 0.105085
0.042115 0.005667 0.107458
0.080191 0.005662 0.110616
0.130587 0.005662 0.113703
0.193182 0.005662 0.116054
0.266379 0.005662 0.117180
0.347135 0.005662 0.116608
0.431547 0.005662 0.114058
0.514377 0.005662 0.109293
0.592488 0.005662 0.102317
0.663125 0.005662 0.092851
0.724619 0.005662 0.080215
0.776301 0.005662 0.061576
0.818445 0.005662 0.024705
0.951318 0.005662 0.024705
0.000000 0.005662 0.106294
0.015286 0.005662 0.105084
0.044456 0.005662 0.102267
0.084824 0.005662 0.092230
0.135286 0.005662 0.081799
0.197269 0.005662 0.072436
0.269828 0.005662 0.061216
0.350069 0.005662 0.034664
0.433921 0.005662 0.024705
0.516421 0.005662 0.024705
0.594235 0.005662 0.024705
0.664626 0.005662 0.024705
0.725760 0.005662 0.024705
0.777427 0.005662 0.024705
0.819151 0.005662 0.024705
0.951319 0.005662 0.024705
0.000000 0.005662 0.107586
0.011022 0.009245 0.092338
0.042336 0.005662 0.090664
0.082444 0.005662 0.085088
0.133515 0.005662 0.078286
0.196182 0.005662 0.070747
0.269203 0.005662 0.060279
0.349698 0.005662 0.033214
0.433628 0.005662 0.024705
0.516262 0.005662 0.024705
0.594100 0.005662 0.024705
0.664603 0.005662 0.024705
0.725843 0.005662 0.024705
0.777369 0.005662 0.024705
0.819074 0.005662 0.024705
0.951317 0.005662 0.024705
0.000163 0.083581 0.113327
0.006707 0.083557 0.081971
0.042905 0.081998 0.079169
0.080143 0.080365 0.077195
0.131110 0.089519 0.071345
0.193109 0.097825 0.062785
0.266300 0.105648 0.049933
0.346967 0.111596 0.024705
0.431073 0.114986 0.024705
0.513769 0.115473 0.024705
0.591541 0.113299 0.024705
0.662403 0.108644 0.024705
0.723664 0.101536 0.024705
0.775274 0.091841 0.024705
0.817650 0.079149 0.024705
0.950541 0.035779 0.024705
0.000143 0.163645 0.115367
0.006757 0.163492 0.077594
0.044756 0.162494 0.074591
0.083129 0.160130 0.056546
0.127046 0.157059 0.044928
0.188955 0.169632 0.024705
0.262720 0.182492 0.024705
0.343844 0.192816 0.024705
0.428099 0.200063 0.024705
0.511070 0.203937 0.024705
0.589072 0.204704 0.024705
0.659839 0.202711 0.024705
0.721219 0.198221 0.024705
0.773022 0.191585 0.024705
0.815138 0.182919 0.024705
0.948527 0.167125 0.024705
0.000096 0.250961 0.119753
0.006290 0.250949 0.076127
0.047974 0.250038 0.073770
0.089079 0.247982 0.061456
0.133591 0.244066 0.024705
0.183878 0.239416 0.024705
0.257514 0.255158 0.024705
0.339285 0.269094 0.024705
0.424138 0.279526 0.024705
0.507565 0.285685 0.024705
0.585939 0.288085 0.024705
0.657025 0.287142 0.024705
0.718533 0.283037 0.024705
0.770369 0.276243 0.024705
0.812937 0.267131 0.024705
0.946383 0.251912 0.024705
0.000077 0.343506 0.123325
0.006195 0.343501 0.076453
0.051292 0.342946 0.074622
0.096066 0.341546 0.066443
0.144215 0.339023 0.024705
0.196271 0.334618 0.024705
0.253209 0.329117 0.024705
0.333419 0.343706 0.024705
0.418860 0.356321 0.024705
0.502890 0.364638 0.024705
0.581781 0.368438 0.024705
0.653440 0.368148 0.024705
0.715266 0.364122 0.024705
0.767384 0.356833 0.024705
0.809950 0.346793 0.024705
0.943990 0.330650 0.024705
0.000063 0.438812 0.126186
0.006320 0.438752 0.077867
0.054155 0.438367 0.076294
0.101878 0.437340 0.070205
0.153483 0.435477 0.038375
0.208701 0.432315 0.024705
0.267345 0.427508 0.024705
0.330007 0.421656 0.024705
0.412943 0.433181 0.024705
0.496854 0.442144 0.024705
0.576345 0.446871 0.024705
0.648414 0.447194 0.024705
0.710985 0.443191 0.024705
0.763488 0.435364 0.024705
0.806674 0.424155 0.024705
0.941268 0.406764 0.024705
0.000050 0.534178 0.128319
0.006556 0.534177 0.079872
0.056391 0.533798 0.078468
0.106340 0.533012 0.073604
0.160570 0.531586 0.054817
0.218671 0.529159 0.024705
0.279695 0.525363 0.024705
0.343509 0.520197 0.024705
0.410231 0.514079 0.024705
0.491262 0.520743 0.024705
0.570061 0.524866 0.024705
0.642542 0.525138 0.024705
0.705573 0.520849 0.024705
0.758670 0.512420 0.024705
0.802117 0.500139 0.024705
0.937788 0.481332 0.024705
0.000037 0.626598 0.129602
0.006842 0.626634 0.082176
0.057863 0.626406 0.080919
0.109229 0.625785 0.076873
0.165244 0.624603 0.063493
0.225375 0.622553 0.024705
0.288497 0.619596 0.024705
0.353617 0.615366 0.024705
0.420542 0.609931 0.024705
0.489123 0.603657 0.024705
0.564899 0.604965 0.024705
0.636106 0.603387 0.024705
0.699213 0.598040 0.024705
0.752909 0.588565 0.024705
0.796839 0.575020 0.024705
0.933787 0.554790 0.024705
0.000018 0.714407 0.130064
0.007165 0.714402 0.084601
0.058643 0.714303 0.083458
0.110742 0.713733 0.080034
0.167698 0.712585 0.069830
0.229008 0.711008 0.024705
0.293329 0.708547 0.024705
0.359672 0.705117 0.024705
0.427186 0.700502 0.024705
0.495218 0.695059 0.024705
0.563427 0.689061 0.024705
0.631666 0.684454 0.024705
0.693270 0.676368 0.024705
0.746601 0.664826 0.024705
0.790843 0.649423 0.024705
0.928722 0.627389 0.024705
0.000000 0.796700 0.129818
0.007490 0.796757 0.086997
0.058754 0.796436 0.085962
0.110976 0.795988 0.083020
0.168144 0.794995 0.074913
0.229848 0.793631 0.043605
0.294809 0.791613 0.024705
0.361686 0.788838 0.024705
0.429409 0.785107 0.024705
0.497285 0.780258 0.024705
0.564626 0.774861 0.024705
0.630813 0.768996 0.024705
0.689804 0.757704 0.024705
0.741434 0.742770 0.024705
0.784621 0.724558 0.024705
0.923108 0.699443 0.024705
0.000000 0.871232 0.128925
0.007797 0.871132 0.089234
0.058282 0.871070 0.088304
0.110027 0.870716 0.085748
0.166730 0.869892 0.079187
0.228106 0.868757 0.059711
0.292811 0.866970 0.024705
0.359596 0.864607 0.024705
0.427331 0.861383 0.024705
0.494832 0.857342 0.024705
0.561532 0.852688 0.024705
0.626615 0.847327 0.024705
0.689414 0.841993 0.024705
0.738766 0.824006 0.024705
0.780105 0.801843 0.024705
0.917146 0.771670 0.024705
0.000000 0.937265 0.127437
0.008087 0.937333 0.091306
0.057254 0.937338 0.090464
0.108025 0.936928 0.088264
0.163815 0.936508 0.082854
0.224164 0.935415 0.068792
0.288017 0.933902 0.024705
0.354099 0.931855 0.024705
0.421060 0.929415 0.024705
0.488083 0.926032 0.024705
0.554089 0.921859 0.024705
0.618299 0.917466 0.024705
0.680065 0.912533 0.024705
0.738650 0.907661 0.024705
0.778453 0.882677 0.024705
0.911560 0.845236 0.024705
0.000000 0.977668 0.125518
0.008524 0.977398 0.093259
0.055816 0.977477 0.092494
0.105179 0.977039 0.090533
0.159423 0.976613 0.085988
0.218301 0.975807 0.075042
0.280621 0.974770 0.024705
0.345310 0.973153 0.024705
0.411165 0.970981 0.024705
0.477108 0.968413 0.024705
0.542057 0.965042 0.024705
0.605664 0.961290 0.024705
0.666598 0.957236 0.024705
0.724400 0.952890 0.024705
0.778524 0.948508 0.024705
0.907408 0.918031 0.024705
0.000000 1.000026 0.122839
0.012399 1.000026 0.103170
0.054744 1.000026 0.102553
0.101617 1.000026 0.101021
0.153407 0.999801 0.097655
0.209878 0.999388 0.090393
0.269792 0.998598 0.073287
0.332189 0.997403 0.024705
0.395853 0.995773 0.024705
0.459929 0.993863 0.024705
0.523484 0.991209 0.024705
0.585514 0.988325 0.024705
0.645575 0.984627 0.024705
0.702951 0.980928 0.024705
0.756758 0.977050 0.024705
0.906216 0.966122 0.024705
0.000000 0.005662 0.167797
0.014887 0.005662 0.166266
0.039620 0.005662 0.164465
0.078954 0.005662 0.173314
0.130478 0.005662 0.182748
0.193041 0.005662 0.190026
0.266205 0.005662 0.195916
0.346966 0.005662 0.200212
0.431210 0.005662 0.202567
0.514127 0.005662 0.202993
0.592154 0.005662 0.201673
0.662934 0.005662 0.198772
0.724366 0.005662 0.194558
0.776098 0.005662 0.189244
0.818154 0.005662 0.183029
0.950986 0.005662 0.167462
0.000000 0.005662 0.167796
0.013908 0.005662 0.171742
0.041599 0.005662 0.168633
0.083565 0.005662 0.174308
0.134834 0.005662 0.178645
0.196926 0.005662 0.182764
0.269445 0.005662 0.186602
0.349759 0.005662 0.189506
0.433556 0.005662 0.190933
0.516036 0.005662 0.190618
0.593805 0.005662 0.188787
0.664306 0.005662 0.185578
0.725654 0.005662 0.181186
0.776995 0.005662 0.175846
0.818982 0.005662 0.169640
0.951011 0.005662 0.159587
0.000000 0.005662 0.167797
0.009865 0.005662 0.167853
0.039493 0.005662 0.164263
0.083640 0.005759 0.164856
0.138285 0.005662 0.157100
0.204600 0.005662 0.143663
0.278972 0.005662 0.129544
0.359218 0.005662 0.116114
0.442385 0.005662 0.102627
0.523933 0.005662 0.087626
0.600642 0.005662 0.067789
0.670426 0.005662 0.024705
0.730749 0.005662 0.024705
0.781662 0.005662 0.024705
0.823765 0.005662 0.024705
0.951143 0.005662 0.116550
0.000000 0.075679 0.170807
0.001930 0.077527 0.166990
0.033708 0.080116 0.152960
0.080414 0.082182 0.152278
0.134830 0.084908 0.143132
0.199534 0.086063 0.131437
0.273827 0.086953 0.120013
0.354847 0.087044 0.108680
0.438749 0.085353 0.096313
0.520924 0.081197 0.081673
0.598219 0.074282 0.060803
0.668544 0.063825 0.024705
0.729275 0.047262 0.024705
0.781197 0.005662 0.024705
0.823488 0.005662 0.024705
0.951147 0.005662 0.115441
0.001058 0.169224 0.189120
0.000928 0.169455 0.180407
0.026783 0.167084 0.137596
0.079075 0.163792 0.132598
0.129370 0.159927 0.125035
0.193697 0.168100 0.114935
0.267354 0.175200 0.103992
0.349270 0.182184 0.093438
0.433881 0.186751 0.080289
0.516675 0.188575 0.061681
0.594426 0.187863 0.024705
0.664922 0.184749 0.024705
0.725772 0.179495 0.024705
0.777112 0.172242 0.024705
0.819485 0.163177 0.024705
0.948569 0.156900 0.108099
0.000718 0.254824 0.192985
0.000576 0.254620 0.183472
0.022752 0.253726 0.124360
0.080123 0.251300 0.120011
0.131192 0.247267 0.104613
0.184871 0.240534 0.083218
0.259682 0.252581 0.070471
0.342618 0.264192 0.055932
0.428330 0.272659 0.024705
0.511863 0.277182 0.024705
0.590117 0.278404 0.024705
0.661137 0.276497 0.024705
0.722429 0.271807 0.024705
0.773916 0.264609 0.024705
0.816355 0.255307 0.024705
0.946407 0.245561 0.096346
0.000382 0.345668 0.199202
0.000278 0.345591 0.189010
0.019451 0.345622 0.115888
0.082875 0.343987 0.112538
0.137645 0.340909 0.100608
0.193498 0.335940 0.060464
0.253479 0.329486 0.024705
0.335040 0.341907 0.024705
0.421329 0.353007 0.024705
0.505868 0.359854 0.024705
0.585026 0.362501 0.024705
0.656510 0.361473 0.024705
0.718321 0.356824 0.024705
0.770422 0.349177 0.024705
0.813106 0.339016 0.024705
0.944083 0.326218 0.073839
0.000237 0.440192 0.205069
0.004067 0.440212 0.194312
0.017540 0.440496 0.111133
0.085950 0.439323 0.108435
0.144416 0.437218 0.099294
0.203687 0.433683 0.067703
0.265249 0.428519 0.024705
0.330225 0.421905 0.024705
0.414095 0.431787 0.024705
0.498730 0.439547 0.024705
0.578595 0.443445 0.024705
0.650821 0.442959 0.024705
0.713469 0.438372 0.024705
0.766044 0.430145 0.024705
0.809133 0.418740 0.024705
0.941418 0.403630 0.024705
0.000163 0.535195 0.209519
0.007534 0.535265 0.198419
0.016473 0.535523 0.108722
0.088530 0.534684 0.106398
0.149723 0.533200 0.099009
0.211962 0.530403 0.075021
0.275961 0.526485 0.024705
0.341986 0.520934 0.024705
0.410485 0.514308 0.024705
0.492106 0.519709 0.024705
0.571485 0.523015 0.024705
0.644146 0.522501 0.024705
0.707348 0.517722 0.024705
0.760635 0.508785 0.024705
0.804136 0.496339 0.024705
0.938107 0.478997 0.024705
0.000105 0.627389 0.212283
0.008785 0.627447 0.201076
0.015897 0.627783 0.107782
0.090181 0.627155 0.105696
0.153167 0.625806 0.099518
0.217377 0.623697 0.080981
0.283368 0.620637 0.024705
0.350789 0.616113 0.024705
0.419379 0.610461 0.024705
0.489319 0.603897 0.024705
0.565616 0.604128 0.024705
0.637222 0.601880 0.024705
0.700527 0.596052 0.024705
0.754272 0.586121 0.024705
0.798494 0.572355 0.024705
0.934090 0.552938 0.024705
0.000094 0.715085 0.213519
0.009412 0.715124 0.202491
0.015602 0.715537 0.107714
0.090947 0.714905 0.105808
0.154765 0.713884 0.100555
0.220167 0.712118 0.085874
0.287350 0.709511 0.024705
0.355770 0.706129 0.024705
0.424983 0.701310 0.024705
0.494294 0.695397 0.024705
0.563620 0.689107 0.024705
0.632365 0.683689 0.024705
0.694122 0.675238 0.024705
0.747704 0.663131 0.024705
0.791973 0.647729 0.024705
0.928949 0.625973 0.024705
0.000084 0.797166 0.213406
0.009872 0.797259 0.202745
0.015466 0.797498 0.108140
0.090850 0.796902 0.106437
0.154775 0.796171 0.101899
0.220424 0.794737 0.090087
0.288036 0.792646 0.046854
0.357031 0.789707 0.024705
0.426381 0.785732 0.024705
0.495632 0.780748 0.024705
0.563832 0.775294 0.024705
0.630941 0.769282 0.024705
0.690293 0.757223 0.024705
0.741873 0.741775 0.024705
0.785704 0.723429 0.024705
0.923255 0.698449 0.024705
0.000075 0.871695 0.212079
0.010203 0.871489 0.201947
0.015436 0.871918 0.108880
0.089887 0.871512 0.107304
0.153270 0.870733 0.103408
0.218388 0.869689 0.093768
0.285753 0.867766 0.066259
0.354383 0.865389 0.024705
0.423784 0.862229 0.024705
0.492548 0.858090 0.024705
0.560088 0.853226 0.024705
0.626133 0.847691 0.024705
0.689606 0.842401 0.024705
0.738990 0.823640 0.024705
0.780770 0.801191 0.024705
0.917234 0.770917 0.024705
0.000067 0.937754 0.209663
0.010442 0.937704 0.200178
0.015460 0.938011 0.109733
0.088146 0.937662 0.108317
0.150312 0.937044 0.104927
0.214344 0.936277 0.097025
0.280688 0.934612 0.077157
0.348576 0.932557 0.024705
0.417108 0.929760 0.024705
0.485316 0.926568 0.024705
0.552192 0.922540 0.024705
0.617377 0.917799 0.024705
0.679616 0.912796 0.024705
0.738701 0.907625 0.024705
0.778881 0.882345 0.024705
0.911583 0.844872 0.024705
0.000060 0.977948 0.206323
0.010755 0.977899 0.197613
0.015629 0.977915 0.110698
0.085816 0.977473 0.109400
0.146224 0.977024 0.106427
0.208569 0.976273 0.099764
0.273273 0.975163 0.084283
0.339832 0.973636 0.024705
0.407005 0.971393 0.024705
0.474048 0.968772 0.024705
0.539991 0.965371 0.024705
0.604162 0.961749 0.024705
0.665645 0.957324 0.024705
0.724046 0.952918 0.024705
0.778706 0.948577 0.024705
0.907382 0.917842 0.024705
0.000053 1.000171 0.201535
0.014085 1.000127 0.195586
0.040854 1.000026 0.167168
0.093454 1.000026 0.166473
0.147743 0.999944 0.165016
0.205614 0.999638 0.162055
0.266562 0.998628 0.156463
0.329605 0.997478 0.146147
0.393979 0.995902 0.126825
0.458601 0.993875 0.084222
0.522434 0.991411 0.024705
0.584851 0.988345 0.024705
0.645099 0.984793 0.024705
0.702698 0.981027 0.024705
0.756474 0.977039 0.024705
0.906227 0.966132 0.024705
0.000000 0.005662 0.235142
0.014536 0.005662 0.233133
0.040499 0.005662 0.230281
0.073458 0.005662 0.228535
0.127183 0.005662 0.244672
0.193062 0.005662 0.260281
0.266149 0.005662 0.270194
0.346820 0.005662 0.277826
0.431043 0.005662 0.283131
0.513948 0.005662 0.285734
0.592061 0.005662 0.286059
0.662639 0.005662 0.284407
0.724064 0.005662 0.280839
0.775807 0.005662 0.275828
0.817845 0.005662 0.269452
0.950747 0.005662 0.256615
0.000000 0.005662 0.235142
0.011102 0.005662 0.243174
0.041364 0.005662 0.238798
0.076708 0.005662 0.233963
0.131460 0.005662 0.246929
0.196643 0.005662 0.259144
0.269194 0.005662 0.267126
0.349389 0.005662 0.273510
0.433315 0.005662 0.278041
0.515822 0.005662 0.280155
0.593545 0.005662 0.280077
0.664149 0.005662 0.278300
0.725222 0.005662 0.274648
0.776851 0.005662 0.269662
0.818643 0.005662 0.263382
0.950760 0.005662 0.253140
0.000000 0.005662 0.235148
0.007378 0.005662 0.239192
0.036770 0.005662 0.237322
0.076429 0.005662 0.233500
0.136031 0.005662 0.244797
0.204097 0.005662 0.250136
0.278283 0.005662 0.251618
0.358623 0.005662 0.252729
0.441801 0.005662 0.253124
0.523362 0.005662 0.252450
0.600109 0.005662 0.250535
0.669857 0.005662 0.247322
0.730206 0.005662 0.243021
0.781130 0.005662 0.237663
0.823260 0.005662 0.231393
0.950816 0.005662 0.238191
0.000000 0.069996 0.227654
0.000585 0.070884 0.228489
0.027971 0.071455 0.228304
0.070614 0.069909 0.224912
0.134490 0.076960 0.232317
0.202753 0.069672 0.226895
0.281704 0.051450 0.215051
0.367313 0.005662 0.200619
0.453129 0.005662 0.185409
0.535495 0.005662 0.171189
0.611842 0.005662 0.158134
0.680867 0.005662 0.146092
0.740212 0.005662 0.135110
0.790195 0.005662 0.125022
0.835086 0.005662 0.115382
0.950907 0.005662 0.211064
0.000000 0.155529 0.245095
0.000000 0.157025 0.243745
0.011584 0.162104 0.237565
0.068162 0.162472 0.224699
0.130970 0.163094 0.221266
0.198693 0.164366 0.210551
0.275059 0.162720 0.196276
0.359163 0.161606 0.183291
0.445168 0.159265 0.170584
0.528320 0.155459 0.158530
0.605705 0.150247 0.147089
0.675332 0.143677 0.136239
0.735709 0.135744 0.126115
0.786235 0.126366 0.116763
0.830844 0.115295 0.107867
0.948734 0.139719 0.206811
0.002592 0.262682 0.271053
0.002475 0.262863 0.266749
0.001887 0.262656 0.246640
0.059837 0.258183 0.205743
0.127594 0.252352 0.198885
0.189492 0.245737 0.184777
0.265698 0.250155 0.171641
0.349325 0.254968 0.160188
0.436431 0.258978 0.150090
0.520705 0.260025 0.139797
0.599175 0.258452 0.129443
0.669751 0.254582 0.119142
0.730715 0.248484 0.109267
0.781668 0.240473 0.099943
0.825969 0.230724 0.090946
0.946568 0.235720 0.201863
0.001541 0.351239 0.274868
0.001431 0.351089 0.269990
0.000920 0.350590 0.246197
0.050965 0.349407 0.185859
0.125349 0.345410 0.179946
0.188962 0.338821 0.163094
0.253550 0.329748 0.137844
0.338132 0.338250 0.125609
0.426529 0.346151 0.117237
0.512166 0.350328 0.108298
0.591884 0.350888 0.098336
0.663270 0.348245 0.087457
0.725268 0.342413 0.076052
0.776920 0.334059 0.064128
0.821104 0.323325 0.050849
0.944137 0.319292 0.194498
0.000924 0.443806 0.281659
0.000850 0.443696 0.276405
0.000517 0.443686 0.249981
0.043668 0.443727 0.171127
0.125393 0.441187 0.166740
0.194006 0.436852 0.154137
0.261179 0.430293 0.124651
0.330526 0.422299 0.074106
