src/luts/fairytale/9.cube
LUT_3D_SIZE 6
0.000361 0.000000 0.037748
0.203170 0.002315 0.041624
0.468291 0.006160 0.046915
0.723755 0.010192 0.052027
0.907481 0.013244 0.055723
1.049888 0.015876 0.058825
0.001993 0.174132 0.039099
0.211584 0.189864 0.053399
0.485586 0.229191 0.063825
0.739987 0.232838 0.067704
0.920574 0.199852 0.068526
1.056622 0.107291 0.065305
0.004064 0.434878 0.040990
0.234736 0.441434 0.046607
0.489180 0.473798 0.077071
0.762350 0.515897 0.092564
0.943021 0.491958 0.092097
1.080170 0.430865 0.088600
0.006255 0.704332 0.042979
0.246686 0.708073 0.046174
0.494251 0.725923 0.061830
0.751899 0.762264 0.096830
0.958246 0.753427 0.114937
1.100452 0.674475 0.110696
0.007944 0.911483 0.044515
0.233970 0.913888 0.046648
0.470624 0.923772 0.055407
0.700585 0.945872 0.076009
0.937698 0.976842 0.109649
1.111825 0.907392 0.129774
0.008835 1.008642 0.045331
0.205357 1.010337 0.046834
0.423615 1.016701 0.052373
0.627614 1.030687 0.064776
0.831099 1.054233 0.086568
1.094208 1.094208 0.126895
0.000361 0.000000 0.178692
0.198674 0.001462 0.182536
0.467063 0.006329 0.215296
0.723444 0.010671 0.215457
0.907573 0.013667 0.173889
1.049479 0.015732 0.058657
0.000361 0.172533 0.178687
0.199342 0.177249 0.178190
0.498274 0.158699 0.155679
0.744582 0.010604 0.052530
0.924653 0.013583 0.056122
1.049756 0.015962 0.058925
0.002190 0.432742 0.212176
0.139105 0.440916 0.130385
0.490268 0.474876 0.077187
0.769958 0.497694 0.090969
0.950695 0.466413 0.089795
1.079008 0.421343 0.087576
0.005033 0.702939 0.225445
0.093032 0.708161 0.058923
0.471834 0.725656 0.059389
0.752367 0.762871 0.096852
0.962272 0.746994 0.114696
1.099842 0.670431 0.110162
0.007196 0.910732 0.212640
0.037547 0.914337 0.044701
0.443461 0.923913 0.053729
0.691904 0.945964 0.074835
0.937899 0.977220 0.109667
1.111901 0.905736 0.129752
0.008379 1.008108 0.183220
0.178900 1.009551 0.149261
0.416066 1.015796 0.051600
0.624050 1.029832 0.064016
0.829401 1.053668 0.086019
1.094176 1.094176 0.126887
0.000361 0.000000 0.429887
0.230970 0.000045 0.429870
0.452470 0.002091 0.435685
0.714823 0.008543 0.482281
0.903069 0.013091 0.465201
1.048080 0.016520 0.406142
0.000361 0.209771 0.429870
0.187470 0.166331 0.453579
0.471677 0.148600 0.457617
0.737590 0.056183 0.477310
0.920241 0.013711 0.443937
1.048612 0.016785 0.394818
0.000361 0.431067 0.429890
0.137171 0.434348 0.433635
0.458377 0.442328 0.436440
0.774264 0.459947 0.452475
0.965486 0.432391 0.421408
1.079398 0.462619 0.453943
0.000434 0.698253 0.466357
0.110072 0.701433 0.444034
0.406613 0.718008 0.383445
0.754716 0.765509 0.350544
0.978280 0.739428 0.319360
1.100595 0.688738 0.444778
0.003010 0.906226 0.452128
0.097141 0.909468 0.423201
0.353555 0.925833 0.326342
0.666672 0.946726 0.285006
0.939222 0.978717 0.109342
1.114284 0.914665 0.396023
0.005456 1.004969 0.404188
0.188824 1.006103 0.396015
0.450349 1.011911 0.432307
0.637117 1.025852 0.427505
0.833239 1.051073 0.408672
1.095160 1.095160 0.318251
0.000361 0.000000 0.747474
0.247638 0.000000 0.747519
0.477388 0.000072 0.747465
0.692036 0.000922 0.749875
0.885503 0.007514 0.737131
1.038833 0.014030 0.661235
0.000361 0.226489 0.747448
0.169830 0.148811 0.797294
0.478251 0.130254 0.786282
0.707655 0.110595 0.772416
0.900711 0.007912 0.742469
1.043144 0.082466 0.660699
0.000361 0.463975 0.747343
0.128794 0.453400 0.767652
0.442212 0.426641 0.781999
0.711394 0.416767 0.777426
0.935959 0.416208 0.761626
1.065355 0.458326 0.699009
0.000361 0.698214 0.747510
0.108678 0.700522 0.750298
0.395833 0.704770 0.755766
0.689847 0.698310 0.747518
0.961077 0.757196 0.806532
1.090424 0.765634 0.817429
0.000361 0.903842 0.719880
0.102092 0.905768 0.710074
0.349343 0.914102 0.683968
0.672232 0.919151 0.719790
0.935101 0.974497 0.750928
1.116646 0.951132 0.830170
0.000852 1.000275 0.638407
0.194175 1.000509 0.634573
0.448242 1.002061 0.654746
0.696306 1.008047 0.754288
0.849627 1.034367 0.771022
1.097396 1.097396 0.805323
0.000361 0.000000 0.986343
0.240248 0.000000 0.986369
0.463666 0.000041 0.986393
0.670746 0.000085 0.986414
0.865589 0.000345 0.986672
1.018878 0.007124 0.915041
0.000361 0.219111 0.986329
0.152456 0.131576 1.000045
0.457169 0.120305 1.000038
0.678629 0.106494 0.997754
0.877594 0.095911 0.994283
1.023183 0.148904 0.917547
0.000361 0.449390 0.986313
0.125409 0.434418 0.997335
0.437015 0.421278 1.000058
0.679627 0.409527 1.000000
0.894157 0.389448 0.999971
1.032379 0.446831 0.932827
0.000361 0.676435 0.986296
0.108694 0.673454 0.991084
0.396327 0.673018 0.999624
0.687248 0.695430 0.998009
0.880737 0.687533 0.995856
1.041869 0.731088 0.971407
0.000361 0.903816 0.986296
0.101757 0.905447 0.987364
0.345479 0.912020 0.991091
0.663127 0.909280 0.989626
0.865083 0.903839 0.986367
1.027999 0.927795 0.996730
0.000361 1.000015 0.898698
0.193605 1.000035 0.896825
0.446276 1.000061 0.904692
0.689811 1.000001 0.942364
0.865072 1.000011 0.986356
1.025062 1.025062 0.994763
0.000361 0.000000 1.000037
0.217774 0.000000 1.000060
0.421660 0.000000 1.000081
0.612135 0.000072 1.000012
0.790740 0.000098 1.000024
1.005058 0.002063 1.005068
0.000361 0.196581 1.000025
0.193678 0.172512 1.000046
0.414364 0.172540 1.000069
0.609048 0.172545 1.000004
0.789389 0.172561 1.000017
1.006567 0.171109 1.006580
0.000361 0.405096 1.000013
0.193697 0.397466 1.000033
0.446323 0.431050 1.000058
0.622763 0.431070 1.000076
0.794463 0.431094 1.000008
1.008679 0.436933 1.008689
0.000361 0.610572 1.000001
0.193667 0.607314 1.000021
0.446307 0.622491 1.000047
0.689831 0.698244 1.000068
0.821625 0.698308 1.000082
1.010620 0.707644 1.010629
0.000361 0.815084 1.000038
0.193635 0.813804 1.000009
0.446288 0.819899 1.000035
0.689819 0.852015 1.000059
0.865081 0.903887 1.000074
1.007797 0.911125 1.007807
0.000361 1.000008 1.000038
0.193598 1.000028 1.000038
0.446267 1.000054 1.000024
0.689805 1.000080 1.000049
0.865069 1.000010 1.000068
1.000020 1.000020 1.000091
