src/luts/fairytale/9.cube
LUT_3D_SIZE 16
0.000361 0.000000 0.037748
0.062784 0.000308 0.038122
0.127958 0.000863 0.039291
0.203170 0.002315 0.041624
0.286661 0.003486 0.043317
0.376248 0.004781 0.045088
0.468291 0.006160 0.046915
0.558947 0.007561 0.048727
0.644947 0.008923 0.050446
0.723755 0.010192 0.052027
0.794018 0.011351 0.053440
0.855658 0.012368 0.054672
0.907481 0.013244 0.055723
0.949759 0.013983 0.056602
0.984392 0.014650 0.057388
1.049888 0.015876 0.058825
0.000685 0.044914 0.037882
0.062784 0.046290 0.039224
0.129864 0.047411 0.041147
0.206012 0.048973 0.044297
0.290111 0.044947 0.046611
0.377840 0.021963 0.046577
0.468332 0.006224 0.047004
0.559016 0.007619 0.048800
0.644974 0.008974 0.050513
0.723775 0.010240 0.052084
0.794148 0.011391 0.053491
0.855606 0.012403 0.054715
0.907618 0.013277 0.055761
0.949858 0.014011 0.056637
0.984490 0.014674 0.057416
1.049917 0.015898 0.058850
0.001165 0.103111 0.038311
0.062472 0.104104 0.039041
0.130446 0.109433 0.043943
0.210359 0.120385 0.048963
0.296941 0.130562 0.053265
0.386403 0.135736 0.054846
0.478141 0.137509 0.056412
0.568389 0.135041 0.057783
0.653594 0.127125 0.058782
0.731357 0.112347 0.059256
0.799855 0.086957 0.058933
0.855789 0.012565 0.054904
0.907882 0.013418 0.055926
0.949833 0.014139 0.056786
0.984665 0.014776 0.057541
1.050020 0.015987 0.058952
0.001993 0.174132 0.039099
0.066173 0.175007 0.039763
0.134847 0.179512 0.043532
0.211584 0.189864 0.053399
0.302676 0.208376 0.060117
0.393295 0.220306 0.062144
0.485586 0.229191 0.063825
0.576078 0.234528 0.065372
0.661631 0.235762 0.066696
0.739987 0.232838 0.067704
0.809541 0.225653 0.068346
0.869951 0.214723 0.068627
0.920574 0.199852 0.068526
0.960516 0.181322 0.068061
0.992672 0.158479 0.067262
1.056622 0.107291 0.065305
0.002565 0.254647 0.039675
0.069533 0.255393 0.040310
0.142318 0.258740 0.043110
0.218046 0.266992 0.050370
0.300315 0.278913 0.061957
0.397995 0.301152 0.068905
0.492364 0.315839 0.071722
0.583613 0.325716 0.073455
0.669487 0.330730 0.074729
0.747849 0.330970 0.075651
0.817333 0.326641 0.076208
0.877885 0.318403 0.076430
0.928278 0.306448 0.076301
0.967895 0.291693 0.075901
0.998627 0.274704 0.075307
1.066171 0.247983 0.074659
0.003309 0.342602 0.040316
0.071504 0.343166 0.040834
0.149526 0.345627 0.042843
0.226261 0.351326 0.047741
0.307480 0.361584 0.057014
0.393650 0.374175 0.069480
0.495456 0.399075 0.077828
0.589885 0.414249 0.081458
0.676844 0.422543 0.083214
0.755558 0.424558 0.084094
0.825278 0.421368 0.084472
0.885605 0.413287 0.084424
0.935584 0.401188 0.084003
0.974531 0.386027 0.083323
1.004364 0.368734 0.082489
1.073271 0.344078 0.081695
0.004064 0.434878 0.040990
0.071445 0.435329 0.041430
0.155540 0.437223 0.043018
0.234736 0.441434 0.046607
0.315550 0.449167 0.053363
0.400702 0.460747 0.064037
0.489180 0.473798 0.077071
0.590953 0.498573 0.086486
0.681839 0.511567 0.090804
0.762350 0.515897 0.092564
0.832594 0.513361 0.093060
0.893296 0.505083 0.092833
0.943021 0.491958 0.092097
0.981079 0.475384 0.091050
1.011499 0.456398 0.089819
1.080170 0.430865 0.088600
0.004804 0.528027 0.041673
0.068622 0.528487 0.042057
0.159720 0.530095 0.043382
0.241563 0.533338 0.046176
0.323006 0.539255 0.051290
0.406757 0.548461 0.059524
0.493802 0.560780 0.071039
0.582926 0.574042 0.084340
0.680942 0.595643 0.094476
0.765841 0.604373 0.099314
0.838566 0.603374 0.101118
0.900089 0.595164 0.101273
0.949767 0.580871 0.100443
0.987161 0.562432 0.099090
1.018649 0.541443 0.097494
1.087057 0.513647 0.095723
0.005537 0.618892 0.042345
0.061896 0.619236 0.042671
0.161537 0.620589 0.043822
0.245625 0.623255 0.046095
0.327846 0.627942 0.050106
0.410600 0.635176 0.056499
0.495423 0.645367 0.065723
0.582606 0.657907 0.077637
0.671319 0.671178 0.090963
0.762937 0.687369 0.101560
0.840062 0.690155 0.106757
0.904659 0.683207 0.108640
0.955179 0.668316 0.108466
0.992396 0.648217 0.107184
1.025461 0.625001 0.105357
1.093846 0.594641 0.103130
0.006255 0.704332 0.042979
0.048604 0.704633 0.043239
0.160834 0.705835 0.044267
0.246686 0.708073 0.046174
0.329343 0.711954 0.049430
0.411466 0.717667 0.054504
0.494251 0.725923 0.061830
0.578516 0.736606 0.071621
0.664692 0.749173 0.083638
0.751899 0.762264 0.096830
0.835399 0.771352 0.107602
0.904731 0.767680 0.113062
0.958246 0.753427 0.114937
0.996116 0.732361 0.114602
1.031416 0.707490 0.113058
1.100452 0.674475 0.110696
0.006883 0.782450 0.043555
0.007050 0.782631 0.043701
0.157779 0.783760 0.044699
0.244930 0.785612 0.046322
0.327483 0.788691 0.049015
0.408785 0.793529 0.053133
0.489695 0.800121 0.059028
0.571287 0.808982 0.066962
0.654014 0.819855 0.077032
0.738263 0.832260 0.088935
0.823396 0.845051 0.101848
0.898391 0.846393 0.112620
0.956796 0.834777 0.118193
0.997529 0.814433 0.120113
1.035430 0.788303 0.119801
1.106167 0.753542 0.118107
0.007456 0.852034 0.044071
0.007587 0.852003 0.044194
0.152589 0.853040 0.045087
0.240591 0.854690 0.046495
0.322660 0.857315 0.048757
0.402695 0.861451 0.052155
0.481814 0.866937 0.056971
0.560898 0.874152 0.063443
0.640359 0.883189 0.071728
0.721012 0.893996 0.081844
0.802511 0.905986 0.093475
0.885836 0.918439 0.106118
0.949784 0.911112 0.116613
0.995495 0.892581 0.122275
1.036246 0.866883 0.124430
1.110271 0.831288 0.124772
0.007944 0.911483 0.044515
0.008066 0.911818 0.044622
0.145409 0.912629 0.045418
0.233970 0.913888 0.046648
0.315084 0.915934 0.048580
0.393498 0.919405 0.051423
0.470624 0.923772 0.055407
0.547064 0.929644 0.060727
0.623467 0.937169 0.067563
0.700585 0.945872 0.076009
0.778589 0.955764 0.086015
0.857745 0.966198 0.097385
0.937698 0.976842 0.109649
0.988930 0.963177 0.119795
1.032540 0.941011 0.125756
1.111825 0.907392 0.129774
0.008352 0.958362 0.044884
0.008453 0.958368 0.044974
0.136698 0.959171 0.045684
0.225619 0.960191 0.046766
0.305439 0.961746 0.048430
0.382017 0.964493 0.050849
0.456944 0.967979 0.054191
0.530966 0.972477 0.058630
0.604489 0.977958 0.064323
0.678185 0.984547 0.071384
0.752498 0.991847 0.079871
0.827662 0.999166 0.089720
0.904158 1.009038 0.100764
0.978110 1.020751 0.112709
1.023613 1.000238 0.122660
1.109784 0.976435 0.132207
0.008595 0.984955 0.045115
0.008681 0.985106 0.045191
0.127616 0.985776 0.045831
0.216716 0.986583 0.046803
0.294791 0.988070 0.048272
0.369353 0.989942 0.050386
0.442174 0.992470 0.053282
0.513639 0.995772 0.057101
0.584518 0.999536 0.061985
0.655165 1.004923 0.068037
0.726150 1.012886 0.075340
0.797659 1.022024 0.083935
0.870441 1.032217 0.093722
0.943675 1.043270 0.104637
1.012915 1.055051 0.116739
1.103506 1.037102 0.131232
0.008835 1.008642 0.045331
0.008919 1.008726 0.045404
0.115801 1.009347 0.045962
0.205357 1.010337 0.046834
0.281446 1.011799 0.048107
0.353626 1.013879 0.049919
0.423615 1.016701 0.052373
0.492379 1.020393 0.055598
0.560069 1.025015 0.059692
0.627614 1.030687 0.064776
0.694924 1.037469 0.070924
0.762612 1.045338 0.078175
0.831099 1.054233 0.086568
0.900836 1.064065 0.096068
0.968911 1.074609 0.106516
1.094208 1.094208 0.126895
0.000361 0.000000 0.076413
0.061921 0.000276 0.077034
0.127651 0.000852 0.076776
0.203038 0.002295 0.073433
0.286485 0.003450 0.043257
0.376159 0.004755 0.045050
0.468224 0.006142 0.046889
0.558935 0.007542 0.048703
0.644859 0.008900 0.050418
0.723693 0.010163 0.051990
0.794200 0.011323 0.053406
0.855632 0.012338 0.054633
0.907417 0.013208 0.055683
0.949798 0.013947 0.056559
0.984358 0.014614 0.057343
1.049836 0.015835 0.058777
0.000361 0.044747 0.076410
0.061715 0.045268 0.074828
0.133971 0.041113 0.069592
0.212347 0.022817 0.043228
0.293286 0.003591 0.043461
0.381215 0.004854 0.045192
0.471904 0.006215 0.046989
0.561694 0.007605 0.048785
0.647082 0.008959 0.050492
0.725510 0.010224 0.052059
0.795528 0.011377 0.053468
0.856914 0.012390 0.054703
0.908595 0.013264 0.055748
0.950619 0.014003 0.056628
0.985579 0.014672 0.057414
1.049885 0.015882 0.058831
0.000892 0.102762 0.077686
0.047220 0.104749 0.066070
0.130849 0.109825 0.043996
0.213834 0.117314 0.048892
0.300359 0.123546 0.052697
0.389158 0.125512 0.054093
0.480111 0.124420 0.055510
0.569611 0.118894 0.056706
0.654122 0.107030 0.057476
0.731084 0.085541 0.057537
0.797301 0.031274 0.055179
0.857042 0.012550 0.054892
0.908616 0.013408 0.055912
0.950697 0.014127 0.056771
0.985407 0.014774 0.057538
1.049988 0.015971 0.058936
0.001657 0.173798 0.079848
0.034257 0.175481 0.053616
0.129359 0.179716 0.042989
0.211844 0.190152 0.053447
0.304280 0.206677 0.060018
0.395106 0.216813 0.061842
0.486995 0.224267 0.063414
0.577276 0.228594 0.064901
0.662526 0.229047 0.066178
0.740542 0.225374 0.067161
0.810066 0.217616 0.067774
0.870293 0.206036 0.068029
0.920721 0.190674 0.067907
0.960872 0.171304 0.067409
0.993067 0.146948 0.066529
1.055970 0.097966 0.064705
0.002409 0.254452 0.080955
0.019482 0.255570 0.039760
0.134002 0.258800 0.042573
0.215174 0.267041 0.049962
0.300509 0.279107 0.061973
0.398833 0.300154 0.068869
0.493387 0.313759 0.071539
0.584514 0.322782 0.073186
0.670276 0.327223 0.074427
0.748330 0.327046 0.075319
0.818070 0.322500 0.075876
0.878269 0.313943 0.076084
0.928496 0.301978 0.075964
0.968362 0.287157 0.075567
0.998994 0.270071 0.074982
1.065992 0.245577 0.074482
0.003195 0.342437 0.079758
0.003336 0.343183 0.040345
0.139607 0.345641 0.042433
0.221986 0.351220 0.047336
0.305882 0.361587 0.056762
0.393762 0.374335 0.069484
0.495938 0.398386 0.077818
0.590452 0.412968 0.081361
0.677344 0.420555 0.083037
0.756066 0.422262 0.083894
0.825794 0.418811 0.084243
0.886013 0.410560 0.084181
0.935995 0.398513 0.083787
0.974853 0.383292 0.083104
1.004948 0.365984 0.082278
1.073162 0.342603 0.081560
0.003960 0.434721 0.074488
0.004088 0.435235 0.041012
0.144553 0.437203 0.042691
0.229628 0.441421 0.046267
0.312928 0.449121 0.053067
0.399648 0.460673 0.063865
0.489223 0.473838 0.077075
0.591327 0.498085 0.086486
0.682181 0.510683 0.090741
0.762851 0.514610 0.092464
0.833037 0.511743 0.092905
0.893730 0.503427 0.092666
0.943188 0.490134 0.091937
0.981224 0.473457 0.090871
1.012110 0.454654 0.089674
1.080087 0.429697 0.088494
0.004698 0.527899 0.057446
0.004826 0.528411 0.041693
0.147985 0.530015 0.043113
0.235950 0.533340 0.045907
0.319848 0.539143 0.051021
0.404942 0.548439 0.059299
0.493101 0.560798 0.070924
0.583018 0.574115 0.084350
0.681092 0.595294 0.094488
0.766107 0.603670 0.099278
0.838546 0.602589 0.101059
0.900375 0.594143 0.101173
0.949919 0.579706 0.100337
0.987249 0.561159 0.098969
1.019241 0.540162 0.097369
1.087012 0.512920 0.095644
0.005453 0.618745 0.042261
0.005554 0.619064 0.042359
0.149296 0.620592 0.043595
0.239700 0.623123 0.045871
0.324397 0.627855 0.049887
0.408657 0.635083 0.056294
0.494241 0.645330 0.065559
0.582165 0.657956 0.077557
0.671339 0.671294 0.090964
0.762979 0.687046 0.101577
0.840343 0.689745 0.106760
0.904871 0.682523 0.108593
0.955419 0.667530 0.108398
0.992676 0.647386 0.107101
1.025875 0.624153 0.105271
1.093796 0.594046 0.103071
0.006176 0.704250 0.042907
0.006272 0.704516 0.042996
0.148346 0.705826 0.044074
0.240677 0.707921 0.045987
0.325763 0.711698 0.049238
0.409230 0.717608 0.054316
0.492859 0.725838 0.061665
0.577679 0.736529 0.071497
0.664245 0.749180 0.083566
0.751736 0.762233 0.096809
0.835524 0.771265 0.107618
0.904791 0.767204 0.113059
0.958393 0.752990 0.114912
0.996297 0.732045 0.114568
1.031772 0.706928 0.113001
1.100408 0.674143 0.110648
0.006809 0.782298 0.043491
0.006902 0.782545 0.043572
0.145227 0.783556 0.044533
0.238959 0.785473 0.046169
0.323949 0.788681 0.048859
0.406475 0.793442 0.052976
0.488199 0.800185 0.058885
0.570273 0.808898 0.066849
0.653427 0.819867 0.076948
0.738099 0.832284 0.088876
0.823343 0.845036 0.101849
0.898466 0.846342 0.112631
0.956789 0.834541 0.118193
0.997627 0.814088 0.120100
1.035626 0.787915 0.119771
1.106110 0.753108 0.118065
0.007400 0.851925 0.044020
0.007475 0.852163 0.044091
0.140070 0.853037 0.044945
0.234781 0.854777 0.046357
0.319177 0.857386 0.048625
0.400396 0.861417 0.052026
0.480253 0.866957 0.056842
0.559699 0.874154 0.063321
0.639529 0.883197 0.071631
0.720570 0.894138 0.081768
0.802515 0.906052 0.093467
0.885752 0.918503 0.106104
0.949827 0.911014 0.116624
0.995695 0.892570 0.122299
1.036344 0.866836 0.124436
1.110253 0.830900 0.124721
0.007888 0.911448 0.044472
0.007961 0.911697 0.044534
0.133104 0.912469 0.045294
0.228451 0.913801 0.046535
0.311676 0.916161 0.048463
0.391266 0.919248 0.051314
0.469126 0.923741 0.055303
0.545985 0.929396 0.060624
0.622740 0.936941 0.067475
0.700136 0.945712 0.075943
0.778055 0.955655 0.085961
0.857653 0.966156 0.097370
0.937722 0.976777 0.109655
0.989117 0.963196 0.119820
1.032550 0.941052 0.125761
1.111825 0.907081 0.129756
0.008309 0.958366 0.044841
0.008370 0.958548 0.044895
0.124659 0.959101 0.045575
0.220455 0.960223 0.046669
0.302280 0.961765 0.048337
0.379921 0.964463 0.050755
0.455514 0.967945 0.054099
0.529796 0.972414 0.058542
0.603655 0.977908 0.064237
0.677570 0.984582 0.071307
0.751882 0.991819 0.079791
0.827273 0.999173 0.089660
0.903999 1.009059 0.100741
0.978109 1.020776 0.112708
1.023668 1.000211 0.122696
1.109794 0.976353 0.132220
0.008559 0.985184 0.045073
0.008613 0.984956 0.045127
0.116008 0.985654 0.045730
0.211862 0.986632 0.046724
0.291873 0.987881 0.048190
0.367416 0.989863 0.050303
0.440672 0.992491 0.053202
0.512619 0.995673 0.057024
0.583747 0.999534 0.061912
0.654625 1.004912 0.067963
0.725657 1.012880 0.075281
0.797468 1.022018 0.083889
0.870198 1.032216 0.093678
0.943787 1.043267 0.104600
1.012939 1.055065 0.116740
1.103507 1.037105 0.131241
0.008798 1.008605 0.045299
0.008864 1.008671 0.045362
0.108695 1.009268 0.045899
0.202543 1.010271 0.046773
0.279774 1.011735 0.048052
0.352442 1.013814 0.049858
0.422845 1.016636 0.052326
0.491705 1.020330 0.055546
0.559661 1.024953 0.059640
0.627213 1.030643 0.064724
0.694639 1.037410 0.070865
0.762250 1.045288 0.078134
0.830806 1.054187 0.086529
0.900737 1.064047 0.096040
0.968780 1.074615 0.106495
1.094207 1.094207 0.126894
0.000361 0.000000 0.121536
0.062567 0.000031 0.121542
0.125788 0.000619 0.123417
0.201892 0.002162 0.130680
0.286111 0.003623 0.136170
0.375928 0.005006 0.138514
0.468145 0.006424 0.136558
0.558946 0.007813 0.128460
0.644815 0.009107 0.109583
0.723496 0.010068 0.051878
0.793772 0.011251 0.053317
0.855326 0.012291 0.054578
0.907351 0.013178 0.055649
0.949651 0.013934 0.056543
0.984408 0.014614 0.057342
1.049826 0.015834 0.058777
0.000361 0.046340 0.121537
0.059463 0.043652 0.125762
0.130797 0.039683 0.127159
0.210170 0.023288 0.131343
0.292527 0.003764 0.131594
0.380837 0.005093 0.130161
0.471763 0.006463 0.124275
0.561632 0.007795 0.109986
0.646646 0.008850 0.050355
0.725113 0.010130 0.051948
0.795148 0.011303 0.053383
0.856659 0.012334 0.054633
0.908526 0.013218 0.055694
0.950695 0.013964 0.056581
0.985575 0.014633 0.057367
1.049828 0.015834 0.058776
0.000361 0.102404 0.121535
0.046864 0.103492 0.122366
0.125787 0.104588 0.119818
0.211871 0.103779 0.118796
0.305576 0.096549 0.109409
0.395828 0.069130 0.050080
0.482540 0.006414 0.047259
0.571607 0.007775 0.049010
0.655649 0.009112 0.050681
0.732847 0.010358 0.052226
0.802136 0.011492 0.053610
0.862799 0.012501 0.054834
0.914110 0.013369 0.055869
0.955505 0.014100 0.056739
0.991361 0.014799 0.057567
1.049855 0.015909 0.058861
0.000827 0.172792 0.127791
0.036805 0.174014 0.124293
0.110872 0.177264 0.110869
0.209210 0.187404 0.086043
0.308934 0.199477 0.059401
0.401277 0.201480 0.060417
0.493187 0.201837 0.061526
0.582830 0.200149 0.062702
0.667045 0.195358 0.063710
0.744122 0.187225 0.064464
0.812887 0.175170 0.064873
0.872421 0.158705 0.064881
0.922140 0.136877 0.064403
0.961434 0.106497 0.063265
0.992629 0.039900 0.059648
1.051141 0.029777 0.060099
0.001575 0.253518 0.135291
0.029066 0.254552 0.129258
0.091041 0.258667 0.095443
0.203060 0.266620 0.048135
0.301045 0.279711 0.062049
0.402512 0.295699 0.068671
0.497548 0.304485 0.070711
0.588780 0.309830 0.072014
0.674163 0.311351 0.073051
0.751863 0.308999 0.073839
0.821099 0.302862 0.074332
0.881348 0.293235 0.074520
0.931326 0.280350 0.074389
0.970700 0.264940 0.073993
1.002363 0.246938 0.073426
1.065183 0.236056 0.073764
0.002457 0.341659 0.141843
0.002652 0.342419 0.134054
0.074307 0.345711 0.079394
0.201992 0.350968 0.045576
0.298291 0.361513 0.055579
0.394284 0.374804 0.069540
0.498403 0.395452 0.077792
0.593302 0.406895 0.080885
0.680337 0.412117 0.082266
0.758942 0.412039 0.082960
0.828481 0.407305 0.083228
0.888854 0.398434 0.083158
0.938540 0.385802 0.082747
0.977100 0.370300 0.082089
1.009374 0.352858 0.081306
1.072624 0.336965 0.081079
0.003381 0.434139 0.146710
0.003508 0.434559 0.137671
0.059624 0.437250 0.041254
0.204596 0.441177 0.044818
0.300882 0.448813 0.051733
0.394755 0.460658 0.063078
0.489685 0.474183 0.077112
0.593055 0.496112 0.086533
0.684450 0.506517 0.090495
0.764769 0.508843 0.091969
0.835285 0.504897 0.092276
0.895800 0.495638 0.091966
0.945454 0.482051 0.091200
0.983347 0.465108 0.090147
1.015817 0.446159 0.088984
1.079692 0.425804 0.088116
0.004264 0.527462 0.149563
0.004386 0.527882 0.139509
0.041033 0.529939 0.041848
0.207418 0.533185 0.044710
0.304995 0.538918 0.049837
0.396965 0.548235 0.058306
0.489697 0.560928 0.070374
0.583222 0.574419 0.084373
0.682490 0.593962 0.094572
0.767700 0.600790 0.099175
0.840436 0.598462 0.100754
0.902239 0.589100 0.100731
0.951610 0.574321 0.099843
0.989088 0.555501 0.098454
1.022408 0.534347 0.096851
1.086635 0.509979 0.095337
0.005096 0.618349 0.149942
0.005210 0.618684 0.139086
0.005604 0.620281 0.042411
0.208985 0.623067 0.044871
0.307722 0.627577 0.048874
0.398754 0.634919 0.055349
0.488680 0.645126 0.064825
0.579763 0.657991 0.077158
0.671543 0.671412 0.090986
0.763911 0.686170 0.101672
0.841680 0.687697 0.106721
0.906238 0.679621 0.108421
0.956788 0.663998 0.108118
0.993903 0.643557 0.106762
1.028570 0.620012 0.104915
1.093555 0.591854 0.102815
0.005855 0.703952 0.147779
0.005961 0.704151 0.136182
0.006315 0.705481 0.043032
0.208496 0.707930 0.045141
0.307987 0.711618 0.048385
0.398282 0.717345 0.053487
0.485995 0.725839 0.060928
0.573758 0.736540 0.070947
0.662544 0.749190 0.083287
0.751928 0.762396 0.096819
0.836440 0.770575 0.107725
0.905753 0.765834 0.113088
0.959430 0.751072 0.114839
0.997346 0.729299 0.114382
1.033859 0.704055 0.112780
1.100178 0.672439 0.110458
0.006551 0.782068 0.143008
0.006629 0.782290 0.130692
0.006939 0.783392 0.043605
0.205898 0.785481 0.045436
0.305540 0.788621 0.048131
0.394787 0.793398 0.052263
0.480468 0.800002 0.058205
0.565362 0.808863 0.066270
0.650587 0.819855 0.076518
0.736755 0.832247 0.088669
0.823576 0.845174 0.101865
0.899133 0.845779 0.112739
0.957745 0.833521 0.118234
0.998406 0.812399 0.120069
1.037292 0.786132 0.119687
1.105983 0.751809 0.117921
0.007185 0.851585 0.135665
0.007260 0.851976 0.122443
0.007503 0.852944 0.044117
0.201314 0.854803 0.045728
0.300501 0.857300 0.048004
0.388377 0.861244 0.051409
0.472141 0.866860 0.056246
0.554170 0.874001 0.062777
0.635967 0.883215 0.071180
0.718356 0.893943 0.081451
0.801580 0.906144 0.093304
0.885839 0.918452 0.106111
0.950359 0.910767 0.116714
0.996125 0.891791 0.122363
1.037737 0.865662 0.124453
1.110214 0.830206 0.124675
0.007692 0.911248 0.125570
0.007757 0.911274 0.110931
0.007990 0.912287 0.044555
0.194902 0.913903 0.045979
0.293031 0.916232 0.047930
0.379147 0.919350 0.050784
0.460738 0.923800 0.054779
0.540104 0.929657 0.060137
0.618669 0.936926 0.067041
0.697244 0.945683 0.075576
0.776499 0.955488 0.085699
0.857001 0.966280 0.097228
0.937722 0.976927 0.109651
0.989463 0.962873 0.119888
1.033474 0.940370 0.125843
1.111832 0.906455 0.129741
0.008145 0.958118 0.112406
0.008197 0.958213 0.094685
0.008395 0.958957 0.044923
0.187256 0.960126 0.046186
0.283843 0.961908 0.047877
0.367817 0.964400 0.050298
0.447132 0.967949 0.053653
0.523859 0.972265 0.058115
0.599355 0.978005 0.063844
0.674443 0.984553 0.070955
0.750072 0.991747 0.079516
0.826216 0.999170 0.089466
0.903520 1.009120 0.100635
0.978242 1.020910 0.112715
1.024158 1.000156 0.122767
1.109842 0.975837 0.132240
0.008415 0.984917 0.096768
0.008451 0.985007 0.068931
0.008633 0.985452 0.045150
0.179153 0.986539 0.046288
0.273860 0.987887 0.047790
0.355547 0.989758 0.049903
0.432320 0.992422 0.052802
0.506517 0.995704 0.056640
0.579238 0.999388 0.061542
0.651357 1.004905 0.067635
0.723441 1.012841 0.075006
0.795861 1.022016 0.083650
0.869288 1.032168 0.093526
0.943402 1.043225 0.104544
1.013114 1.055210 0.116762
1.103544 1.036986 0.131246
0.008647 1.008432 0.054190
0.008698 1.008492 0.045210
0.072052 1.008936 0.045610
0.191679 1.009987 0.046537
0.273404 1.011463 0.047815
0.348052 1.013540 0.049623
0.419620 1.016368 0.052075
0.489340 1.020044 0.055300
0.557806 1.024678 0.059403
0.625693 1.030375 0.064493
0.693407 1.037159 0.070650
0.761677 1.045065 0.077954
0.830279 1.053998 0.086363
0.900175 1.063882 0.095914
0.968543 1.074538 0.106425
1.094199 1.094199 0.126892
0.000361 0.000000 0.178692
0.066565 0.000000 0.178697
0.130811 0.000116 0.178738
0.198674 0.001462 0.182536
0.283822 0.003141 0.196123
0.374410 0.004749 0.207303
0.467063 0.006329 0.215296
0.558139 0.007881 0.219665
0.644378 0.009336 0.219766
0.723444 0.010671 0.215457
0.793977 0.011846 0.206620
0.855589 0.012851 0.193022
0.907573 0.013667 0.173889
0.949706 0.014292 0.146575
0.984143 0.014649 0.088767
1.049479 0.015732 0.058657
0.000361 0.049843 0.178689
0.055871 0.040601 0.187392
0.133078 0.036437 0.186458
0.205294 0.026819 0.188257
0.289556 0.003259 0.197546
0.378970 0.004846 0.205811
0.470451 0.006415 0.211842
0.560885 0.007942 0.214714
0.646568 0.009380 0.213679
0.725188 0.010696 0.208346
0.795269 0.011855 0.198550
0.856852 0.012849 0.183719
0.908610 0.013647 0.162664
0.950623 0.014237 0.130546
0.985000 0.014504 0.057213
1.049516 0.015751 0.058679
0.000361 0.110170 0.178691
0.043854 0.109071 0.183280
0.121758 0.101281 0.184770
0.205473 0.100068 0.187788
0.300925 0.093519 0.198391
0.393901 0.069672 0.199746
0.481669 0.006738 0.193956
0.570885 0.008178 0.189983
0.655391 0.009534 0.182603
0.732825 0.010763 0.170748
0.801953 0.011845 0.152672
0.862514 0.012723 0.122960
0.913629 0.013214 0.055688
0.955111 0.013976 0.056594
0.991109 0.014702 0.057448
1.049645 0.015831 0.058772
0.000361 0.172533 0.178687
0.036283 0.173362 0.179405
0.108992 0.174237 0.180164
0.199342 0.177249 0.178190
0.300313 0.180450 0.181113
0.402285 0.177718 0.177382
0.498274 0.158699 0.155679
0.589529 0.130671 0.115143
0.672711 0.090788 0.056599
0.744582 0.010604 0.052530
0.813565 0.011724 0.053899
0.873851 0.012726 0.055100
0.924653 0.013583 0.056122
0.965329 0.014313 0.056988
1.007812 0.015184 0.058012
1.049756 0.015962 0.058925
0.000458 0.252396 0.190259
0.032368 0.253138 0.188446
0.090891 0.255577 0.180680
0.184104 0.260135 0.168615
0.296609 0.275122 0.157988
0.406837 0.287937 0.139679
0.503429 0.286872 0.068886
0.596015 0.283818 0.069560
0.681776 0.278338 0.070205
0.759371 0.270319 0.070729
0.828169 0.259824 0.071046
0.887853 0.246784 0.071131
0.937613 0.231427 0.070938
0.976172 0.213744 0.070495
1.016490 0.191510 0.069884
1.064053 0.224782 0.072832
0.001248 0.340278 0.202044
0.030768 0.340923 0.198809
0.077461 0.343702 0.183570
0.161179 0.349460 0.149690
0.284357 0.360453 0.129773
0.394889 0.375415 0.069663
0.502962 0.389948 0.077701
0.598991 0.395207 0.079872
0.686564 0.395491 0.080693
0.765391 0.391823 0.081098
0.834740 0.384576 0.081217
0.895132 0.373825 0.081091
0.944588 0.360334 0.080695
0.982816 0.344364 0.080096
1.022552 0.326118 0.079449
1.071802 0.330440 0.080416
0.002190 0.432742 0.212176
0.020187 0.433283 0.207896
0.066373 0.435654 0.187240
0.139105 0.440916 0.130385
0.275995 0.448014 0.101088
0.384827 0.460352 0.061326
0.490268 0.474876 0.077187
0.596765 0.492385 0.086651
0.688961 0.498652 0.089975
0.769958 0.497694 0.090969
0.840348 0.491450 0.091025
0.901416 0.480827 0.090582
0.950695 0.466413 0.089795
0.988122 0.449097 0.088791
1.027099 0.429606 0.087711
1.079008 0.421343 0.087576
0.003178 0.526231 0.219724
0.003290 0.526631 0.214774
0.054306 0.528766 0.190243
0.121425 0.533268 0.112997
0.272347 0.538490 0.047402
0.380540 0.547789 0.056195
0.482931 0.560897 0.069189
0.583811 0.575036 0.084427
