src/luts/bw/1.cube
LUT_3D_SIZE 16
-0.018854 -0.017883 -0.018233
0.060890 0.058147 0.058967
0.108057 0.105480 0.105706
0.154581 0.152182 0.151581
0.202873 0.200589 0.199033
0.254439 0.252209 0.249544
0.310041 0.307818 0.303870
0.372416 0.370255 0.364703
0.438582 0.436545 0.429255
0.509430 0.507641 0.498770
0.587163 0.585876 0.576056
0.656661 0.655672 0.646317
0.692175 0.691337 0.682164
0.706453 0.705616 0.696473
0.718012 0.717392 0.708190
0.733258 0.732574 0.723258
0.033844 0.030934 0.032447
0.050274 0.047364 0.048536
0.097924 0.095299 0.095678
0.145292 0.142871 0.142422
0.193918 0.191611 0.190247
0.245447 0.243205 0.240768
0.300686 0.298489 0.294781
0.362971 0.360845 0.355539
0.428874 0.426838 0.419829
0.499717 0.497882 0.489270
0.578395 0.577033 0.567256
0.650472 0.649409 0.640087
0.690717 0.689848 0.680728
0.706915 0.706146 0.696972
0.718484 0.717718 0.708516
0.732612 0.731947 0.722767
0.062828 0.059905 0.060902
0.064777 0.061926 0.062834
0.086239 0.083481 0.084111
0.132627 0.130131 0.129929
0.182046 0.179715 0.178580
0.233919 0.231679 0.229473
0.288695 0.286505 0.283048
0.350582 0.348447 0.343424
0.416044 0.414000 0.407312
0.486541 0.484676 0.476368
0.565254 0.563761 0.554112
0.640591 0.639475 0.630198
0.688174 0.687294 0.678129
0.707569 0.706797 0.697532
0.718831 0.718020 0.708855
0.732588 0.731886 0.722701
0.088313 0.085641 0.086180
0.089457 0.086785 0.087289
0.099272 0.096641 0.096997
0.125341 0.122819 0.122736
0.168805 0.166432 0.165565
0.220514 0.218259 0.216358
0.274803 0.272602 0.269484
0.336173 0.334028 0.329357
0.401149 0.399092 0.392774
0.471162 0.469255 0.461253
0.549442 0.547804 0.538170
0.628046 0.626871 0.617626
0.684445 0.683534 0.674350
0.708166 0.707355 0.698090
0.719196 0.718419 0.709304
0.732954 0.732285 0.723108
0.112593 0.110084 0.110196
0.113849 0.111320 0.111414
0.118118 0.115598 0.115632
0.132822 0.130355 0.130144
0.163425 0.161060 0.160301
0.206004 0.203729 0.202135
0.259730 0.257516 0.254770
0.320322 0.318164 0.313914
0.384841 0.382758 0.376868
0.454435 0.452466 0.444798
0.532177 0.530407 0.520758
0.613452 0.612208 0.602983
0.678994 0.678043 0.668883
0.708250 0.707429 0.698221
0.719851 0.719114 0.709977
0.733850 0.733185 0.724000
0.136271 0.133853 0.133551
0.137775 0.135352 0.135025
0.139344 0.136915 0.136576
0.149634 0.147244 0.146729
0.167540 0.165205 0.164363
0.198676 0.196398 0.194941
0.244280 0.242056 0.239654
0.303432 0.301245 0.297451
0.367428 0.365298 0.359893
0.436815 0.434773 0.427558
0.514156 0.512274 0.503012
0.596931 0.595633 0.586445
0.670933 0.669994 0.660812
0.707404 0.706629 0.697429
0.720870 0.720140 0.710918
0.734912 0.734257 0.725060
0.159697 0.157333 0.156618
0.161351 0.159007 0.158246
0.161872 0.159520 0.158744
0.169415 0.167083 0.166178
0.183341 0.181044 0.179891
0.202221 0.199954 0.198438
0.230589 0.228353 0.226259
0.286050 0.283847 0.280453
0.348877 0.346734 0.341796
0.417677 0.415627 0.408918
0.494562 0.492665 0.483871
0.578526 0.577152 0.567684
0.659540 0.658576 0.649203
0.705787 0.704927 0.695755
0.721927 0.721201 0.711965
0.735769 0.735128 0.725949
0.183812 0.181544 0.180356
0.185643 0.183361 0.182135
0.186358 0.184070 0.182843
0.190547 0.188259 0.186957
0.201366 0.199087 0.197575
0.219392 0.217131 0.215265
0.239561 0.237334 0.235023
0.276531 0.274328 0.271150
0.330653 0.328499 0.324001
0.397695 0.395622 0.389422
0.474416 0.472471 0.464198
0.559024 0.557498 0.548044
0.644829 0.643747 0.634363
0.701455 0.700645 0.691418
0.722073 0.721392 0.712187
0.736554 0.735881 0.726742
0.208635 0.206407 0.204723
0.210467 0.208228 0.206510
0.211391 0.209143 0.207418
0.213237 0.210986 0.209227
0.220540 0.218292 0.216380
0.238412 0.236171 0.233886
0.257396 0.255177 0.252456
0.281414 0.279210 0.275922
0.322755 0.320590 0.316284
0.378200 0.376103 0.370386
0.453224 0.451239 0.443534
0.538289 0.536646 0.527275
0.626773 0.625575 0.616219
0.695103 0.694253 0.685070
0.723660 0.722937 0.713693
0.737651 0.736986 0.727851
0.234937 0.232720 0.230491
0.236755 0.234544 0.232278
0.237871 0.235650 0.233365
0.238327 0.236103 0.233812
0.242396 0.240183 0.237799
0.258514 0.256304 0.253553
0.278988 0.276782 0.273562
0.298813 0.296614 0.292916
0.324766 0.322590 0.318241
0.366104 0.363985 0.358571
0.431566 0.429561 0.422439
0.516458 0.514739 0.505513
0.606412 0.605116 0.595809
0.686486 0.685567 0.676434
0.724099 0.723341 0.714130
0.738633 0.738008 0.728799
0.264014 0.261806 0.258931
0.265999 0.263800 0.260875
0.267269 0.265065 0.262119
0.267480 0.265274 0.262337
0.269480 0.267285 0.264301
0.280308 0.278137 0.274864
0.302280 0.300101 0.296316
0.323942 0.321769 0.317448
0.345536 0.343367 0.338505
0.371201 0.369049 0.363538
0.411941 0.409885 0.403290
0.494056 0.492140 0.483477
0.585395 0.583988 0.574794
0.674848 0.673877 0.664695
0.723765 0.722947 0.713799
0.739442 0.738708 0.729623
0.297750 0.295580 0.291872
0.300000 0.297812 0.294064
0.301618 0.299414 0.295646
0.302401 0.300205 0.296417
0.303443 0.301266 0.297443
0.307433 0.305231 0.301345
0.329505 0.327348 0.322902
0.352653 0.350522 0.345469
0.376046 0.373938 0.368270
0.400212 0.398138 0.391838
0.427292 0.425280 0.418263
0.479715 0.477758 0.469402
0.562051 0.560533 0.551238
0.658967 0.657915 0.648543
0.722404 0.721584 0.712464
0.740386 0.739723 0.730559
0.337886 0.335773 0.331052
0.339760 0.337598 0.332848
0.341338 0.339170 0.334406
0.342449 0.340289 0.335503
0.343039 0.340882 0.336075
0.343641 0.341465 0.336661
0.362649 0.360521 0.355200
0.386573 0.384485 0.378551
0.412054 0.410005 0.403416
0.437439 0.435433 0.428188
0.462594 0.460633 0.452758
0.494816 0.492927 0.484180
0.550264 0.548677 0.539198
0.638651 0.637533 0.628169
0.718777 0.718049 0.708899
0.741718 0.741124 0.731878
0.387467 0.385394 0.379422
0.389057 0.386943 0.380991
0.390640 0.388534 0.382536
0.391992 0.389896 0.383836
0.392492 0.390402 0.384310
0.392981 0.390903 0.384804
0.403088 0.400991 0.394658
0.429153 0.427117 0.420117
0.456821 0.454853 0.447137
0.484216 0.482312 0.473903
0.511348 0.509524 0.500457
0.538448 0.536752 0.527074
0.571737 0.570258 0.560526
0.626854 0.625680 0.616396
0.711077 0.710243 0.701106
0.742885 0.742224 0.733087
0.437065 0.435064 0.427792
0.440257 0.438262 0.430924
0.443359 0.441388 0.433982
0.446348 0.444371 0.436877
0.448696 0.446711 0.439153
0.450371 0.448393 0.440806
0.454501 0.452517 0.444833
0.481222 0.479336 0.470979
0.512741 0.510939 0.501798
0.543636 0.541962 0.532098
0.572675 0.571210 0.561366
0.599838 0.598575 0.589252
0.626425 0.625275 0.616237
0.655640 0.654674 0.645492
0.700958 0.700154 0.690994
0.743891 0.743209 0.734106
0.452129 0.450144 0.442518
0.456336 0.454392 0.446609
0.460094 0.458154 0.450300
0.463686 0.461733 0.453811
0.467424 0.465471 0.457459
0.470978 0.469043 0.460921
0.479634 0.477735 0.469382
0.501814 0.499973 0.491104
0.537836 0.536113 0.526462
0.574021 0.572518 0.562392
0.607299 0.606079 0.596937
0.639967 0.638920 0.629853
0.671768 0.670851 0.661684
0.702677 0.701899 0.692687
0.728883 0.728172 0.718983
0.745091 0.744424 0.735300
-0.142994 -0.142423 -0.139976
-0.141007 -0.140809 -0.138087
-0.118514 -0.119531 -0.116141
0.034429 0.029674 0.034368
0.141392 0.137386 0.139187
0.220317 0.217872 0.216286
0.286708 0.284440 0.281121
0.354708 0.352525 0.347443
0.424784 0.422736 0.415798
0.498400 0.496588 0.487956
0.578025 0.576660 0.566925
0.649854 0.648874 0.639515
0.686801 0.685950 0.676775
0.701013 0.700157 0.690999
0.711273 0.710530 0.701313
0.724679 0.723982 0.714694
0.037253 0.034368 0.035852
0.056955 0.054228 0.055191
0.095397 0.092790 0.093195
0.140648 0.138218 0.137861
0.189193 0.186895 0.185610
0.241024 0.238812 0.236430
0.296220 0.294054 0.290404
0.358937 0.356823 0.351590
0.424832 0.422803 0.415905
0.495509 0.493664 0.485203
0.574165 0.572731 0.563113
0.648555 0.647535 0.638240
0.693101 0.692276 0.683053
0.710958 0.710244 0.700994
0.722497 0.721703 0.712554
0.736624 0.735925 0.726783
0.063884 0.061076 0.062051
0.073287 0.070515 0.071284
0.092834 0.090173 0.090663
0.136971 0.134521 0.134226
0.185061 0.182739 0.181548
0.236136 0.233898 0.231652
0.290280 0.288105 0.284617
0.352134 0.350013 0.344943
0.417354 0.415319 0.408582
0.487424 0.485560 0.477223
0.565461 0.563957 0.554340
0.641810 0.640720 0.631457
0.692276 0.691467 0.682242
0.712864 0.712123 0.702907
0.724169 0.723322 0.714192
0.738080 0.737454 0.728302
0.088681 0.086008 0.086541
0.095511 0.092870 0.093274
0.105333 0.102754 0.103010
0.130611 0.128147 0.127968
0.173316 0.170969 0.170007
0.224551 0.222296 0.220309
0.278700 0.276504 0.273312
0.340048 0.337898 0.333144
0.405031 0.402961 0.396544
0.474855 0.472938 0.464842
0.552407 0.550795 0.541137
0.631134 0.630000 0.620732
0.689280 0.688445 0.679233
0.713899 0.713133 0.703900
0.724933 0.724206 0.715015
0.738624 0.737968 0.728854
0.112843 0.110310 0.110420
0.118864 0.116356 0.116359
0.123404 0.120923 0.120860
0.138252 0.135823 0.135506
0.167987 0.165647 0.164791
0.210223 0.207962 0.206269
0.264055 0.261847 0.258998
0.324749 0.322573 0.318227
0.389461 0.387357 0.381365
0.459140 0.457168 0.449418
0.536432 0.534703 0.525093
0.617376 0.616197 0.606934
0.683835 0.682960 0.673775
0.713995 0.713230 0.703983
0.725752 0.725061 0.715823
0.739433 0.738718 0.729614
0.136605 0.134178 0.133877
0.142470 0.140077 0.139656
0.144150 0.141761 0.141321
0.154995 0.152631 0.152007
0.172406 0.170090 0.169149
0.203021 0.200764 0.199215
0.248502 0.246294 0.243784
0.307985 0.305809 0.301898
0.372017 0.369910 0.364389
0.441327 0.439333 0.432020
0.518604 0.516782 0.507486
0.601082 0.599806 0.590625
0.675710 0.674814 0.665654
0.713223 0.712482 0.703260
0.726726 0.725981 0.716752
0.740332 0.739630 0.730523
0.160123 0.157763 0.157049
0.165945 0.163641 0.162778
0.166250 0.163939 0.163078
0.174594 0.172298 0.171302
0.188329 0.186055 0.184808
0.207092 0.204841 0.203217
0.234931 0.232713 0.230507
0.291160 0.288987 0.285464
0.354170 0.352038 0.346967
0.422921 0.420860 0.414027
0.499802 0.497882 0.488989
0.583248 0.581867 0.572455
0.664665 0.663700 0.654395
0.711320 0.710546 0.701328
0.727279 0.726573 0.717385
0.741243 0.740603 0.731476
0.184280 0.181994 0.180803
0.190502 0.188239 0.186902
0.190990 0.188726 0.187384
0.195662 0.193399 0.191989
0.206741 0.204489 0.202873
0.224611 0.222379 0.220390
0.244482 0.242257 0.239833
0.281600 0.279401 0.276126
0.335960 0.333807 0.329199
0.403133 0.401057 0.394731
0.479858 0.477918 0.469518
0.564123 0.562611 0.553221
0.649960 0.648880 0.639541
0.707092 0.706290 0.697062
0.728217 0.727512 0.718378
0.742282 0.741660 0.732502
0.209151 0.206900 0.205211
0.215362 0.213121 0.211297
0.216031 0.213796 0.211957
0.218045 0.215811 0.213940
0.226097 0.223869 0.221835
0.243871 0.241661 0.239239
0.262775 0.260562 0.257698
0.286736 0.284539 0.281132
0.328058 0.325893 0.321479
0.383683 0.381581 0.375748
0.458929 0.456959 0.449119
0.543640 0.542018 0.532679
0.631994 0.630819 0.621459
0.700575 0.699756 0.690585
0.729166 0.728419 0.719220
0.743205 0.742552 0.733415
0.235413 0.233180 0.230945
0.241679 0.239455 0.237089
0.242511 0.240294 0.237904
0.242953 0.240740 0.238335
0.248157 0.245952 0.243424
0.264327 0.262134 0.259235
0.284750 0.282557 0.279164
0.304462 0.302282 0.298428
0.330407 0.328241 0.323754
0.371718 0.369589 0.364049
0.437652 0.435629 0.428375
0.521970 0.520263 0.511011
0.611804 0.610547 0.601187
0.691713 0.690870 0.681729
0.729469 0.728772 0.719606
0.744118 0.743408 0.734286
0.264207 0.261995 0.259117
0.271255 0.269054 0.266022
0.272202 0.269993 0.266932
0.272621 0.270414 0.267340
0.275810 0.273611 0.270456
0.286526 0.284337 0.280912
0.308347 0.306176 0.302222
0.330077 0.327913 0.323415
0.351817 0.349669 0.344618
0.377456 0.375354 0.369650
0.417522 0.415515 0.408801
0.499603 0.497787 0.488950
0.590812 0.589442 0.580150
0.679958 0.679066 0.669868
0.729266 0.728551 0.719375
0.745001 0.744335 0.735244
0.298315 0.296127 0.292417
0.305521 0.303325 0.299460
0.306723 0.304526 0.300632
0.307404 0.305218 0.301292
0.308965 0.306786 0.302812
0.313859 0.311659 0.307589
0.335833 0.333666 0.329040
0.359062 0.356937 0.351698
0.382385 0.380295 0.374456
0.406246 0.404193 0.397757
0.433133 0.431157 0.424021
0.485578 0.483700 0.475147
0.568040 0.566561 0.557289
0.664170 0.663204 0.653865
0.728058 0.727291 0.718105
0.745743 0.745156 0.736022
0.338180 0.336038 0.331340
0.345561 0.343413 0.338543
0.346904 0.344749 0.339857
0.347984 0.345830 0.340898
0.348725 0.346573 0.341609
0.350519 0.348367 0.343368
0.369227 0.367118 0.361634
0.393397 0.391325 0.385216
0.418596 0.416560 0.409811
0.443589 0.441602 0.434223
0.468957 0.467048 0.459014
0.500843 0.499002 0.490079
0.556274 0.554709 0.545201
0.643981 0.642888 0.633501
0.724457 0.723693 0.714568
0.747234 0.746613 0.737493
0.387309 0.385217 0.379265
0.395665 0.393599 0.387457
0.397280 0.395224 0.389006
0.398401 0.396326 0.390095
0.398674 0.396583 0.390366
0.399898 0.397822 0.391561
0.410082 0.408041 0.401501
0.436120 0.434107 0.426909
0.463311 0.461350 0.453459
0.490531 0.488633 0.480070
0.517652 0.515825 0.506642
0.544427 0.542703 0.532987
0.577753 0.576287 0.566589
0.632293 0.631151 0.621840
0.716243 0.715419 0.706241
0.748561 0.747861 0.738772
0.437362 0.435363 0.428106
0.447521 0.445543 0.438017
0.450394 0.448426 0.440837
0.452846 0.450874 0.443227
0.454667 0.452688 0.445016
0.456301 0.454323 0.446629
0.461470 0.459521 0.451675
0.488667 0.486801 0.478281
0.519804 0.518009 0.508753
0.549935 0.548298 0.538504
0.578508 0.577076 0.567350
0.605506 0.604265 0.594958
0.631964 0.630858 0.621787
0.661133 0.660105 0.650977
0.706188 0.705470 0.696247
0.749378 0.748727 0.739595
0.452983 0.451020 0.443360
0.463612 0.461667 0.453737
0.467107 0.465158 0.457137
0.470889 0.468985 0.460860
0.474625 0.472723 0.464510
0.478010 0.476090 0.467821
0.486870 0.484972 0.476504
0.509435 0.507628 0.498599
0.545702 0.544057 0.534256
0.580949 0.579535 0.569671
0.614129 0.612937 0.603817
0.646065 0.644998 0.635937
0.677503 0.676579 0.667408
0.708182 0.707326 0.698156
0.734109 0.733389 0.724209
0.750138 0.749553 0.740380
-0.143259 -0.142775 -0.140250
-0.144639 -0.144264 -0.141624
-0.142487 -0.142485 -0.139579
-0.095996 -0.097866 -0.093881
0.039990 0.036946 0.039686
0.167173 0.164171 0.164393
0.244663 0.242288 0.240091
0.317281 0.315028 0.310938
0.392036 0.389932 0.383864
0.470438 0.468549 0.460562
0.555408 0.553874 0.544270
0.634869 0.633763 0.624513
0.676647 0.675729 0.666611
0.692467 0.691575 0.682439
0.703010 0.702164 0.692953
0.716306 0.715494 0.706364
0.033516 0.030742 0.032139
0.055292 0.052599 0.053573
0.069858 0.067188 0.067957
0.115555 0.113055 0.113100
0.165227 0.162881 0.162059
0.217858 0.215616 0.213754
0.273599 0.271405 0.268308
0.337658 0.335521 0.330844
0.406232 0.404177 0.397752
0.480233 0.478341 0.470184
0.562466 0.560929 0.551318
0.640234 0.639156 0.629881
0.687211 0.686364 0.677145
0.706401 0.705649 0.696414
0.718615 0.717898 0.708644
0.733018 0.732331 0.723174
0.069304 0.066527 0.067351
0.079559 0.076815 0.077472
0.104006 0.101434 0.101707
0.146050 0.143647 0.143175
0.192052 0.189757 0.188413
0.241040 0.238813 0.236446
0.292807 0.290626 0.287064
0.351027 0.348902 0.343885
0.413879 0.411840 0.405209
0.482576 0.480698 0.472444
0.560259 0.558705 0.549040
0.638090 0.636967 0.627731
0.693026 0.692200 0.683012
0.716161 0.715407 0.706208
0.727450 0.726671 0.717521
0.741335 0.740656 0.731490
0.091772 0.089097 0.089577
0.099179 0.096553 0.096904
0.116944 0.114429 0.114489
0.140523 0.138103 0.137750
0.181343 0.179029 0.177912
0.230972 0.228741 0.226607
0.283767 0.281578 0.278251
0.343068 0.340918 0.336107
0.406366 0.404296 0.397861
0.474902 0.472976 0.464865
0.551640 0.549978 0.540260
0.630507 0.629324 0.620095
0.691413 0.690558 0.681427
0.717868 0.717171 0.707956
0.729073 0.728335 0.719168
0.742615 0.741978 0.732871
0.114243 0.111701 0.111793
0.120769 0.118268 0.118241
0.131369 0.128925 0.128725
0.146141 0.143736 0.143281
0.174107 0.171779 0.170811
0.215243 0.212992 0.211193
0.268378 0.266177 0.263216
0.328547 0.326378 0.321936
0.392613 0.390516 0.384437
0.461590 0.459621 0.451796
0.538221 0.536477 0.526824
0.618611 0.617387 0.608175
0.686554 0.685684 0.676561
0.718219 0.717526 0.708315
0.730131 0.729455 0.720246
0.743550 0.742927 0.733791
0.137101 0.134676 0.134362
0.143471 0.141079 0.140642
0.148696 0.146320 0.145800
0.160422 0.158062 0.157340
0.176867 0.174548 0.173526
0.206137 0.203872 0.202265
0.250871 0.248656 0.246095
0.310223 0.308043 0.304058
0.374100 0.371986 0.366384
0.443254 0.441258 0.433860
0.520349 0.518569 0.509163
0.602585 0.601343 0.592140
0.678302 0.677426 0.668241
0.717346 0.716594 0.707406
0.730885 0.730214 0.720993
0.744392 0.743778 0.734645
0.160429 0.158081 0.157354
0.166587 0.164279 0.163422
0.168980 0.166662 0.165762
0.178674 0.176375 0.175310
0.192078 0.189805 0.188486
0.210487 0.208237 0.206550
0.237537 0.235304 0.233056
0.293825 0.291636 0.288040
0.356836 0.354703 0.349542
0.425547 0.423506 0.416582
0.502331 0.500459 0.491502
0.585524 0.584176 0.574811
0.667553 0.666629 0.657315
0.715413 0.714555 0.705393
0.731496 0.730748 0.721561
0.745404 0.744798 0.735652
0.184633 0.182347 0.181149
0.191211 0.188942 0.187603
0.193939 0.191676 0.190280
0.199545 0.197288 0.195807
0.211205 0.208949 0.207247
0.228616 0.226363 0.224301
0.247817 0.245596 0.243104
0.284818 0.282631 0.279276
0.339203 0.337056 0.332349
0.406310 0.404235 0.397804
0.482731 0.480793 0.472317
0.566918 0.565413 0.556025
0.652835 0.651768 0.642445
0.711003 0.710173 0.700979
0.732728 0.732052 0.722776
0.746597 0.745982 0.736793
0.209572 0.207321 0.205618
0.216093 0.213857 0.212013
0.219040 0.216803 0.214904
0.221383 0.219148 0.217217
0.230926 0.228692 0.226564
0.248418 0.246185 0.243674
0.266678 0.264467 0.261533
0.290425 0.288233 0.284737
0.331635 0.329474 0.324958
0.387237 0.385136 0.379197
0.462038 0.460055 0.452127
0.546810 0.545183 0.535841
0.635090 0.633925 0.624596
0.704354 0.703536 0.694353
0.733325 0.732666 0.723504
0.747392 0.746755 0.737653
0.235883 0.233651 0.231397
0.242415 0.240205 0.237806
0.245640 0.243416 0.240960
0.245911 0.243692 0.241227
0.253131 0.250920 0.248285
0.269517 0.267314 0.264298
0.289231 0.287034 0.283558
0.308467 0.306282 0.302327
0.334424 0.332262 0.327662
0.375528 0.373416 0.367779
0.441103 0.439082 0.431743
0.525401 0.523674 0.514473
0.615216 0.613971 0.604640
0.695323 0.694486 0.685325
0.733428 0.732718 0.723649
0.747916 0.747301 0.738196
0.264646 0.262427 0.259540
0.272000 0.269807 0.266748
0.275829 0.273623 0.270469
0.276147 0.273954 0.270778
0.280869 0.278682 0.275383
0.292486 0.290296 0.286717
0.313433 0.311249 0.307163
0.334771 0.332619 0.327981
0.356365 0.354245 0.349059
0.382074 0.379981 0.374157
0.421634 0.419568 0.412747
0.503172 0.501273 0.492412
0.594280 0.592908 0.583606
0.683417 0.682530 0.673351
0.733255 0.732538 0.723408
0.749070 0.748485 0.739305
0.298950 0.296738 0.293015
0.306299 0.304117 0.300226
0.310491 0.308300 0.304324
0.310884 0.308712 0.304715
0.313140 0.310977 0.306912
0.319757 0.317587 0.313350
0.341192 0.339036 0.334266
0.364150 0.362052 0.356672
0.387119 0.385065 0.379095
0.410723 0.408683 0.402139
0.437359 0.435323 0.428138
0.489554 0.487637 0.479044
0.572170 0.570711 0.561455
0.667823 0.666868 0.657564
0.732122 0.731445 0.722226
0.749862 0.749288 0.740169
0.338560 0.336411 0.331702
0.346320 0.344201 0.339281
0.350802 0.348688 0.343681
0.351689 0.349562 0.344529
0.352531 0.350400 0.345343
0.356115 0.353994 0.348849
0.374563 0.372440 0.366838
0.398867 0.396816 0.390551
0.423746 0.421739 0.414834
0.448448 0.446472 0.438967
0.473762 0.471842 0.463722
0.505396 0.503514 0.494509
0.560615 0.559061 0.549537
0.647716 0.646646 0.637254
0.728420 0.727762 0.718564
0.751318 0.750695 0.741614
0.387265 0.385181 0.379264
0.396489 0.394428 0.388239
0.401829 0.399772 0.393449
0.402730 0.400657 0.394339
0.403009 0.400945 0.394619
0.405261 0.403225 0.396812
0.415214 0.413196 0.406495
0.441836 0.439871 0.432494
0.468582 0.466647 0.458633
0.495445 0.493567 0.484908
0.522384 0.520600 0.511311
0.549163 0.547477 0.537686
0.582120 0.580694 0.571027
0.636090 0.634981 0.625691
0.719859 0.719141 0.709933
0.752452 0.751800 0.742697
0.437759 0.435751 0.428524
0.448625 0.446651 0.439099
0.455532 0.453592 0.445880
0.457738 0.455770 0.448020
0.459298 0.457339 0.449554
0.460973 0.459033 0.451204
0.467443 0.465506 0.457518
0.494566 0.492704 0.484074
0.525247 0.523489 0.514111
0.554777 0.553207 0.543323
0.582967 0.581595 0.571897
0.609814 0.608606 0.599363
0.636201 0.635118 0.625992
0.665035 0.664082 0.654888
0.709961 0.709150 0.699955
0.753225 0.752622 0.743503
0.453845 0.451876 0.444189
0.465090 0.463167 0.455207
0.472488 0.470569 0.462402
0.476305 0.474414 0.466172
0.479655 0.477747 0.469434
0.482631 0.480716 0.472340
0.491841 0.489955 0.481362
0.515299 0.513473 0.504330
0.552025 0.550334 0.540499
0.586117 0.584777 0.575031
0.619538 0.618360 0.609280
0.650657 0.649617 0.640544
0.681817 0.680895 0.671711
0.711920 0.711110 0.701958
0.737731 0.737047 0.727925
0.754061 0.753478 0.744376
-0.143205 -0.142838 -0.140227
-0.144695 -0.144366 -0.141699
-0.145415 -0.145257 -0.142433
-0.137522 -0.137953 -0.134727
-0.071080 -0.073109 -0.069381
0.051186 0.048153 0.050678
0.188641 0.185955 0.185389
0.264780 0.262382 0.259730
0.341915 0.339703 0.334975
0.422573 0.420537 0.413713
0.510602 0.508812 0.499872
0.597061 0.595713 0.586407
0.644107 0.643029 0.633820
0.662195 0.661184 0.652092
0.672426 0.671445 0.662304
0.684476 0.683568 0.674406
0.025586 0.022926 0.024329
0.056880 0.054179 0.055105
0.062937 0.060210 0.061069
0.082603 0.079890 0.080506
0.126850 0.124350 0.124227
0.180354 0.178051 0.176938
0.235868 0.233647 0.231402
0.298364 0.296183 0.292482
0.366520 0.364408 0.359005
0.440879 0.438897 0.431656
0.524131 0.522407 0.513306
0.606924 0.605659 0.596365
0.658807 0.657819 0.648591
0.681355 0.680470 0.671303
0.694411 0.693599 0.684358
0.708777 0.707976 0.698829
0.067638 0.064834 0.065700
0.080004 0.077279 0.077934
0.106345 0.103800 0.104012
0.125278 0.122817 0.122714
0.163937 0.161596 0.160788
0.211987 0.209744 0.207992
0.262625 0.260429 0.257591
0.318299 0.316152 0.311968
0.379775 0.377693 0.371931
0.447712 0.445745 0.438281
0.525068 0.523334 0.514155
0.605945 0.604663 0.595417
0.665650 0.664695 0.655491
0.693359 0.692488 0.683331
0.707050 0.706220 0.697027
0.722472 0.721684 0.712521
0.096317 0.093655 0.094070
0.104045 0.101466 0.101725
0.124022 0.121553 0.121476
0.148063 0.145668 0.145173
0.188253 0.185955 0.184682
0.237282 0.235065 0.232767
0.289648 0.287475 0.283992
0.347499 0.345360 0.340444
0.409420 0.407368 0.400871
0.476330 0.474433 0.466334
0.550651 0.549016 0.539479
0.627583 0.626390 0.617123
0.689153 0.688344 0.679125
0.715869 0.715150 0.705921
0.726582 0.725810 0.716637
0.740140 0.739480 0.730413
0.118644 0.116116 0.116133
0.125260 0.122784 0.122678
0.137891 0.135474 0.135163
0.163547 0.161202 0.160421
0.193870 0.191587 0.190216
0.234477 0.232249 0.230021
0.287188 0.285004 0.281591
0.346561 0.344402 0.339511
0.409485 0.407420 0.400922
0.476829 0.474925 0.466792
0.550848 0.549194 0.539546
0.627536 0.626350 0.617101
0.693858 0.693062 0.683874
0.724231 0.723543 0.714319
0.734524 0.733800 0.724653
0.747378 0.746784 0.737701
0.140381 0.137965 0.137592
0.146748 0.144356 0.143874
0.152937 0.150564 0.149986
0.177015 0.174709 0.173669
0.196026 0.193753 0.192346
0.224047 0.221802 0.219813
0.268102 0.265894 0.262942
0.326909 0.324726 0.320328
0.389982 0.387880 0.381871
0.457751 0.455787 0.448058
0.532366 0.530611 0.521094
0.611097 0.609848 0.600615
0.685008 0.684144 0.674979
0.723230 0.722518 0.713318
0.735603 0.734900 0.725744
0.748664 0.748030 0.738946
0.162336 0.159990 0.159240
0.168721 0.166408 0.165535
0.171255 0.168926 0.168005
0.191541 0.189262 0.187946
0.206789 0.204532 0.202911
0.223737 0.221493 0.219522
0.248556 0.246335 0.243828
0.303443 0.301263 0.297447
0.365705 0.363580 0.358192
0.433471 0.431447 0.424300
0.508279 0.506444 0.497341
0.589132 0.587783 0.578476
0.670223 0.669277 0.660038
0.718699 0.717974 0.708754
0.735381 0.734689 0.725476
0.749239 0.748564 0.739481
0.185864 0.183582 0.182366
0.192456 0.190191 0.188842
0.195290 0.193014 0.191623
0.207858 0.205600 0.203954
0.221575 0.219330 0.217397
0.237660 0.235426 0.233151
