src/luts/bw/1.cube
LUT_3D_SIZE 6
-0.018854 -0.017883 -0.018233
0.154581 0.152182 0.151581
0.310041 0.307818 0.303870
0.509430 0.507641 0.498770
0.692175 0.691337 0.682164
0.733258 0.732574 0.723258
0.088313 0.085641 0.086180
0.125341 0.122819 0.122736
0.274803 0.272602 0.269484
0.471162 0.469255 0.461253
0.684445 0.683534 0.674350
0.732954 0.732285 0.723108
0.159697 0.157333 0.156618
0.169415 0.167083 0.166178
0.230589 0.228353 0.226259
0.417677 0.415627 0.408918
0.659540 0.658576 0.649203
0.735769 0.735128 0.725949
0.234937 0.232720 0.230491
0.238327 0.236103 0.233812
0.278988 0.276782 0.273562
0.366104 0.363985 0.358571
0.606412 0.605116 0.595809
0.738633 0.738008 0.728799
0.337886 0.335773 0.331052
0.342449 0.340289 0.335503
0.362649 0.360521 0.355200
0.437439 0.435433 0.428188
0.550264 0.548677 0.539198
0.741718 0.741124 0.731878
0.452129 0.450144 0.442518
0.463686 0.461733 0.453811
0.479634 0.477735 0.469382
0.574021 0.572518 0.562392
0.671768 0.670851 0.661684
0.745091 0.744424 0.735300
-0.143205 -0.142838 -0.140227
-0.137522 -0.137953 -0.134727
0.188641 0.185955 0.185389
0.422573 0.420537 0.413713
0.644107 0.643029 0.633820
0.684476 0.683568 0.674406
0.096317 0.093655 0.094070
0.148063 0.145668 0.145173
0.289648 0.287475 0.283992
0.476330 0.474433 0.466334
0.689153 0.688344 0.679125
0.740140 0.739480 0.730413
0.162336 0.159990 0.159240
0.191541 0.189262 0.187946
0.248556 0.246335 0.243828
0.433471 0.431447 0.424300
0.670223 0.669277 0.660038
0.749239 0.748564 0.739481
0.236181 0.233952 0.231686
0.248502 0.246274 0.243764
0.293277 0.291076 0.287499
0.378528 0.376408 0.370703
0.617733 0.616479 0.607122
0.751526 0.750865 0.741857
0.338816 0.336662 0.331948
0.354809 0.352672 0.347568
0.379644 0.377529 0.371780
0.452878 0.450932 0.443306
0.564177 0.562639 0.553122
0.754985 0.754391 0.745275
0.454821 0.452850 0.445142
0.480166 0.478291 0.469938
0.496450 0.494573 0.485901
0.590531 0.589225 0.579537
0.685698 0.684829 0.675656
0.757627 0.757071 0.747974
-0.142369 -0.142213 -0.139460
-0.145504 -0.145623 -0.142609
-0.127352 -0.128597 -0.124667
0.233129 0.230515 0.228632
0.458626 0.456604 0.448584
0.487643 0.485676 0.476646
0.095568 0.092931 0.093347
0.154288 0.151922 0.151311
0.182259 0.179971 0.178858
0.349409 0.347269 0.342322
0.563419 0.561875 0.552659
0.592171 0.590823 0.581428
0.177770 0.175442 0.174418
0.210736 0.208468 0.206761
0.323030 0.320848 0.316552
0.512544 0.510710 0.501878
0.732435 0.731666 0.722606
0.800532 0.800113 0.791427
0.248257 0.246045 0.243519
0.261777 0.259568 0.256741
0.363459 0.361356 0.356015
0.442425 0.440420 0.433041
0.663544 0.662545 0.653249
0.776183 0.775573 0.766711
0.344843 0.342702 0.337837
0.362898 0.360766 0.355438
0.416373 0.414348 0.407655
0.480492 0.478591 0.470303
0.580671 0.579251 0.569718
0.765300 0.764700 0.755695
0.458563 0.456589 0.448857
0.486293 0.484404 0.475964
0.504152 0.502311 0.493414
0.598336 0.597066 0.587760
0.694389 0.693554 0.684376
0.767297 0.766734 0.757738
-0.142134 -0.142209 -0.139272
-0.144858 -0.145154 -0.141959
-0.145295 -0.145945 -0.142389
-0.101329 -0.103470 -0.099699
0.243786 0.240745 0.238038
0.235279 0.231942 0.228493
0.098225 0.095605 0.095952
0.158371 0.156008 0.155309
0.165584 0.163258 0.162418
0.199595 0.197316 0.195859
0.376420 0.374315 0.368637
0.381484 0.379413 0.373613
0.176325 0.174016 0.172991
0.213036 0.210779 0.209039
0.322495 0.320316 0.316030
0.370815 0.368688 0.363163
0.590072 0.588713 0.579462
0.635001 0.633896 0.624592
0.267418 0.265215 0.262244
0.279948 0.277751 0.274485
0.392831 0.390766 0.384661
0.532226 0.530524 0.521249
0.738859 0.738113 0.729064
0.847304 0.847060 0.839257
0.368309 0.366212 0.360753
0.386323 0.384250 0.378325
0.449018 0.447038 0.439501
0.583205 0.581798 0.572155
0.676919 0.676003 0.666848
0.828838 0.828485 0.820319
0.489897 0.487997 0.479440
0.516384 0.514505 0.505354
0.533329 0.531570 0.521969
0.633760 0.632660 0.623561
0.726857 0.726129 0.717006
0.793633 0.793180 0.784480
-0.149380 -0.149611 -0.146374
-0.152152 -0.152588 -0.149094
-0.152277 -0.153074 -0.149262
-0.181364 -0.182374 -0.178977
-0.184244 -0.186226 -0.183075
-0.225002 -0.226565 -0.224532
0.104652 0.102063 0.102313
0.162281 0.159952 0.159173
0.169942 0.167624 0.166720
0.170701 0.168373 0.167465
0.212999 0.210754 0.208994
0.206914 0.204643 0.203027
0.184206 0.181912 0.180752
0.219458 0.217227 0.215329
0.329888 0.327720 0.323238
0.333386 0.331226 0.326673
0.395323 0.393253 0.387105
0.403011 0.400927 0.394592
0.278466 0.276281 0.273046
0.293997 0.291820 0.288208
0.404775 0.402732 0.396329
0.526989 0.525226 0.515955
0.600549 0.599224 0.589818
0.676968 0.675997 0.666768
0.392296 0.390243 0.384143
0.409840 0.407785 0.401259
0.467492 0.465562 0.457541
0.623686 0.622516 0.613250
0.759297 0.758684 0.749728
0.900817 0.900705 0.894556
0.526275 0.524539 0.515079
0.552735 0.551067 0.541182
0.569154 0.567600 0.557646
0.684345 0.683469 0.674309
0.807054 0.806630 0.798152
0.882124 0.881985 0.875130
-0.165017 -0.165252 -0.161664
-0.168200 -0.168704 -0.165188
-0.169433 -0.170283 -0.166863
-0.207759 -0.208784 -0.205654
-0.249673 -0.250727 -0.248692
-0.267365 -0.268442 -0.267460
0.111022 0.108466 0.108605
0.157212 0.154864 0.154178
0.165604 0.163270 0.162457
0.169331 0.167019 0.166130
0.169564 0.167255 0.166376
0.176575 0.174289 0.173257
0.202570 0.200305 0.198741
0.226708 0.224465 0.222425
0.327015 0.324863 0.320433
0.332062 0.329896 0.325367
0.329376 0.327233 0.322756
0.321021 0.318857 0.314602
0.315896 0.313728 0.309569
0.333796 0.331640 0.327047
0.420837 0.418827 0.411988
0.527979 0.526217 0.516896
0.540172 0.538495 0.529159
0.533602 0.531908 0.522743
0.458716 0.456758 0.449003
0.478932 0.477034 0.468773
0.505852 0.503963 0.495002
0.652607 0.651604 0.642502
0.754393 0.753745 0.744789
0.764372 0.763785 0.754896
0.555747 0.554048 0.543896
0.582286 0.580861 0.570951
0.600321 0.599114 0.589782
0.707967 0.707178 0.697934
0.851591 0.851307 0.843627
0.977001 0.977006 0.975035
