src/luts/bw/10.cube
LUT_3D_SIZE 16
0.086692 0.086692 0.086692
0.088402 0.088402 0.088402
0.093685 0.093685 0.093685
0.101122 0.101122 0.101122
0.108841 0.108841 0.108841
0.116404 0.116404 0.116404
0.124194 0.124194 0.124194
0.132194 0.132194 0.132194
0.140614 0.140614 0.140614
0.150848 0.150848 0.150848
0.162075 0.162074 0.162074
0.175723 0.175723 0.175723
0.190496 0.190496 0.190496
0.207188 0.207188 0.207188
0.225713 0.225713 0.225713
0.247303 0.247302 0.247302
0.092276 0.092276 0.092276
0.094111 0.094111 0.094111
0.099207 0.099207 0.099207
0.106390 0.106390 0.106390
0.113791 0.113791 0.113791
0.121029 0.121029 0.121029
0.128410 0.128410 0.128410
0.136057 0.136057 0.136057
0.144155 0.144155 0.144155
0.154122 0.154122 0.154122
0.165122 0.165122 0.165122
0.178616 0.178616 0.178616
0.193284 0.193284 0.193284
0.210031 0.210031 0.210031
0.228691 0.228691 0.228691
0.250558 0.250558 0.250558
0.109893 0.109893 0.109893
0.111891 0.111891 0.111891
0.118910 0.118910 0.118910
0.125141 0.125141 0.125141
0.131762 0.131762 0.131762
0.138082 0.138082 0.138082
0.144192 0.144192 0.144192
0.150680 0.150680 0.150680
0.157706 0.157706 0.157706
0.166727 0.166727 0.166727
0.176939 0.176939 0.176939
0.189883 0.189883 0.189883
0.204177 0.204177 0.204177
0.221164 0.221164 0.221164
0.240390 0.240390 0.240390
0.263383 0.263383 0.263383
0.142119 0.142119 0.142119
0.144023 0.144023 0.144023
0.150800 0.150800 0.150800
0.161484 0.161484 0.161484
0.163987 0.163987 0.163987
0.167015 0.167015 0.167015
0.170538 0.170538 0.170538
0.174976 0.174976 0.174976
0.180283 0.180283 0.180283
0.187918 0.187918 0.187918
0.196977 0.196977 0.196977
0.209127 0.209127 0.209127
0.222807 0.222807 0.222807
0.240232 0.240232 0.240232
0.260489 0.260489 0.260489
0.285394 0.285394 0.285394
0.173350 0.173350 0.173350
0.175042 0.175042 0.175042
0.181181 0.181181 0.181181
0.190851 0.190851 0.190851
0.202180 0.202180 0.202180
0.202440 0.202440 0.202440
0.203482 0.203482 0.203482
0.205633 0.205633 0.205633
0.208998 0.208998 0.208998
0.215237 0.215237 0.215237
0.223277 0.223277 0.223277
0.235448 0.235448 0.235448
0.249598 0.249598 0.249598
0.268681 0.268681 0.268681
0.290934 0.290934 0.290934
0.318419 0.318419 0.318419
0.202283 0.202283 0.202283
0.203745 0.203745 0.203745
0.209134 0.209134 0.209134
0.217880 0.217880 0.217880
0.228464 0.228464 0.228464
0.239750 0.239750 0.239750
0.238457 0.238457 0.238457
0.238874 0.238874 0.238874
0.240784 0.240784 0.240784
0.246086 0.246086 0.246086
0.253428 0.253428 0.253428
0.265851 0.265851 0.265851
0.280615 0.280615 0.280615
0.301529 0.301529 0.301529
0.326092 0.326092 0.326092
0.356398 0.356398 0.356398
0.229243 0.229243 0.229243
0.230578 0.230578 0.230578
0.235577 0.235577 0.235577
0.243845 0.243845 0.243845
0.254130 0.254130 0.254130
0.265170 0.265170 0.265170
0.276949 0.276949 0.276949
0.275303 0.275303 0.275303
0.275372 0.275372 0.275372
0.279545 0.279545 0.279545
0.286305 0.286305 0.286305
0.299768 0.299768 0.299768
0.316083 0.316083 0.316083
0.338763 0.338763 0.338763
0.365198 0.365198 0.365198
0.397237 0.397237 0.397237
0.257393 0.257393 0.257393
0.258676 0.258676 0.258676
0.263533 0.263533 0.263533
0.271646 0.271646 0.271646
0.281940 0.281940 0.281940
0.293067 0.293067 0.293067
0.304899 0.304899 0.304899
0.318031 0.318031 0.318031
0.313513 0.313513 0.313513
0.317165 0.317165 0.317165
0.324044 0.324044 0.324044
0.337934 0.337934 0.337934
0.355210 0.355210 0.355210
0.378985 0.378985 0.378985
0.406647 0.406647 0.406647
0.439594 0.439594 0.439594
0.287558 0.287558 0.287558
0.288850 0.288850 0.288850
0.293797 0.293797 0.293797
0.302088 0.302088 0.302088
0.312746 0.312746 0.312746
0.324317 0.324317 0.324317
0.336496 0.336496 0.336496
0.349266 0.349266 0.349266
0.365078 0.365078 0.365078
0.365541 0.365541 0.365541
0.369766 0.369766 0.369766
0.382073 0.382073 0.382073
0.398808 0.398808 0.398808
0.422179 0.422179 0.422179
0.450023 0.450023 0.450023
0.482849 0.482849 0.482849
0.334741 0.334741 0.334741
0.336137 0.336137 0.336137
0.341509 0.341509 0.341509
0.350455 0.350455 0.350455
0.361681 0.361681 0.361681
0.373825 0.373825 0.373825
0.386398 0.386398 0.386398
0.399337 0.399337 0.399337
0.414730 0.414730 0.414730
0.435721 0.435721 0.435721
0.428680 0.428680 0.428680
0.434681 0.434681 0.434681
0.452195 0.452195 0.452195
0.474859 0.474859 0.474859
0.501590 0.501590 0.501590
0.532115 0.532115 0.532115
0.391070 0.391070 0.391070
0.392601 0.392601 0.392601
0.398539 0.398539 0.398539
0.408440 0.408440 0.408440
0.420334 0.420334 0.420334
0.433222 0.433222 0.433222
0.446272 0.446272 0.446272
0.459438 0.459438 0.459438
0.474344 0.474344 0.474344
0.492423 0.492423 0.492423
0.518478 0.518478 0.518478
0.518661 0.518661 0.518661
0.527358 0.527358 0.527358
0.542132 0.542132 0.542132
0.563220 0.563220 0.563220
0.588904 0.588904 0.588904
0.468412 0.468412 0.468412
0.469819 0.469819 0.469819
0.475297 0.475297 0.475297
0.484523 0.484523 0.484523
0.495200 0.495200 0.495200
0.506891 0.506891 0.506891
0.518510 0.518510 0.518510
0.530223 0.530223 0.530223
0.542846 0.542846 0.542846
0.556975 0.556975 0.556975
0.578362 0.578362 0.578362
0.602555 0.602555 0.602555
0.606322 0.606322 0.606322
0.615903 0.615903 0.615903
0.631510 0.631510 0.631510
0.651263 0.651263 0.651263
0.554331 0.554331 0.554331
0.555564 0.555564 0.555564
0.560382 0.560382 0.560382
0.568591 0.568591 0.568591
0.577629 0.577629 0.577629
0.587624 0.587624 0.587624
0.597364 0.597364 0.597364
0.607178 0.607178 0.607178
0.617352 0.617352 0.617352
0.628700 0.628700 0.628700
0.644128 0.644128 0.644128
0.661672 0.661672 0.661672
0.680734 0.680734 0.680734
0.683649 0.683649 0.683649
0.693229 0.693229 0.693229
0.707752 0.707752 0.707752
0.617439 0.617439 0.617439
0.618424 0.618424 0.618424
0.622280 0.622280 0.622280
0.628883 0.628883 0.628883
0.636355 0.636355 0.636355
0.644694 0.644694 0.644694
0.652895 0.652895 0.652895
0.661256 0.661256 0.661256
0.669788 0.669788 0.669788
0.679326 0.679326 0.679326
0.691407 0.691407 0.691407
0.705296 0.705296 0.705296
0.720499 0.720499 0.720499
0.734948 0.734948 0.734948
0.742398 0.742398 0.742398
0.753704 0.753704 0.753704
0.676544 0.676544 0.676544
0.677322 0.677322 0.677322
0.680378 0.680378 0.680378
0.685628 0.685628 0.685628
0.691765 0.691765 0.691765
0.698663 0.698663 0.698663
0.705556 0.705556 0.705556
0.712656 0.712656 0.712656
0.719886 0.719886 0.719886
0.727891 0.727891 0.727890
0.737460 0.737460 0.737460
0.748371 0.748371 0.748371
0.760239 0.760239 0.760239
0.771636 0.771636 0.771636
0.782477 0.782477 0.782477
0.791237 0.791237 0.791237
0.724346 0.724346 0.724346
0.724994 0.724994 0.724994
0.727549 0.727549 0.727549
0.731935 0.731935 0.731935
0.737215 0.737215 0.737215
0.743165 0.743165 0.743165
0.749182 0.749182 0.749182
0.755440 0.755440 0.755440
0.761844 0.761844 0.761844
0.768829 0.768829 0.768829
0.776785 0.776785 0.776785
0.785622 0.785622 0.785622
0.795058 0.795058 0.795058
0.803863 0.803863 0.803863
0.812063 0.812063 0.812063
0.819450 0.819450 0.819450
0.087357 0.087357 0.087357
0.089069 0.089069 0.089069
0.094296 0.094296 0.094296
0.101698 0.101698 0.101698
0.109357 0.109357 0.109357
0.116863 0.116863 0.116863
0.124652 0.124652 0.124652
0.132632 0.132632 0.132632
0.141012 0.141012 0.141012
0.151225 0.151225 0.151225
0.162440 0.162440 0.162440
0.176072 0.176072 0.176072
0.190830 0.190830 0.190830
0.207527 0.207527 0.207527
0.226065 0.226065 0.226065
0.247685 0.247685 0.247685
0.092991 0.092991 0.092991
0.094830 0.094830 0.094830
0.100515 0.100515 0.100515
0.108571 0.108571 0.108571
0.116832 0.116832 0.116832
0.124845 0.124845 0.124845
0.132916 0.132916 0.132916
0.141098 0.141098 0.141098
0.149584 0.149584 0.149584
0.159876 0.159876 0.159876
0.171157 0.171157 0.171157
0.184878 0.184878 0.184878
0.199729 0.199729 0.199729
0.216919 0.216919 0.216919
0.236127 0.236127 0.236127
0.258766 0.258766 0.258766
0.110676 0.110676 0.110676
0.112973 0.112973 0.112973
0.119822 0.119822 0.119822
0.126858 0.126858 0.126858
0.134237 0.134237 0.134237
0.141244 0.141244 0.141244
0.147960 0.147960 0.147960
0.154956 0.154956 0.154956
0.162375 0.162375 0.162375
0.171734 0.171734 0.171734
0.182231 0.182231 0.182231
0.195417 0.195417 0.195417
0.209926 0.209926 0.209926
0.227342 0.227342 0.227342
0.247093 0.247093 0.247093
0.270797 0.270797 0.270797
0.142880 0.142880 0.142880
0.145483 0.145483 0.145483
0.152021 0.152021 0.152021
0.162477 0.162477 0.162477
0.165803 0.165803 0.165803
0.169481 0.169481 0.169481
0.173551 0.173551 0.173551
0.178432 0.178432 0.178432
0.184104 0.184104 0.184104
0.192091 0.192091 0.192091
0.201463 0.201463 0.201463
0.214029 0.214029 0.214029
0.228122 0.228122 0.228122
0.246057 0.246057 0.246057
0.266824 0.266824 0.266824
0.292363 0.292363 0.292363
0.174032 0.174032 0.174032
0.176785 0.176785 0.176785
0.182665 0.182665 0.182665
0.192073 0.192073 0.192073
0.203172 0.203172 0.203172
0.204045 0.204045 0.204045
0.205610 0.205610 0.205610
0.208253 0.208253 0.208253
0.211980 0.211980 0.211980
0.218569 0.218569 0.218569
0.226929 0.226929 0.226929
0.239496 0.239496 0.239496
0.254048 0.254048 0.254048
0.273678 0.273678 0.273678
0.296485 0.296485 0.296485
0.324513 0.324513 0.324513
0.202874 0.202874 0.202874
0.205665 0.205665 0.205665
0.210805 0.210805 0.210805
0.219306 0.219306 0.219306
0.229660 0.229660 0.229660
0.240781 0.240781 0.240781
0.239997 0.239997 0.239997
0.240850 0.240850 0.240850
0.243118 0.243118 0.243118
0.248833 0.248833 0.248833
0.256541 0.256541 0.256541
0.269411 0.269411 0.269411
0.284640 0.284640 0.284640
0.306002 0.306002 0.306002
0.330978 0.330978 0.330978
0.361618 0.361618 0.361618
0.229782 0.229782 0.229782
0.232730 0.232730 0.232730
0.237481 0.237481 0.237481
0.245512 0.245512 0.245512
0.255557 0.255557 0.255557
0.266431 0.266431 0.266431
0.278085 0.278085 0.278085
0.276897 0.276897 0.276897
0.277370 0.277370 0.277370
0.281941 0.281941 0.281941
0.288948 0.288948 0.288948
0.302823 0.302823 0.302823
0.319563 0.319563 0.319563
0.342652 0.342652 0.342652
0.369443 0.369443 0.369443
0.401747 0.401747 0.401747
0.257910 0.257910 0.257910
0.261119 0.261119 0.261119
0.265727 0.265727 0.265727
0.273598 0.273598 0.273598
0.283652 0.283652 0.283652
0.294580 0.294580 0.294580
0.306284 0.306284 0.306284
0.319320 0.319320 0.319320
0.315338 0.315338 0.315338
0.319219 0.319219 0.319219
0.326477 0.326477 0.326477
0.340735 0.340735 0.340735
0.358436 0.358436 0.358436
0.382515 0.382515 0.382515
0.410393 0.410393 0.410393
0.443438 0.443438 0.443438
0.288077 0.288077 0.288077
0.291691 0.291691 0.291691
0.296375 0.296375 0.296375
0.304404 0.304404 0.304404
0.314792 0.314792 0.314792
0.326126 0.326126 0.326126
0.338164 0.338164 0.338164
0.350853 0.350853 0.350853
0.366567 0.366567 0.366567
0.367487 0.367487 0.367487
0.372156 0.372156 0.372156
0.384851 0.384851 0.384851
0.401993 0.401993 0.401993
0.425592 0.425592 0.425592
0.453626 0.453626 0.453626
0.486503 0.486503 0.486503
0.335304 0.335304 0.335304
0.339592 0.339592 0.339592
0.344661 0.344661 0.344661
0.353223 0.353223 0.353223
0.364121 0.364121 0.364121
0.375974 0.375974 0.375974
0.388352 0.388352 0.388352
0.401150 0.401150 0.401150
0.416463 0.416463 0.416463
0.437350 0.437350 0.437350
0.430985 0.430985 0.430985
0.437124 0.437124 0.437124
0.454977 0.454977 0.454977
0.477859 0.477859 0.477859
0.504705 0.504705 0.504705
0.535160 0.535160 0.535160
0.391691 0.391691 0.391691
0.396806 0.396806 0.396806
0.402382 0.402382 0.402382
0.411709 0.411709 0.411709
0.423210 0.423210 0.423210
0.435712 0.435712 0.435712
0.448534 0.448534 0.448534
0.461514 0.461514 0.461514
0.476318 0.476318 0.476318
0.494298 0.494298 0.494298
0.520145 0.520145 0.520145
0.520896 0.520896 0.520896
0.529914 0.529914 0.529914
0.544924 0.544924 0.544924
0.566106 0.566106 0.566106
0.591731 0.591731 0.591731
0.468984 0.468984 0.468984
0.473993 0.473993 0.473993
0.479109 0.479109 0.479109
0.487691 0.487691 0.487691
0.497978 0.497978 0.497978
0.509268 0.509268 0.509268
0.520656 0.520656 0.520656
0.532170 0.532170 0.532170
0.544698 0.544698 0.544698
0.558677 0.558677 0.558677
0.579975 0.579975 0.579975
0.603931 0.603931 0.603931
0.608182 0.608182 0.608182
0.617916 0.617916 0.617916
0.633663 0.633663 0.633663
0.653359 0.653359 0.653359
0.554835 0.554835 0.554835
0.559439 0.559439 0.559439
0.563914 0.563914 0.563914
0.571427 0.571427 0.571427
0.580109 0.580109 0.580109
0.589715 0.589715 0.589715
0.599235 0.599235 0.599235
0.608862 0.608862 0.608862
0.618935 0.618935 0.618935
0.630155 0.630155 0.630155
0.645498 0.645498 0.645498
0.662910 0.662910 0.662910
0.681780 0.681780 0.681780
0.685015 0.685015 0.685015
0.694808 0.694808 0.694808
0.709382 0.709382 0.709382
0.617839 0.617839 0.617839
0.621647 0.621647 0.621647
0.625227 0.625227 0.625227
0.631318 0.631318 0.631318
0.638467 0.638467 0.638467
0.646492 0.646492 0.646492
0.654515 0.654515 0.654515
0.662715 0.662715 0.662715
0.671154 0.671154 0.671154
0.680593 0.680593 0.680593
0.692631 0.692631 0.692631
0.706417 0.706417 0.706417
0.721484 0.721484 0.721484
0.735804 0.735804 0.735804
0.743427 0.743427 0.743427
0.754798 0.754798 0.754798
0.676858 0.676858 0.676858
0.679936 0.679936 0.679936
0.682778 0.682778 0.682778
0.687661 0.687661 0.687661
0.693527 0.693527 0.693527
0.700179 0.700179 0.700179
0.706928 0.706928 0.706928
0.713891 0.713891 0.713891
0.721047 0.721047 0.721047
0.728969 0.728969 0.728969
0.738516 0.738516 0.738516
0.749366 0.749366 0.749366
0.761125 0.761125 0.761125
0.772422 0.772422 0.772422
0.783181 0.783181 0.783181
0.792013 0.792013 0.792013
0.724607 0.724607 0.724607
0.727194 0.727194 0.727194
0.729573 0.729573 0.729573
0.733680 0.733680 0.733680
0.738730 0.738730 0.738730
0.744480 0.744480 0.744480
0.750365 0.750365 0.750365
0.756507 0.756507 0.756507
0.762857 0.762857 0.762857
0.769770 0.769770 0.769770
0.777701 0.777701 0.777701
0.786470 0.786470 0.786470
0.795820 0.795820 0.795820
0.804543 0.804543 0.804543
0.812680 0.812680 0.812680
0.820012 0.820012 0.820012
0.089410 0.089410 0.089410
0.090966 0.090966 0.090966
0.096444 0.096444 0.096444
0.103749 0.103749 0.103749
0.111230 0.111230 0.111230
0.118553 0.118553 0.118553
0.126369 0.126369 0.126369
0.134289 0.134289 0.134289
0.142534 0.142534 0.142534
0.152676 0.152676 0.152676
0.163858 0.163858 0.163858
0.177429 0.177429 0.177429
0.192133 0.192133 0.192133
0.208852 0.208852 0.208852
0.227450 0.227450 0.227450
0.249192 0.249192 0.249192
0.094655 0.094655 0.094655
0.097051 0.097051 0.097051
0.102785 0.102785 0.102785
0.110753 0.110753 0.110753
0.118812 0.118812 0.118812
0.126601 0.126601 0.126601
0.134617 0.134617 0.134617
0.142701 0.142701 0.142701
0.151046 0.151046 0.151046
0.161255 0.161255 0.161255
0.172487 0.172487 0.172487
0.186153 0.186153 0.186153
0.200964 0.200964 0.200964
0.218190 0.218190 0.218190
0.237468 0.237468 0.237468
0.260233 0.260233 0.260233
0.113426 0.113426 0.113426
0.115675 0.115675 0.115675
0.122635 0.122635 0.122635
0.132640 0.132640 0.132640
0.142469 0.142469 0.142469
0.151659 0.151659 0.151659
0.160197 0.160197 0.160197
0.168698 0.168698 0.168698
0.177332 0.177332 0.177332
0.187723 0.187723 0.187723
0.199078 0.199078 0.199078
0.213127 0.213127 0.213127
0.228395 0.228395 0.228395
0.247347 0.247347 0.247347
0.268853 0.268853 0.268853
0.294817 0.294817 0.294817
0.145590 0.145590 0.145590
0.148099 0.148099 0.148099
0.155839 0.155839 0.155839
0.165528 0.165528 0.165528
0.171537 0.171537 0.171537
0.177415 0.177415 0.177415
0.183275 0.183275 0.183275
0.189623 0.189623 0.189623
0.196538 0.196538 0.196538
0.205680 0.205680 0.205680
0.216117 0.216117 0.216117
0.230051 0.230051 0.230051
0.245565 0.245565 0.245565
0.265540 0.265540 0.265540
0.288332 0.288332 0.288332
0.315903 0.315903 0.315903
0.176508 0.176508 0.176508
0.179154 0.179154 0.179154
0.187314 0.187314 0.187314
0.195879 0.195879 0.195879
0.206219 0.206219 0.206219
0.209203 0.209203 0.209203
0.212541 0.212541 0.212541
0.216720 0.216720 0.216720
0.221771 0.221771 0.221771
0.229552 0.229552 0.229552
0.239010 0.239010 0.239010
0.252934 0.252934 0.252934
0.268876 0.268876 0.268876
0.290345 0.290345 0.290345
0.314961 0.314961 0.314961
0.344739 0.344739 0.344739
0.205052 0.205052 0.205052
0.207744 0.207744 0.207744
0.216076 0.216076 0.216076
0.223809 0.223809 0.223809
0.233405 0.233405 0.233405
0.243950 0.243950 0.243950
0.244933 0.244933 0.244933
0.247280 0.247280 0.247280
0.250849 0.250849 0.250849
0.257873 0.257873 0.257873
0.266888 0.266888 0.266888
0.281269 0.281269 0.281269
0.298063 0.298063 0.298063
0.320938 0.320938 0.320938
0.347276 0.347276 0.347276
0.378923 0.378923 0.378923
0.231799 0.231799 0.231799
0.234652 0.234652 0.234652
0.243509 0.243509 0.243509
0.250808 0.250808 0.250808
0.260076 0.260076 0.260076
0.270373 0.270373 0.270373
0.281576 0.281576 0.281576
0.281948 0.281948 0.281948
0.283838 0.283838 0.283838
0.289827 0.289827 0.289827
0.298241 0.298241 0.298241
0.313071 0.313071 0.313071
0.331189 0.331189 0.331189
0.355589 0.355589 0.355589
0.383555 0.383555 0.383555
0.416652 0.416652 0.416652
0.259865 0.259865 0.259865
0.262984 0.262984 0.262984
0.272693 0.272693 0.272693
0.279832 0.279832 0.279832
0.289062 0.289062 0.289062
0.299357 0.299357 0.299357
0.310587 0.310587 0.310587
0.323279 0.323279 0.323279
0.321081 0.321081 0.321081
0.325867 0.325867 0.325867
0.334483 0.334483 0.334483
0.350076 0.350076 0.350076
0.369060 0.369060 0.369060
0.394153 0.394153 0.394153
0.422894 0.422894 0.422894
0.456269 0.456269 0.456269
0.290062 0.290062 0.290062
0.293586 0.293586 0.293586
0.304586 0.304586 0.304586
0.311830 0.311830 0.311830
0.321343 0.321343 0.321343
0.331889 0.331889 0.331889
0.343395 0.343395 0.343395
0.355766 0.355766 0.355766
0.371130 0.371130 0.371130
0.373671 0.373671 0.373671
0.379864 0.379864 0.379864
0.394016 0.394016 0.394016
0.412491 0.412491 0.412491
0.436948 0.436948 0.436948
0.465473 0.465473 0.465473
0.498281 0.498281 0.498281
0.337470 0.337470 0.337470
0.341648 0.341648 0.341648
0.354628 0.354628 0.354628
0.362057 0.362057 0.362057
0.371934 0.371934 0.371934
0.382782 0.382782 0.382782
0.394511 0.394511 0.394511
0.406815 0.406815 0.406815
0.421832 0.421832 0.421832
0.442330 0.442330 0.442330
0.438439 0.438439 0.438439
0.445623 0.445623 0.445623
0.464020 0.464020 0.464020
0.487628 0.487628 0.487628
0.514841 0.514841 0.514841
0.545186 0.545186 0.545186
0.394099 0.394099 0.394099
0.399075 0.399075 0.399075
0.414423 0.414423 0.414423
0.422088 0.422088 0.422088
0.432388 0.432388 0.432388
0.443610 0.443610 0.443610
0.455634 0.455634 0.455634
0.468030 0.468030 0.468030
0.482455 0.482455 0.482455
0.500139 0.500139 0.500139
0.525227 0.525227 0.525227
0.527799 0.527799 0.527799
0.538291 0.538291 0.538291
0.554067 0.554067 0.554067
0.575569 0.575569 0.575569
0.600989 0.600989 0.600989
0.471214 0.471214 0.471214
0.476072 0.476072 0.476072
0.490945 0.490945 0.490945
0.497696 0.497696 0.497696
0.506824 0.506824 0.506824
0.516803 0.516803 0.516803
0.527448 0.527448 0.527448
0.538320 0.538320 0.538320
0.550508 0.550508 0.550508
0.564116 0.564116 0.564116
0.584912 0.584912 0.584912
0.608127 0.608127 0.608127
0.613743 0.613743 0.613743
0.624351 0.624351 0.624351
0.640421 0.640421 0.640421
0.660293 0.660293 0.660293
0.556802 0.556802 0.556802
0.561251 0.561251 0.561251
0.574723 0.574723 0.574723
0.580345 0.580345 0.580345
0.587977 0.587977 0.587977
0.596326 0.596326 0.596326
0.605153 0.605153 0.605153
0.614154 0.614154 0.614154
0.623908 0.623908 0.623908
0.634693 0.634693 0.634693
0.649790 0.649790 0.649790
0.666660 0.666660 0.666660
0.684969 0.684969 0.684969
0.689314 0.689314 0.689314
0.699734 0.699734 0.699734
0.714640 0.714640 0.714640
0.619405 0.619405 0.619405
0.623091 0.623091 0.623091
0.634284 0.634284 0.634284
0.638897 0.638897 0.638897
0.645186 0.645186 0.645186
0.652199 0.652199 0.652199
0.659646 0.659646 0.659646
0.667309 0.667309 0.667309
0.675479 0.675479 0.675479
0.684560 0.684560 0.684560
0.696477 0.696477 0.696477
0.709906 0.709906 0.709906
0.724520 0.724520 0.724520
0.738416 0.738416 0.738416
0.746601 0.746601 0.746601
0.758335 0.758335 0.758335
0.678090 0.678090 0.678090
0.681076 0.681076 0.681077
0.690179 0.690179 0.690179
0.693965 0.693965 0.693965
0.699142 0.699142 0.699142
0.705010 0.705010 0.705010
0.711284 0.711284 0.711284
0.717817 0.717817 0.717817
0.724722 0.724722 0.724722
0.732360 0.732360 0.732360
0.741846 0.741846 0.741846
0.752440 0.752440 0.752440
0.763852 0.763852 0.763852
0.774832 0.774832 0.774832
0.785332 0.785332 0.785332
0.794466 0.794466 0.794466
0.725632 0.725633 0.725632
0.728147 0.728147 0.728147
0.735834 0.735834 0.735834
0.739102 0.739102 0.739102
0.743571 0.743571 0.743571
0.748663 0.748663 0.748663
0.754121 0.754121 0.754121
0.759920 0.759920 0.759920
0.766053 0.766053 0.766053
0.772753 0.772753 0.772753
0.780594 0.780594 0.780594
0.789150 0.789150 0.789150
0.798194 0.798194 0.798194
0.806660 0.806660 0.806660
0.814591 0.814591 0.814591
0.821734 0.821734 0.821734
0.092247 0.092247 0.092247
0.093627 0.093627 0.093627
0.098539 0.098539 0.098539
0.107070 0.107070 0.107070
0.114410 0.114410 0.114410
0.121604 0.121604 0.121604
0.129294 0.129294 0.129294
0.137076 0.137076 0.137076
0.145125 0.145125 0.145125
0.155141 0.155141 0.155141
0.166259 0.166259 0.166259
0.179737 0.179737 0.179737
0.194359 0.194359 0.194359
0.211122 0.211122 0.211122
0.229829 0.229829 0.229829
0.251779 0.251779 0.251779
0.097005 0.097005 0.097005
0.100135 0.100135 0.100135
0.105261 0.105261 0.105261
0.114296 0.114296 0.114296
0.122147 0.122147 0.122147
0.129735 0.129735 0.129735
0.137549 0.137549 0.137549
0.145446 0.145446 0.145446
0.153590 0.153590 0.153590
0.163654 0.163654 0.163654
0.174791 0.174791 0.174791
0.188375 0.188375 0.188375
0.203123 0.203123 0.203123
0.220413 0.220413 0.220413
0.239816 0.239816 0.239816
0.262797 0.262797 0.262797
0.113942 0.113942 0.113942
0.116857 0.116857 0.116857
0.126532 0.126532 0.126532
0.136686 0.136686 0.136686
0.146097 0.146097 0.146097
0.154852 0.154852 0.154852
0.163033 0.163033 0.163033
0.171255 0.171255 0.171255
0.179674 0.179674 0.179674
0.189895 0.189895 0.189895
0.201117 0.201117 0.201117
0.215124 0.215125 0.215125
0.230392 0.230392 0.230392
0.249441 0.249441 0.249441
0.271087 0.271087 0.271087
0.297263 0.297263 0.297263
0.149897 0.149897 0.149897
0.152312 0.152312 0.152312
0.159738 0.159738 0.159738
0.169459 0.169459 0.169459
0.178894 0.178894 0.178894
0.187654 0.187654 0.187654
0.195893 0.195893 0.195893
0.204197 0.204197 0.204197
0.212752 0.212752 0.212752
0.223473 0.223473 0.223473
0.235375 0.235375 0.235375
0.251177 0.251177 0.251177
0.268611 0.268611 0.268611
0.291161 0.291161 0.291161
0.316485 0.316485 0.316485
0.346463 0.346463 0.346463
0.180441 0.180441 0.180441
0.182980 0.182980 0.182980
0.190797 0.190797 0.190797
0.200807 0.200807 0.200807
0.210152 0.210152 0.210152
0.215969 0.215969 0.215969
0.221730 0.221730 0.221730
0.227996 0.227996 0.227996
0.234899 0.234899 0.234899
0.244516 0.244516 0.244516
0.255668 0.255668 0.255668
0.271556 0.271556 0.271556
0.289452 0.289452 0.289452
0.313155 0.313155 0.313155
0.339904 0.339904 0.339904
0.371556 0.371556 0.371556
0.208574 0.208574 0.208574
0.211172 0.211172 0.211172
0.219208 0.219208 0.219208
0.229697 0.229697 0.229697
0.238314 0.238314 0.238314
0.248065 0.248065 0.248065
0.251474 0.251474 0.251474
0.255932 0.255932 0.255932
0.261403 0.261403 0.261403
0.270291 0.270291 0.270291
0.281139 0.281139 0.281139
0.297572 0.297572 0.297572
0.316457 0.316457 0.316457
0.341318 0.341318 0.341318
0.369302 0.369302 0.369302
0.402121 0.402121 0.402121
0.235118 0.235118 0.235118
0.237883 0.237883 0.237883
0.246467 0.246467 0.246467
0.257778 0.257778 0.257778
0.266052 0.266052 0.266052
0.275570 0.275570 0.275570
0.286124 0.286124 0.286124
0.288791 0.288791 0.288791
0.292696 0.292696 0.292696
0.300715 0.300715 0.300715
0.311083 0.311083 0.311083
0.327887 0.327887 0.327887
0.347704 0.347704 0.347704
0.373578 0.373578 0.373578
0.402858 0.402858 0.402858
0.436725 0.436725 0.436725
0.263117 0.263117 0.263117
0.266151 0.266151 0.266151
0.275593 0.275593 0.275593
0.288021 0.288021 0.288021
0.296184 0.296184 0.296184
0.305672 0.305672 0.305672
0.316257 0.316257 0.316257
0.328391 0.328391 0.328391
