src/luts/bw/10.cube
LUT_3D_SIZE 6
0.086692 0.086692 0.086692
0.101122 0.101122 0.101122
0.124194 0.124194 0.124194
0.150848 0.150848 0.150848
0.190496 0.190496 0.190496
0.247303 0.247302 0.247302
0.142119 0.142119 0.142119
0.161484 0.161484 0.161484
0.170538 0.170538 0.170538
0.187918 0.187918 0.187918
0.222807 0.222807 0.222807
0.285394 0.285394 0.285394
0.229243 0.229243 0.229243
0.243845 0.243845 0.243845
0.276949 0.276949 0.276949
0.279545 0.279545 0.279545
0.316083 0.316083 0.316083
0.397237 0.397237 0.397237
0.334741 0.334741 0.334741
0.350455 0.350455 0.350455
0.386398 0.386398 0.386398
0.435721 0.435721 0.435721
0.452195 0.452195 0.452195
0.532115 0.532115 0.532115
0.554331 0.554331 0.554331
0.568591 0.568591 0.568591
0.597364 0.597364 0.597364
0.628700 0.628700 0.628700
0.680734 0.680734 0.680734
0.707752 0.707752 0.707752
0.724346 0.724346 0.724346
0.731935 0.731935 0.731935
0.749182 0.749182 0.749182
0.768829 0.768829 0.768829
0.795058 0.795058 0.795058
0.819450 0.819450 0.819450
0.092247 0.092247 0.092247
0.107070 0.107070 0.107070
0.129294 0.129294 0.129294
0.155141 0.155141 0.155141
0.194359 0.194359 0.194359
0.251779 0.251779 0.251779
0.149897 0.149897 0.149897
0.169459 0.169459 0.169459
0.195893 0.195893 0.195893
0.223473 0.223473 0.223473
0.268611 0.268611 0.268611
0.346463 0.346463 0.346463
0.235118 0.235118 0.235118
0.257778 0.257778 0.257778
0.286124 0.286124 0.286124
0.300715 0.300715 0.300715
0.347704 0.347704 0.347704
0.436725 0.436725 0.436725
0.341080 0.341080 0.341080
0.373316 0.373316 0.373316
0.402378 0.402378 0.402378
0.448307 0.448307 0.448307
0.475893 0.475893 0.475893
0.558317 0.558317 0.558317
0.560157 0.560157 0.560157
0.591133 0.591133 0.591133
0.612359 0.612359 0.612359
0.640107 0.640107 0.640107
0.688573 0.688573 0.688573
0.721389 0.721389 0.721389
0.727393 0.727393 0.727393
0.745736 0.745736 0.745736
0.758892 0.758892 0.758892
0.776498 0.776498 0.776498
0.801152 0.801152 0.801152
0.823790 0.823790 0.823790
0.100872 0.100872 0.100872
0.111879 0.111879 0.111879
0.141434 0.141434 0.141434
0.165829 0.165829 0.165829
0.203993 0.203993 0.203993
0.263006 0.263006 0.263006
0.142454 0.142454 0.142454
0.180138 0.180138 0.180138
0.206432 0.206432 0.206432
0.232327 0.232327 0.232327
0.277584 0.277584 0.277584
0.357396 0.357396 0.357396
0.248069 0.248069 0.248069
0.269120 0.269120 0.269120
0.298331 0.298331 0.298331
0.332446 0.332446 0.332446
0.396050 0.396050 0.396050
0.489947 0.489947 0.489947
0.355438 0.355438 0.355438
0.385271 0.385271 0.385271
0.423620 0.423620 0.423620
0.463543 0.463543 0.463543
0.515818 0.515818 0.515818
0.597199 0.597199 0.597199
0.572635 0.572635 0.572635
0.600005 0.600005 0.600005
0.631312 0.631312 0.631312
0.655914 0.655914 0.655914
0.697907 0.697907 0.697907
0.740116 0.740116 0.740116
0.734491 0.734491 0.734491
0.751071 0.751071 0.751071
0.771671 0.771671 0.771671
0.787209 0.787209 0.787209
0.809309 0.809309 0.809309
0.829639 0.829639 0.829639
0.110094 0.110094 0.110094
0.119037 0.119037 0.119037
0.144523 0.144523 0.144523
0.179740 0.179740 0.179740
0.215621 0.215621 0.215621
0.276550 0.276550 0.276550
0.143432 0.143432 0.143432
0.191225 0.191225 0.191225
0.212788 0.212788 0.212788
0.245817 0.245817 0.245817
0.290564 0.290564 0.290564
0.372747 0.372747 0.372747
0.233345 0.233345 0.233345
0.264661 0.264661 0.264661
0.311852 0.311852 0.311852
0.347340 0.347340 0.347340
0.411108 0.411108 0.411108
0.504880 0.504880 0.504880
0.374698 0.374698 0.374698
0.403860 0.403860 0.403860
0.440148 0.440148 0.440148
0.480226 0.480226 0.480226
0.547180 0.547180 0.547180
0.621944 0.621944 0.621944
0.586596 0.586596 0.586596
0.611937 0.611937 0.611937
0.641657 0.641657 0.641657
0.669852 0.669852 0.669852
0.707356 0.707356 0.707356
0.751629 0.751629 0.751629
0.742734 0.742734 0.742734
0.758366 0.758366 0.758366
0.778055 0.778055 0.778055
0.795643 0.795643 0.795643
0.816035 0.816035 0.816035
0.834906 0.834906 0.834906
0.123763 0.123763 0.123763
0.132613 0.132613 0.132613
0.156856 0.156856 0.156856
0.186146 0.186146 0.186146
0.237338 0.237338 0.237338
0.303758 0.303758 0.303758
0.155157 0.155157 0.155157
0.207895 0.207895 0.207895
0.227259 0.227259 0.227259
0.255399 0.255399 0.255399
0.319276 0.319276 0.319276
0.406593 0.406593 0.406593
0.236211 0.236211 0.236211
0.274695 0.274695 0.274695
0.335426 0.335426 0.335426
0.368697 0.368697 0.368697
0.443451 0.443451 0.443451
0.534746 0.534746 0.534746
0.349677 0.349677 0.349677
0.387951 0.387951 0.387951
0.451635 0.451635 0.451635
0.508763 0.508763 0.508763
0.573190 0.573190 0.573190
0.642696 0.642696 0.642696
0.612328 0.612328 0.612328
0.635132 0.635132 0.635132
0.660951 0.660951 0.660951
0.686190 0.686190 0.686190
0.721128 0.721128 0.721128
0.759002 0.759002 0.759002
0.754895 0.754895 0.754895
0.769463 0.769463 0.769463
0.787840 0.787840 0.787840
0.804325 0.804325 0.804325
0.822327 0.822327 0.822327
0.840417 0.840417 0.840417
0.145298 0.145298 0.145298
0.154150 0.154150 0.154150
0.177170 0.177170 0.177171
0.205155 0.205155 0.205155
0.256729 0.256729 0.256729
0.342432 0.342432 0.342432
0.175116 0.175116 0.175116
0.230824 0.230824 0.230824
0.250804 0.250804 0.250804
0.280550 0.280550 0.280550
0.349339 0.349339 0.349339
0.448477 0.448477 0.448477
0.256098 0.256098 0.256098
0.300939 0.300939 0.300939
0.370032 0.370032 0.370032
0.406072 0.406072 0.406072
0.483524 0.483524 0.483524
0.567165 0.567165 0.567165
0.374344 0.374344 0.374344
0.419901 0.419901 0.419901
0.490625 0.490625 0.490625
0.545204 0.545204 0.545204
0.606614 0.606614 0.606614
0.665375 0.665375 0.665375
0.611661 0.611661 0.611661
0.643777 0.643777 0.643777
0.682764 0.682764 0.682764
0.710389 0.710389 0.710389
0.737672 0.737672 0.737672
0.772636 0.772636 0.772636
0.768061 0.768061 0.768061
0.781431 0.781431 0.781431
0.798197 0.798197 0.798197
0.813547 0.813547 0.813547
0.829933 0.829933 0.829933
0.846542 0.846542 0.846542
