src/luts/bw/2.cube
LUT_3D_SIZE 16
0.006252 0.006252 0.006252
0.015960 0.015960 0.015960
0.024813 0.024813 0.024813
0.032694 0.032694 0.032694
0.042825 0.042825 0.042825
0.055560 0.055560 0.055560
0.070515 0.070515 0.070515
0.087795 0.087795 0.087795
0.107105 0.107105 0.107105
0.128414 0.128414 0.128414
0.150251 0.150251 0.150251
0.159412 0.159412 0.159412
0.163589 0.163589 0.163589
0.167893 0.167893 0.167893
0.172217 0.172217 0.172217
0.176837 0.176837 0.176837
0.016453 0.016453 0.016453
0.020887 0.020887 0.020887
0.027598 0.027598 0.027598
0.033703 0.033703 0.033703
0.044046 0.044046 0.044046
0.056851 0.056851 0.056851
0.071519 0.071519 0.071519
0.088582 0.088582 0.088582
0.107740 0.107740 0.107740
0.129219 0.129219 0.129219
0.152378 0.152378 0.152378
0.163408 0.163408 0.163408
0.166772 0.166772 0.166772
0.170991 0.170991 0.170991
0.175536 0.175536 0.175536
0.180220 0.180220 0.180220
0.033097 0.033097 0.033097
0.033503 0.033503 0.033503
0.043675 0.043675 0.043675
0.045918 0.045918 0.045918
0.055153 0.055153 0.055153
0.066815 0.066815 0.066815
0.078863 0.078863 0.078863
0.092272 0.092272 0.092272
0.108464 0.108464 0.108464
0.128779 0.128779 0.128779
0.152639 0.152639 0.152639
0.166823 0.166823 0.166823
0.169967 0.169967 0.169967
0.173641 0.173641 0.173641
0.178137 0.178137 0.178137
0.183120 0.183120 0.183120
0.061539 0.061539 0.061539
0.059713 0.059713 0.059713
0.058899 0.058899 0.058899
0.083274 0.083274 0.083274
0.079409 0.079409 0.079409
0.088110 0.088110 0.088110
0.101119 0.101119 0.101119
0.115678 0.115678 0.115678
0.130978 0.130978 0.130978
0.147896 0.147896 0.147896
0.166836 0.166836 0.166836
0.180517 0.180517 0.180517
0.180217 0.180217 0.180217
0.181958 0.181958 0.181958
0.184785 0.184785 0.184785
0.188731 0.188731 0.188731
0.129480 0.129480 0.129480
0.124354 0.124354 0.124354
0.115208 0.115208 0.115208
0.116460 0.116460 0.116460
0.145697 0.145697 0.145697
0.135030 0.135030 0.135030
0.135731 0.135731 0.135731
0.146312 0.146312 0.146312
0.160434 0.160434 0.160434
0.175933 0.175933 0.175933
0.194060 0.194060 0.194060
0.209982 0.209983 0.209983
0.209073 0.209073 0.209073
0.209876 0.209876 0.209876
0.211878 0.211878 0.211878
0.215433 0.215433 0.215433
0.191459 0.191459 0.191459
0.186644 0.186644 0.186644
0.178231 0.178231 0.178231
0.157319 0.157319 0.157319
0.177697 0.177697 0.177697
0.202802 0.202802 0.202802
0.191232 0.191232 0.191232
0.185511 0.185511 0.185511
0.193233 0.193233 0.193233
0.208770 0.208770 0.208770
0.227066 0.227066 0.227066
0.246089 0.246089 0.246089
0.246760 0.246760 0.246760
0.246461 0.246461 0.246461
0.246999 0.246999 0.246999
0.249519 0.249519 0.249519
0.256760 0.256760 0.256760
0.251771 0.251771 0.251771
0.245449 0.245449 0.245449
0.224869 0.224869 0.224869
0.215973 0.215973 0.215973
0.239890 0.239890 0.239890
0.260387 0.260387 0.260387
0.250753 0.250753 0.250753
0.241306 0.241306 0.241306
0.247399 0.247399 0.247399
0.263812 0.263812 0.263812
0.283423 0.283423 0.283423
0.287319 0.287319 0.287319
0.286983 0.286983 0.286983
0.287541 0.287541 0.287541
0.290800 0.290800 0.290800
0.314218 0.314218 0.314218
0.309766 0.309766 0.309766
0.304680 0.304680 0.304680
0.292375 0.292375 0.292375
0.267067 0.267067 0.267067
0.271853 0.271853 0.271853
0.299428 0.299428 0.299428
0.317297 0.317297 0.317297
0.308758 0.308758 0.308758
0.298618 0.298618 0.298618
0.306652 0.306652 0.306652
0.324952 0.324952 0.324952
0.332797 0.332797 0.332797
0.332714 0.332714 0.332714
0.333441 0.333441 0.333441
0.336439 0.336439 0.336439
0.365914 0.365914 0.365914
0.362387 0.362387 0.362387
0.357729 0.357729 0.357729
0.350884 0.350884 0.350884
0.327654 0.327654 0.327654
0.313576 0.313576 0.313576
0.326646 0.326646 0.326646
0.356069 0.356069 0.356069
0.375070 0.375070 0.375070
0.368038 0.368038 0.368038
0.361618 0.361618 0.361618
0.374020 0.374020 0.374020
0.383729 0.383729 0.383729
0.383316 0.383316 0.383316
0.383499 0.383500 0.383500
0.386553 0.386553 0.386553
0.418488 0.418488 0.418488
0.415624 0.415624 0.415624
0.411482 0.411482 0.411482
0.405627 0.405627 0.405627
0.392737 0.392737 0.392737
0.370081 0.370081 0.370081
0.364084 0.364084 0.364084
0.384053 0.384053 0.384053
0.414297 0.414297 0.414297
0.439211 0.439211 0.439211
0.434018 0.434018 0.434018
0.431404 0.431404 0.431404
0.439390 0.439390 0.439390
0.440733 0.440733 0.440733
0.441638 0.441638 0.441638
0.445830 0.445830 0.445830
0.473279 0.473279 0.473279
0.470961 0.470961 0.470961
0.468350 0.468350 0.468350
0.463938 0.463938 0.463938
0.456489 0.456489 0.456489
0.438279 0.438279 0.438279
0.419581 0.419581 0.419581
0.420234 0.420234 0.420234
0.443133 0.443133 0.443133
0.472258 0.472258 0.472258
0.505414 0.505414 0.505414
0.504911 0.504911 0.504911
0.507204 0.507204 0.507204
0.504925 0.504925 0.504925
0.504393 0.504393 0.504393
0.509111 0.509111 0.509111
0.529755 0.529755 0.529755
0.528123 0.528123 0.528123
0.525841 0.525841 0.525841
0.521933 0.521933 0.521933
0.516877 0.516877 0.516877
0.506814 0.506814 0.506814
0.488399 0.488399 0.488399
0.474311 0.474311 0.474311
0.482322 0.482322 0.482322
0.506631 0.506631 0.506631
0.534563 0.534563 0.534563
0.572048 0.572048 0.572048
0.578022 0.578022 0.578022
0.577034 0.577034 0.577034
0.575089 0.575089 0.575089
0.578405 0.578405 0.578405
0.595683 0.595683 0.595683
0.593701 0.593701 0.593701
0.590910 0.590910 0.590910
0.587722 0.587722 0.587722
0.583911 0.583911 0.583911
0.578091 0.578091 0.578091
0.565242 0.565242 0.565242
0.545947 0.545947 0.545947
0.535280 0.535280 0.535280
0.549715 0.549715 0.549715
0.570483 0.570483 0.570483
0.595374 0.595374 0.595374
0.629899 0.629899 0.629899
0.643796 0.643796 0.643796
0.646944 0.646944 0.646944
0.651681 0.651681 0.651681
0.638846 0.638846 0.638846
0.638796 0.638796 0.638796
0.638030 0.638030 0.638030
0.636820 0.636820 0.636820
0.635146 0.635146 0.635146
0.633135 0.633135 0.633135
0.627738 0.627738 0.627738
0.615723 0.615723 0.615723
0.601229 0.601229 0.601229
0.597928 0.597928 0.597928
0.615764 0.615764 0.615764
0.634972 0.634972 0.634972
0.658127 0.658127 0.658127
0.686021 0.686021 0.686021
0.699798 0.699798 0.699798
0.705354 0.705354 0.705354
0.652504 0.652504 0.652504
0.652793 0.652793 0.652793
0.653449 0.653449 0.653449
0.653473 0.653473 0.653473
0.653170 0.653170 0.653170
0.653006 0.653006 0.653006
0.652290 0.652290 0.652290
0.646881 0.646881 0.646881
0.635303 0.635303 0.635303
0.628132 0.628132 0.628132
0.641230 0.641230 0.641230
0.662731 0.662731 0.662731
0.681617 0.681617 0.681617
0.703795 0.703795 0.703795
0.723430 0.723430 0.723430
0.736233 0.736233 0.736233
0.660862 0.660862 0.660862
0.660630 0.660630 0.660630
0.661022 0.661022 0.661022
0.661094 0.661094 0.661094
0.660827 0.660827 0.660827
0.660807 0.660807 0.660807
0.661043 0.661043 0.661043
0.658246 0.658246 0.658246
0.649782 0.649782 0.649782
0.642505 0.642505 0.642505
0.650227 0.650227 0.650227
0.672733 0.672733 0.672733
0.690569 0.690569 0.690569
0.708764 0.708764 0.708764
0.728378 0.728378 0.728378
0.737425 0.737425 0.737425
-0.205978 -0.205978 -0.205978
-0.205604 -0.205604 -0.205604
-0.204960 -0.204960 -0.204960
-0.204245 -0.204245 -0.204245
-0.198212 -0.198212 -0.198212
-0.190960 -0.190960 -0.190960
-0.182834 -0.182834 -0.182834
-0.172049 -0.172049 -0.172049
-0.157948 -0.157948 -0.157948
-0.140638 -0.140638 -0.140638
-0.121441 -0.121441 -0.121441
-0.116662 -0.116662 -0.116662
-0.119831 -0.119831 -0.119831
-0.123225 -0.123225 -0.123225
-0.126312 -0.126312 -0.126312
-0.128478 -0.128478 -0.128478
0.019699 0.019699 0.019699
0.026471 0.026471 0.026471
0.035814 0.035814 0.035814
0.042390 0.042390 0.042390
0.051471 0.051471 0.051471
0.062647 0.062647 0.062647
0.076359 0.076359 0.076359
0.092466 0.092466 0.092466
0.110536 0.110536 0.110536
0.130986 0.130986 0.130986
0.153594 0.153594 0.153594
0.166109 0.166109 0.166109
0.169958 0.169958 0.169958
0.174011 0.174011 0.174011
0.178105 0.178105 0.178105
0.182750 0.182750 0.182750
0.035467 0.035467 0.035467
0.042750 0.042750 0.042750
0.051572 0.051572 0.051572
0.056143 0.056143 0.056143
0.062196 0.062196 0.062196
0.071854 0.071854 0.071854
0.082936 0.082936 0.082936
0.095728 0.095728 0.095728
0.111077 0.111077 0.111077
0.130357 0.130357 0.130357
0.153423 0.153423 0.153423
0.168392 0.168392 0.168392
0.172309 0.172309 0.172309
0.176098 0.176098 0.176098
0.180188 0.180188 0.180188
0.184918 0.184918 0.184918
0.061715 0.061715 0.061715
0.068298 0.068298 0.068298
0.069651 0.069651 0.069651
0.090560 0.090560 0.090560
0.087078 0.087078 0.087078
0.093279 0.093279 0.093279
0.105653 0.105653 0.105653
0.119898 0.119898 0.119898
0.134987 0.134987 0.134987
0.151697 0.151697 0.151697
0.169725 0.169725 0.169725
0.183290 0.183290 0.183290
0.182820 0.182820 0.182820
0.184442 0.184442 0.184442
0.187084 0.187084 0.187084
0.190825 0.190825 0.190825
0.133079 0.133079 0.133079
0.132456 0.132456 0.132456
0.126669 0.126669 0.126669
0.122791 0.122791 0.122791
0.151846 0.151846 0.151846
0.140940 0.140940 0.140940
0.139896 0.139896 0.139896
0.149901 0.149901 0.149901
0.164346 0.164346 0.164346
0.180004 0.180004 0.180004
0.197404 0.197404 0.197404
0.213490 0.213490 0.213490
0.212706 0.212706 0.212706
0.213448 0.213448 0.213448
0.215320 0.215320 0.215320
0.218898 0.218898 0.218898
0.195425 0.195425 0.195425
0.194232 0.194232 0.194232
0.187937 0.187937 0.187937
0.164577 0.164577 0.164577
0.183463 0.183463 0.183463
0.207141 0.207141 0.207141
0.196294 0.196294 0.196294
0.189723 0.189722 0.189722
0.196894 0.196894 0.196894
0.212880 0.212880 0.212880
0.231232 0.231232 0.231232
0.249917 0.249917 0.249917
0.250480 0.250480 0.250480
0.250374 0.250374 0.250374
0.250905 0.250905 0.250905
0.253413 0.253413 0.253413
0.261160 0.261160 0.261160
0.258561 0.258561 0.258561
0.254124 0.254124 0.254124
0.232797 0.232797 0.232797
0.221520 0.221520 0.221520
0.244539 0.244539 0.244539
0.264562 0.264562 0.264562
0.255327 0.255326 0.255326
0.245236 0.245236 0.245236
0.250895 0.250895 0.250895
0.267986 0.267986 0.267986
0.287492 0.287492 0.287492
0.291149 0.291149 0.291149
0.291082 0.291082 0.291082
0.291766 0.291766 0.291766
0.295041 0.295041 0.295041
0.318615 0.318615 0.318615
0.315491 0.315491 0.315491
0.311775 0.311775 0.311775
0.299733 0.299733 0.299733
0.272774 0.272774 0.272774
0.276920 0.276920 0.276920
0.303426 0.303426 0.303426
0.320962 0.320962 0.320962
0.312853 0.312853 0.312853
0.302340 0.302340 0.302340
0.310076 0.310076 0.310076
0.328603 0.328603 0.328603
0.336653 0.336653 0.336653
0.336517 0.336517 0.336517
0.337587 0.337587 0.337587
0.341162 0.341162 0.341162
0.369713 0.369713 0.369713
0.366719 0.366719 0.366719
0.363172 0.363173 0.363172
0.357196 0.357196 0.357196
0.333712 0.333712 0.333712
0.318971 0.318971 0.318971
0.330832 0.330832 0.330832
0.359504 0.359504 0.359504
0.378630 0.378630 0.378630
0.372377 0.372377 0.372377
0.365446 0.365446 0.365446
0.377546 0.377546 0.377546
0.387831 0.387831 0.387831
0.387406 0.387406 0.387406
0.388180 0.388180 0.388180
0.391957 0.391957 0.391957
0.421386 0.421386 0.421386
0.418639 0.418639 0.418639
0.415581 0.415581 0.415581
0.410831 0.410831 0.410831
0.398619 0.398619 0.398619
0.375357 0.375357 0.375357
0.368680 0.368680 0.368680
0.387413 0.387413 0.387413
0.417421 0.417421 0.417421
0.442275 0.442275 0.442275
0.437816 0.437816 0.437816
0.436105 0.436105 0.436105
0.443581 0.443581 0.443581
0.444870 0.444870 0.444870
0.445662 0.445662 0.445662
0.449921 0.449921 0.449921
0.475478 0.475478 0.475478
0.473826 0.473826 0.473826
0.471668 0.471668 0.471668
0.467294 0.467294 0.467294
0.460440 0.460440 0.460440
0.442760 0.442760 0.442760
0.424120 0.424120 0.424120
0.424029 0.424029 0.424029
0.446230 0.446230 0.446230
0.474627 0.474627 0.474627
0.507778 0.507778 0.507778
0.508158 0.508158 0.508158
0.510583 0.510583 0.510583
0.508729 0.508729 0.508729
0.507923 0.507923 0.507923
0.512427 0.512427 0.512427
0.532080 0.532080 0.532080
0.530776 0.530776 0.530776
0.528823 0.528823 0.528823
0.524908 0.524908 0.524908
0.520031 0.520031 0.520031
0.510794 0.510794 0.510794
0.492776 0.492776 0.492776
0.478427 0.478427 0.478427
0.485480 0.485480 0.485480
0.509329 0.509329 0.509329
0.536538 0.536538 0.536538
0.573887 0.573887 0.573887
0.581554 0.581554 0.581554
0.581082 0.581082 0.581082
0.579698 0.579698 0.579698
0.583129 0.583129 0.583129
0.597185 0.597185 0.597185
0.595657 0.595657 0.595657
0.593567 0.593567 0.593567
0.590275 0.590275 0.590275
0.586444 0.586444 0.586444
0.580819 0.580819 0.580819
0.568293 0.568293 0.568293
0.549637 0.549637 0.549637
0.539565 0.539565 0.539565
0.553757 0.553757 0.553757
0.574147 0.574147 0.574147
0.598639 0.598639 0.598639
0.631791 0.631791 0.631791
0.645953 0.645953 0.645953
0.649430 0.649430 0.649430
0.654135 0.654135 0.654135
0.640276 0.640276 0.640276
0.641122 0.641122 0.641122
0.640698 0.640698 0.640698
0.639660 0.639660 0.639660
0.638025 0.638025 0.638025
0.635922 0.635922 0.635922
0.630694 0.630694 0.630694
0.619386 0.619386 0.619386
0.605476 0.605476 0.605476
0.601720 0.601720 0.601720
0.618745 0.618745 0.618745
0.637577 0.637577 0.637577
0.659811 0.659811 0.659811
0.687485 0.687485 0.687485
0.701724 0.701724 0.701724
0.707555 0.707555 0.707555
0.653990 0.653990 0.653990
0.655977 0.655977 0.655977
0.656554 0.656554 0.656554
0.656710 0.656710 0.656710
0.656615 0.656615 0.656615
0.656313 0.656313 0.656313
0.655388 0.655388 0.655388
0.650544 0.650544 0.650544
0.640143 0.640143 0.640143
0.632946 0.632946 0.632946
0.644595 0.644595 0.644595
0.665858 0.665858 0.665858
0.684846 0.684846 0.684846
0.705743 0.705743 0.705743
0.724477 0.724477 0.724477
0.736836 0.736836 0.736836
0.662298 0.662298 0.662298
0.664189 0.664189 0.664189
0.664804 0.664804 0.664804
0.664905 0.664905 0.664905
0.664788 0.664788 0.664788
0.664579 0.664579 0.664579
0.664609 0.664609 0.664609
0.662289 0.662289 0.662289
0.654863 0.654863 0.654863
0.647827 0.647827 0.647827
0.654348 0.654348 0.654348
0.676475 0.676475 0.676475
0.694323 0.694323 0.694323
0.711149 0.711149 0.711149
0.729766 0.729766 0.729766
0.738262 0.738262 0.738262
-0.206210 -0.206210 -0.206210
-0.206033 -0.206033 -0.206033
-0.204906 -0.204906 -0.204906
-0.203858 -0.203858 -0.203858
-0.202264 -0.202264 -0.202264
-0.200151 -0.200151 -0.200151
-0.196373 -0.196373 -0.196373
-0.189736 -0.189736 -0.189736
-0.179588 -0.179588 -0.179588
-0.165395 -0.165395 -0.165395
-0.148381 -0.148381 -0.148381
-0.144634 -0.144634 -0.144634
-0.148614 -0.148614 -0.148614
-0.152132 -0.152132 -0.152132
-0.154308 -0.154308 -0.154308
-0.153372 -0.153372 -0.153372
0.026451 0.026451 0.026451
0.035561 0.035561 0.035561
0.048095 0.048095 0.048095
0.054956 0.054956 0.054956
0.062175 0.062175 0.062175
0.070314 0.070314 0.070314
0.081589 0.081589 0.081589
0.096524 0.096524 0.096524
0.113650 0.113650 0.113650
0.132981 0.132981 0.132981
0.154964 0.154964 0.154964
0.167402 0.167402 0.167402
0.171040 0.171040 0.171040
0.174934 0.174934 0.174934
0.178930 0.178930 0.178930
0.183652 0.183652 0.183652
0.049841 0.049841 0.049841
0.055316 0.055316 0.055316
0.072614 0.072614 0.072614
0.080064 0.080064 0.080064
0.081782 0.081782 0.081782
0.086693 0.086693 0.086693
0.094310 0.094310 0.094310
0.105067 0.105067 0.105067
0.119219 0.119219 0.119219
0.137130 0.137130 0.137130
0.158113 0.158113 0.158113
0.173109 0.173109 0.173109
0.176115 0.176115 0.176115
0.179701 0.179701 0.179701
0.183519 0.183519 0.183519
0.187682 0.187681 0.187681
0.074110 0.074110 0.074110
0.081278 0.081278 0.081278
0.094139 0.094139 0.094139
0.111085 0.111085 0.111085
0.107412 0.107412 0.107412
0.107803 0.107803 0.107803
0.116341 0.116341 0.116341
0.127790 0.127790 0.127790
0.141299 0.141299 0.141299
0.157410 0.157410 0.157410
0.174356 0.174356 0.174356
0.187530 0.187530 0.187530
0.186449 0.186449 0.186449
0.187780 0.187780 0.187780
0.190050 0.190050 0.190050
0.193378 0.193378 0.193378
0.137327 0.137327 0.137327
0.140931 0.140931 0.140931
0.144418 0.144418 0.144418
0.139211 0.139211 0.139211
0.163285 0.163285 0.163285
0.152253 0.152253 0.152253
0.148445 0.148445 0.148445
0.156178 0.156178 0.156178
0.169599 0.169599 0.169599
0.184912 0.184912 0.184912
0.202221 0.202221 0.202221
0.218401 0.218401 0.218401
0.217834 0.217834 0.217834
0.218397 0.218397 0.218397
0.220059 0.220059 0.220059
0.223519 0.223519 0.223519
0.199336 0.199336 0.199336
0.199555 0.199555 0.199555
0.196614 0.196614 0.196614
0.176033 0.176033 0.176033
0.191716 0.191716 0.191716
0.213100 0.213100 0.213100
0.203066 0.203066 0.203066
0.195060 0.195060 0.195060
0.200893 0.200893 0.200893
0.217169 0.217169 0.217169
0.236018 0.236018 0.236018
0.254143 0.254143 0.254143
0.255331 0.255331 0.255331
0.255102 0.255102 0.255102
0.255346 0.255346 0.255346
0.257445 0.257445 0.257445
0.265101 0.265101 0.265101
0.262564 0.262564 0.262564
0.259303 0.259303 0.259303
0.241141 0.241141 0.241141
0.227221 0.227221 0.227221
0.249159 0.249159 0.249159
0.267943 0.267943 0.267943
0.259418 0.259418 0.259418
0.248997 0.248997 0.248997
0.254203 0.254203 0.254203
0.271845 0.271845 0.271845
0.291083 0.291083 0.291083
0.295502 0.295502 0.295502
0.295335 0.295335 0.295335
0.295834 0.295834 0.295834
0.299004 0.299004 0.299004
0.322581 0.322581 0.322581
0.318954 0.318954 0.318954
0.315784 0.315784 0.315784
0.305430 0.305430 0.305430
0.276692 0.276692 0.276692
0.281135 0.281135 0.281135
0.306321 0.306321 0.306321
0.323303 0.323303 0.323303
0.316116 0.316116 0.316116
0.305606 0.305606 0.305606
0.313198 0.313198 0.313198
0.331887 0.331887 0.331887
0.340358 0.340358 0.340358
0.340387 0.340387 0.340387
0.341576 0.341576 0.341576
0.345595 0.345595 0.345595
0.373083 0.373083 0.373083
0.369553 0.369553 0.369553
0.366361 0.366361 0.366361
0.361232 0.361232 0.361232
0.336895 0.336895 0.336895
0.322579 0.322579 0.322579
0.334154 0.334154 0.334154
0.361968 0.361968 0.361968
0.380965 0.380965 0.380965
0.375763 0.375763 0.375763
0.369013 0.369013 0.369013
0.380771 0.380771 0.380771
0.391181 0.391181 0.391181
0.391512 0.391512 0.391512
0.392638 0.392638 0.392638
0.396738 0.396738 0.396738
0.423679 0.423679 0.423679
0.420768 0.420768 0.420768
0.418142 0.418142 0.418142
0.414203 0.414203 0.414203
0.401675 0.401675 0.401675
0.377952 0.377952 0.377952
0.372127 0.372127 0.372127
0.390124 0.390124 0.390124
0.419613 0.419613 0.419613
0.444440 0.444440 0.444440
0.441155 0.441155 0.441155
0.439534 0.439534 0.439534
0.447066 0.447066 0.447066
0.448601 0.448601 0.448601
0.449423 0.449423 0.449423
0.453484 0.453484 0.453484
0.477683 0.477683 0.477683
0.475724 0.475724 0.475724
0.473218 0.473218 0.473218
0.469250 0.469250 0.469250
0.462699 0.462699 0.462699
0.444850 0.444850 0.444850
0.426826 0.426826 0.426826
0.426947 0.426947 0.426947
0.448307 0.448307 0.448307
0.476409 0.476409 0.476409
0.509503 0.509503 0.509503
0.510678 0.510678 0.510678
0.513299 0.513299 0.513299
0.512089 0.512089 0.512089
0.511363 0.511363 0.511363
0.515555 0.515555 0.515555
0.534249 0.534249 0.534249
0.532397 0.532397 0.532397
0.530147 0.530147 0.530147
0.526747 0.526747 0.526747
0.522036 0.522036 0.522036
0.513232 0.513232 0.513232
0.495172 0.495172 0.495172
0.481330 0.481330 0.481330
0.488244 0.488244 0.488244
0.511808 0.511808 0.511808
0.538299 0.538299 0.538299
0.575668 0.575668 0.575668
0.584535 0.584535 0.584535
0.584483 0.584483 0.584483
0.582900 0.582900 0.582900
0.586546 0.586546 0.586546
0.598506 0.598506 0.598506
0.596842 0.596842 0.596842
0.594777 0.594777 0.594777
0.591986 0.591986 0.591986
0.588162 0.588162 0.588162
0.582392 0.582392 0.582392
0.569830 0.569830 0.569830
0.551896 0.551896 0.551896
0.542882 0.542882 0.542882
0.556754 0.556754 0.556754
0.576561 0.576561 0.576561
0.600610 0.600610 0.600610
0.632977 0.632977 0.632977
0.647545 0.647545 0.647545
0.651333 0.651333 0.651333
0.656155 0.656155 0.656155
0.641575 0.641575 0.641575
0.642308 0.642308 0.642308
0.642501 0.642501 0.642501
0.641733 0.641733 0.641733
0.640110 0.640110 0.640110
0.637780 0.637780 0.637780
0.632468 0.632468 0.632468
0.621553 0.621553 0.621553
0.608235 0.608235 0.608235
0.604467 0.604467 0.604467
0.620992 0.620992 0.620992
0.639659 0.639659 0.639659
0.661065 0.661065 0.661065
0.688640 0.688640 0.688640
0.703504 0.703504 0.703504
0.709812 0.709812 0.709812
0.655510 0.655510 0.655510
0.657220 0.657220 0.657220
0.658536 0.658536 0.658536
0.658686 0.658686 0.658686
0.658828 0.658828 0.658828
0.658610 0.658610 0.658610
0.657577 0.657577 0.657576
0.652994 0.652994 0.652994
0.643330 0.643330 0.643330
0.636393 0.636393 0.636393
0.647135 0.647135 0.647135
0.667845 0.667845 0.667845
0.687221 0.687221 0.687221
0.707180 0.707180 0.707180
0.725439 0.725439 0.725439
0.737579 0.737579 0.737579
0.663752 0.663752 0.663752
0.665640 0.665640 0.665640
0.666970 0.666970 0.666970
0.667032 0.667032 0.667032
0.667141 0.667141 0.667141
0.667167 0.667167 0.667167
0.667143 0.667143 0.667143
0.665000 0.665000 0.665000
0.658117 0.658117 0.658117
0.651274 0.651274 0.651274
0.657140 0.657140 0.657140
0.678940 0.678940 0.678940
0.696889 0.696889 0.696889
0.712803 0.712803 0.712803
0.730786 0.730786 0.730785
0.738720 0.738720 0.738720
-0.205664 -0.205664 -0.205664
-0.205593 -0.205593 -0.205593
-0.203630 -0.203630 -0.203630
-0.202083 -0.202083 -0.202083
-0.199389 -0.199389 -0.199389
-0.195703 -0.195703 -0.195703
-0.191447 -0.191447 -0.191447
-0.185295 -0.185295 -0.185295
-0.174852 -0.174852 -0.174852
-0.158462 -0.158462 -0.158462
-0.138110 -0.138110 -0.138110
-0.134297 -0.134298 -0.134298
-0.139955 -0.139955 -0.139955
-0.143651 -0.143651 -0.143651
-0.146590 -0.146590 -0.146590
-0.146268 -0.146268 -0.146268
0.041477 0.041477 0.041477
0.050636 0.050636 0.050636
0.062786 0.062786 0.062786
0.072250 0.072250 0.072250
0.081436 0.081436 0.081436
0.090867 0.090867 0.090867
0.098854 0.098854 0.098854
0.109018 0.109018 0.109018
0.123592 0.123592 0.123592
0.142809 0.142809 0.142809
0.163962 0.163962 0.163962
0.175342 0.175342 0.175342
0.177852 0.177852 0.177852
0.181107 0.181107 0.181107
0.184610 0.184610 0.184610
0.188460 0.188460 0.188460
0.065824 0.065824 0.065824
0.072600 0.072600 0.072600
0.093410 0.093410 0.093410
0.109165 0.109165 0.109165
0.112706 0.112706 0.112706
0.114087 0.114087 0.114087
0.113786 0.113786 0.113786
0.117315 0.117315 0.117315
0.128070 0.128070 0.128070
0.145567 0.145567 0.145567
0.164948 0.164948 0.164948
0.179544 0.179544 0.179544
0.181147 0.181147 0.181147
0.183918 0.183918 0.183918
0.187280 0.187280 0.187280
0.191080 0.191080 0.191080
0.103681 0.103681 0.103681
0.107218 0.107218 0.107218
0.125107 0.125107 0.125107
0.164294 0.164294 0.164294
0.164941 0.164941 0.164941
0.158764 0.158764 0.158764
0.153359 0.153359 0.153359
0.151764 0.151764 0.151764
0.156835 0.156835 0.156835
0.168907 0.168907 0.168907
0.184010 0.184010 0.184010
0.195118 0.195118 0.195118
0.193333 0.193333 0.193333
0.194062 0.194062 0.194062
0.195388 0.195388 0.195388
0.198021 0.198021 0.198021
0.163299 0.163299 0.163299
0.170511 0.170511 0.170511
0.181885 0.181885 0.181885
0.200383 0.200383 0.200383
0.207036 0.207036 0.207036
0.196636 0.196636 0.196636
0.182990 0.182990 0.182990
0.177977 0.177977 0.177977
0.182872 0.182872 0.182872
0.194777 0.194777 0.194777
0.210347 0.210347 0.210347
0.225333 0.225333 0.225333
0.224490 0.224490 0.224490
0.224418 0.224418 0.224418
0.225550 0.225550 0.225550
0.228300 0.228300 0.228300
0.212632 0.212632 0.212632
0.219720 0.219720 0.219720
0.224671 0.224671 0.224671
0.228529 0.228529 0.228529
0.222456 0.222456 0.222456
0.237269 0.237269 0.237269
0.226704 0.226704 0.226704
0.212174 0.212174 0.212174
0.210918 0.210918 0.210918
0.224559 0.224559 0.224559
0.242249 0.242249 0.242249
0.259133 0.259133 0.259133
0.260746 0.260746 0.260746
0.260084 0.260084 0.260084
0.259828 0.259828 0.259828
0.261414 0.261414 0.261414
0.272273 0.272273 0.272273
0.275494 0.275494 0.275494
0.276315 0.276315 0.276315
0.271321 0.271321 0.271321
0.245545 0.245545 0.245545
0.261431 0.261431 0.261431
0.277535 0.277535 0.277535
0.268954 0.268954 0.268954
0.256362 0.256362 0.256362
0.259007 0.259007 0.259007
0.276185 0.276185 0.276185
0.295307 0.295307 0.295307
0.299818 0.299818 0.299818
0.299352 0.299352 0.299352
0.299698 0.299698 0.299698
0.302775 0.302775 0.302775
0.327595 0.327595 0.327595
0.327033 0.327033 0.327033
0.324837 0.324837 0.324837
