src/luts/bw/2.cube
LUT_3D_SIZE 6
0.006252 0.006252 0.006252
0.032694 0.032694 0.032694
0.070515 0.070515 0.070515
0.128414 0.128414 0.128414
0.163589 0.163589 0.163589
0.176837 0.176837 0.176837
0.061539 0.061539 0.061539
0.083274 0.083274 0.083274
0.101119 0.101119 0.101119
0.147896 0.147896 0.147896
0.180217 0.180217 0.180217
0.188731 0.188731 0.188731
0.256760 0.256760 0.256760
0.224869 0.224869 0.224869
0.260387 0.260387 0.260387
0.247399 0.247399 0.247399
0.287319 0.287319 0.287319
0.290800 0.290800 0.290800
0.418488 0.418488 0.418488
0.405627 0.405627 0.405627
0.364084 0.364084 0.364084
0.439211 0.439211 0.439211
0.439390 0.439390 0.439390
0.445830 0.445830 0.445830
0.595683 0.595683 0.595683
0.587722 0.587722 0.587722
0.565242 0.565242 0.565242
0.549715 0.549715 0.549715
0.629899 0.629899 0.629899
0.651681 0.651681 0.651681
0.660862 0.660862 0.660862
0.661094 0.661094 0.661094
0.661043 0.661043 0.661043
0.642505 0.642505 0.642505
0.690569 0.690569 0.690569
0.737425 0.737425 0.737425
-0.205664 -0.205664 -0.205664
-0.202083 -0.202083 -0.202083
-0.191447 -0.191447 -0.191447
-0.158462 -0.158462 -0.158462
-0.139955 -0.139955 -0.139955
-0.146268 -0.146268 -0.146268
0.103681 0.103681 0.103681
0.164294 0.164294 0.164294
0.153359 0.153359 0.153359
0.168907 0.168907 0.168907
0.193333 0.193333 0.193333
0.198021 0.198021 0.198021
0.272273 0.272273 0.272273
0.271321 0.271321 0.271321
0.277535 0.277535 0.277535
0.259007 0.259007 0.259007
0.299818 0.299818 0.299818
0.302775 0.302775 0.302775
0.425819 0.425819 0.425819
0.417029 0.417029 0.417029
0.375598 0.375598 0.375598
0.446452 0.446452 0.446452
0.450620 0.450620 0.450620
0.456905 0.456905 0.456905
0.599595 0.599595 0.599595
0.593255 0.593255 0.593255
0.570814 0.570814 0.570814
0.559148 0.559148 0.559148
0.634161 0.634161 0.634161
0.657832 0.657832 0.657832
0.665227 0.665227 0.665227
0.668834 0.668834 0.668834
0.669091 0.669091 0.669091
0.654367 0.654367 0.654367
0.699547 0.699547 0.699547
0.739491 0.739491 0.739491
-0.146039 -0.146039 -0.146039
-0.007979 -0.007979 -0.007979
0.043549 0.043549 0.043549
0.079463 0.079463 0.079463
0.046313 0.046313 0.046313
0.034380 0.034380 0.034380
0.247464 0.247464 0.247464
0.284850 0.284850 0.284850
0.287344 0.287344 0.287344
0.265804 0.265804 0.265804
0.236189 0.236189 0.236189
0.235631 0.235631 0.235631
0.334758 0.334758 0.334758
0.351566 0.351566 0.351566
0.427851 0.427851 0.427851
0.399439 0.399439 0.399439
0.346865 0.346865 0.346865
0.331989 0.331989 0.331989
0.463225 0.463225 0.463225
0.469815 0.469815 0.469815
0.484909 0.484909 0.484909
0.507917 0.507917 0.507917
0.490530 0.490530 0.490530
0.482504 0.482504 0.482504
0.609375 0.609375 0.609375
0.607908 0.607908 0.607908
0.597760 0.597760 0.597760
0.575847 0.575847 0.575847
0.643038 0.643038 0.643038
0.663234 0.663234 0.663234
0.672126 0.672126 0.672126
0.675395 0.675395 0.675395
0.676083 0.676083 0.676083
0.662424 0.662424 0.662424
0.706304 0.706304 0.706304
0.743347 0.743347 0.743347
0.307995 0.307995 0.307995
0.325669 0.325669 0.325669
0.387349 0.387349 0.387349
0.357151 0.357151 0.357151
0.362257 0.362257 0.362257
0.359229 0.359229 0.359229
0.393194 0.393194 0.393194
0.413278 0.413278 0.413278
0.445592 0.445592 0.445592
0.411452 0.411452 0.411452
0.393588 0.393588 0.393588
0.386464 0.386464 0.386464
0.440680 0.440680 0.440680
0.446608 0.446608 0.446608
0.517699 0.517699 0.517699
0.532187 0.532187 0.532187
0.503262 0.503262 0.503262
0.480855 0.480855 0.480855
0.507919 0.507919 0.507919
0.511820 0.511820 0.511820
0.565584 0.565584 0.565584
0.620347 0.620347 0.620347
0.606806 0.606806 0.606806
0.573312 0.573312 0.573312
0.632083 0.632083 0.632083
0.632650 0.632650 0.632650
0.648309 0.648309 0.648309
0.667324 0.667324 0.667324
0.705715 0.705715 0.705715
0.710151 0.710151 0.710151
0.692296 0.692296 0.692296
0.700302 0.700302 0.700302
0.709652 0.709652 0.709652
0.724377 0.724377 0.724377
0.741820 0.741820 0.741820
0.768634 0.768634 0.768634
0.409823 0.409823 0.409823
0.428026 0.428026 0.428026
0.481027 0.481027 0.481027
0.537193 0.537193 0.537193
0.490562 0.490562 0.490562
0.500311 0.500311 0.500311
0.488032 0.488032 0.488032
0.518847 0.518847 0.518847
0.541182 0.541182 0.541182
0.594219 0.594219 0.594219
0.531103 0.531103 0.531103
0.538345 0.538345 0.538345
0.567578 0.567578 0.567578
0.577833 0.577833 0.577833
0.614802 0.614802 0.614802
0.659648 0.659648 0.659648
0.633157 0.633157 0.633157
0.631345 0.631345 0.631345
0.592545 0.592545 0.592545
0.591840 0.591840 0.591840
0.622418 0.622418 0.622418
0.697746 0.697746 0.697746
0.712355 0.712355 0.712355
0.707414 0.707414 0.707414
0.658452 0.658452 0.658452
0.659945 0.659945 0.659945
0.669397 0.669397 0.669397
0.725662 0.725662 0.725662
0.779962 0.779962 0.779962
0.775407 0.775407 0.775407
0.713939 0.713939 0.713939
0.721030 0.721030 0.721030
0.726319 0.726319 0.726319
0.765334 0.765334 0.765334
0.800294 0.800294 0.800294
0.826765 0.826765 0.826765
0.432832 0.432832 0.432832
0.451897 0.451897 0.451897
0.500811 0.500811 0.500811
0.569730 0.569730 0.569730
0.511525 0.511525 0.511525
0.510930 0.510930 0.510930
0.507873 0.507873 0.507873
0.537710 0.537710 0.537710
0.559812 0.559812 0.559812
0.614796 0.614796 0.614796
0.553750 0.553750 0.553750
0.556430 0.556430 0.556430
0.585469 0.585469 0.585469
0.595865 0.595865 0.595865
0.632287 0.632287 0.632287
0.681800 0.681800 0.681800
0.667015 0.667015 0.667015
0.658342 0.658342 0.658342
0.629318 0.629318 0.629318
0.635312 0.635312 0.635312
0.667101 0.667101 0.667101
0.731097 0.731097 0.731097
0.757741 0.757741 0.757741
0.748184 0.748184 0.748184
0.700474 0.700474 0.700474
0.704529 0.704529 0.704529
0.714876 0.714876 0.714876
0.760192 0.760192 0.760192
0.824870 0.824870 0.824870
0.831807 0.831807 0.831807
0.737639 0.737639 0.737639
0.743614 0.743614 0.743614
0.749389 0.749389 0.749389
0.789792 0.789792 0.789792
0.848865 0.848865 0.848865
0.894258 0.894258 0.894258
