src/luts/bw/3.cube
LUT_3D_SIZE 16
-0.108132 -0.103412 -0.098903
-0.076931 -0.073568 -0.070360
-0.056431 -0.053965 -0.051613
-0.037177 -0.035554 -0.034002
-0.018860 -0.018035 -0.017249
-0.015570 -0.014884 -0.014229
-0.017714 -0.016932 -0.016185
-0.006512 -0.006224 -0.005950
0.021366 0.020423 0.019523
0.041552 0.039714 0.037965
0.061592 0.058870 0.056277
0.081958 0.078337 0.074887
0.104315 0.099710 0.095318
0.130946 0.125173 0.119656
0.159432 0.152396 0.145680
0.192932 0.184425 0.176283
-0.042385 -0.040531 -0.038763
-0.009786 -0.009355 -0.008943
0.010613 0.010154 0.009715
0.006897 0.006605 0.006327
-0.017256 -0.016493 -0.015763
0.012400 0.011853 0.011331
0.033430 0.031953 0.030547
0.051477 0.049203 0.047038
0.070044 0.066951 0.064001
0.088807 0.084890 0.081148
0.108997 0.104189 0.099593
0.131024 0.125240 0.119717
0.155307 0.148452 0.141910
0.181944 0.173925 0.166262
0.211263 0.201941 0.193052
0.248089 0.237138 0.226685
-0.013349 -0.012762 -0.012200
0.012149 0.011622 0.011119
0.011488 0.010983 0.010499
0.030147 0.028816 0.027547
0.047055 0.044979 0.042998
0.064722 0.061866 0.059141
0.081971 0.078352 0.074901
0.099212 0.094831 0.090653
0.116740 0.111587 0.106667
0.135502 0.129523 0.123812
0.155969 0.149087 0.142520
0.178751 0.170859 0.163337
0.203629 0.194634 0.186062
0.230073 0.219919 0.210230
0.261449 0.249904 0.238894
0.300113 0.286871 0.274229
-0.009425 -0.009009 -0.008611
0.030196 0.028864 0.027592
0.057832 0.055282 0.052844
0.086545 0.082724 0.079078
0.099733 0.095322 0.091123
0.115395 0.110297 0.105437
0.131295 0.125496 0.119967
0.147741 0.141221 0.134996
0.164846 0.157578 0.150628
0.183304 0.175215 0.167493
0.203848 0.194853 0.186269
0.226489 0.216491 0.206954
0.251337 0.240237 0.229653
0.278986 0.266667 0.254919
0.311982 0.298215 0.285066
0.352765 0.337214 0.322349
0.043338 0.041425 0.039600
0.071699 0.068535 0.065516
0.098505 0.094154 0.090011
0.125606 0.120059 0.114764
0.153701 0.146922 0.140443
0.166516 0.159176 0.152163
0.181945 0.173921 0.166255
0.198037 0.189299 0.180955
0.214372 0.204915 0.195882
0.232279 0.222024 0.212242
0.252684 0.241530 0.230888
0.275053 0.262913 0.251324
0.299890 0.286647 0.274012
0.328945 0.314413 0.300562
0.363613 0.347557 0.332249
0.405406 0.387524 0.370435
0.084367 0.080638 0.077085
0.112370 0.107410 0.102678
0.139494 0.133342 0.127466
0.166484 0.159132 0.152124
0.192846 0.184332 0.176207
0.220038 0.210334 0.201056
0.234326 0.223991 0.214114
0.249445 0.238444 0.227932
0.264752 0.253076 0.241922
0.282019 0.269575 0.257693
0.302110 0.288772 0.276048
0.324400 0.310077 0.296408
0.349533 0.334100 0.319365
0.379654 0.362880 0.346897
0.415204 0.396860 0.379390
0.457547 0.437346 0.418068
0.125523 0.119978 0.114692
0.153563 0.146799 0.140323
0.180810 0.172828 0.165214
0.206685 0.197565 0.188859
0.233008 0.222726 0.212908
0.259927 0.248456 0.237506
0.287598 0.274911 0.262794
0.301456 0.288165 0.275461
0.315675 0.301767 0.288461
0.332168 0.317529 0.303525
0.351829 0.336308 0.321482
0.374062 0.357550 0.341784
0.399782 0.382135 0.365281
0.430858 0.411837 0.393698
0.465797 0.445233 0.425615
0.509916 0.487400 0.465925
0.166695 0.159339 0.152312
0.194831 0.186250 0.178033
0.221387 0.211612 0.202288
0.246841 0.235950 0.225551
0.273057 0.261013 0.249503
0.300002 0.286766 0.274128
0.327018 0.312595 0.298823
0.353885 0.338287 0.323377
0.367033 0.350856 0.335390
0.382592 0.365716 0.349598
0.401744 0.384042 0.367112
0.424587 0.405869 0.387988
0.451190 0.431269 0.412281
0.481373 0.460133 0.439847
0.516449 0.493659 0.471897
0.563229 0.538373 0.514644
0.207786 0.198623 0.189855
0.235904 0.225502 0.215555
0.261121 0.249596 0.238593
0.286915 0.274255 0.262171
0.313027 0.299218 0.286024
0.339887 0.324899 0.310571
0.366780 0.350616 0.335165
0.392359 0.375071 0.358542
0.418742 0.400291 0.382648
0.433732 0.414587 0.396327
0.452340 0.432382 0.413327
0.475028 0.454077 0.434057
0.501401 0.479280 0.458151
0.530928 0.507498 0.485134
0.568604 0.543511 0.519557
0.616739 0.589533 0.563543
0.250206 0.239164 0.228622
0.277975 0.265716 0.253991
0.303045 0.289681 0.276899
0.329251 0.314732 0.300855
0.355572 0.339888 0.324903
0.381584 0.364758 0.348676
0.407554 0.389595 0.372422
0.432659 0.413579 0.395340
0.458752 0.438512 0.419175
0.484774 0.463368 0.442947
0.503049 0.480844 0.459654
0.525018 0.501854 0.479727
0.550837 0.526539 0.503320
0.581618 0.555959 0.531462
0.619766 0.592401 0.566298
0.668606 0.639082 0.610938
0.294589 0.281583 0.269182
0.322335 0.308108 0.294520
0.348112 0.332755 0.318070
0.373980 0.357486 0.341701
0.399915 0.382268 0.365405
0.425404 0.406626 0.388713
0.450473 0.430606 0.411624
0.476112 0.455101 0.435033
0.502124 0.479961 0.458800
0.527889 0.504592 0.482357
0.553802 0.529369 0.506033
0.575282 0.549896 0.525651
0.600777 0.574260 0.548943
0.632187 0.604297 0.577658
0.671180 0.641555 0.613293
0.718796 0.687071 0.656780
0.341472 0.326417 0.312038
0.369343 0.353035 0.337483
0.395676 0.378213 0.361533
0.421424 0.402830 0.385051
0.446801 0.427081 0.408248
0.471836 0.451006 0.431140
0.496880 0.474949 0.454016
0.523177 0.500083 0.478027
0.549004 0.524767 0.501644
0.574649 0.549297 0.525094
0.600335 0.573844 0.548551
0.625431 0.597815 0.571459
0.650759 0.622024 0.594601
0.682303 0.652199 0.623450
0.719817 0.688083 0.657757
0.764606 0.730922 0.698649
0.391691 0.374445 0.357933
0.419700 0.401171 0.383508
0.446269 0.426577 0.407775
0.471963 0.451133 0.431254
0.497037 0.475101 0.454170
0.522075 0.499038 0.477047
0.547862 0.523664 0.500592
0.574356 0.549001 0.524784
0.599908 0.573423 0.548165
0.625369 0.597776 0.571442
0.650720 0.621981 0.594580
0.675449 0.645605 0.617147
0.699824 0.668927 0.639425
0.730228 0.698005 0.667247
0.764645 0.730947 0.698718
0.807519 0.771875 0.737854
0.446441 0.426750 0.407924
0.474648 0.453704 0.433700
0.501434 0.479320 0.458188
0.526591 0.503355 0.481174
0.551976 0.527617 0.504370
0.578141 0.552622 0.528272
0.604225 0.577523 0.552084
0.630207 0.602380 0.575827
0.655575 0.626626 0.599021
0.680508 0.650466 0.621827
0.705081 0.673938 0.644258
0.729253 0.697044 0.666323
0.752453 0.719233 0.687534
0.774111 0.739949 0.707353
0.806081 0.770531 0.736557
0.846474 0.809101 0.773458
0.507540 0.485133 0.463745
0.536429 0.512779 0.490157
0.562355 0.537541 0.513848
0.588586 0.562612 0.537827
0.614856 0.587729 0.561832
0.641331 0.613032 0.586021
0.667655 0.638187 0.610075
0.692110 0.661568 0.632398
0.716586 0.684900 0.654729
0.740325 0.707625 0.676447
0.763226 0.729502 0.697382
0.785257 0.750570 0.717550
0.805799 0.770234 0.736356
0.825175 0.788767 0.754039
0.844185 0.806919 0.771350
0.880264 0.841416 0.804327
0.579671 0.554086 0.529672
0.608962 0.582093 0.556438
0.635738 0.607698 0.580905
0.662680 0.633452 0.605517
0.688957 0.658547 0.629514
0.713872 0.682335 0.652285
0.737891 0.705302 0.674238
0.761411 0.727801 0.695712
0.783948 0.749311 0.716300
0.805609 0.770027 0.736098
0.825795 0.789307 0.754530
0.844363 0.807094 0.771576
0.862224 0.824157 0.787857
0.879192 0.840384 0.803357
0.894951 0.855456 0.817740
0.908937 0.868831 0.830524
-0.273288 -0.261239 -0.249735
-0.279000 -0.266684 -0.254934
-0.285562 -0.272954 -0.260925
-0.292544 -0.279630 -0.267304
-0.299830 -0.286630 -0.273976
-0.296061 -0.283012 -0.270547
-0.293781 -0.280816 -0.268450
-0.290934 -0.278090 -0.265840
-0.285832 -0.273225 -0.261184
-0.281505 -0.269098 -0.257233
-0.278066 -0.265811 -0.254092
-0.275291 -0.263151 -0.251551
-0.272754 -0.260717 -0.249222
-0.270005 -0.258086 -0.246702
-0.267511 -0.255692 -0.244415
-0.265186 -0.253474 -0.242312
-0.027303 -0.026106 -0.024968
-0.005246 -0.005012 -0.004787
0.006983 0.006682 0.006393
0.005863 0.005608 0.005365
0.018524 0.017706 0.016928
0.048297 0.046165 0.044132
0.070108 0.067013 0.064060
0.089511 0.085561 0.081790
0.109044 0.104234 0.099639
0.129262 0.123561 0.118115
0.150619 0.143975 0.137625
0.173747 0.166085 0.158757
0.198652 0.189893 0.181517
0.224828 0.214912 0.205437
0.254342 0.243120 0.232403
0.290585 0.277759 0.265517
0.002267 0.002173 0.002085
0.005319 0.005087 0.004867
0.023927 0.022872 0.021865
0.049403 0.047223 0.045142
0.068189 0.065179 0.062308
0.087380 0.083521 0.079843
0.105706 0.101039 0.096589
0.124056 0.118579 0.113356
0.142822 0.136517 0.130503
0.162561 0.155392 0.148545
0.183858 0.175751 0.167997
0.207210 0.198073 0.189329
0.232266 0.222022 0.212225
0.258559 0.247150 0.236252
0.290412 0.277600 0.265363
0.329070 0.314546 0.300685
-0.006382 -0.006101 -0.005833
0.052048 0.049750 0.047559
0.073654 0.070402 0.067301
0.100279 0.095854 0.091629
0.116376 0.111238 0.106337
0.133232 0.127357 0.121742
0.150669 0.144021 0.137676
0.168436 0.161003 0.153913
0.186491 0.178262 0.170413
0.205627 0.196553 0.187893
0.226754 0.216751 0.207192
0.249600 0.238591 0.228068
0.274448 0.262342 0.250775
0.302494 0.289147 0.276397
0.335780 0.320954 0.306820
0.375931 0.359332 0.343506
0.053248 0.050897 0.048649
0.094945 0.090754 0.086755
0.116262 0.111130 0.106232
0.141341 0.135104 0.129144
0.167654 0.160262 0.153197
0.182715 0.174658 0.166952
0.199511 0.190706 0.182295
0.216632 0.207068 0.197942
0.233707 0.223395 0.213555
0.252211 0.241085 0.230464
0.273006 0.260961 0.249460
0.295596 0.282557 0.270103
0.320776 0.306626 0.293114
0.350502 0.335029 0.320266
0.384485 0.367516 0.351320
0.425634 0.406851 0.388924
0.094111 0.089949 0.085986
0.137889 0.131803 0.125994
0.158717 0.151711 0.145029
0.182915 0.174838 0.167137
0.208398 0.199198 0.190423
0.234956 0.224587 0.214689
0.250545 0.239485 0.228928
0.266611 0.254844 0.243609
0.282650 0.270185 0.258276
0.300420 0.287168 0.274514
0.320791 0.306638 0.293128
0.343577 0.328421 0.313948
0.369486 0.353188 0.337619
0.399778 0.382139 0.365292
0.434102 0.414944 0.396658
0.476587 0.455556 0.435478
0.135234 0.129264 0.123568
0.180705 0.172730 0.165115
0.200722 0.191866 0.183410
0.224093 0.214208 0.204761
0.249428 0.238421 0.227912
0.276411 0.264213 0.252570
0.303213 0.289831 0.277054
0.317578 0.303568 0.290183
0.332593 0.317933 0.303914
0.349532 0.334111 0.319383
0.369460 0.353160 0.337600
0.392672 0.375349 0.358805
0.419254 0.400762 0.383078
0.449128 0.429327 0.410380
0.483885 0.462527 0.442151
0.528359 0.505039 0.482781
0.176439 0.168654 0.161218
0.223023 0.213181 0.203783
0.242042 0.231362 0.221163
0.265043 0.253354 0.242173
0.290302 0.277496 0.265260
0.317139 0.303147 0.289785
0.343475 0.328322 0.313845
0.369220 0.352937 0.337375
0.383169 0.366280 0.350136
0.399354 0.381739 0.364914
0.418864 0.400382 0.382736
0.441906 0.422408 0.403789
0.468662 0.447982 0.428237
0.498974 0.476950 0.455927
0.534226 0.510658 0.488145
0.580866 0.555237 0.530767
0.217565 0.207962 0.198789
0.264717 0.253036 0.241885
0.282667 0.270190 0.258282
0.305827 0.292333 0.279437
0.330962 0.316362 0.302415
0.357002 0.341253 0.326212
0.382859 0.365973 0.349833
0.408131 0.390135 0.372933
0.434084 0.414931 0.396673
0.449610 0.429766 0.410823
0.468743 0.448063 0.428301
0.491774 0.470085 0.449355
0.518364 0.495501 0.473660
0.548099 0.523915 0.500818
0.585685 0.559850 0.535172
0.633549 0.605607 0.578915
0.259830 0.248372 0.237424
0.307484 0.293928 0.280981
0.324943 0.310609 0.296924
0.348742 0.333358 0.318665
0.373626 0.357142 0.341419
0.398198 0.380623 0.363872
0.422820 0.404155 0.386350
0.448786 0.428990 0.410080
0.474537 0.453595 0.433608
0.500304 0.478229 0.457149
0.519087 0.496188 0.474310
0.541387 0.517502 0.494685
0.567381 0.542345 0.518433
0.598419 0.572022 0.546789
0.636766 0.608661 0.581838
0.684708 0.654486 0.625643
0.304184 0.290763 0.277944
0.352720 0.337155 0.322294
0.370552 0.354209 0.338584
0.393707 0.376342 0.359745
0.417619 0.399196 0.381606
0.441765 0.422273 0.403675
0.466633 0.446038 0.426390
0.492639 0.470897 0.450150
0.518250 0.495386 0.473556
0.543741 0.519749 0.496849
0.569369 0.544244 0.520252
0.591110 0.565021 0.540111
0.617047 0.589808 0.563813
0.649246 0.620594 0.593241
0.687024 0.656717 0.627775
0.733438 0.701067 0.670193
0.351126 0.335618 0.320832
0.400334 0.382657 0.365791
0.418586 0.400119 0.382463
0.441033 0.421578 0.402982
0.464432 0.443946 0.424369
0.488598 0.467045 0.446456
0.513895 0.491221 0.469573
0.539860 0.516023 0.493291
0.565268 0.540334 0.516522
0.590612 0.564544 0.539674
0.615890 0.588704 0.562757
0.640884 0.612603 0.585595
0.666867 0.637449 0.609356
0.698166 0.667380 0.637958
0.734059 0.701699 0.670735
0.778183 0.743854 0.711083
0.401426 0.383691 0.366791
0.450873 0.430969 0.411982
0.469246 0.448540 0.428766
0.491330 0.469653 0.448943
0.515038 0.492318 0.470607
0.539787 0.515975 0.493222
0.565287 0.540346 0.516521
0.590897 0.564811 0.539923
0.616055 0.588881 0.562926
0.641181 0.612881 0.585873
0.666027 0.636631 0.608564
0.690805 0.660329 0.631217
0.715165 0.683629 0.653498
0.744161 0.711352 0.679974
0.777736 0.743437 0.710642
0.819691 0.783540 0.748998
0.456213 0.436078 0.416839
0.505659 0.483349 0.462047
0.523935 0.500821 0.478765
0.546060 0.521972 0.498963
0.570499 0.545329 0.521282
0.596296 0.569986 0.544853
0.622158 0.594710 0.568490
0.646486 0.617961 0.590718
0.671361 0.641736 0.613464
0.695817 0.665125 0.635804
0.719742 0.687986 0.657638
0.743266 0.710452 0.679139
0.765854 0.732030 0.699784
0.786911 0.752162 0.718999
0.818117 0.782007 0.747552
0.856994 0.819188 0.783073
0.517493 0.494650 0.472844
0.566593 0.541596 0.517731
0.584657 0.558838 0.534239
0.608221 0.581379 0.555764
0.633820 0.605843 0.579144
0.659185 0.630093 0.602328
0.683576 0.653421 0.624622
0.707595 0.676366 0.646545
0.731487 0.699189 0.668378
0.754462 0.721149 0.689361
0.776617 0.742312 0.709605
0.798064 0.762828 0.729227
0.817777 0.781687 0.747240
0.836431 0.799518 0.764285
0.854899 0.817162 0.781175
0.889207 0.849978 0.812522
0.589914 0.563876 0.539023
0.638298 0.610121 0.583228
0.657565 0.628535 0.600849
0.681617 0.651543 0.622831
0.705941 0.674783 0.645055
0.729135 0.696940 0.666236
0.752283 0.719085 0.687399
0.775407 0.741206 0.708554
0.797067 0.761878 0.728330
0.817800 0.781712 0.747238
0.837449 0.800524 0.765230
0.855073 0.817331 0.781286
0.872393 0.833908 0.797127
0.888707 0.849494 0.812065
0.903302 0.863451 0.825406
0.916345 0.875921 0.837310
-0.275164 -0.263035 -0.251449
-0.279995 -0.267629 -0.255842
-0.289188 -0.276426 -0.264240
-0.296188 -0.283116 -0.270635
-0.303537 -0.290141 -0.277362
-0.310746 -0.297032 -0.283940
-0.317184 -0.303185 -0.289838
-0.322850 -0.308606 -0.295013
-0.327751 -0.313301 -0.299473
-0.331652 -0.317027 -0.303051
-0.334560 -0.319805 -0.305709
-0.336209 -0.321370 -0.307205
-0.336066 -0.321227 -0.307071
-0.333310 -0.318609 -0.304568
-0.326738 -0.312328 -0.298551
-0.313704 -0.299860 -0.286647
-0.033614 -0.032143 -0.030740
0.003535 0.003390 0.003255
0.009384 0.008986 0.008610
0.009501 0.009084 0.008685
0.033669 0.032183 0.030767
0.056958 0.054445 0.052047
0.076995 0.073598 0.070354
0.096158 0.091917 0.087865
0.115542 0.110446 0.105576
0.135681 0.129693 0.123975
0.157047 0.150119 0.143499
0.180213 0.172263 0.164666
0.205189 0.196133 0.187491
0.231539 0.221320 0.211577
0.261283 0.249747 0.238744
0.297934 0.284777 0.272232
0.001280 0.001232 0.001187
0.011799 0.011280 0.010784
0.038886 0.037170 0.035532
0.064268 0.061434 0.058726
0.086839 0.083007 0.079352
0.107871 0.103112 0.098573
0.128617 0.122943 0.117527
0.149291 0.142702 0.136415
0.169936 0.162432 0.155277
0.191054 0.182615 0.174572
0.213319 0.203906 0.194919
0.236781 0.226336 0.216355
0.261547 0.250006 0.238981
0.288308 0.275589 0.263443
0.319684 0.305577 0.292109
0.356217 0.340479 0.325492
0.004223 0.004036 0.003859
0.060534 0.057862 0.055312
0.086032 0.082236 0.078610
0.109918 0.105070 0.100438
0.129501 0.123788 0.118333
0.148087 0.141553 0.135317
0.167956 0.160548 0.153472
0.187912 0.179623 0.171708
0.207465 0.198305 0.189576
0.227774 0.217716 0.208130
0.249655 0.238638 0.228125
0.272748 0.260714 0.249224
0.297552 0.284423 0.271885
0.325922 0.311540 0.297812
0.359425 0.343552 0.328420
0.397382 0.379829 0.363110
0.063090 0.060306 0.057648
0.102861 0.098322 0.093990
0.130553 0.124792 0.119291
0.153038 0.146282 0.139832
0.176747 0.168951 0.161497
0.195093 0.186495 0.178259
0.213993 0.204553 0.195527
0.232737 0.222466 0.212659
0.251057 0.239980 0.229407
0.270537 0.258594 0.247207
0.291991 0.279105 0.266802
0.314973 0.301077 0.287804
0.340368 0.325349 0.311020
0.370220 0.353879 0.338296
0.403670 0.385874 0.368852
0.443272 0.423715 0.405042
0.103933 0.099350 0.094972
0.145660 0.139232 0.133098
0.174470 0.166771 0.159427
0.195325 0.186697 0.178465
0.219690 0.209998 0.200748
0.245353 0.234530 0.224192
0.262851 0.251252 0.240174
0.280352 0.267979 0.256166
0.297559 0.284431 0.271895
0.316204 0.302251 0.288930
0.337251 0.322361 0.308154
0.360535 0.344626 0.329436
0.386710 0.369659 0.353367
0.416771 0.398383 0.380828
0.450189 0.430332 0.411356
0.492542 0.470807 0.450054
0.145077 0.138678 0.132571
0.188033 0.179735 0.171816
0.217384 0.207791 0.198635
0.238005 0.227499 0.217465
0.262003 0.250440 0.239403
0.287879 0.275172 0.263049
0.313757 0.299910 0.286690
0.329585 0.315041 0.301155
0.345741 0.330486 0.315927
0.363573 0.347529 0.332214
0.384205 0.367241 0.351062
0.407869 0.389872 0.372689
0.434668 0.415510 0.397181
0.464398 0.443914 0.424341
0.498610 0.476606 0.455598
0.543409 0.519423 0.496528
0.186251 0.178036 0.170194
0.230097 0.219942 0.210252
0.259947 0.248473 0.237519
0.280480 0.268101 0.256273
0.304201 0.290778 0.277956
0.329578 0.315037 0.301151
0.354760 0.339110 0.324161
0.379883 0.363124 0.347121
0.394954 0.377525 0.360906
0.412073 0.393879 0.376546
0.432299 0.413227 0.395018
0.455855 0.435751 0.416536
0.482743 0.461444 0.441106
0.512828 0.490198 0.468600
0.548649 0.524446 0.501326
0.595000 0.568739 0.543675
0.227287 0.217262 0.207687
0.271840 0.259842 0.248398
0.302392 0.289040 0.276297
0.322479 0.308239 0.294640
0.346171 0.330902 0.316311
0.370384 0.354056 0.338442
0.394733 0.377334 0.360692
0.419458 0.400964 0.383290
0.444812 0.425177 0.406458
0.461242 0.440882 0.421468
0.481173 0.459947 0.439676
0.504539 0.482287 0.461024
0.531190 0.507753 0.485376
0.561362 0.536590 0.512954
0.599083 0.572648 0.547421
0.646524 0.617992 0.590763
0.269536 0.257636 0.246285
0.314429 0.300564 0.287330
0.345992 0.330716 0.316149
0.365996 0.349833 0.334423
0.388549 0.371402 0.355048
0.411520 0.393368 0.376032
0.435274 0.416077 0.397728
0.460526 0.440208 0.420812
0.485725 0.464283 0.443833
0.511060 0.488514 0.466984
0.530620 0.507216 0.484857
0.553389 0.528977 0.505655
0.579740 0.554158 0.529724
0.611495 0.584511 0.558742
0.650135 0.621435 0.594046
0.696573 0.665827 0.636492
0.313857 0.300010 0.286785
0.359537 0.343662 0.328524
0.391728 0.374444 0.357939
0.411220 0.393070 0.375742
0.432608 0.413522 0.395297
0.455436 0.435346 0.416160
0.479502 0.458347 0.438148
0.504742 0.482462 0.461209
0.529796 0.506415 0.484110
0.554923 0.530432 0.507067
0.580143 0.554542 0.530113
0.602433 0.575850 0.550473
0.628778 0.601032 0.574538
0.661233 0.632065 0.604210
0.698724 0.667905 0.638461
0.743774 0.710942 0.679632
0.360824 0.344914 0.329709
0.407136 0.389156 0.372012
0.439495 0.420109 0.401588
0.458127 0.437914 0.418603
0.479475 0.458320 0.438110
0.502650 0.480475 0.459295
0.527075 0.503821 0.481622
0.552230 0.527854 0.504600
0.577095 0.551637 0.527328
0.602026 0.575448 0.550099
0.626880 0.599203 0.572805
0.651449 0.622704 0.595258
0.677721 0.647835 0.619272
0.708892 0.677633 0.647759
0.744014 0.711178 0.679839
0.787960 0.753212 0.720010
0.411181 0.393047 0.375718
0.457637 0.437448 0.418178
0.489689 0.468085 0.447460
0.507916 0.485510 0.464111
0.530158 0.506763 0.484419
0.554008 0.529563 0.506215
0.578576 0.553052 0.528676
0.603361 0.576738 0.551323
0.627998 0.600294 0.573828
0.652563 0.623754 0.596263
0.676920 0.647030 0.618506
0.701190 0.670249 0.640694
0.724983 0.693024 0.662457
0.753721 0.720494 0.688716
0.786768 0.752046 0.718926
0.828341 0.791791 0.756898
0.466015 0.445455 0.425800
0.512269 0.489672 0.468097
0.543815 0.519824 0.496923
0.563274 0.538431 0.514705
0.585917 0.560067 0.535374
0.610425 0.583493 0.557770
0.635107 0.607087 0.580330
0.658758 0.629689 0.601932
0.683018 0.652873 0.624103
0.706833 0.675632 0.645858
0.730147 0.697907 0.667147
0.752999 0.719750 0.688032
0.774853 0.740663 0.708014
0.795324 0.760262 0.726735
0.826381 0.789931 0.755143
0.864295 0.826162 0.789766
0.527562 0.504288 0.482069
0.573716 0.548403 0.524231
0.605152 0.578446 0.552952
0.625550 0.597957 0.571602
0.648972 0.620317 0.592985
0.672558 0.642865 0.614537
0.695937 0.665226 0.635906
0.719218 0.687484 0.657185
0.742257 0.709506 0.678265
0.764749 0.730962 0.698754
0.786202 0.751456 0.718364
0.806687 0.771094 0.737124
0.825855 0.789426 0.754625
0.844137 0.806892 0.771324
0.861934 0.823919 0.787626
0.895229 0.855726 0.818039
0.600155 0.573671 0.548382
0.645687 0.617186 0.589980
0.676602 0.646754 0.618249
0.697268 0.666510 0.637146
0.719139 0.687379 0.657086
0.741010 0.708255 0.677058
0.763404 0.729689 0.697558
0.785528 0.750878 0.717818
0.806450 0.770874 0.736930
0.826599 0.790111 0.755292
0.845446 0.808131 0.772487
0.862396 0.824342 0.787997
0.879301 0.840496 0.803445
0.894935 0.855442 0.817752
0.908683 0.868593 0.830324
0.921185 0.880541 0.841729
-0.277094 -0.264871 -0.253205
-0.281656 -0.269215 -0.257355
-0.290273 -0.277472 -0.265231
-0.299825 -0.286611 -0.273971
-0.307093 -0.293557 -0.280601
-0.313960 -0.300101 -0.286884
-0.320015 -0.305901 -0.292419
-0.325251 -0.310910 -0.297205
-0.329691 -0.315146 -0.301255
-0.333084 -0.318384 -0.304349
-0.335419 -0.320617 -0.306479
-0.336370 -0.321523 -0.307344
-0.335366 -0.320560 -0.306428
-0.331681 -0.317042 -0.303068
-0.324145 -0.309838 -0.296176
-0.308747 -0.295118 -0.282110
-0.030932 -0.029578 -0.028290
0.005612 0.005385 0.005173
0.006686 0.006428 0.006192
0.014929 0.014272 0.013643
0.044703 0.042731 0.040849
0.065941 0.063033 0.060256
0.085373 0.081606 0.078010
0.104403 0.099795 0.095398
0.123695 0.118237 0.113027
0.143792 0.137447 0.131388
0.165205 0.157918 0.150955
0.188270 0.179964 0.172027
0.212969 0.203571 0.194594
0.239311 0.228754 0.218675
0.270132 0.258217 0.246836
0.307453 0.293885 0.280939
-0.009202 -0.008791 -0.008399
0.011780 0.011261 0.010765
0.049720 0.047527 0.045431
0.073592 0.070347 0.067246
0.095013 0.090821 0.086822
0.115676 0.110570 0.105703
0.136259 0.130246 0.124511
0.156736 0.149820 0.143220
0.177148 0.169330 0.161870
0.198124 0.189374 0.181030
0.220381 0.210656 0.201372
0.243524 0.232784 0.222519
0.268063 0.256239 0.244941
0.295602 0.282562 0.270113
0.327186 0.312756 0.298968
0.364210 0.348119 0.332797
0.030783 0.029426 0.028129
0.070422 0.067315 0.064347
0.095467 0.091256 0.087231
0.118845 0.113604 0.108597
0.141661 0.135410 0.129445
0.162955 0.155761 0.148901
0.185194 0.177027 0.169227
0.207149 0.198017 0.189293
0.228355 0.218281 0.208669
0.249945 0.238916 0.228386
0.272625 0.260596 0.249109
0.296069 0.283008 0.270534
0.320961 0.306803 0.293282
0.349160 0.333754 0.319053
0.381026 0.364202 0.348150
0.416789 0.398388 0.380841
0.072925 0.069710 0.066635
0.112152 0.107202 0.102481
0.139061 0.132928 0.127069
0.163811 0.156583 0.149683
0.186192 0.177980 0.170132
0.206952 0.197828 0.189099
0.227936 0.217887 0.208277
0.248449 0.237491 0.227023
0.268279 0.256438 0.245138
0.288962 0.276201 0.264031
0.311134 0.297400 0.284294
0.334586 0.319821 0.305727
0.360207 0.344307 0.329141
0.389710 0.372505 0.356100
0.422053 0.403446 0.385629
0.460050 0.439745 0.420350
0.113789 0.108767 0.103976
0.154956 0.148125 0.141598
0.182780 0.174725 0.167028
0.207724 0.198569 0.189808
0.230505 0.220338 0.210625
0.255247 0.243983 0.233227
0.274594 0.262483 0.250912
0.293620 0.280673 0.268298
0.312220 0.298450 0.285286
0.331966 0.317319 0.303328
0.353762 0.338140 0.323238
0.377618 0.360942 0.345037
0.404041 0.386204 0.369186
0.433628 0.414484 0.396222
0.466350 0.445773 0.426117
0.507597 0.485204 0.463817
0.154975 0.148130 0.141606
0.197202 0.188503 0.180190
0.225434 0.215490 0.205995
0.251736 0.240634 0.230024
0.274109 0.262018 0.250469
0.298769 0.285579 0.272995
0.323576 0.309301 0.295663
0.340929 0.325897 0.311526
0.358404 0.342600 0.327497
0.377346 0.360706 0.344805
0.398799 0.381197 0.364392
0.422969 0.404295 0.386471
0.449827 0.429975 0.411020
0.479180 0.458032 0.437846
0.513599 0.490928 0.469291
0.557646 0.533045 0.509548
