src/luts/bw/3.cube
LUT_3D_SIZE 6
-0.108132 -0.103412 -0.098903
-0.037177 -0.035554 -0.034002
-0.017714 -0.016932 -0.016185
0.041552 0.039714 0.037965
0.104315 0.099710 0.095318
0.192932 0.184425 0.176283
-0.009425 -0.009009 -0.008611
0.086545 0.082724 0.079078
0.131295 0.125496 0.119967
0.183304 0.175215 0.167493
0.251337 0.240237 0.229653
0.352765 0.337214 0.322349
0.125523 0.119978 0.114692
0.206685 0.197565 0.188859
0.287598 0.274911 0.262794
0.332168 0.317529 0.303525
0.399782 0.382135 0.365281
0.509916 0.487400 0.465925
0.250206 0.239164 0.228622
0.329251 0.314732 0.300855
0.407554 0.389595 0.372422
0.484774 0.463368 0.442947
0.550837 0.526539 0.503320
0.668606 0.639082 0.610938
0.391691 0.374445 0.357933
0.471963 0.451133 0.431254
0.547862 0.523664 0.500592
0.625369 0.597776 0.571442
0.699824 0.668927 0.639425
0.807519 0.771875 0.737854
0.579671 0.554086 0.529672
0.662680 0.633452 0.605517
0.737891 0.705302 0.674238
0.805609 0.770027 0.736098
0.862224 0.824157 0.787857
0.908937 0.868831 0.830524
-0.277094 -0.264871 -0.253205
-0.299825 -0.286611 -0.273971
-0.320015 -0.305901 -0.292419
-0.333084 -0.318384 -0.304349
-0.335366 -0.320560 -0.306428
-0.308747 -0.295118 -0.282110
0.030783 0.029426 0.028129
0.118845 0.113604 0.108597
0.185194 0.177027 0.169227
0.249945 0.238916 0.228386
0.320961 0.306803 0.293282
0.416789 0.398388 0.380841
0.154975 0.148130 0.141606
0.251736 0.240634 0.230024
0.323576 0.309301 0.295663
0.377346 0.360706 0.344805
0.449827 0.429975 0.411020
0.557646 0.533045 0.509548
0.279134 0.266808 0.255059
0.382609 0.365721 0.349620
0.447333 0.427601 0.408730
0.521135 0.498151 0.476184
0.591641 0.565529 0.540619
0.707561 0.676334 0.646542
0.420967 0.402408 0.384652
0.524917 0.501756 0.479661
0.591362 0.565267 0.540361
0.663204 0.633926 0.605989
0.733910 0.701521 0.670598
0.836459 0.799523 0.764278
0.610245 0.583322 0.557611
0.710874 0.679496 0.649566
0.773516 0.739338 0.706786
0.834321 0.797515 0.762375
0.885766 0.846686 0.809356
0.925539 0.884711 0.845720
-0.283383 -0.270892 -0.258956
-0.305063 -0.291599 -0.278752
-0.327434 -0.312977 -0.299188
-0.335957 -0.321128 -0.306983
-0.331558 -0.316938 -0.302946
-0.289523 -0.276702 -0.264447
0.033559 0.032078 0.030663
0.143746 0.137399 0.131346
0.211673 0.202336 0.193416
0.274555 0.262441 0.250871
0.346380 0.331097 0.316499
0.443234 0.423666 0.405002
0.185031 0.176863 0.169073
0.279582 0.267246 0.255467
0.351013 0.335521 0.320739
0.417081 0.398670 0.381096
0.490470 0.468819 0.448160
0.586635 0.560759 0.536043
0.308273 0.294665 0.281689
0.407482 0.389496 0.372328
0.481247 0.460015 0.439745
0.548809 0.524581 0.501469
0.624895 0.597307 0.570976
0.732623 0.700325 0.669436
0.450274 0.430417 0.411439
0.550461 0.526163 0.502974
0.626135 0.598503 0.572128
0.692185 0.661627 0.632470
0.757717 0.724282 0.692365
0.855535 0.817775 0.781754
0.640770 0.612493 0.585491
0.735221 0.702766 0.671775
0.796646 0.761486 0.727936
0.853546 0.815880 0.779918
0.901001 0.861270 0.823282
0.936755 0.895426 0.855978
-0.290123 -0.277332 -0.265103
-0.311147 -0.297417 -0.284313
-0.330134 -0.315575 -0.301661
-0.336340 -0.321490 -0.307315
-0.324627 -0.310294 -0.296615
-0.262260 -0.250386 -0.239022
0.046963 0.044891 0.042914
0.166400 0.159064 0.152052
0.230145 0.219991 0.210300
0.301827 0.288513 0.275801
0.374439 0.357912 0.342136
0.472973 0.452106 0.432164
0.188480 0.180154 0.172221
0.293031 0.280105 0.267764
0.375868 0.359282 0.343444
0.442498 0.422971 0.404322
0.516320 0.493553 0.471784
0.616161 0.588965 0.563010
0.337564 0.322660 0.308449
0.434009 0.414856 0.396569
0.506853 0.484491 0.463138
0.574496 0.549148 0.524953
0.648095 0.619491 0.592183
0.737295 0.704770 0.673686
0.479570 0.458405 0.438196
0.579214 0.553654 0.529274
0.651626 0.622862 0.595404
0.714880 0.683320 0.653184
0.778639 0.744330 0.711506
0.866759 0.828533 0.792014
0.670777 0.641155 0.612882
0.760702 0.727132 0.695101
0.819754 0.783607 0.749074
0.863499 0.825407 0.789019
0.911691 0.871485 0.833060
0.946530 0.904789 0.864961
-0.298241 -0.285066 -0.272499
-0.318772 -0.304726 -0.291293
-0.334007 -0.319267 -0.305183
-0.334440 -0.319680 -0.305595
-0.313558 -0.299731 -0.286520
-0.222769 -0.211849 -0.201347
0.071879 0.068708 0.065677
0.193097 0.184574 0.176445
0.257564 0.246203 0.235352
0.328142 0.313677 0.299847
0.402558 0.384797 0.367836
0.503993 0.481757 0.460518
0.210748 0.201453 0.192560
0.319303 0.305209 0.291753
0.403402 0.385602 0.368605
0.471878 0.451058 0.431172
0.543714 0.519716 0.496812
0.645355 0.616876 0.589694
0.358329 0.342508 0.327421
0.459367 0.439107 0.419739
0.538385 0.514626 0.491950
0.602368 0.575786 0.550403
0.675229 0.645421 0.616971
0.766084 0.732251 0.699992
0.508948 0.486489 0.465041
0.607834 0.581004 0.555420
0.677687 0.647774 0.619227
0.740267 0.707573 0.676379
0.801248 0.765905 0.732115
0.869520 0.831163 0.794511
0.700104 0.669173 0.639717
0.786498 0.751756 0.718656
0.841652 0.804494 0.769036
0.883362 0.844371 0.807165
0.919315 0.878742 0.840001
0.956165 0.914008 0.873776
-0.309350 -0.295699 -0.282676
-0.328002 -0.313516 -0.299718
-0.336437 -0.321593 -0.307429
-0.324666 -0.310338 -0.296668
-0.280279 -0.267812 -0.255899
-0.149710 -0.135901 -0.114595
0.110649 0.105767 0.101108
0.229614 0.219485 0.209814
0.299049 0.285855 0.273258
0.375367 0.358806 0.342983
0.453382 0.433374 0.414266
0.534668 0.511072 0.488540
0.260242 0.248764 0.237801
0.366570 0.350384 0.334947
0.439935 0.420529 0.401986
0.517591 0.494740 0.472947
0.597424 0.571068 0.545898
0.674491 0.644727 0.616306
0.416317 0.397949 0.380409
0.520013 0.497078 0.475167
0.592303 0.566155 0.541196
0.638583 0.610397 0.583488
0.719491 0.687736 0.657430
0.792771 0.757760 0.724368
0.574987 0.549614 0.525391
0.673014 0.643331 0.614964
0.741103 0.708353 0.677171
0.791216 0.756326 0.722972
0.829554 0.792943 0.757981
0.890637 0.851348 0.813833
0.728539 0.696379 0.665689
0.811263 0.775440 0.741263
0.861562 0.823553 0.787250
0.900959 0.861170 0.823233
0.934477 0.893238 0.853883
0.966994 0.924101 0.883135
