src/luts/bw/4.cube
LUT_3D_SIZE 6
-0.045180 -0.045180 -0.045180
-0.013623 -0.013623 -0.013623
0.055368 0.055368 0.055368
0.140956 0.140956 0.140956
0.232395 0.232395 0.232395
0.333227 0.333227 0.333227
0.042288 0.042288 0.042288
0.139156 0.139156 0.139156
0.252854 0.252854 0.252854
0.369640 0.369640 0.369640
0.474480 0.474480 0.474479
0.561856 0.561856 0.561856
0.127625 0.127625 0.127625
0.223270 0.223270 0.223270
0.356499 0.356499 0.356499
0.467323 0.467323 0.467323
0.559078 0.559078 0.559078
0.635524 0.635524 0.635524
0.211902 0.211902 0.211902
0.310858 0.310858 0.310858
0.438998 0.438998 0.438998
0.556184 0.556184 0.556184
0.635124 0.635124 0.635124
0.700618 0.700618 0.700618
0.296008 0.296008 0.296008
0.391622 0.391622 0.391622
0.510012 0.510012 0.510012
0.613805 0.613805 0.613805
0.702466 0.702466 0.702466
0.757983 0.757983 0.757983
0.375724 0.375724 0.375724
0.465232 0.465232 0.465232
0.571316 0.571316 0.571316
0.662744 0.662744 0.662744
0.741996 0.741996 0.741996
0.808650 0.808650 0.808650
-0.066633 -0.066633 -0.066633
-0.053058 -0.053058 -0.053058
-0.006665 -0.006665 -0.006665
0.061763 0.061763 0.061763
0.142872 0.142872 0.142872
0.253261 0.253261 0.253261
0.054005 0.054005 0.054005
0.151289 0.151289 0.151289
0.271429 0.271429 0.271429
0.391363 0.391363 0.391363
0.496911 0.496911 0.496911
0.583984 0.583984 0.583984
0.139895 0.139895 0.139895
0.243259 0.243259 0.243259
0.370463 0.370463 0.370463
0.482074 0.482074 0.482074
0.573359 0.573359 0.573359
0.648791 0.648791 0.648791
0.224823 0.224823 0.224823
0.334556 0.334556 0.334556
0.454901 0.454901 0.454901
0.567503 0.567503 0.567503
0.646373 0.646373 0.646373
0.711201 0.711201 0.711201
0.309008 0.309008 0.309008
0.419501 0.419501 0.419501
0.526995 0.526995 0.526995
0.625581 0.625581 0.625581
0.711416 0.711416 0.711416
0.766447 0.766447 0.766447
0.388419 0.388419 0.388419
0.492970 0.492970 0.492970
0.587602 0.587602 0.587602
0.674635 0.674635 0.674635
0.751129 0.751129 0.751129
0.815089 0.815089 0.815089
-0.067772 -0.067772 -0.067772
-0.050745 -0.050745 -0.050745
0.003005 0.003005 0.003005
0.075504 0.075504 0.075504
0.158932 0.158932 0.158932
0.286426 0.286426 0.286426
0.062614 0.062614 0.062614
0.166301 0.166301 0.166301
0.290070 0.290070 0.290070
0.409205 0.409205 0.409205
0.512420 0.512420 0.512420
0.596898 0.596898 0.596898
0.157766 0.157766 0.157766
0.261362 0.261362 0.261362
0.387391 0.387391 0.387391
0.501762 0.501762 0.501762
0.594275 0.594275 0.594275
0.669554 0.669554 0.669554
0.243998 0.243998 0.243998
0.352713 0.352713 0.352713
0.476335 0.476335 0.476335
0.581261 0.581261 0.581261
0.660901 0.660901 0.660901
0.725942 0.725942 0.725942
0.328004 0.328004 0.328004
0.436286 0.436286 0.436286
0.551209 0.551209 0.551209
0.641490 0.641490 0.641490
0.722159 0.722159 0.722159
0.777182 0.777182 0.777182
0.406412 0.406412 0.406412
0.508800 0.508800 0.508800
0.614468 0.614468 0.614468
0.692304 0.692304 0.692304
0.762972 0.762972 0.762972
0.823669 0.823669 0.823669
-0.066498 -0.066498 -0.066498
-0.048720 -0.048720 -0.048720
0.006763 0.006763 0.006763
0.089536 0.089536 0.089536
0.176185 0.176185 0.176185
0.321223 0.321223 0.321223
0.078560 0.078560 0.078560
0.181061 0.181061 0.181061
0.300451 0.300451 0.300451
0.427784 0.427784 0.427784
0.528636 0.528636 0.528636
0.610821 0.610821 0.610821
0.166307 0.166307 0.166307
0.272523 0.272523 0.272523
0.403295 0.403295 0.403295
0.517543 0.517543 0.517543
0.607945 0.607945 0.607945
0.681472 0.681472 0.681472
0.263082 0.263082 0.263082
0.372286 0.372286 0.372286
0.493134 0.493134 0.493134
0.594169 0.594169 0.594169
0.675678 0.675678 0.675678
0.742232 0.742232 0.742232
0.347278 0.347278 0.347278
0.454100 0.454100 0.454100
0.565692 0.565692 0.565692
0.657706 0.657706 0.657706
0.732448 0.732448 0.732448
0.787734 0.787734 0.787734
0.424405 0.424405 0.424405
0.525200 0.525200 0.525200
0.627621 0.627621 0.627621
0.710931 0.710931 0.710931
0.775139 0.775139 0.775139
0.831233 0.831233 0.831233
-0.065330 -0.065330 -0.065330
-0.045465 -0.045465 -0.045465
0.010429 0.010429 0.010429
0.090638 0.090638 0.090638
0.196638 0.196638 0.196638
0.405825 0.405825 0.405825
0.088904 0.088904 0.088904
0.195243 0.195243 0.195243
0.308800 0.308800 0.308800
0.431376 0.431376 0.431376
0.544192 0.544192 0.544192
0.624868 0.624868 0.624868
0.173699 0.173699 0.173699
0.282375 0.282375 0.282375
0.417124 0.417124 0.417124
0.524800 0.524800 0.524800
0.621358 0.621358 0.621358
0.693632 0.693632 0.693632
0.267892 0.267892 0.267892
0.377968 0.377968 0.377968
0.501860 0.501860 0.501860
0.605375 0.605375 0.605375
0.687167 0.687167 0.687167
0.751723 0.751723 0.751723
0.365842 0.365842 0.365842
0.470487 0.470487 0.470487
0.579900 0.579900 0.579900
0.669730 0.669730 0.669730
0.741307 0.741307 0.741307
0.799788 0.799788 0.799788
0.442129 0.442129 0.442129
0.540919 0.540919 0.540919
0.639787 0.639787 0.639787
0.721851 0.721851 0.721851
0.786643 0.786643 0.786643
0.837577 0.837577 0.837577
-0.063490 -0.063490 -0.063490
-0.042292 -0.042292 -0.042292
0.012917 0.012917 0.012918
0.091496 0.091496 0.091496
0.193472 0.193472 0.193472
0.454613 0.454613 0.454613
0.098071 0.098071 0.098071
0.207549 0.207549 0.207549
0.316509 0.316509 0.316509
0.433971 0.433971 0.433971
0.543390 0.543390 0.543390
0.638566 0.638566 0.638566
0.180542 0.180542 0.180542
0.292331 0.292331 0.292331
0.429603 0.429603 0.429603
0.530943 0.530943 0.530943
0.623312 0.623312 0.623312
0.704211 0.704211 0.704211
0.272073 0.272073 0.272073
0.383136 0.383136 0.383136
0.509551 0.509551 0.509551
0.615127 0.615127 0.615127
0.692749 0.692749 0.692749
0.760763 0.760763 0.760763
0.366950 0.366950 0.366950
0.474063 0.474063 0.474063
0.583417 0.583417 0.583417
0.676339 0.676339 0.676339
0.749468 0.749468 0.749468
0.806472 0.806472 0.806472
0.459108 0.459108 0.459108
0.555379 0.555379 0.555379
0.651946 0.651946 0.651946
0.731916 0.731916 0.731916
0.794881 0.794881 0.794881
0.845054 0.845054 0.845054
