src/luts/bw/4.cube
LUT_3D_SIZE 16
-0.045180 -0.045180 -0.045180
-0.044645 -0.044645 -0.044645
-0.031303 -0.031303 -0.031303
-0.013623 -0.013623 -0.013623
0.008107 0.008107 0.008107
0.030829 0.030829 0.030829
0.055368 0.055368 0.055368
0.082338 0.082338 0.082338
0.111387 0.111387 0.111387
0.140956 0.140956 0.140956
0.171373 0.171373 0.171373
0.201682 0.201682 0.201682
0.232395 0.232395 0.232395
0.263738 0.263738 0.263738
0.297175 0.297175 0.297175
0.333227 0.333227 0.333227
0.044270 0.044270 0.044270
0.048649 0.048649 0.048649
0.066258 0.066258 0.066258
0.087350 0.087350 0.087350
0.110494 0.110494 0.110494
0.137538 0.137538 0.137538
0.166656 0.166656 0.166656
0.198197 0.198197 0.198197
0.231193 0.231193 0.231193
0.264268 0.264268 0.264268
0.297354 0.297354 0.297354
0.329517 0.329517 0.329517
0.361967 0.361967 0.361967
0.393802 0.393802 0.393802
0.425681 0.425681 0.425681
0.458055 0.458055 0.458055
0.037530 0.037530 0.037530
0.053954 0.053954 0.053954
0.087051 0.087051 0.087051
0.120040 0.120040 0.120040
0.153676 0.153676 0.153676
0.189995 0.189995 0.189995
0.227211 0.227211 0.227211
0.265705 0.265705 0.265705
0.304388 0.304388 0.304388
0.342511 0.342511 0.342511
0.379645 0.379645 0.379645
0.414924 0.414924 0.414924
0.449623 0.449623 0.449623
0.481841 0.481841 0.481841
0.512215 0.512215 0.512215
0.541134 0.541134 0.541134
0.042288 0.042288 0.042288
0.064153 0.064153 0.064153
0.099847 0.099847 0.099847
0.139156 0.139156 0.139156
0.175084 0.175084 0.175084
0.213727 0.213727 0.213727
0.252854 0.252854 0.252854
0.292505 0.292505 0.292505
0.331498 0.331498 0.331498
0.369640 0.369640 0.369640
0.406268 0.406268 0.406268
0.440729 0.440729 0.440729
0.474480 0.474480 0.474479
0.505169 0.505169 0.505169
0.534155 0.534155 0.534155
0.561856 0.561856 0.561856
0.070072 0.070072 0.070072
0.090278 0.090278 0.090278
0.126232 0.126232 0.126232
0.165681 0.165681 0.165681
0.208190 0.208190 0.208190
0.247586 0.247586 0.247586
0.287131 0.287131 0.287131
0.326697 0.326697 0.326697
0.365161 0.365161 0.365161
0.402611 0.402611 0.402611
0.438248 0.438248 0.438248
0.471263 0.471263 0.471263
0.503377 0.503377 0.503377
0.532189 0.532189 0.532189
0.559930 0.559930 0.559930
0.586858 0.586858 0.586858
0.099193 0.099193 0.099193
0.117541 0.117541 0.117541
0.153941 0.153941 0.153941
0.194330 0.194330 0.194330
0.237692 0.237692 0.237692
0.282738 0.282738 0.282738
0.321709 0.321709 0.321709
0.361071 0.361071 0.361071
0.398741 0.398741 0.398741
0.435216 0.435216 0.435216
0.469542 0.469542 0.469542
0.501048 0.501048 0.501048
0.531586 0.531586 0.531586
0.558859 0.558859 0.558859
0.585439 0.585439 0.585439
0.611456 0.611456 0.611456
0.127625 0.127625 0.127625
0.145128 0.145128 0.145128
0.182075 0.182075 0.182075
0.223270 0.223270 0.223270
0.267075 0.267075 0.267075
0.311519 0.311519 0.311519
0.356499 0.356499 0.356499
0.395328 0.395328 0.395328
0.432010 0.432010 0.432010
0.467323 0.467323 0.467323
0.500121 0.500121 0.500121
0.530076 0.530076 0.530076
0.559078 0.559078 0.559078
0.585062 0.585062 0.585062
0.610542 0.610542 0.610542
0.635524 0.635524 0.635524
0.155162 0.155162 0.155162
0.172992 0.172992 0.172992
0.210715 0.210715 0.210715
0.252450 0.252450 0.252450
0.296064 0.296064 0.296064
0.340406 0.340406 0.340406
0.384899 0.384899 0.384899
0.429189 0.429189 0.429189
0.464493 0.464493 0.464493
0.498283 0.498283 0.498283
0.529219 0.529219 0.529219
0.557592 0.557592 0.557592
0.585162 0.585162 0.585162
0.609708 0.609708 0.609708
0.633846 0.633846 0.633846
0.657603 0.657603 0.657603
0.183517 0.183517 0.183517
0.201637 0.201637 0.201637
0.239866 0.239866 0.239866
0.281898 0.281898 0.281898
0.325172 0.325172 0.325172
0.368762 0.368762 0.368762
0.412242 0.412242 0.412242
0.455065 0.455065 0.455065
0.495430 0.495430 0.495430
0.527978 0.527978 0.527978
0.557348 0.557348 0.557348
0.584271 0.584271 0.584271
0.610476 0.610476 0.610476
0.633780 0.633780 0.633780
0.656709 0.656709 0.656709
0.679316 0.679316 0.679316
0.211902 0.211902 0.211902
0.230244 0.230244 0.230244
0.268744 0.268744 0.268744
0.310858 0.310858 0.310858
0.353712 0.353712 0.353712
0.396539 0.396539 0.396538
0.438998 0.438998 0.438998
0.480202 0.480202 0.480202
0.519253 0.519253 0.519253
0.556184 0.556184 0.556184
0.584602 0.584602 0.584602
0.610243 0.610243 0.610243
0.635124 0.635124 0.635124
0.657338 0.657338 0.657338
0.679149 0.679149 0.679149
0.700618 0.700618 0.700618
0.240394 0.240394 0.240394
0.258793 0.258793 0.258793
0.297060 0.297060 0.297060
0.338726 0.338726 0.338726
0.380959 0.380959 0.380958
0.423029 0.423029 0.423029
0.464532 0.464532 0.464532
0.503740 0.503740 0.503740
0.541015 0.541015 0.541015
0.576774 0.576774 0.576774
0.610203 0.610203 0.610203
0.635012 0.635012 0.635012
0.658706 0.658706 0.658706
0.680166 0.680166 0.680166
0.700573 0.700573 0.700573
0.720201 0.720201 0.720201
0.268212 0.268212 0.268212
0.286622 0.286622 0.286622
0.324376 0.324376 0.324376
0.365219 0.365219 0.365219
0.406481 0.406481 0.406481
0.447364 0.447364 0.447364
0.487567 0.487567 0.487567
0.525038 0.525038 0.525038
0.560887 0.560887 0.560887
0.595413 0.595413 0.595413
0.627898 0.627898 0.627898
0.657199 0.657199 0.657199
0.681269 0.681269 0.681269
0.701939 0.701939 0.701939
0.721147 0.721147 0.721147
0.739286 0.739286 0.739286
0.296008 0.296008 0.296008
0.314453 0.314453 0.314453
0.351669 0.351669 0.351669
0.391622 0.391622 0.391622
0.431737 0.431737 0.431737
0.471269 0.471269 0.471269
0.510012 0.510012 0.510012
0.545905 0.545905 0.545905
0.580454 0.580454 0.580454
0.613805 0.613805 0.613805
0.644945 0.644945 0.644945
0.674573 0.674573 0.674573
0.702466 0.702466 0.702466
0.722672 0.722672 0.722672
0.740968 0.740968 0.740968
0.757983 0.757983 0.757983
0.323181 0.323181 0.323181
0.341581 0.341581 0.341581
0.378477 0.378477 0.378477
0.417837 0.417837 0.417837
0.456109 0.456109 0.456109
0.493962 0.493962 0.493962
0.531176 0.531176 0.531176
0.565558 0.565558 0.565558
0.598678 0.598678 0.598678
0.630647 0.630647 0.630647
0.660528 0.660528 0.660528
0.689035 0.689035 0.689035
0.716246 0.716246 0.716246
0.740363 0.740363 0.740363
0.759739 0.759739 0.759739
0.776592 0.776592 0.776592
0.349670 0.349670 0.349670
0.367975 0.367975 0.367975
0.404029 0.404029 0.404029
0.442208 0.442208 0.442208
0.479241 0.479241 0.479241
0.515758 0.515758 0.515758
0.551568 0.551568 0.551568
0.584474 0.584474 0.584474
0.616222 0.616222 0.616222
0.646902 0.646902 0.646902
0.675607 0.675607 0.675607
0.703024 0.703024 0.703024
0.729309 0.729309 0.729309
0.754201 0.754201 0.754201
0.775302 0.775302 0.775302
0.793565 0.793565 0.793565
0.375724 0.375724 0.375724
0.393912 0.393912 0.393911
0.428712 0.428712 0.428712
0.465232 0.465232 0.465232
0.501480 0.501480 0.501480
0.536882 0.536882 0.536882
0.571316 0.571316 0.571316
0.602822 0.602822 0.602822
0.633268 0.633268 0.633268
0.662744 0.662744 0.662744
0.690344 0.690344 0.690344
0.716690 0.716690 0.716690
0.741996 0.741996 0.741996
0.766271 0.766271 0.766271
0.788578 0.788578 0.788578
0.808650 0.808650 0.808650
-0.063444 -0.063444 -0.063444
-0.063734 -0.063734 -0.063734
-0.057587 -0.057587 -0.057587
-0.047300 -0.047300 -0.047300
-0.032824 -0.032824 -0.032824
-0.014548 -0.014548 -0.014548
0.006021 0.006021 0.006021
0.029431 0.029431 0.029431
0.055567 0.055567 0.055567
0.082556 0.082556 0.082556
0.110902 0.110902 0.110902
0.139678 0.139678 0.139678
0.168966 0.168966 0.168966
0.199455 0.199455 0.199455
0.233366 0.233366 0.233366
0.271240 0.271240 0.271240
0.073996 0.073996 0.073996
0.078294 0.078294 0.078294
0.094695 0.094695 0.094695
0.115776 0.115776 0.115776
0.141386 0.141386 0.141386
0.171663 0.171663 0.171663
0.204245 0.204245 0.204245
0.239681 0.239681 0.239681
0.276578 0.276578 0.276578
0.313370 0.313370 0.313370
0.349826 0.349826 0.349826
0.384913 0.384913 0.384913
0.419601 0.419601 0.419601
0.452266 0.452266 0.452266
0.483562 0.483562 0.483562
0.513864 0.513864 0.513864
0.050066 0.050066 0.050066
0.068967 0.068967 0.068967
0.096803 0.096803 0.096803
0.127809 0.127809 0.127809
0.161015 0.161015 0.161015
0.197054 0.197054 0.197054
0.234072 0.234072 0.234072
0.272511 0.272511 0.272511
0.311177 0.311177 0.311177
0.349264 0.349264 0.349264
0.386329 0.386329 0.386329
0.421561 0.421561 0.421561
0.456162 0.456162 0.456162
0.487998 0.487998 0.487998
0.518109 0.518109 0.518109
0.546890 0.546890 0.546890
0.044574 0.044574 0.044574
0.069515 0.069515 0.069515
0.102567 0.102567 0.102567
0.141322 0.141322 0.141322
0.178039 0.178039 0.178039
0.217011 0.217011 0.217011
0.256372 0.256372 0.256372
0.296160 0.296160 0.296160
0.335240 0.335240 0.335240
0.373435 0.373435 0.373435
0.410075 0.410075 0.410075
0.444528 0.444528 0.444528
0.478221 0.478221 0.478221
0.508655 0.508655 0.508655
0.537515 0.537515 0.537515
0.565210 0.565210 0.565210
0.073180 0.073180 0.073180
0.096278 0.096278 0.096278
0.129445 0.129445 0.129445
0.168611 0.168611 0.168611
0.211399 0.211399 0.211399
0.250757 0.250757 0.250757
0.290280 0.290280 0.290280
0.329920 0.329920 0.329920
0.368476 0.368476 0.368476
0.405978 0.405978 0.405978
0.441603 0.441603 0.441603
0.474575 0.474575 0.474575
0.506613 0.506613 0.506613
0.535256 0.535256 0.535256
0.562855 0.562855 0.562855
0.589685 0.589685 0.589685
0.101262 0.101262 0.101262
0.123771 0.123771 0.123771
0.157830 0.157830 0.157830
0.197898 0.197898 0.197898
0.240925 0.240925 0.240925
0.285563 0.285563 0.285563
0.324667 0.324667 0.324667
0.364074 0.364074 0.364074
0.401791 0.401791 0.401791
0.438279 0.438279 0.438279
0.472560 0.472560 0.472560
0.504008 0.504008 0.504008
0.534463 0.534463 0.534463
0.561592 0.561592 0.561592
0.588017 0.588017 0.588017
0.613879 0.613879 0.613879
0.129070 0.129070 0.129070
0.151668 0.151668 0.151668
0.186384 0.186384 0.186384
0.227180 0.227180 0.227180
0.270345 0.270345 0.270345
0.314512 0.314512 0.314512
0.359260 0.359260 0.359260
0.398169 0.398169 0.398169
0.434852 0.434852 0.434852
0.470136 0.470136 0.470136
0.502877 0.502877 0.502877
0.532778 0.532778 0.532778
0.561706 0.561706 0.561706
0.587501 0.587501 0.587501
0.612806 0.612806 0.612806
0.637624 0.637624 0.637624
0.156576 0.156576 0.156576
0.180159 0.180159 0.180159
0.215150 0.215150 0.215150
0.256291 0.256291 0.256291
0.299423 0.299423 0.299423
0.343483 0.343483 0.343483
0.387758 0.387758 0.387758
0.431838 0.431838 0.431838
0.467107 0.467107 0.467107
0.500837 0.500837 0.500837
0.531743 0.531743 0.531743
0.560082 0.560082 0.560082
0.587586 0.587586 0.587586
0.611901 0.611901 0.611901
0.635908 0.635908 0.635908
0.659632 0.659632 0.659632
0.184944 0.184944 0.184944
0.209466 0.209466 0.209466
0.244506 0.244506 0.244506
0.285751 0.285751 0.285751
0.328624 0.328624 0.328624
0.371932 0.371932 0.371932
0.415176 0.415176 0.415175
0.457774 0.457774 0.457774
0.497879 0.497879 0.497879
0.530396 0.530396 0.530396
0.559710 0.559710 0.559710
0.586586 0.586586 0.586586
0.612738 0.612738 0.612738
0.635939 0.635939 0.635939
0.658729 0.658729 0.658729
0.681209 0.681209 0.681209
0.213368 0.213368 0.213368
0.238730 0.238730 0.238730
0.273738 0.273738 0.273738
0.314952 0.314952 0.314952
0.357211 0.357211 0.357211
0.399698 0.399698 0.399698
0.441927 0.441927 0.441927
0.482924 0.482924 0.482924
0.521760 0.521760 0.521760
0.558487 0.558487 0.558487
0.586839 0.586839 0.586839
0.612424 0.612424 0.612424
0.637265 0.637265 0.637265
0.659605 0.659605 0.659605
0.681235 0.681235 0.681235
0.702328 0.702328 0.702328
0.241943 0.241943 0.241943
0.267935 0.267935 0.267935
0.302744 0.302744 0.302744
0.343636 0.343636 0.343636
0.384468 0.384468 0.384468
0.425964 0.425964 0.425964
0.467306 0.467306 0.467306
0.506438 0.506438 0.506438
0.543505 0.543505 0.543505
0.579034 0.579034 0.579034
0.612303 0.612303 0.612303
0.637080 0.637080 0.637080
0.660716 0.660716 0.660716
0.682064 0.682064 0.682064
0.702335 0.702335 0.702335
0.721817 0.721817 0.721817
0.269764 0.269764 0.269764
0.296192 0.296192 0.296192
0.329976 0.329976 0.329976
0.369847 0.369847 0.369847
0.409993 0.409993 0.409993
0.450419 0.450419 0.450419
0.490508 0.490508 0.490507
0.527765 0.527765 0.527765
0.563360 0.563360 0.563360
0.597648 0.597648 0.597648
0.629982 0.629982 0.629982
0.659144 0.659144 0.659144
0.683178 0.683178 0.683178
0.703741 0.703741 0.703741
0.722815 0.722815 0.722815
0.740805 0.740805 0.740805
0.297549 0.297549 0.297549
0.324316 0.324316 0.324316
0.356914 0.356914 0.356914
0.395557 0.395557 0.395557
0.435233 0.435233 0.435233
0.474567 0.474567 0.474567
0.513201 0.513201 0.513201
0.548668 0.548668 0.548668
0.582893 0.582893 0.582893
0.616021 0.616021 0.616021
0.646994 0.646994 0.646994
0.676489 0.676489 0.676489
0.704293 0.704293 0.704293
0.724581 0.724581 0.724581
0.742732 0.742732 0.742732
0.759444 0.759444 0.759444
0.324847 0.324847 0.324847
0.351847 0.351847 0.351847
0.384110 0.384110 0.384110
0.422171 0.422171 0.422171
0.459971 0.459971 0.459971
0.497344 0.497344 0.497344
0.534036 0.534036 0.534036
0.568112 0.568112 0.568112
0.601022 0.601022 0.601022
0.632874 0.632874 0.632874
0.662567 0.662567 0.662567
0.690910 0.690910 0.690910
0.718000 0.718000 0.718000
0.742152 0.742152 0.742152
0.761565 0.761565 0.761565
0.778401 0.778401 0.778401
0.351451 0.351451 0.351451
0.378489 0.378489 0.378489
0.409772 0.409772 0.409772
0.446610 0.446610 0.446610
0.483077 0.483077 0.483077
0.519105 0.519105 0.519105
0.554446 0.554446 0.554446
0.587038 0.587038 0.587038
0.618557 0.618557 0.618557
0.649096 0.649096 0.649096
0.677622 0.677622 0.677622
0.704859 0.704859 0.704859
0.730985 0.730985 0.730985
0.755804 0.755804 0.755804
0.776946 0.776946 0.776946
0.795334 0.795334 0.795334
0.377613 0.377613 0.377613
0.404524 0.404524 0.404524
0.434340 0.434340 0.434340
0.469453 0.469453 0.469453
0.505021 0.505021 0.505021
0.540112 0.540112 0.540112
0.574442 0.574442 0.574442
0.605549 0.605549 0.605549
0.635657 0.635657 0.635657
0.664869 0.664869 0.664869
0.692325 0.692325 0.692325
0.718487 0.718487 0.718487
0.743593 0.743593 0.743593
0.767612 0.767612 0.767612
0.789924 0.789924 0.789924
0.810137 0.810137 0.810137
-0.065741 -0.065741 -0.065741
-0.065394 -0.065394 -0.065394
-0.061604 -0.061604 -0.061604
-0.054582 -0.054582 -0.054582
-0.043858 -0.043858 -0.043858
-0.028123 -0.028123 -0.028123
-0.010382 -0.010382 -0.010382
0.009816 0.009816 0.009816
0.033050 0.033050 0.033050
0.057313 0.057313 0.057313
0.083242 0.083242 0.083242
0.109977 0.109977 0.109977
0.137681 0.137681 0.137681
0.167686 0.167686 0.167686
0.202598 0.202598 0.202598
0.243337 0.243337 0.243337
0.064483 0.064483 0.064483
0.081870 0.081870 0.081870
0.098293 0.098293 0.098293
0.119406 0.119406 0.119406
0.145328 0.145328 0.145328
0.176814 0.176814 0.176814
0.209929 0.209929 0.209929
0.245032 0.245032 0.245032
0.281713 0.281713 0.281713
0.318339 0.318339 0.318339
0.354690 0.354690 0.354690
0.389639 0.389639 0.389639
0.424186 0.424186 0.424186
0.456703 0.456703 0.456703
0.487868 0.487868 0.487868
0.518114 0.518114 0.518114
0.054606 0.054606 0.054606
0.073518 0.073518 0.073518
0.101513 0.101513 0.101513
0.132545 0.132545 0.132545
0.166351 0.166351 0.166351
0.203649 0.203649 0.203649
0.241783 0.241783 0.241783
0.280933 0.280933 0.280933
0.320196 0.320196 0.320196
0.358806 0.358806 0.358806
0.396263 0.396263 0.396263
0.431697 0.431697 0.431697
0.466350 0.466350 0.466350
0.498119 0.498119 0.498119
0.528101 0.528101 0.528101
0.556715 0.556715 0.556715
0.049033 0.049033 0.049033
0.074282 0.074282 0.074282
0.109303 0.109303 0.109303
0.146181 0.146181 0.146181
0.183607 0.183607 0.183607
0.223262 0.223262 0.223262
0.263184 0.263184 0.263184
0.303466 0.303466 0.303466
0.342964 0.342964 0.342964
0.381508 0.381508 0.381508
0.418421 0.418421 0.418421
0.453003 0.453003 0.453003
0.486722 0.486722 0.486722
0.517313 0.517313 0.517313
0.546361 0.546361 0.546361
0.574243 0.574243 0.574243
0.078909 0.078909 0.078909
0.101081 0.101081 0.101081
0.137304 0.137304 0.137304
0.174303 0.174303 0.174303
0.215717 0.215717 0.215717
0.256274 0.256274 0.256274
0.296581 0.296581 0.296581
0.336571 0.336571 0.336571
0.375347 0.375347 0.375347
0.413007 0.413007 0.413007
0.448737 0.448737 0.448737
0.481754 0.481754 0.481754
0.513785 0.513785 0.513785
0.542564 0.542564 0.542564
0.570245 0.570245 0.570245
0.597083 0.597083 0.597083
0.106501 0.106501 0.106501
0.128675 0.128675 0.128675
0.167019 0.167019 0.167019
0.204588 0.204588 0.204588
0.246466 0.246466 0.246466
0.290734 0.290734 0.290734
0.330583 0.330583 0.330583
0.370187 0.370187 0.370187
0.408025 0.408025 0.408025
0.444559 0.444559 0.444559
0.478808 0.478808 0.478808
0.510224 0.510224 0.510224
0.540626 0.540626 0.540626
0.567786 0.567786 0.567786
0.594213 0.594213 0.594213
0.620035 0.620035 0.620035
0.134004 0.134004 0.134004
0.156701 0.156701 0.156701
0.196679 0.196679 0.196679
0.234591 0.234591 0.234591
0.276927 0.276927 0.276927
0.320583 0.320583 0.320583
0.364760 0.364760 0.364760
0.403817 0.403817 0.403817
0.440585 0.440585 0.440585
0.475867 0.475867 0.475867
0.508506 0.508506 0.508506
0.538330 0.538330 0.538330
0.567162 0.567162 0.567162
0.592808 0.592808 0.592808
0.618024 0.618024 0.618024
0.642818 0.642818 0.642818
0.161600 0.161600 0.161600
0.185346 0.185346 0.185346
0.226263 0.226263 0.226263
0.264139 0.264139 0.264139
0.306905 0.306905 0.306905
0.350172 0.350172 0.350172
0.393652 0.393652 0.393652
0.437019 0.437019 0.437019
0.472396 0.472396 0.472396
0.506130 0.506130 0.506130
0.536941 0.536941 0.536941
0.565197 0.565197 0.565197
0.592601 0.592601 0.592601
0.616788 0.616788 0.616788
0.640686 0.640686 0.640686
0.664307 0.664307 0.664307
0.190050 0.190050 0.190050
0.214696 0.214696 0.214696
0.256540 0.256540 0.256540
0.294072 0.294072 0.294072
0.336177 0.336177 0.336177
0.378697 0.378697 0.378697
0.421238 0.421238 0.421238
0.463220 0.463220 0.463220
0.502688 0.502688 0.502688
0.535219 0.535219 0.535219
0.564494 0.564494 0.564494
0.591326 0.591326 0.591326
0.617415 0.617415 0.617415
0.640602 0.640602 0.640602
0.663298 0.663298 0.663298
0.685593 0.685593 0.685593
0.218521 0.218521 0.218521
0.243942 0.243942 0.243942
0.286558 0.286558 0.286558
0.323650 0.323650 0.323650
0.364816 0.364816 0.364816
0.406517 0.406517 0.406517
0.448104 0.448104 0.448104
0.488474 0.488474 0.488474
0.526689 0.526689 0.526689
0.562900 0.562900 0.562900
0.591262 0.591262 0.591262
0.616849 0.616849 0.616849
0.641684 0.641684 0.641684
0.664142 0.664142 0.664142
0.685713 0.685713 0.685713
0.706576 0.706576 0.706576
0.247064 0.247064 0.247064
0.273018 0.273018 0.273018
0.316064 0.316064 0.316064
0.352492 0.352492 0.352492
0.392352 0.392352 0.392352
0.433106 0.433106 0.433106
0.473681 0.473681 0.473681
0.511950 0.511950 0.511950
0.548416 0.548416 0.548416
0.583538 0.583538 0.583538
0.616423 0.616423 0.616423
0.641155 0.641155 0.641155
0.664706 0.664706 0.664706
0.686037 0.686037 0.686037
0.706393 0.706393 0.706393
0.725999 0.725999 0.725999
0.274887 0.274887 0.274887
0.301246 0.301246 0.301246
0.344196 0.344196 0.344196
0.379768 0.379768 0.379768
0.418430 0.418430 0.418430
0.457855 0.457855 0.457855
0.497054 0.497054 0.497054
0.533381 0.533381 0.533381
0.568332 0.568332 0.568332
0.602213 0.602213 0.602213
0.634182 0.634182 0.634182
0.662958 0.662958 0.662958
0.686853 0.686853 0.686853
0.707083 0.707083 0.707083
0.726290 0.726290 0.726290
0.744722 0.744722 0.744722
0.302688 0.302688 0.302688
0.329370 0.329370 0.329370
0.371950 0.371950 0.371950
0.406674 0.406674 0.406674
0.444243 0.444243 0.444242
0.482208 0.482208 0.482208
0.519836 0.519836 0.519836
0.554398 0.554398 0.554398
0.587943 0.587943 0.587943
0.620601 0.620601 0.620601
0.651230 0.651230 0.651230
0.680365 0.680365 0.680365
0.707769 0.707769 0.707769
0.727307 0.727307 0.727307
0.745550 0.745550 0.745550
0.762958 0.762958 0.762958
0.329899 0.329899 0.329899
0.356676 0.356676 0.356676
0.398607 0.398607 0.398607
0.432452 0.432452 0.432452
0.468756 0.468756 0.468756
0.504854 0.504854 0.504854
0.540473 0.540473 0.540473
0.573810 0.573810 0.573810
0.606071 0.606071 0.606071
0.637414 0.637414 0.637414
0.666806 0.666806 0.666806
0.694855 0.694855 0.694855
0.721646 0.721646 0.721646
0.744982 0.744982 0.744982
0.764223 0.764223 0.764223
0.781244 0.781244 0.781244
0.356450 0.356450 0.356450
0.383199 0.383199 0.383199
0.424069 0.424069 0.424069
0.456885 0.456885 0.456885
0.491873 0.491873 0.491873
0.526469 0.526469 0.526469
0.560542 0.560542 0.560542
0.592668 0.592668 0.592668
0.623641 0.623641 0.623641
0.653651 0.653651 0.653651
0.681861 0.681861 0.681861
0.708806 0.708806 0.708806
0.734686 0.734686 0.734686
0.759061 0.759061 0.759061
0.779724 0.779724 0.779724
0.797782 0.797782 0.797782
0.382591 0.382591 0.382591
0.409203 0.409203 0.409203
0.448702 0.448702 0.448702
0.480397 0.480397 0.480397
0.514014 0.514014 0.514014
0.547343 0.547343 0.547343
0.580201 0.580201 0.580201
0.611128 0.611128 0.611128
0.640800 0.640800 0.640800
0.669478 0.669478 0.669478
0.696559 0.696559 0.696559
0.722385 0.722385 0.722385
0.747256 0.747256 0.747256
0.771328 0.771328 0.771328
0.793068 0.793068 0.793068
0.812425 0.812425 0.812425
-0.066633 -0.066633 -0.066633
-0.065714 -0.065714 -0.065714
-0.061248 -0.061248 -0.061248
-0.053058 -0.053058 -0.053058
-0.041885 -0.041885 -0.041885
-0.025149 -0.025149 -0.025149
-0.006665 -0.006665 -0.006665
0.013804 0.013804 0.013804
0.037272 0.037272 0.037272
0.061763 0.061763 0.061763
0.087931 0.087931 0.087931
0.114883 0.114883 0.114883
0.142872 0.142872 0.142872
0.173766 0.173767 0.173766
0.210060 0.210061 0.210060
0.253261 0.253261 0.253261
0.056847 0.056847 0.056847
0.083531 0.083531 0.083531
0.100210 0.100210 0.100210
0.123185 0.123185 0.123185
0.149434 0.149434 0.149434
0.182111 0.182111 0.182111
0.215999 0.215999 0.215999
0.251147 0.251147 0.251147
0.287791 0.287791 0.287791
0.324367 0.324367 0.324367
0.360678 0.360678 0.360678
0.395518 0.395518 0.395518
0.429938 0.429938 0.429938
0.462317 0.462318 0.462317
0.493289 0.493289 0.493289
0.523379 0.523379 0.523379
0.059771 0.059771 0.059771
0.078268 0.078268 0.078268
0.105804 0.105804 0.105804
0.137169 0.137169 0.137169
0.171090 0.171090 0.171090
0.208694 0.208694 0.208694
0.246967 0.246967 0.246967
0.286031 0.286031 0.286031
0.325211 0.325211 0.325211
0.363743 0.363743 0.363743
0.401123 0.401123 0.401123
0.436444 0.436444 0.436444
0.470987 0.470987 0.470987
0.502692 0.502692 0.502692
0.532621 0.532621 0.532621
0.561204 0.561204 0.561204
0.054005 0.054005 0.054005
0.079760 0.079760 0.079760
0.114422 0.114422 0.114422
0.151289 0.151289 0.151289
0.189919 0.189919 0.189919
0.230634 0.230634 0.230634
0.271429 0.271429 0.271429
0.312346 0.312346 0.312346
0.352383 0.352383 0.352383
0.391363 0.391363 0.391363
0.428575 0.428575 0.428575
0.463268 0.463268 0.463268
0.496911 0.496911 0.496911
0.527335 0.527335 0.527335
0.556243 0.556243 0.556243
0.583984 0.583984 0.583984
0.084865 0.084865 0.084865
0.106655 0.106655 0.106655
0.142319 0.142319 0.142319
0.180714 0.180714 0.180714
0.220852 0.220852 0.220852
0.262398 0.262398 0.262398
0.303484 0.303484 0.303484
0.343999 0.343999 0.343999
0.383181 0.383181 0.383181
0.421161 0.421161 0.421161
0.457113 0.457113 0.457113
0.490263 0.490263 0.490263
0.522319 0.522319 0.522319
0.551169 0.551169 0.551169
0.578889 0.578889 0.578889
0.605708 0.605708 0.605708
0.112388 0.112388 0.112388
0.134474 0.134474 0.134474
0.171989 0.171989 0.171989
0.212178 0.212178 0.212178
0.252716 0.252716 0.252716
0.296261 0.296261 0.296261
0.336824 0.336824 0.336824
0.376735 0.376735 0.376735
0.414847 0.414847 0.414847
0.451568 0.451568 0.451568
0.485893 0.485893 0.485893
0.517368 0.517368 0.517368
0.547787 0.547787 0.547787
0.575088 0.575088 0.575088
0.601523 0.601523 0.601523
0.627242 0.627242 0.627242
0.139895 0.139895 0.139895
0.162721 0.162721 0.162721
0.201622 0.201622 0.201622
0.243259 0.243259 0.243259
0.284125 0.284125 0.284125
0.327014 0.327014 0.327014
0.370463 0.370463 0.370463
0.409747 0.409747 0.409747
0.446695 0.446695 0.446695
0.482074 0.482074 0.482074
0.514709 0.514709 0.514709
0.544538 0.544538 0.544538
0.573359 0.573359 0.573359
0.599145 0.599145 0.599145
0.624257 0.624257 0.624257
0.648791 0.648791 0.648791
0.167684 0.167684 0.167684
0.191579 0.191579 0.191579
0.231184 0.231184 0.231184
0.273813 0.273813 0.273813
0.314900 0.314900 0.314900
