src/luts/bw/5.cube
LUT_3D_SIZE 6
-0.002364 -0.002364 -0.002364
0.134255 0.134255 0.134255
0.440197 0.440197 0.440197
0.666125 0.666125 0.666125
0.716148 0.716148 0.716148
0.717721 0.717721 0.717721
0.062844 0.062844 0.062844
0.098716 0.098716 0.098716
0.389971 0.389971 0.389971
0.676004 0.676004 0.676004
0.731143 0.731143 0.731143
0.732657 0.732657 0.732657
0.176976 0.176976 0.176976
0.192827 0.192827 0.192827
0.318194 0.318194 0.318194
0.650135 0.650135 0.650135
0.751540 0.751540 0.751540
0.753111 0.753111 0.753111
0.347816 0.347816 0.347816
0.358728 0.358728 0.358728
0.444636 0.444636 0.444636
0.596552 0.596552 0.596552
0.771516 0.771516 0.771516
0.773077 0.773077 0.773077
0.480646 0.480646 0.480646
0.502066 0.502066 0.502066
0.576365 0.576365 0.576365
0.718536 0.718536 0.718536
0.793271 0.793271 0.793271
0.795333 0.795333 0.795333
0.484186 0.484186 0.484186
0.505729 0.505729 0.505729
0.579798 0.579798 0.579798
0.722088 0.722088 0.722088
0.795574 0.795574 0.795574
0.795869 0.795869 0.795869
-0.112081 -0.112081 -0.112081
-0.120792 -0.120792 -0.120792
0.216946 0.216946 0.216946
0.552722 0.552722 0.552722
0.606459 0.606459 0.606459
0.607129 0.607129 0.607129
0.075004 0.075004 0.075004
0.175903 0.175903 0.175903
0.476362 0.476362 0.476362
0.737612 0.737612 0.737612
0.784173 0.784173 0.784173
0.785460 0.785460 0.785460
0.182800 0.182800 0.182800
0.263509 0.263509 0.263509
0.365251 0.365251 0.365251
0.674265 0.674265 0.674265
0.772915 0.772915 0.772915
0.774427 0.774427 0.774427
0.349903 0.349903 0.349903
0.383987 0.383987 0.383987
0.478572 0.478572 0.478572
0.617507 0.617507 0.617507
0.790723 0.790723 0.790723
0.792398 0.792398 0.792398
0.487661 0.487661 0.487661
0.534724 0.534724 0.534724
0.617634 0.617634 0.617634
0.747647 0.747647 0.747647
0.814400 0.814400 0.814400
0.817146 0.817146 0.817146
0.491343 0.491343 0.491343
0.538299 0.538299 0.538299
0.622545 0.622545 0.622545
0.752746 0.752746 0.752746
0.817512 0.817512 0.817512
0.817667 0.817667 0.817667
-0.113780 -0.113780 -0.113780
-0.121830 -0.121830 -0.121830
-0.141649 -0.141649 -0.141649
0.161050 0.161050 0.161050
0.189989 0.189989 0.189989
0.194940 0.194940 0.194940
0.065552 0.065552 0.065552
0.188547 0.188547 0.188547
0.208900 0.208900 0.208900
0.504719 0.504719 0.504719
0.537986 0.537986 0.537986
0.536502 0.536502 0.536502
0.219050 0.219050 0.219050
0.290102 0.290102 0.290102
0.508108 0.508108 0.508108
0.771574 0.771574 0.771574
0.854141 0.854141 0.854141
0.855274 0.855274 0.855274
0.382413 0.382413 0.382413
0.416193 0.416193 0.416193
0.618840 0.618840 0.618840
0.722921 0.722921 0.722921
0.851496 0.851496 0.851496
0.852765 0.852765 0.852765
0.517429 0.517429 0.517429
0.567299 0.567299 0.567299
0.677775 0.677775 0.677775
0.793158 0.793158 0.793158
0.850006 0.850006 0.850006
0.851348 0.851348 0.851348
0.521674 0.521674 0.521674
0.571502 0.571502 0.571502
0.681273 0.681273 0.681273
0.796156 0.796156 0.796156
0.853191 0.853191 0.853191
0.853862 0.853862 0.853862
-0.123582 -0.123582 -0.123582
-0.131040 -0.131040 -0.131040
-0.156928 -0.156928 -0.156928
-0.201486 -0.201486 -0.201486
-0.230542 -0.230543 -0.230542
-0.231288 -0.231288 -0.231288
0.065831 0.065831 0.065831
0.195414 0.195414 0.195414
0.201561 0.201561 0.201561
0.225722 0.225722 0.225722
0.228657 0.228657 0.228657
0.229604 0.229604 0.229604
0.209838 0.209838 0.209838
0.294348 0.294348 0.294348
0.527103 0.527103 0.527103
0.578819 0.578819 0.578819
0.624466 0.624466 0.624466
0.627721 0.627721 0.627721
0.425902 0.425902 0.425902
0.456561 0.456561 0.456561
0.653000 0.653000 0.653000
0.813236 0.813236 0.813236
0.919232 0.919232 0.919232
0.920233 0.920233 0.920233
0.577496 0.577496 0.577496
0.622483 0.622483 0.622483
0.724785 0.724785 0.724785
0.876731 0.876731 0.876731
0.940301 0.940301 0.940301
0.934276 0.934276 0.934276
0.582059 0.582059 0.582059
0.627063 0.627063 0.627063
0.728209 0.728209 0.728209
0.880098 0.880098 0.880098
0.942426 0.942426 0.942426
0.944062 0.944062 0.944062
-0.138800 -0.138800 -0.138800
-0.147814 -0.147814 -0.147814
-0.185391 -0.185391 -0.185391
-0.237416 -0.237416 -0.237416
-0.252488 -0.252488 -0.252488
-0.252607 -0.252607 -0.252607
0.079191 0.079191 0.079191
0.193901 0.193901 0.193901
0.199066 0.199066 0.199066
0.200916 0.200916 0.200916
0.192648 0.192648 0.192648
0.192489 0.192489 0.192489
0.237231 0.237231 0.237231
0.306156 0.306156 0.306156
0.524092 0.524092 0.524092
0.549883 0.549883 0.549883
0.541299 0.541299 0.541299
0.542140 0.542140 0.542140
0.483676 0.483676 0.483676
0.523114 0.523114 0.523114
0.682504 0.682504 0.682504
0.813274 0.813274 0.813274
0.829457 0.829457 0.829457
0.832038 0.832038 0.832038
0.596871 0.596871 0.596871
0.641575 0.641575 0.641575
0.737219 0.737219 0.737219
0.896294 0.896294 0.896294
1.001319 1.001319 1.001319
1.001742 1.001742 1.001742
0.598839 0.598839 0.598839
0.643405 0.643405 0.643405
0.739353 0.739353 0.739353
0.902671 0.902671 0.902671
1.003026 1.003026 1.003026
1.003474 1.003474 1.003474
-0.138841 -0.138841 -0.138841
-0.147988 -0.147988 -0.147988
-0.186776 -0.186776 -0.186776
-0.238424 -0.238424 -0.238424
-0.252705 -0.252705 -0.252705
-0.252692 -0.252692 -0.252692
0.079835 0.079835 0.079835
0.194104 0.194104 0.194104
0.199375 0.199375 0.199375
0.200617 0.200617 0.200617
0.192063 0.192063 0.192063
0.192202 0.192202 0.192202
0.239392 0.239392 0.239392
0.307713 0.307713 0.307713
0.524132 0.524132 0.524132
0.550167 0.550167 0.550167
0.539992 0.539992 0.539992
0.540661 0.540661 0.540661
0.487506 0.487506 0.487506
0.528479 0.528479 0.528479
0.681969 0.681969 0.681969
0.813284 0.813284 0.813284
0.827845 0.827845 0.827845
0.829092 0.829092 0.829092
0.597444 0.597444 0.597444
0.642491 0.642491 0.642491
0.736044 0.736044 0.736044
0.891476 0.891476 0.891476
0.998930 0.998930 0.998930
0.999332 0.999332 0.999332
0.598350 0.598350 0.598350
0.643089 0.643089 0.643089
0.737837 0.737837 0.737837
0.896000 0.896000 0.896000
1.000043 1.000043 1.000043
1.000486 1.000486 1.000486
