src/luts/bw/5.cube
LUT_3D_SIZE 16
-0.002364 -0.002364 -0.002364
-0.002364 -0.002364 -0.002364
0.060025 0.060025 0.060025
0.134255 0.134255 0.134255
0.228449 0.228449 0.228449
0.332903 0.332903 0.332903
0.440197 0.440197 0.440197
0.546955 0.546955 0.546955
0.629113 0.629113 0.629113
0.666125 0.666125 0.666125
0.680368 0.680368 0.680368
0.696155 0.696155 0.696155
0.716148 0.716148 0.716148
0.717721 0.717721 0.717721
0.717721 0.717721 0.717721
0.717721 0.717721 0.717721
-0.002364 -0.002364 -0.002364
-0.002364 -0.002364 -0.002364
0.058396 0.058396 0.058396
0.131260 0.131260 0.131260
0.228449 0.228449 0.228449
0.332903 0.332903 0.332903
0.440197 0.440197 0.440197
0.546955 0.546955 0.546955
0.629113 0.629113 0.629113
0.666125 0.666125 0.666125
0.680368 0.680368 0.680368
0.696155 0.696155 0.696155
0.716148 0.716148 0.716148
0.717721 0.717721 0.717721
0.717721 0.717721 0.717721
0.717721 0.717721 0.717721
0.034406 0.034406 0.034406
0.035685 0.035685 0.035685
0.055263 0.055263 0.055263
0.114719 0.114719 0.114719
0.202956 0.202956 0.202956
0.306808 0.306808 0.306808
0.414940 0.414940 0.414940
0.525669 0.525669 0.525669
0.622342 0.622342 0.622342
0.673335 0.673335 0.673335
0.690441 0.690441 0.690441
0.705725 0.705725 0.705725
0.724613 0.724613 0.724613
0.726174 0.726174 0.726174
0.726175 0.726175 0.726175
0.726175 0.726175 0.726175
0.062844 0.062844 0.062844
0.064055 0.064055 0.064055
0.075518 0.075518 0.075518
0.098716 0.098716 0.098716
0.181708 0.181708 0.181708
0.281714 0.281714 0.281714
0.389971 0.389971 0.389971
0.501153 0.501153 0.501153
0.608933 0.608933 0.608933
0.676004 0.676004 0.676004
0.697368 0.697368 0.697368
0.712293 0.712293 0.712293
0.731143 0.731143 0.731143
0.732657 0.732657 0.732657
0.732657 0.732657 0.732657
0.732657 0.732657 0.732657
0.096169 0.096169 0.096169
0.096169 0.096169 0.096169
0.104944 0.104944 0.104944
0.129317 0.129317 0.129317
0.165222 0.165222 0.165222
0.255670 0.255670 0.255670
0.362729 0.362729 0.362729
0.475368 0.475368 0.475368
0.589038 0.589038 0.589038
0.673070 0.673070 0.673070
0.703596 0.703596 0.703596
0.719249 0.719249 0.719249
0.738540 0.738540 0.738540
0.740203 0.740203 0.740203
0.740204 0.740204 0.740204
0.740204 0.740204 0.740204
0.134671 0.134671 0.134671
0.134671 0.134671 0.134671
0.140973 0.140973 0.140973
0.159643 0.159643 0.159643
0.193904 0.193904 0.193904
0.239304 0.239304 0.239304
0.334991 0.334991 0.334991
0.447473 0.447473 0.447473
0.564644 0.564644 0.564644
0.665269 0.665269 0.665269
0.709783 0.709783 0.709783
0.725904 0.725904 0.725904
0.744945 0.744945 0.744945
0.746486 0.746486 0.746486
0.746486 0.746486 0.746486
0.746486 0.746486 0.746486
0.176976 0.176976 0.176976
0.176976 0.176976 0.176976
0.184107 0.184107 0.184107
0.192827 0.192827 0.192827
0.227025 0.227025 0.227025
0.265384 0.265384 0.265384
0.318194 0.318194 0.318194
0.417722 0.417722 0.417722
0.537761 0.537761 0.537761
0.650135 0.650135 0.650135
0.713723 0.713723 0.713723
0.732295 0.732295 0.732295
0.751540 0.751540 0.751540
0.753111 0.753111 0.753111
0.753111 0.753111 0.753111
0.753111 0.753111 0.753111
0.224312 0.224312 0.224312
0.224312 0.224312 0.224312
0.232633 0.232633 0.232633
0.236090 0.236090 0.236090
0.262418 0.262418 0.262418
0.303546 0.303546 0.303546
0.343600 0.343600 0.343600
0.406268 0.406268 0.406268
0.508753 0.508753 0.508754
0.629097 0.629097 0.629097
0.715161 0.715161 0.715161
0.738807 0.738807 0.738807
0.757997 0.757997 0.757997
0.759641 0.759641 0.759641
0.759641 0.759641 0.759641
0.759642 0.759642 0.759642
0.281334 0.281334 0.281334
0.281334 0.281334 0.281334
0.288885 0.288885 0.288885
0.291785 0.291785 0.291785
0.305621 0.305621 0.305621
0.348257 0.348257 0.348257
0.390454 0.390454 0.390454
0.433375 0.433375 0.433375
0.500445 0.500445 0.500445
0.603887 0.603887 0.603887
0.710975 0.710975 0.710975
0.745039 0.745039 0.745039
0.765112 0.765112 0.765112
0.766786 0.766786 0.766786
0.766786 0.766786 0.766786
0.766786 0.766786 0.766786
0.347816 0.347816 0.347816
0.347816 0.347816 0.347816
0.355031 0.355031 0.355031
0.358728 0.358728 0.358728
0.364513 0.364513 0.364513
0.399819 0.399819 0.399819
0.444636 0.444636 0.444636
0.488698 0.488698 0.488698
0.533004 0.533004 0.533004
0.596552 0.596552 0.596552
0.697811 0.697811 0.697811
0.752308 0.752308 0.752308
0.771516 0.771516 0.771516
0.773076 0.773076 0.773076
0.773076 0.773076 0.773077
0.773077 0.773077 0.773077
0.420178 0.420178 0.420178
0.420178 0.420178 0.420178
0.430184 0.430184 0.430184
0.435370 0.435370 0.435370
0.439351 0.439351 0.439351
0.461595 0.461595 0.461595
0.510012 0.510012 0.510012
0.555800 0.555800 0.555800
0.597212 0.597212 0.597212
0.637434 0.637434 0.637434
0.688766 0.688766 0.688766
0.755229 0.755229 0.755229
0.777679 0.777679 0.777679
0.779319 0.779319 0.779320
0.779320 0.779320 0.779320
0.779320 0.779320 0.779320
0.450133 0.450133 0.450133
0.450133 0.450133 0.450133
0.462719 0.462719 0.462719
0.470514 0.470514 0.470514
0.477717 0.477717 0.477717
0.498768 0.498768 0.498768
0.545240 0.545240 0.545240
0.596312 0.596312 0.596312
0.642797 0.642797 0.642797
0.685862 0.685862 0.685862
0.725829 0.725829 0.725829
0.759144 0.759144 0.759144
0.784717 0.784717 0.784717
0.786216 0.786216 0.786216
0.786216 0.786216 0.786216
0.786216 0.786216 0.786216
0.480646 0.480646 0.480646
0.480646 0.480646 0.480646
0.494756 0.494756 0.494756
0.502066 0.502066 0.502066
0.508326 0.508326 0.508326
0.524318 0.524318 0.524318
0.576365 0.576365 0.576365
0.625637 0.625637 0.625637
0.673259 0.673259 0.673259
0.718536 0.718536 0.718536
0.759803 0.759803 0.759803
0.785302 0.785302 0.785302
0.793271 0.793271 0.793271
0.795331 0.795331 0.795331
0.795332 0.795332 0.795332
0.795333 0.795333 0.795333
0.484186 0.484186 0.484186
0.484186 0.484186 0.484186
0.498417 0.498417 0.498417
0.505729 0.505729 0.505729
0.511730 0.511730 0.511730
0.528565 0.528565 0.528565
0.579795 0.579795 0.579795
0.628849 0.628849 0.628849
0.676744 0.676744 0.676744
0.722084 0.722084 0.722084
0.763500 0.763500 0.763500
0.787883 0.787883 0.787883
0.795574 0.795574 0.795574
0.795869 0.795869 0.795869
0.795869 0.795869 0.795869
0.795869 0.795869 0.795869
0.484186 0.484186 0.484186
0.484186 0.484186 0.484186
0.498417 0.498417 0.498417
0.505729 0.505729 0.505729
0.511730 0.511730 0.511730
0.528566 0.528566 0.528566
0.579796 0.579796 0.579796
0.628851 0.628851 0.628851
0.676746 0.676746 0.676746
0.722086 0.722086 0.722087
0.763503 0.763503 0.763503
0.787884 0.787884 0.787884
0.795574 0.795574 0.795574
0.795869 0.795869 0.795869
0.795869 0.795869 0.795869
0.795869 0.795869 0.795869
0.484186 0.484186 0.484186
0.484186 0.484186 0.484186
0.498417 0.498417 0.498417
0.505729 0.505729 0.505729
0.511730 0.511730 0.511730
0.528567 0.528567 0.528567
0.579798 0.579798 0.579798
0.628852 0.628852 0.628852
0.676748 0.676748 0.676748
0.722088 0.722088 0.722088
0.763504 0.763504 0.763504
0.787885 0.787885 0.787885
0.795574 0.795574 0.795574
0.795869 0.795869 0.795869
0.795869 0.795869 0.795869
0.795869 0.795869 0.795869
-0.002364 -0.002364 -0.002364
-0.002364 -0.002364 -0.002364
-0.088617 -0.088617 -0.088617
0.030473 0.030473 0.030473
0.228449 0.228449 0.228449
0.332903 0.332903 0.332903
0.440197 0.440197 0.440197
0.546955 0.546955 0.546955
0.629113 0.629113 0.629113
0.666125 0.666125 0.666125
0.680368 0.680368 0.680368
0.696155 0.696155 0.696155
0.716148 0.716148 0.716148
0.717721 0.717721 0.717721
0.717721 0.717721 0.717721
0.717721 0.717721 0.717721
-0.002364 -0.002364 -0.002364
-0.002364 -0.002364 -0.002364
0.060025 0.060025 0.060025
0.134255 0.134255 0.134255
0.228449 0.228449 0.228449
0.332903 0.332903 0.332903
0.440197 0.440197 0.440197
0.546955 0.546955 0.546955
0.629113 0.629113 0.629113
0.666125 0.666125 0.666125
0.680368 0.680368 0.680368
0.696155 0.696155 0.696155
0.716148 0.716148 0.716148
0.717721 0.717721 0.717721
0.717721 0.717721 0.717721
0.717721 0.717721 0.717721
0.034771 0.034771 0.034771
0.034406 0.034406 0.034406
0.055263 0.055263 0.055263
0.115030 0.115030 0.115030
0.203067 0.203067 0.203067
0.306423 0.306423 0.306423
0.414025 0.414025 0.414025
0.524632 0.524632 0.524632
0.621785 0.621785 0.621785
0.673595 0.673595 0.673595
0.690857 0.690857 0.690857
0.706009 0.706009 0.706009
0.724636 0.724636 0.724636
0.726175 0.726174 0.726175
0.726175 0.726175 0.726175
0.726175 0.726175 0.726175
0.063119 0.063119 0.063119
0.062844 0.062844 0.062844
0.075047 0.075047 0.075047
0.098716 0.098716 0.098716
0.181744 0.181744 0.181744
0.281529 0.281529 0.281529
0.389498 0.389498 0.389498
0.500451 0.500451 0.500451
0.608275 0.608275 0.608275
0.675916 0.675916 0.675916
0.697571 0.697571 0.697571
0.712452 0.712452 0.712452
0.731157 0.731157 0.731157
0.732657 0.732657 0.732657
0.732657 0.732657 0.732657
0.732657 0.732657 0.732657
0.096169 0.096169 0.096169
0.096169 0.096169 0.096169
0.104841 0.104841 0.104841
0.129267 0.129267 0.129267
0.165222 0.165222 0.165222
0.255601 0.255601 0.255601
0.362471 0.362471 0.362471
0.474940 0.474940 0.474940
0.588554 0.588554 0.588554
0.672936 0.672936 0.672936
0.703744 0.703744 0.703744
0.719355 0.719355 0.719355
0.738549 0.738549 0.738549
0.740203 0.740203 0.740203
0.740204 0.740204 0.740204
0.740204 0.740204 0.740204
0.134671 0.134671 0.134671
0.134671 0.134671 0.134671
0.141144 0.141144 0.141144
0.159871 0.159871 0.159871
0.193999 0.193999 0.193999
0.239304 0.239304 0.239304
0.334887 0.334887 0.334887
0.447224 0.447224 0.447224
0.564313 0.564313 0.564313
0.665073 0.665073 0.665073
0.709844 0.709844 0.709844
0.725966 0.725966 0.725966
0.744951 0.744951 0.744951
0.746486 0.746486 0.746486
0.746486 0.746486 0.746486
0.746486 0.746486 0.746486
0.176976 0.176976 0.176976
0.176976 0.176976 0.176976
0.184175 0.184175 0.184175
0.193404 0.193404 0.193404
0.227362 0.227362 0.227362
0.265533 0.265533 0.265533
0.318194 0.318194 0.318194
0.417608 0.417608 0.417608
0.537563 0.537563 0.537563
0.649962 0.649962 0.649962
0.713755 0.713755 0.713755
0.732342 0.732342 0.732342
0.751544 0.751544 0.751544
0.753111 0.753111 0.753111
0.753111 0.753111 0.753111
0.753111 0.753111 0.753111
0.224312 0.224312 0.224312
0.224312 0.224312 0.224312
0.232855 0.232855 0.232855
0.236669 0.236669 0.236669
0.263075 0.263075 0.263075
0.303889 0.303889 0.303889
0.343750 0.343750 0.343750
0.406268 0.406268 0.406268
0.508656 0.508656 0.508656
0.628963 0.628963 0.628963
0.715157 0.715157 0.715157
0.738839 0.738839 0.738839
0.758000 0.758000 0.758000
0.759641 0.759641 0.759641
0.759641 0.759641 0.759641
0.759642 0.759642 0.759642
0.281334 0.281334 0.281334
0.281334 0.281334 0.281334
0.289169 0.289169 0.289169
0.292037 0.292037 0.292037
0.306503 0.306503 0.306503
0.348778 0.348778 0.348778
0.390762 0.390762 0.390762
0.433510 0.433510 0.433510
0.500445 0.500445 0.500445
0.603823 0.603823 0.603823
0.710949 0.710949 0.710949
0.745060 0.745060 0.745060
0.765114 0.765114 0.765114
0.766786 0.766786 0.766786
0.766786 0.766786 0.766786
0.766786 0.766786 0.766786
0.347816 0.347816 0.347816
0.347816 0.347816 0.347816
0.355381 0.355381 0.355381
0.358756 0.358756 0.358756
0.365240 0.365240 0.365240
0.400474 0.400474 0.400474
0.445053 0.445053 0.445053
0.488933 0.488933 0.488933
0.533117 0.533117 0.533117
0.596552 0.596552 0.596552
0.697783 0.697783 0.697783
0.752313 0.752313 0.752313
0.771518 0.771518 0.771518
0.773076 0.773076 0.773076
0.773076 0.773076 0.773076
0.773077 0.773077 0.773077
0.420178 0.420178 0.420178
0.420178 0.420178 0.420178
0.430604 0.430604 0.430604
0.435449 0.435449 0.435449
0.439568 0.439568 0.439568
0.462284 0.462284 0.462284
0.510468 0.510468 0.510468
0.556073 0.556073 0.556073
0.597360 0.597360 0.597360
0.637503 0.637503 0.637503
0.688766 0.688766 0.688766
0.755232 0.755232 0.755232
0.777680 0.777680 0.777680
0.779319 0.779319 0.779319
0.779320 0.779320 0.779320
0.779320 0.779320 0.779320
0.450133 0.450133 0.450133
0.450133 0.450133 0.450133
0.463061 0.463061 0.463061
0.470694 0.470694 0.470694
0.477809 0.477809 0.477809
0.499134 0.499134 0.499134
0.545611 0.545611 0.545611
0.596559 0.596559 0.596559
0.642948 0.642948 0.642948
0.685942 0.685942 0.685942
0.725866 0.725866 0.725866
0.759144 0.759144 0.759144
0.784717 0.784717 0.784717
0.786216 0.786216 0.786216
0.786216 0.786216 0.786216
0.786216 0.786216 0.786216
0.480646 0.480646 0.480646
0.480646 0.480646 0.480646
0.494785 0.494785 0.494785
0.502080 0.502080 0.502080
0.508334 0.508334 0.508334
0.524366 0.524366 0.524366
0.576398 0.576398 0.576398
0.625659 0.625659 0.625659
0.673275 0.673275 0.673275
0.718545 0.718545 0.718545
0.759808 0.759808 0.759808
0.785302 0.785302 0.785302
0.793271 0.793271 0.793271
0.795331 0.795331 0.795331
0.795332 0.795332 0.795332
0.795333 0.795333 0.795333
0.484186 0.484186 0.484186
0.484186 0.484186 0.484186
0.498417 0.498417 0.498417
0.505729 0.505729 0.505729
0.511730 0.511730 0.511730
0.528565 0.528565 0.528565
0.579795 0.579795 0.579795
0.628849 0.628849 0.628849
0.676744 0.676744 0.676744
0.722084 0.722084 0.722084
0.763500 0.763500 0.763500
0.787883 0.787883 0.787883
0.795574 0.795574 0.795574
0.795869 0.795869 0.795869
0.795869 0.795869 0.795869
0.795869 0.795869 0.795869
0.484186 0.484186 0.484186
0.484186 0.484186 0.484186
0.498417 0.498417 0.498417
0.505729 0.505729 0.505729
0.511730 0.511730 0.511730
0.528566 0.528566 0.528566
0.579796 0.579796 0.579796
0.628851 0.628851 0.628851
0.676746 0.676746 0.676746
0.722087 0.722087 0.722087
0.763503 0.763503 0.763503
0.787884 0.787884 0.787884
0.795574 0.795574 0.795574
0.795869 0.795869 0.795869
0.795869 0.795869 0.795869
0.795869 0.795869 0.795869
0.484186 0.484186 0.484186
0.484186 0.484186 0.484186
0.498417 0.498417 0.498417
0.505729 0.505729 0.505729
0.511730 0.511730 0.511730
0.528567 0.528567 0.528567
0.579798 0.579798 0.579798
0.628852 0.628852 0.628852
0.676748 0.676748 0.676748
0.722088 0.722088 0.722088
0.763504 0.763504 0.763504
0.787885 0.787885 0.787885
0.795574 0.795574 0.795574
0.795869 0.795869 0.795869
0.795869 0.795869 0.795869
0.795869 0.795869 0.795869
-0.111596 -0.111596 -0.111596
-0.113333 -0.113333 -0.113333
-0.117045 -0.117045 -0.117045
-0.111464 -0.111464 -0.111464
0.032349 0.032349 0.032349
0.214442 0.214442 0.214442
0.354042 0.354042 0.354042
0.485532 0.485532 0.485532
0.589071 0.589071 0.589071
0.638461 0.638461 0.638461
0.656234 0.656234 0.656234
0.673039 0.673039 0.673039
0.684777 0.684777 0.684777
0.685596 0.685596 0.685596
0.685596 0.685596 0.685596
0.685595 0.685595 0.685595
-0.003649 -0.003649 -0.003649
-0.111596 -0.111596 -0.111596
-0.117045 -0.117045 -0.117045
-0.111090 -0.111090 -0.111090
0.033692 0.033692 0.033692
0.212055 0.212055 0.212055
0.349211 0.349211 0.349211
0.482024 0.482024 0.482024
0.586301 0.586301 0.586301
0.636557 0.636557 0.636557
0.654910 0.654910 0.654910
0.670540 0.670540 0.670540
0.684534 0.684534 0.684534
0.685596 0.685596 0.685596
0.685595 0.685595 0.685595
0.685594 0.685594 0.685594
0.039530 0.039530 0.039530
0.039530 0.039530 0.039530
0.074952 0.074952 0.074952
0.138605 0.138605 0.138605
0.225350 0.225350 0.225350
0.321271 0.321271 0.321271
0.423460 0.423460 0.423460
0.526915 0.526915 0.526915
0.625588 0.625588 0.625588
0.686141 0.686141 0.686141
0.705379 0.705379 0.705379
0.719314 0.719314 0.719314
0.738127 0.738127 0.738127
0.739688 0.739688 0.739688
0.739688 0.739688 0.739688
0.739688 0.739688 0.739688
0.067198 0.067198 0.067198
0.067036 0.067036 0.067036
0.105166 0.105166 0.105166
0.130431 0.130431 0.130431
0.216778 0.216778 0.216778
0.316734 0.316734 0.316734
0.420307 0.420307 0.420307
0.525299 0.525299 0.525299
0.626763 0.626763 0.626763
0.696025 0.696025 0.696025
0.718002 0.718002 0.718002
0.730975 0.730975 0.730975
0.748572 0.748572 0.748572
0.750010 0.750010 0.750010
0.750015 0.750015 0.750015
0.750018 0.750018 0.750018
0.099248 0.099248 0.099248
0.099212 0.099212 0.099212
0.131688 0.131688 0.131688
0.157479 0.157479 0.157479
0.188611 0.188611 0.188611
0.280366 0.280366 0.280366
0.385432 0.385432 0.385432
0.494024 0.494024 0.494024
0.602219 0.602219 0.602219
0.688626 0.688626 0.688626
0.721762 0.721762 0.721762
0.735685 0.735685 0.735685
0.754054 0.754054 0.754054
0.755572 0.755572 0.755572
0.755582 0.755582 0.755581
0.755589 0.755589 0.755589
0.137100 0.137100 0.137100
0.137154 0.137154 0.137154
0.160307 0.160307 0.160307
0.183305 0.183305 0.183305
0.212911 0.212911 0.212911
0.254498 0.254498 0.254498
0.351260 0.351260 0.351260
0.461783 0.461783 0.461783
0.575605 0.575605 0.575605
0.676960 0.676960 0.676960
0.725778 0.725778 0.725778
0.741934 0.741934 0.741934
0.760606 0.760606 0.760606
0.762108 0.762108 0.762108
0.762120 0.762120 0.762120
0.762128 0.762128 0.762128
0.178822 0.178822 0.178822
0.178871 0.178871 0.178871
0.198290 0.198290 0.198290
0.217878 0.217878 0.217878
0.248660 0.248660 0.248660
0.284060 0.284060 0.284060
0.335003 0.335003 0.335003
0.432803 0.432803 0.432803
0.550749 0.550749 0.550749
0.661855 0.661855 0.661855
0.728842 0.728842 0.728842
0.747800 0.747800 0.747800
0.766388 0.766388 0.766388
0.767823 0.767823 0.767823
0.767836 0.767836 0.767836
0.767846 0.767846 0.767846
0.227158 0.227158 0.227158
0.227233 0.227233 0.227233
0.247501 0.247501 0.247501
0.260050 0.260050 0.260050
0.288071 0.288071 0.288071
0.325038 0.325038 0.325038
0.363408 0.363408 0.363408
0.423623 0.423623 0.423623
0.523463 0.523463 0.523463
0.641602 0.641602 0.641602
0.729142 0.729142 0.729142
0.753843 0.753843 0.753843
0.772127 0.772127 0.772127
0.773562 0.773562 0.773562
0.773579 0.773579 0.773579
0.773592 0.773592 0.773592
0.283413 0.283413 0.283413
0.283488 0.283488 0.283488
0.306071 0.306071 0.306071
0.311389 0.311389 0.311389
0.334265 0.334265 0.334265
0.372389 0.372389 0.372389
0.412321 0.412321 0.412321
0.452956 0.452956 0.452956
0.517716 0.517716 0.517716
0.618151 0.618151 0.618151
0.724367 0.724367 0.724367
0.759767 0.759767 0.759767
0.778553 0.778553 0.778553
0.780100 0.780100 0.780100
0.780122 0.780122 0.780122
0.780139 0.780139 0.780139
0.348779 0.348779 0.348779
0.348844 0.348844 0.348844
0.374742 0.374742 0.374742
0.377032 0.377032 0.377032
0.392202 0.392202 0.392202
0.426299 0.426299 0.426299
0.467755 0.467755 0.467755
0.509262 0.509262 0.509262
0.551858 0.551858 0.551858
0.611928 0.611928 0.611928
0.711295 0.711295 0.711295
0.766225 0.766225 0.766225
0.785431 0.785431 0.785431
0.787099 0.787099 0.787099
0.787122 0.787122 0.787122
0.787141 0.787141 0.787141
0.421491 0.421491 0.421491
0.421550 0.421550 0.421550
0.451573 0.451573 0.451573
0.455131 0.455131 0.455131
0.461016 0.461016 0.461016
0.490408 0.490408 0.490408
0.534003 0.534003 0.534003
0.576114 0.576114 0.576114
0.615464 0.615464 0.615464
0.653126 0.653126 0.653126
0.702518 0.702518 0.702518
0.768314 0.768314 0.768314
0.791733 0.791733 0.791733
0.793419 0.793419 0.793419
0.793445 0.793445 0.793445
0.793466 0.793466 0.793466
0.453173 0.453173 0.453173
0.453266 0.453266 0.453266
0.487312 0.487312 0.487312
0.493379 0.493379 0.493379
0.498567 0.498567 0.498567
0.524535 0.524535 0.524535
0.572480 0.572480 0.572480
0.618789 0.618789 0.618789
0.662640 0.662640 0.662640
0.702368 0.702368 0.702368
0.740149 0.740149 0.740149
0.771835 0.771835 0.771835
0.797567 0.797567 0.797567
0.799031 0.799031 0.799031
0.799054 0.799054 0.799054
0.799072 0.799072 0.799072
0.484839 0.484839 0.484839
0.484850 0.484850 0.484850
0.517443 0.517443 0.517443
0.525541 0.525541 0.525541
0.532994 0.532994 0.532994
0.554987 0.554987 0.554987
0.605391 0.605391 0.605391
0.652321 0.652321 0.652321
0.696246 0.696246 0.696246
0.738714 0.738714 0.738714
0.776867 0.776867 0.776867
0.800719 0.800719 0.800719
0.807386 0.807386 0.807386
0.809623 0.809623 0.809623
0.809685 0.809685 0.809685
0.809734 0.809734 0.809734
0.488474 0.488474 0.488474
0.488474 0.488474 0.488474
0.521002 0.521002 0.521002
0.529239 0.529239 0.529239
0.537165 0.537165 0.537165
0.560010 0.560010 0.560010
0.609952 0.609952 0.609952
0.656651 0.656651 0.656651
0.700766 0.700766 0.700766
0.743190 0.743190 0.743190
0.781525 0.781525 0.781525
0.804001 0.804001 0.804001
0.810020 0.810020 0.810020
0.810209 0.810209 0.810209
0.810209 0.810209 0.810209
0.810209 0.810209 0.810209
0.488474 0.488474 0.488474
0.488474 0.488474 0.488474
0.521002 0.521002 0.521002
0.529245 0.529245 0.529245
0.537183 0.537183 0.537183
0.560104 0.560104 0.560104
0.610069 0.610069 0.610069
0.656777 0.656777 0.656777
0.700910 0.700910 0.700910
0.743338 0.743338 0.743338
0.781673 0.781673 0.781673
0.804057 0.804057 0.804057
0.810040 0.810040 0.810040
0.810209 0.810209 0.810209
0.810209 0.810209 0.810209
0.810209 0.810209 0.810209
0.488474 0.488474 0.488474
0.488474 0.488474 0.488474
0.521002 0.521002 0.521002
0.529249 0.529249 0.529249
0.537198 0.537198 0.537198
0.560177 0.560177 0.560177
0.610161 0.610161 0.610161
0.656875 0.656875 0.656875
0.701022 0.701022 0.701022
0.743453 0.743453 0.743453
0.781788 0.781788 0.781788
0.804100 0.804100 0.804100
0.810056 0.810056 0.810056
0.810209 0.810209 0.810209
0.810209 0.810209 0.810209
0.810209 0.810209 0.810209
-0.112081 -0.112081 -0.112081
-0.113163 -0.113163 -0.113163
-0.117979 -0.117979 -0.117979
-0.120792 -0.120792 -0.120792
-0.111340 -0.111340 -0.111340
0.025378 0.025378 0.025378
0.216946 0.216946 0.216946
0.366347 0.366347 0.366347
0.487768 0.487768 0.487768
0.552722 0.552722 0.552722
0.576569 0.576569 0.576569
0.592715 0.592715 0.592715
0.606459 0.606459 0.606459
0.607132 0.607132 0.607132
0.607130 0.607130 0.607130
0.607129 0.607129 0.607129
-0.043359 -0.043359 -0.043359
-0.112081 -0.112081 -0.112081
-0.117906 -0.117906 -0.117906
-0.120792 -0.120792 -0.120792
-0.111290 -0.111290 -0.111290
0.023582 0.023582 0.023582
0.214031 0.214031 0.214031
0.362876 0.362876 0.362876
0.483748 0.483748 0.483748
0.548706 0.548706 0.548706
0.573030 0.573030 0.573030
0.590348 0.590348 0.590348
0.606263 0.606263 0.606263
0.607131 0.607131 0.607131
0.607129 0.607129 0.607129
0.607128 0.607128 0.607128
0.037549 0.037549 0.037549
0.036905 0.036905 0.036905
0.080765 0.080765 0.080765
0.086203 0.086203 0.086203
0.164128 0.164128 0.164128
0.258250 0.258250 0.258250
0.361334 0.361334 0.361334
0.468997 0.468997 0.468997
0.574826 0.574826 0.574826
0.641178 0.641178 0.641178
0.660373 0.660373 0.660373
0.672728 0.672728 0.672728
0.688356 0.688356 0.688356
0.689505 0.689505 0.689505
0.689454 0.689454 0.689454
0.689415 0.689415 0.689415
0.075004 0.075004 0.075004
0.075004 0.075004 0.075004
0.116599 0.116599 0.116599
0.175903 0.175903 0.175903
0.269566 0.269566 0.269566
0.372718 0.372718 0.372718
0.476362 0.476362 0.476362
0.575060 0.575060 0.575060
0.669124 0.669124 0.669124
0.737612 0.737612 0.737612
0.759527 0.759527 0.759527
0.769336 0.769336 0.769336
0.784173 0.784173 0.784173
0.785460 0.785460 0.785460
0.785460 0.785460 0.785460
0.785460 0.785460 0.785460
0.107422 0.107422 0.107422
0.107406 0.107406 0.107406
0.141721 0.141721 0.141721
0.207298 0.207298 0.207298
0.239758 0.239758 0.239758
0.335147 0.335147 0.335147
0.441020 0.441020 0.441020
0.545490 0.545490 0.545490
0.644602 0.644602 0.644602
0.724866 0.724866 0.724866
0.755652 0.755652 0.755652
0.765900 0.765900 0.765900
0.779791 0.779791 0.779791
0.781007 0.781007 0.781007
0.781000 0.781000 0.781000
0.780995 0.780995 0.780995
0.143577 0.143577 0.143577
0.143661 0.143661 0.143661
0.168283 0.168283 0.168283
0.236731 0.236731 0.236731
0.264032 0.264032 0.264032
0.303611 0.303611 0.303611
0.398670 0.398670 0.398670
0.505533 0.505533 0.505533
0.610602 0.610602 0.610602
0.702658 0.702658 0.702658
0.747220 0.747220 0.747220
0.758855 0.758855 0.758855
0.773811 0.773811 0.773811
0.775123 0.775123 0.775123
0.775115 0.775115 0.775115
0.775108 0.775108 0.775108
0.182800 0.182800 0.182800
0.183035 0.183035 0.183035
0.205419 0.205419 0.205419
0.263509 0.263509 0.263509
0.291516 0.291516 0.291516
0.320781 0.320781 0.320781
0.365251 0.365251 0.365251
0.459775 0.459775 0.459775
0.570785 0.570785 0.570785
0.674265 0.674265 0.674265
0.739030 0.739030 0.739030
0.755143 0.755143 0.755143
0.772915 0.772915 0.772915
0.774409 0.774409 0.774409
0.774419 0.774419 0.774419
0.774427 0.774427 0.774427
0.228882 0.228882 0.228882
0.229149 0.229149 0.229149
0.252417 0.252417 0.252417
0.290166 0.290166 0.290166
0.318718 0.318718 0.318718
