src/luts/bw/6.cube
LUT_3D_SIZE 16
-0.011024 -0.010958 -0.011498
-0.002197 -0.002184 -0.002291
0.017858 0.017751 0.018627
0.031976 0.031785 0.033353
0.044090 0.043828 0.045987
0.055297 0.054966 0.057675
0.066033 0.065637 0.068872
0.076580 0.076121 0.079873
0.087291 0.086769 0.091046
0.098411 0.097823 0.102644
0.110747 0.110085 0.115512
0.124566 0.123819 0.129926
0.140710 0.139865 0.146763
0.160728 0.159763 0.167643
0.186414 0.185285 0.194432
0.223735 0.222394 0.233367
0.026950 0.026788 0.028112
0.052043 0.051731 0.054282
0.058467 0.058119 0.060985
0.067150 0.066748 0.070041
0.077752 0.077284 0.081099
0.087809 0.087283 0.091590
0.097958 0.097372 0.102173
0.108641 0.107991 0.113311
0.119508 0.118791 0.124647
0.131011 0.130223 0.136648
0.144187 0.143320 0.150394
0.159290 0.158340 0.166149
0.177252 0.176198 0.184883
0.199797 0.198596 0.208392
0.228962 0.227591 0.238816
0.272820 0.271197 0.284561
0.056014 0.055678 0.058427
0.076954 0.076490 0.080264
0.097347 0.096761 0.101537
0.103124 0.102511 0.107571
0.111116 0.110449 0.115903
0.120698 0.119975 0.125895
0.130877 0.130093 0.136510
0.141824 0.140972 0.147927
0.152872 0.151956 0.159455
0.164755 0.163770 0.171854
0.178699 0.177626 0.186397
0.195048 0.193879 0.203448
0.214719 0.213435 0.223962
0.239691 0.238250 0.250003
0.273254 0.271611 0.285003
0.322473 0.320529 0.336334
0.082129 0.081636 0.085664
0.102543 0.101923 0.106954
0.121994 0.121257 0.127246
0.142522 0.141670 0.148655
0.149069 0.148176 0.155497
0.157876 0.156925 0.164673
0.167489 0.166480 0.174694
0.177971 0.176908 0.185632
0.188813 0.187685 0.196944
0.200851 0.199649 0.209503
0.215469 0.214177 0.224751
0.232997 0.231599 0.243029
0.254324 0.252798 0.265270
0.281569 0.279877 0.293683
0.319296 0.317371 0.333020
0.373646 0.371378 0.389705
0.108427 0.107775 0.113092
0.129158 0.128379 0.134715
0.148669 0.147773 0.155064
0.169883 0.168871 0.177191
0.192555 0.191404 0.200849
0.199860 0.198656 0.208466
0.208351 0.207094 0.217316
0.217752 0.216454 0.227124
0.228050 0.226686 0.237864
0.240035 0.238590 0.250362
0.255243 0.253711 0.266227
0.273889 0.272250 0.285677
0.296823 0.295048 0.309598
0.326159 0.324201 0.340191
0.367115 0.364899 0.382900
0.427212 0.424628 0.445582
0.135763 0.134947 0.141603
0.156967 0.156034 0.163722
0.177171 0.176118 0.184798
0.199242 0.198055 0.207822
0.222144 0.220816 0.231710
0.246059 0.244585 0.256650
0.253016 0.251495 0.263905
0.261129 0.259557 0.272364
0.270667 0.269039 0.282312
0.282734 0.281031 0.294897
0.298331 0.296540 0.311166
0.317773 0.315867 0.331443
0.342207 0.340151 0.356925
0.373913 0.371658 0.389990
0.416801 0.414279 0.434732
0.482891 0.479982 0.503663
0.163468 0.162485 0.170497
0.185305 0.184209 0.193279
0.206412 0.205190 0.215299
0.228944 0.227579 0.238806
0.252213 0.250708 0.263075
0.275977 0.274330 0.287852
0.300712 0.298910 0.313647
0.307762 0.305904 0.321006
0.316746 0.314845 0.330381
0.328377 0.326418 0.342515
0.343975 0.341910 0.358777
0.363941 0.361762 0.379606
0.389638 0.387311 0.406410
0.423674 0.421128 0.441895
0.469772 0.466947 0.489987
0.539544 0.536290 0.562762
0.192129 0.190971 0.200384
0.214800 0.213519 0.224041
0.237011 0.235592 0.247210
0.259560 0.258004 0.270733
0.282774 0.281090 0.294948
0.306634 0.304816 0.319826
0.330937 0.328929 0.345156
0.357456 0.355328 0.372839
0.365274 0.363096 0.380987
0.376063 0.373820 0.392236
0.391521 0.389172 0.408361
0.411867 0.409402 0.429592
0.438603 0.435982 0.457485
0.474482 0.471629 0.494899
0.523186 0.520051 0.545705
0.597170 0.593593 0.622894
0.222546 0.221209 0.232115
0.246005 0.244530 0.256588
0.268709 0.267098 0.280269
0.291591 0.289841 0.304133
0.315147 0.313259 0.328703
0.339429 0.337415 0.354036
0.363420 0.361250 0.379068
0.389419 0.387094 0.406183
0.415719 0.413233 0.433604
0.425554 0.423006 0.443847
0.440688 0.438045 0.459631
0.461288 0.458521 0.481128
0.488843 0.485907 0.509880
0.526112 0.522945 0.548752
0.577059 0.573590 0.601894
0.652470 0.648553 0.680568
0.254705 0.253180 0.265665
0.279018 0.277340 0.291021
0.302161 0.300351 0.315159
0.325522 0.323572 0.339520
0.349773 0.347666 0.364807
0.374606 0.372365 0.390722
0.398633 0.396277 0.415821
0.424085 0.421559 0.442357
0.450315 0.447608 0.469694
0.476579 0.473717 0.497087
0.491164 0.488210 0.512273
0.511922 0.508847 0.533942
0.540066 0.536826 0.563318
0.578318 0.574843 0.603189
0.630554 0.626760 0.657683
0.706108 0.701868 0.736486
0.291474 0.289735 0.304016
0.316559 0.314661 0.330174
0.340064 0.338036 0.354697
0.364139 0.361967 0.379816
0.389710 0.387360 0.406485
0.414225 0.411740 0.432043
0.438983 0.436356 0.457873
0.464384 0.461599 0.484363
0.490369 0.487421 0.511459
0.516647 0.513555 0.538880
0.542965 0.539713 0.566320
0.563550 0.560167 0.587794
0.591746 0.588194 0.617214
0.629843 0.626081 0.656960
0.682479 0.678404 0.711826
0.755524 0.750970 0.788004
0.332998 0.330988 0.347306
0.358965 0.356809 0.374404
0.383339 0.381049 0.399845
0.407906 0.405470 0.425475
0.433670 0.431069 0.452335
0.458700 0.455950 0.478428
0.484392 0.481489 0.505240
0.510287 0.507227 0.532251
0.536305 0.533087 0.559372
0.562611 0.559245 0.586811
0.588776 0.585265 0.614099
0.614790 0.611107 0.641231
0.642471 0.638612 0.670102
0.679982 0.675929 0.709209
0.731695 0.727247 0.763090
0.799773 0.794943 0.834131
0.380986 0.378670 0.397343
0.408038 0.405579 0.425584
0.433579 0.430975 0.452249
0.458806 0.456057 0.478569
0.484503 0.481604 0.505355
0.510273 0.507202 0.532219
0.537051 0.533829 0.560177
0.563586 0.560213 0.587861
0.589711 0.586182 0.615089
0.615879 0.612194 0.642364
0.641607 0.637771 0.669188
0.666808 0.662805 0.695475
0.691390 0.687241 0.721119
0.727215 0.722890 0.758492
0.775041 0.770422 0.808389
0.838276 0.833231 0.874293
0.438912 0.436280 0.457782
0.467353 0.464524 0.487434
0.494005 0.491031 0.515256
0.520387 0.517267 0.542800
0.547141 0.543848 0.570711
0.573209 0.569729 0.597873
0.600564 0.596941 0.626401
0.627135 0.623375 0.654128
0.652929 0.649027 0.681040
0.678292 0.674233 0.707477
0.702835 0.698577 0.733047
0.726530 0.722145 0.757767
0.749208 0.744727 0.781456
0.770762 0.766191 0.803979
0.814509 0.809679 0.849576
0.870470 0.865254 0.907937
0.512816 0.509751 0.534881
0.542879 0.539592 0.566203
0.570872 0.567445 0.595418
0.598272 0.594698 0.624012
0.625590 0.621844 0.652506
0.652524 0.648621 0.680611
0.678352 0.674273 0.707515
0.703747 0.699534 0.734011
0.728088 0.723724 0.759424
0.751334 0.746822 0.783689
0.773671 0.769047 0.806981
0.794635 0.789841 0.828796
0.813779 0.808910 0.848790
0.832057 0.827106 0.867860
0.849046 0.843982 0.885562
0.897024 0.891667 0.935613
0.614167 0.610485 0.640586
0.645375 0.641498 0.673120
0.673623 0.669597 0.702592
0.700651 0.696413 0.730770
0.726875 0.722447 0.758119
0.751662 0.747107 0.783990
0.774457 0.769783 0.807775
0.797061 0.792287 0.831379
0.817443 0.812598 0.852649
0.836260 0.831249 0.872273
0.853469 0.848342 0.890170
0.869106 0.863896 0.906453
0.883242 0.877956 0.921224
0.896028 0.890680 0.934557
0.907840 0.902376 0.946786
0.917994 0.912558 0.957333
-0.293055 -0.291294 -0.305656
-0.304489 -0.302673 -0.317591
-0.311696 -0.309833 -0.325116
-0.317788 -0.315887 -0.331458
-0.309339 -0.307501 -0.322665
-0.292623 -0.290873 -0.305229
-0.278572 -0.276892 -0.290566
-0.266017 -0.264403 -0.277461
-0.254212 -0.252681 -0.265154
-0.244373 -0.242915 -0.254898
-0.236486 -0.235076 -0.246670
-0.230453 -0.229062 -0.240392
-0.226373 -0.224984 -0.236222
-0.224403 -0.223003 -0.234429
-0.224796 -0.223344 -0.235167
-0.227387 -0.225977 -0.237432
0.036179 0.035963 0.037737
0.060795 0.060430 0.063411
0.075892 0.075434 0.079157
0.089307 0.088771 0.093152
0.102831 0.102216 0.107262
0.116633 0.115935 0.121655
0.129965 0.129185 0.135558
0.142616 0.141761 0.148756
0.155784 0.154850 0.162489
0.169550 0.168532 0.176844
0.184821 0.183716 0.192771
0.201974 0.200762 0.210663
0.221831 0.220494 0.231375
0.245896 0.244418 0.256478
0.276580 0.274923 0.288480
0.320985 0.319051 0.334793
0.063201 0.062824 0.065920
0.091091 0.090544 0.095009
0.107658 0.107010 0.112291
0.117580 0.116876 0.122641
0.129225 0.128451 0.134789
0.141378 0.140531 0.147463
0.153428 0.152507 0.160029
0.165244 0.164252 0.172357
0.177839 0.176769 0.185491
0.191373 0.190221 0.199604
0.206878 0.205645 0.215782
0.224732 0.223389 0.234404
0.245769 0.244291 0.256343
0.271668 0.270034 0.283356
0.305509 0.303683 0.318656
0.354927 0.352766 0.370189
0.089111 0.088580 0.092940
0.120039 0.119320 0.125204
0.135578 0.134767 0.141414
0.154724 0.153798 0.161380
0.164526 0.163531 0.171600
0.175308 0.174253 0.182857
0.186494 0.185376 0.194526
0.198077 0.196891 0.206597
0.210296 0.209035 0.219343
0.223729 0.222385 0.233355
0.239613 0.238183 0.249926
0.258290 0.256745 0.269411
0.280722 0.279034 0.292805
0.308892 0.307037 0.322175
0.346461 0.344386 0.361365
0.401122 0.398711 0.418395
0.115542 0.114854 0.120514
0.150155 0.149258 0.156619
0.165652 0.164666 0.172791
0.184259 0.183162 0.192202
0.206182 0.204945 0.215065
0.215747 0.214450 0.225036
0.225820 0.224465 0.235541
0.236481 0.235064 0.246652
0.248039 0.246550 0.258706
0.261250 0.259678 0.272488
0.277460 0.275798 0.289398
0.296946 0.295168 0.309731
0.320758 0.318834 0.334569
0.351111 0.349003 0.366209
0.392159 0.389806 0.409030
0.452246 0.449534 0.471709
0.142964 0.142110 0.149120
0.180794 0.179711 0.188579
0.195845 0.194673 0.204277
0.215157 0.213872 0.224424
0.237292 0.235871 0.247509
0.260582 0.259019 0.271797
0.269370 0.267754 0.280960
0.279143 0.277469 0.291150
0.289823 0.288079 0.302284
0.302617 0.300788 0.315623
0.319097 0.317175 0.332817
0.339348 0.337321 0.353951
0.364321 0.362151 0.380004
0.396375 0.393991 0.413430
0.440638 0.437994 0.459601
0.506278 0.503237 0.528053
0.170834 0.169812 0.178187
0.211904 0.210632 0.221027
0.226617 0.225256 0.236369
0.246479 0.245004 0.257086
0.268791 0.267181 0.280356
0.292126 0.290375 0.304696
0.316231 0.314340 0.329841
0.325051 0.323109 0.339033
0.335160 0.333160 0.349578
0.347705 0.345626 0.362662
0.364216 0.362022 0.379881
0.384907 0.382598 0.401477
0.411079 0.408623 0.428784
0.445357 0.442685 0.464514
0.491993 0.489046 0.513161
0.562040 0.558668 0.586223
0.199815 0.198617 0.208400
0.244497 0.243028 0.255021
0.259418 0.257861 0.270590
0.279238 0.277571 0.291255
0.301311 0.299508 0.314270
0.324680 0.322731 0.338647
0.348819 0.346743 0.363847
0.374335 0.372108 0.390443
0.383175 0.380888 0.399656
0.394916 0.392553 0.411901
0.411258 0.408788 0.428953
0.432317 0.429726 0.450927
0.459581 0.456836 0.479367
0.495804 0.492839 0.517138
0.544811 0.541558 0.568254
0.618218 0.614519 0.644832
0.230481 0.229098 0.240391
0.278040 0.276377 0.290013
0.292660 0.290911 0.305270
0.312602 0.310741 0.326065
0.334733 0.332732 0.349131
0.358075 0.355912 0.373458
0.382357 0.380065 0.398822
0.407535 0.405099 0.425075
0.433184 0.430592 0.451815
0.443950 0.441287 0.463039
0.459971 0.457216 0.479765
0.481265 0.478387 0.501976
0.509366 0.506323 0.531282
0.546956 0.543686 0.570494
0.597855 0.594281 0.623591
0.672405 0.668385 0.701383
0.262915 0.261337 0.274230
0.313107 0.311238 0.326591
0.327503 0.325551 0.341612
0.347669 0.345603 0.362649
0.370072 0.367862 0.385998
0.393502 0.391119 0.410390
0.418045 0.415521 0.436030
0.443140 0.440477 0.462212
0.468658 0.465848 0.488819
0.494552 0.491587 0.515820
0.510184 0.507131 0.532133
0.531555 0.528367 0.554426
0.559993 0.556627 0.584084
0.598283 0.594693 0.624021
0.650102 0.646230 0.678098
0.723790 0.719489 0.754954
0.300029 0.298235 0.312946
0.352659 0.350545 0.367829
0.367299 0.365091 0.383091
0.387653 0.385341 0.404335
0.410194 0.407756 0.427853
0.433588 0.430981 0.452230
0.458512 0.455755 0.478234
0.483767 0.480864 0.504579
0.509297 0.506245 0.531209
0.535171 0.531960 0.558199
0.561355 0.557998 0.585518
0.582437 0.578945 0.607499
0.611095 0.607414 0.637377
0.649853 0.645944 0.677812
0.700550 0.696425 0.730722
0.771358 0.766744 0.804529
0.341873 0.339811 0.356580
0.396706 0.394323 0.413770
0.411744 0.409261 0.429444
0.432445 0.429854 0.451047
0.455470 0.452753 0.475073
0.479660 0.476783 0.500299
0.504721 0.501700 0.526436
0.530056 0.526885 0.552856
0.555610 0.552284 0.579511
0.581491 0.578012 0.606524
0.607221 0.603590 0.633355
0.632672 0.628882 0.659890
0.660528 0.656561 0.688939
0.697728 0.693547 0.727752
0.747824 0.743386 0.780007
0.813162 0.808277 0.848126
0.390273 0.387905 0.407054
0.447089 0.444402 0.466327
0.462774 0.459986 0.482679
0.484017 0.481110 0.504838
0.507649 0.504608 0.529492
0.532686 0.529491 0.555609
0.558094 0.554758 0.582106
0.583555 0.580069 0.608656
0.609059 0.605420 0.635258
0.634713 0.630932 0.662043
0.659673 0.655729 0.688066
0.684127 0.680029 0.713561
0.707896 0.703653 0.738350
0.743057 0.738612 0.775033
0.789771 0.785056 0.823756
0.848976 0.843892 0.885504
0.448799 0.446097 0.468107
0.507212 0.504171 0.529045
0.523790 0.520648 0.546328
0.545852 0.542586 0.569341
0.570045 0.566636 0.594575
0.595164 0.591592 0.620766
0.621144 0.617412 0.647858
0.646602 0.642724 0.674411
0.671630 0.667616 0.700524
0.696259 0.692110 0.726230
0.719830 0.715511 0.750829
0.742572 0.738110 0.774532
0.764434 0.759844 0.797324
0.785285 0.780580 0.819076
0.826849 0.821896 0.862426
0.879932 0.874678 0.917793
0.523184 0.520030 0.545673
0.582252 0.578766 0.607320
0.599638 0.596049 0.625456
0.622667 0.618934 0.649460
0.647670 0.643786 0.675534
0.673107 0.669068 0.702071
0.697415 0.693202 0.727400
0.721535 0.717197 0.752563
0.744891 0.740411 0.776925
0.767199 0.762576 0.800200
0.788318 0.783573 0.822242
0.808115 0.803267 0.842881
0.826239 0.821283 0.861785
0.843274 0.838208 0.879539
0.859051 0.853895 0.896004
0.904424 0.899030 0.943289
0.625143 0.621379 0.652036
0.681306 0.677197 0.710606
0.699759 0.695526 0.729866
0.722170 0.717859 0.753254
0.745402 0.740935 0.777472
0.768239 0.763601 0.801272
0.790210 0.785441 0.824187
0.811051 0.806179 0.845954
0.830095 0.825141 0.865831
0.847745 0.842672 0.884227
0.863805 0.858612 0.900960
0.878455 0.873175 0.916236
0.891710 0.886358 0.930042
0.903495 0.898053 0.942256
0.914511 0.909032 0.953675
0.924059 0.918506 0.963889
-0.296656 -0.294881 -0.309421
-0.305314 -0.303478 -0.318447
-0.315188 -0.313303 -0.328758
-0.320624 -0.318704 -0.334418
-0.325042 -0.323100 -0.339031
-0.328552 -0.326588 -0.342704
-0.331521 -0.329535 -0.345802
-0.333864 -0.331862 -0.348229
-0.335364 -0.333345 -0.349795
-0.336493 -0.334464 -0.350981
-0.336691 -0.334663 -0.351191
-0.335940 -0.333905 -0.350453
-0.333933 -0.331887 -0.348514
-0.329612 -0.327554 -0.344379
-0.320303 -0.318257 -0.334977
-0.299432 -0.297597 -0.312578
0.033774 0.033572 0.035228
0.066378 0.065979 0.069233
0.081801 0.081309 0.085320
0.095109 0.094539 0.099202
0.107642 0.106997 0.112277
0.121192 0.120466 0.126409
0.134514 0.133707 0.140303
0.146961 0.146082 0.153290
0.160017 0.159059 0.166907
0.173745 0.172703 0.181223
0.189064 0.187927 0.197193
0.206343 0.205102 0.215220
0.226325 0.224963 0.236065
0.250644 0.249141 0.261425
0.282543 0.280852 0.294696
0.327960 0.325976 0.342065
0.070591 0.070167 0.073630
0.097250 0.096665 0.101433
0.114285 0.113596 0.119201
0.129827 0.129049 0.135412
0.145011 0.144140 0.151245
0.160482 0.159516 0.167383
0.175449 0.174395 0.182996
0.189712 0.188581 0.197877
0.204625 0.203402 0.213435
0.220227 0.218906 0.229709
0.237495 0.236076 0.247722
0.256718 0.255183 0.267773
0.278821 0.277151 0.290824
0.305425 0.303595 0.318560
0.338864 0.336837 0.353434
0.386328 0.383993 0.402946
0.096218 0.095634 0.100363
0.125741 0.124989 0.131152
0.145122 0.144252 0.151367
0.162598 0.161620 0.169588
0.175832 0.174773 0.183389
0.189775 0.188628 0.197943
0.203743 0.202514 0.212516
0.217291 0.215991 0.226632
0.231596 0.230209 0.241555
0.246933 0.245452 0.257559
0.264371 0.262791 0.275759
0.284216 0.282514 0.296462
0.307528 0.305682 0.320771
0.336263 0.334246 0.350724
0.373234 0.370988 0.389277
0.425846 0.423290 0.444165
0.122700 0.121967 0.127984
0.155582 0.154651 0.162278
0.177651 0.176590 0.185306
0.194555 0.193383 0.202935
0.215240 0.213949 0.224507
0.227801 0.226433 0.237605
0.240395 0.238951 0.250739
0.253033 0.251520 0.263915
0.266486 0.264888 0.277945
0.281377 0.279685 0.293479
0.298902 0.297109 0.311767
0.319378 0.317469 0.333130
0.343885 0.341830 0.358689
0.374481 0.372233 0.390589
0.414619 0.412127 0.432455
0.473134 0.470304 0.493483
0.150300 0.149397 0.156766
0.186316 0.185205 0.194338
0.210862 0.209601 0.219937
0.227801 0.226433 0.237609
0.248528 0.247041 0.259232
0.270342 0.268718 0.281973
0.281498 0.279806 0.293602
0.293438 0.291683 0.306060
0.305989 0.304155 0.319152
0.320356 0.318430 0.334136
0.337927 0.335895 0.352462
0.359014 0.356871 0.374461
0.384702 0.382414 0.401258
0.417197 0.414694 0.435147
0.460579 0.457816 0.480403
0.525073 0.521919 0.547660
0.178399 0.177324 0.186068
0.217542 0.216245 0.226911
0.244431 0.242967 0.254944
0.261367 0.259800 0.272611
0.281781 0.280095 0.293912
0.303568 0.301745 0.316632
0.326548 0.324584 0.340592
0.337486 0.335467 0.352003
0.349213 0.347132 0.364250
0.363236 0.361075 0.378889
0.380937 0.378661 0.397343
0.402526 0.400119 0.419861
0.429428 0.426858 0.447919
0.464217 0.461438 0.484192
0.510377 0.507320 0.532337
0.579345 0.575854 0.604269
0.207673 0.206423 0.216590
0.250125 0.248627 0.260895
0.279263 0.277589 0.291279
0.295770 0.293998 0.308489
0.315581 0.313686 0.329154
0.337492 0.335466 0.352018
0.360995 0.358833 0.376545
0.385242 0.382956 0.401824
0.395802 0.393445 0.412836
0.409029 0.406586 0.426637
0.426551 0.423998 0.444913
0.448510 0.445824 0.467819
0.476459 0.473608 0.496969
0.513151 0.510091 0.535231
0.561961 0.558604 0.586138
0.633700 0.629897 0.660945
0.238625 0.237192 0.248881
0.283499 0.281809 0.295713
0.314098 0.312226 0.327623
0.330438 0.328468 0.344662
0.350241 0.348139 0.365303
0.372073 0.369830 0.388069
0.395477 0.393103 0.412502
0.419616 0.417111 0.437677
0.444451 0.441796 0.463574
0.456761 0.454025 0.476409
0.474006 0.471160 0.494398
0.496223 0.493246 0.517574
0.524936 0.521794 0.547521
0.562813 0.559450 0.587023
0.613553 0.609889 0.639962
0.687046 0.682926 0.716597
0.271363 0.269734 0.283037
0.318473 0.316582 0.332196
0.350290 0.348211 0.365379
0.366614 0.364435 0.382408
0.386651 0.384332 0.403282
0.408666 0.406197 0.426221
0.431834 0.429237 0.450405
0.456071 0.453333 0.475695
0.480871 0.477988 0.501563
0.506082 0.503052 0.527853
0.522987 0.519842 0.545482
0.545344 0.542064 0.568799
0.574426 0.570973 0.599131
0.612760 0.609077 0.639109
0.664162 0.660207 0.692754
0.736281 0.731845 0.767951
0.308731 0.306877 0.322017
0.358319 0.356178 0.373727
0.391554 0.389210 0.408397
0.407575 0.405131 0.425114
0.427650 0.425083 0.446048
0.449852 0.447151 0.469197
0.472880 0.470047 0.493218
0.497266 0.494284 0.518670
0.522270 0.519138 0.544758
0.547470 0.544195 0.571024
0.573068 0.569637 0.597732
0.595080 0.591511 0.620689
0.624204 0.620455 0.651058
0.662867 0.658897 0.691376
0.712908 0.708682 0.743587
0.781757 0.777050 0.815378
0.350894 0.348778 0.365993
0.402441 0.400027 0.419746
0.437019 0.434393 0.455816
0.453374 0.450647 0.472881
0.473708 0.470858 0.494089
0.496188 0.493204 0.517531
0.519741 0.516624 0.542091
0.544185 0.540925 0.567597
0.569110 0.565699 0.593604
0.594249 0.590685 0.619824
0.619258 0.615556 0.645907
0.644038 0.640174 0.671750
0.672281 0.668242 0.701217
0.709229 0.705016 0.739790
0.758547 0.754016 0.791177
0.821761 0.816825 0.857103
0.399650 0.397237 0.416848
0.452900 0.450182 0.472390
0.488569 0.485636 0.509594
0.505750 0.502714 0.527516
0.526596 0.523428 0.549253
0.549442 0.546131 0.573072
0.573613 0.570169 0.598275
0.598036 0.594458 0.623758
0.622671 0.618945 0.649464
0.647469 0.643575 0.675332
0.671565 0.667543 0.700460
0.695265 0.691091 0.725183
0.718317 0.714007 0.749248
0.753244 0.748747 0.785695
0.799080 0.794274 0.833446
0.856088 0.850952 0.892913
0.458575 0.455818 0.478315
0.513454 0.510379 0.535563
0.549571 0.546284 0.573228
0.567720 0.564326 0.592154
0.589200 0.585673 0.614551
0.612408 0.608735 0.638748
0.636498 0.632675 0.663859
0.660592 0.656632 0.689019
0.684578 0.680471 0.714041
0.708225 0.703960 0.738679
0.730977 0.726569 0.762434
0.752877 0.748374 0.785304
0.773989 0.769352 0.807315
0.794127 0.789334 0.828288
0.834510 0.829485 0.870412
0.885531 0.880227 0.923622
0.533647 0.530432 0.556614
0.589074 0.585549 0.614429
0.624352 0.620609 0.651216
0.643029 0.639168 0.670703
0.664698 0.660719 0.693304
0.687830 0.683703 0.717421
0.711581 0.707258 0.742171
0.734167 0.729730 0.765719
0.756284 0.751714 0.788790
0.777607 0.772910 0.811038
0.797875 0.793072 0.832192
0.816735 0.811846 0.851890
0.833887 0.828880 0.869775
0.850127 0.845009 0.886706
0.865223 0.860019 0.902459
0.909004 0.903616 0.948068
0.636001 0.632168 0.663384
0.688305 0.684191 0.717946
0.719820 0.715489 0.750807
0.738476 0.734021 0.770246
0.759187 0.754603 0.791848
0.780263 0.775549 0.813825
0.800796 0.795961 0.835237
0.820348 0.815404 0.855640
0.838534 0.833507 0.874612
0.855262 0.850132 0.892074
0.870468 0.865228 0.907934
0.884155 0.878840 0.922205
0.896652 0.891284 0.935202
0.908308 0.902864 0.947255
0.918707 0.913222 0.958021
0.927623 0.922015 0.967919
-0.299734 -0.297939 -0.312655
-0.307039 -0.305164 -0.320251
-0.315724 -0.313822 -0.329301
-0.323140 -0.321198 -0.337040
-0.327138 -0.325194 -0.341219
-0.330316 -0.328349 -0.344545
-0.332902 -0.330912 -0.347240
-0.334796 -0.332790 -0.349188
-0.335932 -0.333913 -0.350380
-0.336723 -0.334689 -0.351220
-0.336532 -0.334495 -0.351036
-0.335325 -0.333287 -0.349863
-0.332719 -0.330673 -0.347357
-0.327518 -0.325457 -0.342326
-0.316998 -0.314991 -0.331479
-0.293691 -0.291929 -0.306409
0.034934 0.034724 0.036436
0.071524 0.071096 0.074602
0.085033 0.084523 0.088693
0.101549 0.100940 0.105920
0.114571 0.113881 0.119499
0.127133 0.126369 0.132605
0.139818 0.138981 0.145838
0.152696 0.151785 0.159272
0.165780 0.164789 0.172916
0.179497 0.178421 0.187221
0.194928 0.193757 0.203312
0.212401 0.211127 0.221540
0.232688 0.231294 0.242702
0.257472 0.255927 0.268543
0.289930 0.288194 0.302400
0.336461 0.334430 0.350932
0.067649 0.067244 0.070556
0.098506 0.097916 0.102747
0.120605 0.119880 0.125794
0.136354 0.135536 0.142222
0.151352 0.150445 0.157863
0.165849 0.164854 0.172986
0.180242 0.179161 0.187999
0.194902 0.193738 0.203289
0.209789 0.208532 0.218818
0.225321 0.223965 0.235020
0.242644 0.241186 0.253091
0.261990 0.260421 0.273271
0.284366 0.282667 0.296609
0.311365 0.309497 0.324760
0.345051 0.342980 0.359889
0.394139 0.391766 0.411103
0.103427 0.102806 0.107875
0.132936 0.132141 0.138656
0.151970 0.151055 0.158509
0.169695 0.168672 0.176995
0.186488 0.185381 0.194517
0.203455 0.202241 0.212220
0.220090 0.218769 0.229569
0.236450 0.235024 0.246615
0.253045 0.251521 0.263923
0.270226 0.268604 0.281849
0.289072 0.287335 0.301517
0.309889 0.308036 0.323231
0.333721 0.331735 0.348088
0.362206 0.360042 0.377800
0.397097 0.394703 0.414173
0.445826 0.443159 0.465011
0.129965 0.129187 0.135559
0.162754 0.161786 0.169758
0.184285 0.183189 0.192220
0.204102 0.202880 0.212887
0.222834 0.221501 0.232426
0.237989 0.236563 0.248229
0.253197 0.251679 0.264090
0.268985 0.267374 0.280558
0.284718 0.283011 0.296970
0.301361 0.299550 0.314330
0.320234 0.318308 0.334016
0.341626 0.339583 0.356326
0.366452 0.364269 0.382219
0.396452 0.394070 0.413510
0.435488 0.432864 0.454220
0.491277 0.488342 0.512406
0.157829 0.156872 0.164615
0.193579 0.192423 0.201911
0.217224 0.215930 0.226575
0.239018 0.237586 0.249307
0.258041 0.256500 0.269147
0.278632 0.276962 0.290620
0.292467 0.290709 0.305047
0.307047 0.305206 0.320259
0.321773 0.319842 0.335619
0.337853 0.335820 0.352391
0.356712 0.354562 0.372059
0.378679 0.376408 0.394969
0.404704 0.402287 0.422113
0.436860 0.434240 0.455656
0.479842 0.476967 0.500498
0.541678 0.538438 0.564987
0.186193 0.185062 0.194196
0.224908 0.223561 0.234588
0.250652 0.249151 0.261436
0.274335 0.272688 0.286142
0.293189 0.291438 0.305804
0.314010 0.312126 0.327520
0.336183 0.334154 0.350646
0.349133 0.347031 0.364153
0.362732 0.360546 0.378329
0.378392 0.376110 0.394658
0.397264 0.394862 0.414351
0.419747 0.417215 0.437805
0.447110 0.444428 0.466348
0.481899 0.479031 0.502642
0.527923 0.524779 0.550665
0.594188 0.590628 0.619757
0.215704 0.214409 0.224978
0.257581 0.256036 0.268664
