src/luts/bw/6.cube
LUT_3D_SIZE 6
-0.011024 -0.010958 -0.011498
0.031976 0.031785 0.033353
0.066033 0.065637 0.068872
0.098411 0.097823 0.102644
0.140710 0.139865 0.146763
0.223735 0.222394 0.233367
0.082129 0.081636 0.085664
0.142522 0.141670 0.148655
0.167489 0.166480 0.174694
0.200851 0.199649 0.209503
0.254324 0.252798 0.265270
0.373646 0.371378 0.389705
0.163468 0.162485 0.170497
0.228944 0.227579 0.238806
0.300712 0.298910 0.313647
0.328377 0.326418 0.342515
0.389638 0.387311 0.406410
0.539544 0.536290 0.562762
0.254705 0.253180 0.265665
0.325522 0.323572 0.339520
0.398633 0.396277 0.415821
0.476579 0.473717 0.497087
0.540066 0.536826 0.563318
0.706108 0.701868 0.736486
0.380986 0.378670 0.397343
0.458806 0.456057 0.478569
0.537051 0.533829 0.560177
0.615879 0.612194 0.642364
0.691390 0.687241 0.721119
0.838276 0.833231 0.874293
0.614167 0.610485 0.640586
0.700651 0.696413 0.730770
0.774457 0.769783 0.807775
0.836260 0.831249 0.872273
0.883242 0.877956 0.921224
0.917994 0.912558 0.957333
-0.299734 -0.297939 -0.312655
-0.323140 -0.321198 -0.337040
-0.332902 -0.330912 -0.347240
-0.336723 -0.334689 -0.351220
-0.332719 -0.330673 -0.347357
-0.293691 -0.291929 -0.306409
0.103427 0.102806 0.107875
0.169695 0.168672 0.176995
0.220090 0.218769 0.229569
0.270226 0.268604 0.281849
0.333721 0.331735 0.348088
0.445826 0.443159 0.465011
0.186193 0.185062 0.194196
0.274335 0.272688 0.286142
0.336183 0.334154 0.350646
0.378392 0.376110 0.394658
0.447110 0.444428 0.466348
0.594188 0.590628 0.619757
0.279929 0.278253 0.291971
0.385300 0.383000 0.401873
0.444276 0.441617 0.463400
0.516454 0.513364 0.538675
0.587905 0.584385 0.613195
0.747356 0.742845 0.779519
0.409107 0.406645 0.426718
0.526354 0.523180 0.548999
0.588146 0.584604 0.613450
0.658886 0.654911 0.687227
0.727695 0.723351 0.758995
0.862419 0.857227 0.899494
0.646732 0.642839 0.674550
0.751918 0.747360 0.784289
0.809914 0.805038 0.844750
0.861575 0.856390 0.898687
0.901400 0.896024 0.940147
0.931255 0.925555 0.972103
-0.307427 -0.305595 -0.320656
-0.324975 -0.323015 -0.338952
-0.335680 -0.333666 -0.350141
-0.336333 -0.334304 -0.350846
-0.327811 -0.325742 -0.342600
-0.270719 -0.269130 -0.282148
0.100232 0.099630 0.104547
0.187713 0.186589 0.195788
0.240873 0.239434 0.251239
0.290205 0.288452 0.302701
0.354628 0.352483 0.369864
0.474109 0.471274 0.494506
0.210276 0.209023 0.219332
0.297472 0.295692 0.310265
0.360966 0.358798 0.376493
0.420340 0.417812 0.438432
0.492115 0.489167 0.513299
0.613276 0.609593 0.639654
0.305958 0.304121 0.319114
0.407732 0.405273 0.425283
0.479472 0.476609 0.500112
0.543857 0.540599 0.567254
0.622003 0.618279 0.648781
0.765995 0.761392 0.798942
0.437858 0.435225 0.456685
0.549428 0.546152 0.573077
0.623874 0.620127 0.650711
0.687922 0.683781 0.717497
0.750789 0.746299 0.783124
0.875776 0.870505 0.913448
0.678477 0.674444 0.707681
0.775496 0.770824 0.808854
0.825458 0.820496 0.860952
0.874490 0.869260 0.912123
0.911461 0.906006 0.950544
0.938800 0.932912 0.981162
-0.313737 -0.311844 -0.327220
-0.327798 -0.325821 -0.341898
-0.336192 -0.334155 -0.350630
-0.334225 -0.332205 -0.348791
-0.320440 -0.318375 -0.335168
-0.238356 -0.236973 -0.248300
0.104709 0.104086 0.109220
0.205465 0.204231 0.214300
0.252805 0.251290 0.263685
0.314080 0.312184 0.327600
0.380015 0.377745 0.396386
0.505625 0.502593 0.527390
0.204541 0.203308 0.213327
0.302501 0.300698 0.315515
0.383256 0.380929 0.399727
0.443873 0.441203 0.462964
0.517394 0.514285 0.539645
0.644875 0.641028 0.672649
0.332883 0.330882 0.347212
0.435450 0.432827 0.454177
0.504810 0.501780 0.526515
0.568345 0.564960 0.592813
0.641444 0.637589 0.669053
0.752376 0.747819 0.784725
0.467009 0.464202 0.487108
0.576508 0.573052 0.601346
0.648965 0.645061 0.676891
0.707994 0.703754 0.738476
0.770511 0.765864 0.803627
0.880250 0.874974 0.918099
0.708909 0.704678 0.739466
0.799545 0.794769 0.833918
0.845881 0.840803 0.882271
0.876067 0.870827 0.913789
0.917327 0.911865 0.956617
0.945184 0.939095 0.988568
-0.320254 -0.318330 -0.334039
-0.331383 -0.329383 -0.345633
-0.336580 -0.334549 -0.351067
-0.331336 -0.329312 -0.346060
-0.309892 -0.307926 -0.323875
-0.188629 -0.187554 -0.196289
0.118600 0.117886 0.123699
0.225851 0.224494 0.235563
0.275573 0.273920 0.287436
0.337736 0.335700 0.352266
0.406928 0.404473 0.424428
0.538469 0.535246 0.561621
0.220571 0.219254 0.230059
0.326355 0.324397 0.340397
0.409384 0.406908 0.426983
0.473571 0.470734 0.493951
0.544537 0.541286 0.567979
0.676393 0.672351 0.705514
0.349165 0.347079 0.364180
0.459289 0.456533 0.479057
0.536920 0.533709 0.560032
0.596487 0.592902 0.622153
0.668494 0.664466 0.697243
0.782558 0.777832 0.816202
0.496485 0.493506 0.517849
0.605624 0.601999 0.631682
0.674959 0.670878 0.703974
0.732863 0.728429 0.764399
0.792004 0.787236 0.826055
0.868125 0.862935 0.905482
0.738304 0.733796 0.770020
0.822041 0.817088 0.857375
0.864243 0.859071 0.901436
0.893388 0.887999 0.931783
0.917623 0.912141 0.957060
0.952582 0.946634 0.995151
-0.328935 -0.326950 -0.343078
-0.335852 -0.333843 -0.350317
-0.333576 -0.331531 -0.348182
-0.312798 -0.310809 -0.327025
-0.260383 -0.258858 -0.271322
-0.000420 -0.000631 0.000998
0.156647 0.155704 0.163377
0.262427 0.260857 0.273718
0.326795 0.324849 0.340861
0.403209 0.400767 0.420547
0.485986 0.483067 0.506902
0.571403 0.567968 0.595987
0.283505 0.281798 0.295692
0.393666 0.391302 0.410593
0.453634 0.450918 0.473147
0.538646 0.535413 0.561803
0.624761 0.621006 0.651640
0.706823 0.702610 0.737196
0.439199 0.436573 0.458111
0.552941 0.549609 0.576730
0.620862 0.617142 0.647557
0.642163 0.638341 0.669824
0.734741 0.730351 0.766396
0.808758 0.803903 0.843567
0.609043 0.605395 0.635239
0.715253 0.710938 0.746003
0.774063 0.769393 0.807348
0.809916 0.805021 0.844754
0.824260 0.819312 0.859700
0.890321 0.884983 0.928614
0.765813 0.761257 0.798802
0.842453 0.837384 0.878682
0.881142 0.875875 0.919049
0.908093 0.902675 0.947082
0.932231 0.926522 0.973314
0.963838 0.958045 1.005341
