src/luts/bw/7.cube
LUT_3D_SIZE 16
0.000000 0.000000 0.000000
0.000000 0.000000 0.000000
0.032738 0.032738 0.032738
0.046432 0.046432 0.046432
0.058205 0.058205 0.058205
0.068997 0.068997 0.068997
0.079182 0.079182 0.079182
0.089340 0.089340 0.089340
0.100182 0.100182 0.100182
0.114523 0.114523 0.114523
0.139818 0.139818 0.139818
0.176869 0.176869 0.176869
0.241466 0.241466 0.241466
0.247671 0.247671 0.247671
0.247671 0.247671 0.247671
0.247671 0.247671 0.247671
0.000000 0.000000 0.000000
0.000000 0.000000 0.000000
0.049052 0.049052 0.049052
0.055731 0.055731 0.055731
0.058205 0.058205 0.058205
0.068997 0.068997 0.068997
0.079182 0.079182 0.079182
0.089340 0.089340 0.089340
0.100182 0.100182 0.100182
0.114523 0.114523 0.114523
0.139818 0.139818 0.139818
0.176869 0.176869 0.176869
0.241466 0.241466 0.241466
0.247671 0.247671 0.247671
0.247671 0.247671 0.247671
0.247671 0.247671 0.247671
0.077961 0.077961 0.077961
0.083184 0.083184 0.083184
0.098974 0.098974 0.098974
0.103422 0.103422 0.103422
0.107582 0.107582 0.107582
0.112084 0.112084 0.112084
0.117883 0.117883 0.117883
0.130521 0.130521 0.130521
0.149785 0.149785 0.149785
0.175722 0.175722 0.175722
0.210262 0.210262 0.210262
0.266241 0.266241 0.266241
0.385423 0.385423 0.385423
0.396834 0.396834 0.396834
0.396835 0.396835 0.396835
0.396836 0.396836 0.396836
0.114379 0.114379 0.114379
0.119944 0.119944 0.119944
0.144928 0.144928 0.144928
0.165097 0.165097 0.165097
0.164416 0.164416 0.164416
0.166599 0.166599 0.166599
0.171900 0.171900 0.171900
0.183329 0.183329 0.183329
0.202604 0.202604 0.202604
0.230714 0.230714 0.230714
0.273722 0.273722 0.273722
0.348879 0.348879 0.348879
0.482435 0.482435 0.482435
0.493806 0.493806 0.493806
0.493808 0.493808 0.493808
0.493809 0.493809 0.493809
0.158930 0.158930 0.158930
0.158930 0.158930 0.158930
0.187389 0.187389 0.187389
0.205612 0.205612 0.205612
0.222932 0.222932 0.222932
0.222279 0.222279 0.222279
0.225254 0.225254 0.225254
0.235597 0.235597 0.235597
0.256385 0.256385 0.256385
0.290395 0.290395 0.290395
0.344302 0.344302 0.344302
0.430500 0.430500 0.430500
0.557642 0.557642 0.557642
0.567477 0.567477 0.567477
0.567478 0.567478 0.567478
0.567480 0.567480 0.567480
0.198977 0.198977 0.198977
0.198977 0.198977 0.198977
0.225429 0.225429 0.225429
0.243192 0.243192 0.243192
0.260396 0.260396 0.260396
0.277425 0.277425 0.277425
0.278427 0.278427 0.278427
0.288889 0.288889 0.288889
0.313094 0.313094 0.313094
0.353727 0.353727 0.353727
0.415201 0.415201 0.415201
0.503707 0.503707 0.503707
0.620180 0.620180 0.620180
0.629452 0.629452 0.629452
0.629454 0.629454 0.629454
0.629456 0.629456 0.629456
0.240143 0.240143 0.240143
0.240143 0.240143 0.240143
0.267431 0.267431 0.267431
0.286727 0.286727 0.286727
0.305480 0.305480 0.305480
0.323695 0.323695 0.323695
0.344474 0.344474 0.344474
0.353428 0.353428 0.353428
0.379976 0.379976 0.379976
0.425183 0.425183 0.425183
0.490377 0.490377 0.490377
0.575648 0.575648 0.575648
0.688755 0.688755 0.688756
0.698289 0.698289 0.698289
0.698291 0.698291 0.698291
0.698293 0.698293 0.698293
0.304516 0.304516 0.304516
0.304516 0.304516 0.304516
0.339763 0.339763 0.339763
0.364364 0.364364 0.364364
0.386415 0.386415 0.386415
0.406632 0.406632 0.406632
0.428522 0.428522 0.428522
0.460941 0.460941 0.460941
0.480474 0.480474 0.480474
0.522349 0.522349 0.522349
0.583097 0.583097 0.583097
0.661169 0.661169 0.661169
0.762285 0.762285 0.762285
0.770574 0.770574 0.770574
0.770577 0.770577 0.770577
0.770579 0.770579 0.770579
0.420874 0.420874 0.420874
0.420874 0.420874 0.420874
0.461348 0.461348 0.461348
0.487841 0.487841 0.487841
0.509244 0.509244 0.509244
0.528065 0.528065 0.528065
0.547162 0.547162 0.547162
0.572870 0.572870 0.572870
0.607552 0.607552 0.607552
0.636377 0.636377 0.636377
0.681162 0.681162 0.681162
0.743019 0.743019 0.743019
0.817054 0.817054 0.817055
0.822887 0.822887 0.822887
0.822889 0.822889 0.822889
0.822891 0.822891 0.822891
0.562478 0.562478 0.562478
0.562478 0.562478 0.562478
0.596005 0.596005 0.596005
0.616991 0.616991 0.616991
0.633455 0.633455 0.633455
0.647942 0.647942 0.647942
0.662364 0.662364 0.662364
0.680171 0.680171 0.680171
0.702802 0.702802 0.702802
0.725837 0.725837 0.725837
0.756549 0.756549 0.756549
0.799999 0.799999 0.799999
0.852328 0.852328 0.852328
0.856873 0.856873 0.856873
0.856875 0.856875 0.856875
0.856876 0.856876 0.856876
0.680171 0.680171 0.680171
0.680171 0.680171 0.680171
0.703127 0.703127 0.703127
0.717456 0.717456 0.717456
0.729547 0.729547 0.729547
0.740620 0.740620 0.740620
0.751846 0.751846 0.751846
0.764991 0.764991 0.764991
0.780204 0.780204 0.780204
0.794956 0.794956 0.794956
0.808060 0.808060 0.808060
0.837050 0.837050 0.837050
0.884794 0.884794 0.884794
0.889635 0.889635 0.889635
0.889637 0.889637 0.889637
0.889638 0.889638 0.889638
0.768160 0.768160 0.768160
0.768160 0.768160 0.768160
0.784796 0.784796 0.784796
0.794872 0.794872 0.794872
0.804185 0.804185 0.804185
0.813210 0.813210 0.813210
0.822343 0.822343 0.822343
0.831515 0.831515 0.831516
0.840749 0.840749 0.840749
0.849462 0.849462 0.849462
0.858327 0.858327 0.858327
0.867214 0.867214 0.867214
0.917406 0.917406 0.917406
0.922591 0.922591 0.922591
0.922593 0.922593 0.922593
0.922595 0.922595 0.922595
0.842016 0.842016 0.842016
0.842016 0.842016 0.842016
0.857074 0.857074 0.857074
0.866363 0.866363 0.866363
0.875253 0.875253 0.875253
0.884351 0.884351 0.884351
0.893430 0.893430 0.893430
0.902618 0.902618 0.902618
0.911835 0.911835 0.911835
0.921235 0.921235 0.921235
0.930681 0.930681 0.930681
0.940355 0.940355 0.940355
0.950086 0.950086 0.950086
0.955556 0.955556 0.955556
0.955559 0.955559 0.955559
0.955560 0.955560 0.955560
0.847757 0.847757 0.847757
0.847757 0.847757 0.847757
0.862994 0.862994 0.862995
0.872357 0.872357 0.872357
0.881293 0.881293 0.881293
0.890486 0.890486 0.890486
0.899638 0.899638 0.899638
0.908917 0.908917 0.908917
0.918196 0.918196 0.918196
0.927653 0.927653 0.927653
0.937216 0.937216 0.937216
0.946965 0.946965 0.946965
0.956784 0.956784 0.956784
0.957309 0.957309 0.957309
0.957309 0.957309 0.957309
0.957309 0.957309 0.957309
0.847757 0.847757 0.847757
0.847757 0.847757 0.847757
0.862995 0.862995 0.862995
0.872357 0.872357 0.872357
0.881293 0.881293 0.881293
0.890486 0.890486 0.890486
0.899638 0.899638 0.899638
0.908917 0.908917 0.908918
0.918196 0.918196 0.918196
0.927653 0.927653 0.927653
0.937217 0.937217 0.937217
0.946966 0.946966 0.946966
0.956785 0.956785 0.956785
0.957309 0.957309 0.957309
0.957309 0.957309 0.957309
0.957309 0.957309 0.957309
0.847757 0.847757 0.847757
0.847757 0.847757 0.847757
0.862995 0.862995 0.862995
0.872357 0.872357 0.872357
0.881293 0.881293 0.881293
0.890487 0.890487 0.890487
0.899638 0.899638 0.899638
0.908918 0.908918 0.908918
0.918197 0.918197 0.918197
0.927654 0.927654 0.927654
0.937217 0.937217 0.937217
0.946966 0.946966 0.946966
0.956785 0.956785 0.956785
0.957309 0.957309 0.957309
0.957309 0.957309 0.957309
0.957309 0.957309 0.957309
0.000000 0.000000 0.000000
0.000000 0.000000 0.000000
0.034448 0.034448 0.034448
0.047414 0.047414 0.047414
0.058205 0.058205 0.058205
0.068997 0.068997 0.068997
0.079182 0.079182 0.079182
0.089340 0.089340 0.089340
0.100182 0.100182 0.100182
0.114523 0.114523 0.114523
0.139818 0.139818 0.139818
0.176869 0.176869 0.176869
0.241466 0.241466 0.241466
0.247671 0.247671 0.247671
0.247671 0.247671 0.247671
0.247671 0.247671 0.247671
0.000000 0.000000 0.000000
0.000000 0.000000 0.000000
0.032738 0.032738 0.032738
0.046432 0.046432 0.046432
0.058205 0.058205 0.058205
0.068997 0.068997 0.068997
0.079182 0.079182 0.079182
0.089340 0.089340 0.089340
0.100182 0.100182 0.100182
0.114523 0.114523 0.114523
0.139818 0.139818 0.139818
0.176869 0.176869 0.176869
0.241466 0.241466 0.241466
0.247671 0.247671 0.247671
0.247671 0.247671 0.247671
0.247671 0.247671 0.247671
0.080008 0.080008 0.080008
0.077961 0.077961 0.077961
0.098974 0.098974 0.098974
0.102408 0.102408 0.102408
0.107321 0.107321 0.107321
0.112920 0.112920 0.112920
0.119895 0.119895 0.119895
0.132486 0.132486 0.132486
0.152795 0.152795 0.152795
0.179272 0.179272 0.179272
0.213702 0.213702 0.213702
0.269647 0.269647 0.269647
0.385817 0.385817 0.385817
0.396836 0.396836 0.396836
0.396837 0.396837 0.396837
0.396837 0.396837 0.396837
0.116583 0.116583 0.116583
0.114379 0.114379 0.114379
0.144502 0.144502 0.144502
0.165097 0.165097 0.165097
0.164306 0.164306 0.164306
0.167001 0.167001 0.167001
0.172870 0.172870 0.172870
0.184785 0.184785 0.184785
0.204446 0.204446 0.204446
0.232899 0.232899 0.232899
0.276109 0.276109 0.276109
0.350850 0.350850 0.350850
0.482615 0.482615 0.482615
0.493807 0.493807 0.493807
0.493808 0.493808 0.493808
0.493809 0.493809 0.493809
0.158930 0.158930 0.158930
0.158930 0.158930 0.158930
0.187295 0.187295 0.187295
0.205581 0.205581 0.205581
0.222932 0.222932 0.222932
0.222425 0.222425 0.222425
0.225725 0.225725 0.225725
0.236408 0.236408 0.236408
0.257518 0.257518 0.257518
0.291807 0.291807 0.291807
0.345803 0.345803 0.345803
0.431630 0.431630 0.431630
0.557732 0.557732 0.557732
0.567477 0.567477 0.567477
0.567479 0.567479 0.567479
0.567480 0.567480 0.567480
0.198977 0.198977 0.198977
0.198977 0.198977 0.198977
0.225712 0.225712 0.225712
0.243314 0.243314 0.243314
0.260442 0.260442 0.260442
0.277425 0.277425 0.277425
0.278633 0.278633 0.278633
0.289370 0.289370 0.289370
0.313848 0.313848 0.313848
0.354694 0.354694 0.354694
0.416203 0.416203 0.416203
0.504411 0.504411 0.504411
0.620239 0.620239 0.620239
0.629453 0.629453 0.629453
0.629454 0.629454 0.629454
0.629456 0.629456 0.629456
0.240143 0.240143 0.240143
0.240143 0.240143 0.240143
0.268154 0.268154 0.268154
0.287067 0.287067 0.287067
0.305646 0.305646 0.305646
0.323764 0.323764 0.323764
0.344474 0.344474 0.344474
0.353703 0.353703 0.353703
0.380534 0.380534 0.380534
0.425944 0.425944 0.425944
0.491152 0.491152 0.491152
0.576163 0.576163 0.576163
0.688806 0.688806 0.688806
0.698289 0.698289 0.698289
0.698291 0.698291 0.698291
0.698294 0.698294 0.698294
0.304516 0.304516 0.304516
0.304516 0.304516 0.304516
0.341163 0.341163 0.341163
0.364992 0.364992 0.364992
0.386735 0.386735 0.386735
0.406804 0.406804 0.406804
0.428611 0.428611 0.428611
0.460941 0.460941 0.460941
0.480879 0.480879 0.480879
0.522999 0.522999 0.522999
0.583750 0.583750 0.583750
0.661609 0.661609 0.661609
0.762318 0.762318 0.762318
0.770574 0.770574 0.770574
0.770577 0.770577 0.770577
0.770579 0.770579 0.770579
0.420874 0.420874 0.420874
0.420874 0.420874 0.420874
0.463334 0.463334 0.463334
0.488596 0.488596 0.488596
0.509636 0.509636 0.509636
0.528290 0.528290 0.528290
0.547311 0.547311 0.547311
0.572970 0.572970 0.572970
0.607551 0.607551 0.607551
0.636644 0.636644 0.636644
0.681512 0.681512 0.681512
0.743284 0.743284 0.743284
0.817070 0.817070 0.817070
0.822887 0.822887 0.822887
0.822889 0.822889 0.822889
0.822891 0.822891 0.822891
0.562478 0.562478 0.562478
0.562478 0.562478 0.562478
0.597710 0.597710 0.597710
0.617612 0.617612 0.617612
0.633788 0.633788 0.633788
0.648145 0.648145 0.648145
0.662507 0.662507 0.662507
0.680287 0.680287 0.680287
0.702861 0.702861 0.702861
0.725837 0.725837 0.725837
0.756661 0.756661 0.756661
0.800077 0.800077 0.800077
0.852335 0.852335 0.852335
0.856873 0.856873 0.856873
0.856875 0.856875 0.856875
0.856876 0.856876 0.856876
0.680171 0.680171 0.680171
0.680171 0.680171 0.680171
0.704152 0.704152 0.704152
0.717874 0.717874 0.717874
0.729783 0.729783 0.729783
0.740773 0.740773 0.740773
0.751958 0.751958 0.751958
0.765082 0.765082 0.765082
0.780263 0.780263 0.780263
0.794981 0.794981 0.794981
0.808060 0.808060 0.808060
0.837077 0.837077 0.837077
0.884798 0.884798 0.884798
0.889635 0.889635 0.889635
0.889637 0.889637 0.889637
0.889638 0.889638 0.889638
0.768160 0.768160 0.768160
0.768160 0.768160 0.768160
0.785253 0.785253 0.785253
0.795092 0.795092 0.795092
0.804319 0.804319 0.804319
0.813301 0.813301 0.813301
0.822408 0.822408 0.822408
0.831560 0.831560 0.831560
0.840779 0.840779 0.840779
0.849480 0.849480 0.849480
0.858335 0.858335 0.858335
0.867214 0.867214 0.867214
0.917408 0.917408 0.917408
0.922591 0.922591 0.922591
0.922593 0.922593 0.922593
0.922595 0.922595 0.922595
0.842016 0.842016 0.842016
0.842016 0.842016 0.842016
0.857110 0.857110 0.857110
0.866382 0.866382 0.866382
0.875264 0.875264 0.875264
0.884359 0.884359 0.884359
0.893436 0.893436 0.893436
0.902623 0.902623 0.902623
0.911838 0.911838 0.911838
0.921238 0.921238 0.921238
0.930683 0.930683 0.930683
0.940355 0.940355 0.940355
0.950086 0.950086 0.950086
0.955556 0.955556 0.955556
0.955559 0.955559 0.955559
0.955561 0.955561 0.955561
0.847757 0.847757 0.847757
0.847757 0.847757 0.847757
0.862995 0.862995 0.862995
0.872357 0.872357 0.872357
0.881293 0.881293 0.881293
0.890486 0.890486 0.890486
0.899638 0.899638 0.899638
0.908917 0.908917 0.908917
0.918196 0.918196 0.918196
0.927653 0.927653 0.927653
0.937216 0.937216 0.937216
0.946965 0.946965 0.946965
0.956784 0.956784 0.956784
0.957309 0.957309 0.957309
0.957309 0.957309 0.957309
0.957309 0.957309 0.957309
0.847757 0.847757 0.847757
0.847757 0.847757 0.847757
0.862995 0.862995 0.862995
0.872357 0.872357 0.872357
0.881293 0.881293 0.881293
0.890486 0.890486 0.890486
0.899638 0.899638 0.899638
0.908917 0.908917 0.908917
0.918196 0.918196 0.918196
0.927653 0.927653 0.927653
0.937217 0.937217 0.937217
0.946966 0.946966 0.946966
0.956785 0.956785 0.956785
0.957309 0.957309 0.957309
0.957309 0.957309 0.957309
0.957309 0.957309 0.957309
0.847757 0.847757 0.847757
0.847757 0.847757 0.847757
0.862995 0.862995 0.862995
0.872357 0.872357 0.872357
0.881293 0.881293 0.881293
0.890487 0.890487 0.890487
0.899638 0.899638 0.899638
0.908918 0.908918 0.908918
0.918197 0.918197 0.918197
0.927654 0.927654 0.927654
0.937217 0.937217 0.937217
0.946966 0.946966 0.946966
0.956785 0.956785 0.956785
0.957309 0.957309 0.957309
0.957309 0.957309 0.957309
0.957309 0.957309 0.957309
0.018401 0.018401 0.018401
0.022890 0.022890 0.022890
0.040468 0.040468 0.040468
0.052252 0.052252 0.052252
0.063013 0.063013 0.063013
0.073171 0.073171 0.073171
0.082919 0.082919 0.082919
0.092797 0.092797 0.092797
0.103470 0.103470 0.103470
0.119598 0.119598 0.119598
0.146748 0.146748 0.146748
0.185250 0.185250 0.185250
0.255246 0.255246 0.255246
0.262155 0.262155 0.262155
0.262155 0.262155 0.262155
0.262155 0.262155 0.262155
0.035210 0.035210 0.035210
0.018401 0.018401 0.018401
0.040468 0.040468 0.040468
0.052158 0.052158 0.052158
0.062994 0.062994 0.062994
0.073225 0.073225 0.073225
0.083034 0.083034 0.083034
0.092933 0.092933 0.092933
0.103629 0.103629 0.103629
0.119853 0.119853 0.119853
0.147055 0.147055 0.147055
0.185508 0.185508 0.185508
0.255281 0.255281 0.255281
0.262155 0.262155 0.262155
0.262155 0.262155 0.262155
0.262155 0.262155 0.262155
0.085576 0.085576 0.085576
0.085576 0.085576 0.085576
0.110386 0.110386 0.110386
0.125680 0.125680 0.125680
0.139278 0.139278 0.139278
0.151996 0.151996 0.151996
0.165268 0.165268 0.165268
0.182462 0.182462 0.182462
0.205311 0.205311 0.205311
0.235170 0.235170 0.235170
0.276723 0.276723 0.276723
0.342717 0.342717 0.342717
0.453526 0.453526 0.453526
0.462776 0.462776 0.462776
0.462776 0.462776 0.462776
0.462776 0.462776 0.462776
0.125435 0.125435 0.125435
0.125270 0.125270 0.125270
0.163477 0.163477 0.163477
0.179659 0.179659 0.179659
0.187411 0.187411 0.187411
0.195515 0.195515 0.195515
0.205334 0.205334 0.205334
0.220640 0.220640 0.220640
0.244260 0.244260 0.244260
0.278695 0.278695 0.278695
0.329346 0.329346 0.329346
0.407966 0.407966 0.407966
0.526284 0.526284 0.526284
0.535619 0.535619 0.535619
0.535677 0.535677 0.535677
0.535723 0.535723 0.535723
0.170445 0.170445 0.170445
0.170407 0.170407 0.170407
0.208264 0.208264 0.208264
0.222688 0.222688 0.222688
0.237954 0.237954 0.237954
0.242907 0.242907 0.242907
0.250381 0.250381 0.250381
0.265318 0.265318 0.265318
0.291673 0.291673 0.291673
0.332135 0.332135 0.332135
0.391141 0.391141 0.391141
0.475856 0.475856 0.475856
0.587648 0.587648 0.587648
0.596110 0.596110 0.596110
0.596186 0.596186 0.596186
0.596246 0.596246 0.596246
0.209574 0.209574 0.209574
0.209684 0.209684 0.209684
0.249426 0.249426 0.249426
0.263351 0.263351 0.263351
0.278606 0.278606 0.278606
0.294678 0.294678 0.294678
0.300539 0.300539 0.300539
0.316084 0.316084 0.316084
0.345950 0.345950 0.345950
0.391841 0.391841 0.391841
0.455839 0.455839 0.455839
0.539505 0.539505 0.539505
0.644561 0.644561 0.644561
0.653051 0.653051 0.653051
0.653164 0.653164 0.653164
0.653252 0.653252 0.653252
0.250848 0.250848 0.250848
0.251122 0.251122 0.251122
0.297299 0.297299 0.297299
0.312188 0.312188 0.312188
0.328616 0.328616 0.328616
0.345780 0.345780 0.345780
0.366308 0.366308 0.366308
0.380847 0.380847 0.380847
0.412848 0.412848 0.412848
0.461861 0.461861 0.461861
0.526548 0.526548 0.526548
0.605159 0.605159 0.605159
0.709570 0.709570 0.709570
0.718470 0.718470 0.718470
0.718640 0.718640 0.718640
0.718773 0.718773 0.718773
0.318271 0.318271 0.318271
0.318794 0.318794 0.318794
0.381123 0.381123 0.381123
0.398027 0.398027 0.398027
0.416132 0.416132 0.416132
0.434440 0.434440 0.434440
0.455271 0.455271 0.455271
0.486462 0.486462 0.486462
0.511782 0.511782 0.511782
0.555607 0.555607 0.555607
0.613568 0.613568 0.613568
0.685403 0.685403 0.685403
0.777692 0.777692 0.777692
0.785497 0.785497 0.785497
0.785676 0.785676 0.785676
0.785816 0.785816 0.785816
0.437179 0.437179 0.437179
0.437960 0.437960 0.437960
0.506250 0.506250 0.506250
0.521909 0.521909 0.521909
0.538235 0.538235 0.538235
0.554367 0.554367 0.554367
0.571943 0.571943 0.571943
0.596097 0.596097 0.596097
0.627693 0.627693 0.627693
0.658385 0.658385 0.658385
0.701871 0.701871 0.701870
0.759181 0.759181 0.759181
0.827340 0.827340 0.827340
0.832798 0.832798 0.832798
0.832939 0.832939 0.832939
0.833049 0.833049 0.833049
0.576277 0.576277 0.576277
0.576963 0.576963 0.576963
0.631188 0.631188 0.631188
0.643003 0.643003 0.643003
0.655334 0.655334 0.655334
0.667558 0.667558 0.667558
0.680602 0.680602 0.680602
0.697342 0.697342 0.697342
0.718075 0.718075 0.718075
0.739079 0.739079 0.739079
0.769995 0.769995 0.769995
0.810908 0.810908 0.810908
0.860754 0.860754 0.860754
0.865403 0.865403 0.865402
0.865523 0.865523 0.865523
0.865617 0.865617 0.865617
0.689571 0.689571 0.689571
0.689987 0.689987 0.689987
0.726833 0.726833 0.726833
0.735732 0.735732 0.735732
0.745196 0.745196 0.745196
0.754838 0.754838 0.754838
0.765168 0.765168 0.765167
0.777558 0.777558 0.777558
0.791642 0.791642 0.791642
0.805111 0.805111 0.805111
0.816984 0.816984 0.816984
0.845302 0.845302 0.845302
0.892886 0.892886 0.892886
0.897872 0.897872 0.897872
0.898006 0.898006 0.898006
0.898111 0.898111 0.898111
0.774899 0.774898 0.774899
0.775088 0.775088 0.775088
0.800210 0.800210 0.800210
0.807306 0.807306 0.807306
0.815155 0.815155 0.815155
0.823310 0.823310 0.823310
0.831514 0.831514 0.831514
0.840141 0.840141 0.840141
0.848917 0.848917 0.848917
0.857389 0.857389 0.857389
0.866033 0.866033 0.866033
0.874756 0.874756 0.874756
0.925110 0.925110 0.925110
0.930419 0.930419 0.930419
0.930568 0.930568 0.930568
0.930685 0.930685 0.930685
0.847860 0.847860 0.847860
0.847875 0.847875 0.847875
0.868511 0.868511 0.868511
0.876055 0.876055 0.876055
0.884356 0.884356 0.884356
0.892842 0.892842 0.892842
0.901606 0.901606 0.901606
0.910563 0.910563 0.910563
0.919661 0.919661 0.919661
0.928992 0.928992 0.928992
0.938333 0.938333 0.938333
0.947907 0.947907 0.947907
0.957520 0.957520 0.957520
0.963193 0.963193 0.963193
0.963358 0.963358 0.963358
0.963486 0.963486 0.963486
0.853672 0.853672 0.853672
0.853672 0.853672 0.853672
0.874254 0.874254 0.874254
0.881904 0.881904 0.881904
0.890349 0.890349 0.890349
0.898933 0.898933 0.898933
0.907785 0.907785 0.907785
0.916845 0.916845 0.916845
0.926022 0.926022 0.926022
0.935468 0.935468 0.935468
0.944903 0.944903 0.944903
0.954557 0.954557 0.954557
0.964281 0.964281 0.964281
0.964740 0.964740 0.964740
0.964740 0.964740 0.964740
0.964740 0.964740 0.964740
0.853672 0.853672 0.853672
0.853672 0.853672 0.853672
0.874254 0.874254 0.874254
0.881910 0.881910 0.881910
0.890361 0.890361 0.890361
0.898949 0.898949 0.898949
0.907806 0.907806 0.907806
0.916871 0.916871 0.916870
0.926051 0.926051 0.926051
0.935502 0.935502 0.935502
0.944943 0.944943 0.944942
0.954602 0.954602 0.954602
0.964330 0.964330 0.964330
0.964740 0.964740 0.964740
0.964740 0.964740 0.964740
0.964740 0.964740 0.964740
0.853672 0.853672 0.853672
0.853672 0.853672 0.853672
0.874254 0.874254 0.874254
0.881915 0.881915 0.881915
0.890370 0.890370 0.890370
0.898962 0.898962 0.898962
0.907822 0.907822 0.907822
0.916891 0.916891 0.916891
0.926075 0.926075 0.926075
0.935529 0.935529 0.935529
0.944974 0.944974 0.944974
0.954636 0.954636 0.954636
0.964368 0.964368 0.964368
0.964740 0.964740 0.964740
0.964740 0.964740 0.964740
0.964740 0.964740 0.964740
0.026103 0.026103 0.026103
0.028470 0.028470 0.028470
0.042797 0.042797 0.042797
0.057234 0.057234 0.057234
0.067087 0.067087 0.067087
0.076687 0.076687 0.076687
0.086057 0.086057 0.086057
0.095655 0.095655 0.095655
0.106281 0.106281 0.106281
0.123651 0.123651 0.123651
0.151830 0.151830 0.151830
0.191198 0.191198 0.191198
0.264275 0.264275 0.264275
0.271539 0.271539 0.271539
0.271540 0.271540 0.271540
0.271540 0.271540 0.271540
0.035382 0.035382 0.035382
0.026103 0.026103 0.026103
0.042508 0.042508 0.042508
0.057234 0.057234 0.057234
0.067080 0.067080 0.067080
0.076713 0.076713 0.076713
0.086116 0.086116 0.086116
0.095740 0.095740 0.095740
0.106388 0.106388 0.106388
0.123809 0.123809 0.123809
0.152001 0.152001 0.152001
0.191335 0.191335 0.191335
0.264293 0.264293 0.264293
0.271540 0.271540 0.271540
0.271540 0.271540 0.271540
0.271540 0.271540 0.271540
0.082168 0.082168 0.082168
0.081321 0.081321 0.081321
0.116318 0.116318 0.116318
0.132088 0.132088 0.132088
0.145041 0.145041 0.145041
0.157233 0.157233 0.157233
0.170089 0.170089 0.170089
0.187033 0.187033 0.187033
0.209889 0.209889 0.209889
0.240178 0.240178 0.240178
0.282797 0.282797 0.282797
0.350593 0.350593 0.350593
0.462901 0.462901 0.462901
0.472204 0.472204 0.472204
0.472212 0.472212 0.472212
0.472218 0.472218 0.472218
0.133792 0.133792 0.133792
0.133792 0.133792 0.133792
0.170061 0.170061 0.170061
0.186206 0.186206 0.186206
0.199609 0.199609 0.199609
0.211918 0.211918 0.211918
0.225088 0.225088 0.225088
0.243260 0.243260 0.243260
0.269963 0.269963 0.269963
0.308148 0.308148 0.308148
0.361748 0.361748 0.361748
0.437980 0.437980 0.437980
0.540117 0.540117 0.540117
0.547702 0.547702 0.547702
0.547702 0.547702 0.547702
0.547702 0.547702 0.547702
0.177795 0.177795 0.177795
0.177783 0.177783 0.177783
0.214096 0.214096 0.214096
0.231083 0.231083 0.231083
0.244806 0.244806 0.244806
0.253961 0.253961 0.253961
0.265018 0.265018 0.265018
0.283383 0.283383 0.283383
0.313304 0.313304 0.313304
0.357076 0.357076 0.357076
0.417414 0.417414 0.417414
0.497972 0.497972 0.497972
0.597912 0.597912 0.597912
0.605468 0.605468 0.605468
0.605523 0.605523 0.605523
0.605567 0.605567 0.605567
0.216501 0.216501 0.216501
0.216549 0.216549 0.216549
0.255054 0.255054 0.255054
0.273825 0.273825 0.273825
0.287558 0.287558 0.287558
0.302643 0.302643 0.302643
0.312332 0.312332 0.312332
0.331466 0.331466 0.331466
0.364762 0.364762 0.364762
0.413232 0.413232 0.413232
0.477218 0.477218 0.477218
0.556305 0.556305 0.556305
0.653251 0.653251 0.653251
0.661027 0.661027 0.661027
0.661134 0.661134 0.661134
0.661217 0.661217 0.661217
0.258109 0.258109 0.258109
0.258234 0.258234 0.258234
0.303349 0.303349 0.303349
0.325626 0.325626 0.325626
0.340197 0.340197 0.340197
0.356202 0.356202 0.356202
0.375874 0.375874 0.375874
0.394709 0.394709 0.394709
0.430258 0.430258 0.430258
0.481121 0.481121 0.481121
0.544592 0.544592 0.544592
0.618741 0.618741 0.618741
0.716851 0.716851 0.716851
0.725136 0.725136 0.725136
0.725314 0.725314 0.725314
0.725451 0.725451 0.725451
0.327589 0.327589 0.327589
0.327825 0.327825 0.327825
0.388051 0.388051 0.388051
0.414920 0.414920 0.414920
0.430273 0.430273 0.430273
0.446916 0.446916 0.446916
0.466724 0.466724 0.466724
0.496618 0.496618 0.496618
