src/luts/bw/7.cube
LUT_3D_SIZE 6
0.000000 0.000000 0.000000
0.046432 0.046432 0.046432
0.079182 0.079182 0.079182
0.114523 0.114523 0.114523
0.241466 0.241466 0.241466
0.247671 0.247671 0.247671
0.114379 0.114379 0.114379
0.165097 0.165097 0.165097
0.171900 0.171900 0.171900
0.230714 0.230714 0.230714
0.482435 0.482435 0.482435
0.493809 0.493809 0.493809
0.240143 0.240143 0.240143
0.286727 0.286727 0.286727
0.344474 0.344474 0.344474
0.425183 0.425183 0.425183
0.688755 0.688755 0.688756
0.698293 0.698293 0.698293
0.562478 0.562478 0.562478
0.616991 0.616991 0.616991
0.662364 0.662364 0.662364
0.725837 0.725837 0.725837
0.852328 0.852328 0.852328
0.856876 0.856876 0.856876
0.842016 0.842016 0.842016
0.866363 0.866363 0.866363
0.893430 0.893430 0.893430
0.921235 0.921235 0.921235
0.950086 0.950086 0.950086
0.955560 0.955560 0.955560
0.847757 0.847757 0.847757
0.872357 0.872357 0.872357
0.899638 0.899638 0.899638
0.927654 0.927654 0.927654
0.956785 0.956785 0.956785
0.957309 0.957309 0.957309
0.026103 0.026103 0.026103
0.057234 0.057234 0.057234
0.086057 0.086057 0.086057
0.123651 0.123651 0.123651
0.264275 0.264275 0.264275
0.271540 0.271540 0.271540
0.133792 0.133792 0.133792
0.186206 0.186206 0.186206
0.225088 0.225088 0.225088
0.308148 0.308148 0.308148
0.540117 0.540117 0.540117
0.547702 0.547702 0.547702
0.258109 0.258109 0.258109
0.325626 0.325626 0.325626
0.375874 0.375874 0.375874
0.481121 0.481121 0.481121
0.716851 0.716851 0.716851
0.725451 0.725451 0.725451
0.585146 0.585146 0.585146
0.654915 0.654915 0.654915
0.688404 0.688404 0.688404
0.744236 0.744236 0.744236
0.864304 0.864304 0.864304
0.869176 0.869176 0.869176
0.851545 0.851545 0.851545
0.879795 0.879795 0.879795
0.905010 0.905010 0.905010
0.932162 0.932162 0.932162
0.960749 0.960749 0.960749
0.966841 0.966841 0.966841
0.857389 0.857389 0.857389
0.885502 0.885502 0.885502
0.911171 0.911171 0.911171
0.938698 0.938698 0.938698
0.967653 0.967653 0.967653
0.967999 0.967999 0.967999
0.044505 0.044505 0.044505
0.063635 0.063635 0.063635
0.097623 0.097623 0.097623
0.136753 0.136753 0.136753
0.292129 0.292129 0.292129
0.300853 0.300853 0.300853
0.118942 0.118942 0.118942
0.201809 0.201809 0.201809
0.240976 0.240976 0.240976
0.327891 0.327891 0.327891
0.566997 0.566997 0.566997
0.574811 0.574811 0.574811
0.278611 0.278611 0.278611
0.345800 0.345800 0.345800
0.397927 0.397927 0.397927
0.515498 0.515498 0.515498
0.691666 0.691666 0.691666
0.696682 0.696682 0.696682
0.606045 0.606045 0.606045
0.668925 0.668925 0.668925
0.704314 0.704314 0.704314
0.755962 0.755962 0.755962
0.865943 0.865943 0.865943
0.868248 0.868248 0.868248
0.862164 0.862164 0.862164
0.889678 0.889678 0.889678
0.907628 0.907628 0.907628
0.938140 0.938140 0.938140
0.968454 0.968454 0.968454
0.971071 0.971071 0.971071
0.868101 0.868101 0.868101
0.895559 0.895559 0.895559
0.913279 0.913279 0.913279
0.943903 0.943903 0.943903
0.974287 0.974287 0.974287
0.975653 0.975653 0.975653
0.063056 0.063056 0.063056
0.077789 0.077789 0.077789
0.105670 0.105670 0.105670
0.161923 0.161923 0.161923
0.357129 0.357129 0.357129
0.368673 0.368673 0.368673
0.135186 0.135186 0.135186
0.230415 0.230415 0.230415
0.270221 0.270221 0.270221
0.376131 0.376131 0.376131
0.613250 0.613250 0.613250
0.620386 0.620386 0.620386
0.288902 0.288902 0.288902
0.379874 0.379874 0.379874
0.446823 0.446823 0.446823
0.560903 0.560903 0.560903
0.726743 0.726743 0.726743
0.731203 0.731203 0.731203
0.639570 0.639570 0.639570
0.695206 0.695206 0.695206
0.727181 0.727181 0.727181
0.773743 0.773743 0.773743
0.839494 0.839494 0.839494
0.841570 0.841570 0.841570
0.873047 0.873047 0.873047
0.900250 0.900250 0.900250
0.919561 0.919561 0.919561
0.936549 0.936549 0.936549
0.976401 0.976401 0.976401
0.966733 0.966733 0.966733
0.879069 0.879069 0.879069
0.906283 0.906283 0.906283
0.925255 0.925255 0.925255
0.942149 0.942149 0.942149
0.978580 0.978580 0.978580
0.983563 0.983563 0.983563
0.097093 0.097093 0.097093
0.122864 0.122864 0.122864
0.165772 0.165772 0.165772
0.263422 0.263422 0.263422
0.428506 0.428506 0.428506
0.440483 0.440483 0.440483
0.217615 0.217615 0.217615
0.304002 0.304002 0.304002
0.381460 0.381460 0.381460
0.544014 0.544014 0.544014
0.651031 0.651031 0.651031
0.657354 0.657354 0.657354
0.462448 0.462448 0.462448
0.560005 0.560005 0.560005
0.546819 0.546819 0.546819
0.673844 0.673844 0.673844
0.756338 0.756338 0.756338
0.760271 0.760271 0.760271
0.777119 0.777119 0.777119
0.811404 0.811404 0.811404
0.824978 0.824978 0.824978
0.804893 0.804893 0.804893
0.856870 0.856870 0.856870
0.857269 0.857269 0.857269
0.884308 0.884308 0.884308
0.911447 0.911447 0.911447
0.931323 0.931323 0.931323
0.952074 0.952074 0.952074
0.991761 0.991761 0.991761
0.993419 0.993419 0.993419
0.890415 0.890415 0.890415
0.917636 0.917636 0.917636
0.937053 0.937053 0.937053
0.956373 0.956373 0.956373
0.997282 0.997282 0.997282
0.998942 0.998942 0.998942
0.098472 0.098472 0.098472
0.125354 0.125354 0.125354
0.169044 0.169044 0.169044
0.270743 0.270743 0.270743
0.438697 0.438697 0.438697
0.441654 0.441654 0.441654
0.221804 0.221804 0.221804
0.307214 0.307214 0.307214
0.387876 0.387876 0.387876
0.551227 0.551227 0.551227
0.656746 0.656746 0.656746
0.657742 0.657742 0.657742
0.474725 0.474725 0.474725
0.570336 0.570336 0.570336
0.550260 0.550260 0.550260
0.676565 0.676565 0.676565
0.758417 0.758417 0.758417
0.761445 0.761445 0.761445
0.781918 0.781918 0.781918
0.815726 0.815726 0.815726
0.826626 0.826626 0.826626
0.806006 0.806006 0.806006
0.853985 0.853985 0.853985
0.859265 0.859265 0.859265
0.888821 0.888821 0.888821
0.916601 0.916601 0.916601
0.932955 0.932955 0.932955
0.941267 0.941267 0.941267
0.992396 0.992396 0.992396
0.994063 0.994063 0.994063
0.890609 0.890609 0.890609
0.917776 0.917776 0.917776
0.937598 0.937598 0.937598
0.958302 0.958302 0.958302
0.997916 0.997916 0.997916
0.999584 0.999584 0.999584
