src/luts/bw/8.cube
LUT_3D_SIZE 16
-0.012156 -0.012156 -0.012156
-0.012156 -0.012156 -0.012156
-0.021816 -0.021816 -0.021816
0.056754 0.055368 0.043791
0.098151 0.095851 0.076799
0.137650 0.134554 0.109116
0.183907 0.179975 0.147970
0.228465 0.223827 0.186410
0.272973 0.267729 0.225787
0.318664 0.312902 0.267216
0.365722 0.359538 0.310936
0.415114 0.408616 0.358023
0.463682 0.457034 0.405771
0.514341 0.507708 0.457079
0.565969 0.559529 0.510874
0.626209 0.620213 0.575455
-0.012156 -0.012156 -0.012156
-0.012156 -0.012156 -0.012156
0.026392 0.025728 0.020152
0.079072 0.077183 0.061476
0.111918 0.109332 0.087972
0.137650 0.134554 0.109116
0.183907 0.179975 0.147970
0.228465 0.223827 0.186410
0.272973 0.267729 0.225787
0.318664 0.312902 0.267216
0.365722 0.359538 0.310936
0.415114 0.408616 0.358023
0.463682 0.457034 0.405771
0.514341 0.507708 0.457079
0.565969 0.559529 0.510874
0.626209 0.620213 0.575455
-0.022937 -0.022937 -0.022937
0.017024 0.016592 0.012956
0.097005 0.094729 0.075873
0.141195 0.138032 0.112056
0.184090 0.180155 0.148126
0.227279 0.222659 0.185374
0.272198 0.266964 0.225093
0.316209 0.310472 0.264964
0.359525 0.353390 0.305118
0.403464 0.397026 0.346787
0.448377 0.441759 0.390569
0.494531 0.487872 0.436837
0.538794 0.532230 0.482374
0.583433 0.577098 0.529402
0.632441 0.626504 0.582241
0.687891 0.682584 0.643440
-0.005497 -0.005497 -0.005497
0.033776 0.032933 0.025857
0.129411 0.126475 0.102309
0.185562 0.181602 0.149380
0.229825 0.225168 0.187599
0.275158 0.269888 0.227745
0.318417 0.312658 0.266989
0.361349 0.355199 0.306829
0.403519 0.397080 0.346839
0.446007 0.439395 0.388228
0.488865 0.482203 0.431090
0.531525 0.524937 0.474820
0.573888 0.567493 0.519256
0.617563 0.611489 0.566071
0.664243 0.658645 0.617166
0.716581 0.711670 0.675642
0.054507 0.053174 0.042026
0.070737 0.069033 0.054841
0.158197 0.154717 0.126241
0.214686 0.210257 0.174418
0.276114 0.270832 0.228603
0.318533 0.312772 0.267095
0.362158 0.356002 0.307588
0.403844 0.397403 0.347152
0.444300 0.437693 0.386543
0.484850 0.478188 0.427028
0.525217 0.518611 0.468289
0.564714 0.558267 0.509550
0.607060 0.600897 0.554722
0.648454 0.642680 0.599766
0.691223 0.685959 0.647162
0.742476 0.737960 0.704989
0.084918 0.082901 0.066151
0.084918 0.082901 0.066151
0.187327 0.183338 0.150886
0.251961 0.246992 0.207077
0.305245 0.299624 0.254943
0.364782 0.358605 0.310053
0.405069 0.398622 0.348330
0.444747 0.438138 0.386984
0.482988 0.476326 0.425148
0.521078 0.514461 0.464015
0.559117 0.552641 0.503650
0.597012 0.590772 0.543919
0.637472 0.631585 0.587735
0.676117 0.670661 0.630327
0.717074 0.712170 0.676198
0.766657 0.762540 0.732611
0.114908 0.112261 0.090411
0.114908 0.112261 0.090411
0.221517 0.216983 0.180351
0.280530 0.275193 0.232569
0.335607 0.329680 0.282834
0.392618 0.386244 0.336404
0.446530 0.439916 0.388744
0.484042 0.477380 0.426212
0.519645 0.513025 0.462538
0.555187 0.548692 0.499519
0.591110 0.584827 0.537597
0.627228 0.621242 0.576563
0.665073 0.659484 0.618084
0.701588 0.696465 0.658771
0.741949 0.737424 0.704389
0.789069 0.785344 0.758378
0.145936 0.142683 0.115997
0.145936 0.142683 0.115997
0.254367 0.249365 0.209208
0.312393 0.306696 0.261469
0.366662 0.360470 0.311820
0.420898 0.414373 0.363633
0.472688 0.466031 0.414783
0.520807 0.514189 0.463736
0.554199 0.547699 0.498481
0.587532 0.581224 0.533774
0.621385 0.615345 0.570214
0.654792 0.649086 0.606736
0.691779 0.686523 0.647784
0.727103 0.722348 0.687536
0.765147 0.761004 0.730881
0.809977 0.806636 0.782537
0.177912 0.174083 0.142874
0.177912 0.174083 0.142874
0.285390 0.279995 0.236945
0.343759 0.337758 0.290399
0.398094 0.391687 0.341637
0.449867 0.443246 0.392043
0.498654 0.491999 0.441032
0.544228 0.537685 0.488041
0.586685 0.580371 0.532870
0.618311 0.612243 0.566881
0.650287 0.644533 0.601781
0.682303 0.676924 0.637209
0.717257 0.712356 0.676405
0.752019 0.747657 0.715866
0.787300 0.783544 0.756339
0.829693 0.826727 0.805405
0.211395 0.207016 0.171567
0.211395 0.207016 0.171567
0.318383 0.312624 0.266958
0.376004 0.369743 0.320630
0.429779 0.423219 0.372288
0.479353 0.472692 0.421483
0.525559 0.518954 0.468642
0.568819 0.562394 0.513887
0.609464 0.603321 0.557315
0.647334 0.641549 0.598537
0.677853 0.672419 0.632257
0.709893 0.704885 0.668104
0.740174 0.735622 0.702370
0.774150 0.770162 0.741210
0.807808 0.804427 0.780026
0.848093 0.845487 0.826802
0.246626 0.241730 0.202360
0.246626 0.241730 0.202360
0.355537 0.349434 0.301384
0.410830 0.404353 0.353881
0.461486 0.454842 0.403582
0.508791 0.502149 0.451386
0.553236 0.546732 0.497471
0.594941 0.588686 0.541699
0.633656 0.627731 0.583566
0.669903 0.664371 0.623431
0.703695 0.698600 0.661136
0.733367 0.728708 0.694637
0.763276 0.759102 0.728738
0.794136 0.790503 0.764223
0.827057 0.824041 0.802345
0.865413 0.863150 0.846971
0.284118 0.278738 0.235799
0.284118 0.278738 0.235799
0.393419 0.387040 0.337169
0.446308 0.439695 0.388525
0.494960 0.488301 0.437274
0.541734 0.535182 0.485439
0.583952 0.577620 0.529955
0.622428 0.616398 0.571347
0.659369 0.653715 0.611783
0.693916 0.688689 0.650174
0.725926 0.721154 0.686203
0.756060 0.751764 0.720481
0.785084 0.781289 0.753787
0.813423 0.810147 0.786529
0.845589 0.842934 0.823888
0.881786 0.879850 0.866040
0.324315 0.318496 0.272409
0.324315 0.318496 0.272409
0.431305 0.424739 0.373780
0.484067 0.477405 0.426238
0.531012 0.524423 0.474288
0.574063 0.567669 0.519441
0.614145 0.608042 0.562372
0.651636 0.645897 0.603264
0.686758 0.681437 0.642176
0.719528 0.714660 0.678968
0.750387 0.745999 0.714004
0.780198 0.776315 0.748161
0.804953 0.801518 0.776722
0.833435 0.830542 0.809753
0.861949 0.859617 0.842936
0.897341 0.895715 0.884139
0.366938 0.360744 0.312080
0.366938 0.360744 0.312080
0.472661 0.466004 0.414756
0.522322 0.515708 0.465299
0.567475 0.561043 0.512466
0.608542 0.602392 0.556321
0.646865 0.641074 0.598022
0.682908 0.677537 0.637883
0.716203 0.711286 0.675215
0.747173 0.742733 0.710339
0.775864 0.771906 0.743179
0.802611 0.799134 0.774014
0.827025 0.824008 0.802307
0.848886 0.846295 0.827725
0.878770 0.876774 0.862528
0.912302 0.910970 0.901507
0.413982 0.407489 0.356927
0.413982 0.407489 0.356927
0.517083 0.510456 0.459899
0.564883 0.558437 0.509728
0.606605 0.600439 0.554233
0.646863 0.641072 0.598020
0.682942 0.677571 0.637921
0.716099 0.711181 0.675099
0.747638 0.743205 0.710869
0.776750 0.772807 0.744197
0.803629 0.800170 0.775191
0.828688 0.825704 0.804239
0.851918 0.849388 0.831255
0.873575 0.871475 0.856478
0.894642 0.892962 0.881001
0.924321 0.923220 0.915413
0.502388 0.495736 0.444839
0.502388 0.495736 0.444839
0.602835 0.596639 0.550173
0.648435 0.642661 0.599745
0.690366 0.685092 0.646205
0.728854 0.724126 0.689519
0.763965 0.759802 0.729527
0.795845 0.792243 0.766196
0.824964 0.821907 0.799914
0.851387 0.848845 0.830636
0.875745 0.873688 0.859005
0.898103 0.896491 0.885024
0.917823 0.916597 0.907901
0.936676 0.935806 0.929645
0.955143 0.954597 0.950742
0.976022 0.975795 0.974194
-0.012156 -0.012156 -0.012156
-0.012156 -0.012156 -0.012156
-0.219297 -0.219297 -0.219297
-0.141288 -0.141288 -0.141288
-0.037057 -0.037057 -0.037057
0.137650 0.134554 0.109116
0.183907 0.179975 0.147970
0.228465 0.223827 0.186410
0.272973 0.267729 0.225787
0.318664 0.312902 0.267216
0.365722 0.359538 0.310936
0.415114 0.408616 0.358023
0.463682 0.457034 0.405771
0.514341 0.507708 0.457079
0.565969 0.559529 0.510874
0.626209 0.620213 0.575455
-0.012156 -0.012156 -0.012156
-0.012156 -0.012156 -0.012156
-0.021816 -0.021816 -0.021816
0.056754 0.055368 0.043791
0.098151 0.095851 0.076799
0.137650 0.134554 0.109116
0.183907 0.179975 0.147970
0.228465 0.223827 0.186410
0.272973 0.267729 0.225787
0.318664 0.312902 0.267216
0.365722 0.359538 0.310936
0.415114 0.408616 0.358023
0.463682 0.457034 0.405771
0.514341 0.507708 0.457079
0.565969 0.559529 0.510874
0.626209 0.620213 0.575455
-0.021337 -0.021337 -0.021337
-0.022937 -0.022937 -0.022937
0.097005 0.094729 0.075873
0.140274 0.137128 0.111291
0.183327 0.179405 0.147476
0.226899 0.222285 0.185043
0.272207 0.266973 0.225101
0.316606 0.310865 0.265328
0.360262 0.354120 0.305809
0.404436 0.397992 0.347721
0.449472 0.442852 0.391653
0.495616 0.488958 0.437940
0.539752 0.533192 0.483372
0.584256 0.577927 0.530279
0.632961 0.627029 0.582808
0.688060 0.682755 0.643629
0.007589 0.007395 0.005757
-0.005497 -0.005497 -0.005497
0.128154 0.125242 0.101273
0.185562 0.181602 0.149380
0.229546 0.224893 0.187356
0.274976 0.269708 0.227582
0.318421 0.312662 0.266993
0.361540 0.355388 0.307008
0.403878 0.397438 0.347185
0.446483 0.439870 0.388698
0.489393 0.482732 0.431625
0.532032 0.525445 0.475346
0.574368 0.567975 0.519764
0.617965 0.611895 0.566507
0.664516 0.658921 0.617467
0.716664 0.711754 0.675736
0.056533 0.055153 0.043618
0.054507 0.053174 0.042026
0.157245 0.153783 0.125444
0.214316 0.209892 0.174097
0.276114 0.270832 0.228603
0.318468 0.312708 0.267036
0.362160 0.356003 0.307590
0.403948 0.397507 0.347252
0.444502 0.437894 0.386743
0.485122 0.478460 0.427303
0.525520 0.518915 0.468602
0.565015 0.558570 0.509868
0.607361 0.601201 0.555047
0.648695 0.642924 0.600031
0.691368 0.686107 0.647325
0.742526 0.738011 0.705046
0.084918 0.082901 0.066151
0.084918 0.082901 0.066151
0.186865 0.182883 0.150491
0.251712 0.246746 0.206856
0.305167 0.299547 0.254872
0.364782 0.358605 0.310053
0.405070 0.398623 0.348331
0.444802 0.438193 0.387039
0.483106 0.476444 0.425267
0.521243 0.514626 0.464185
0.559308 0.552833 0.503851
0.597218 0.590979 0.544140
0.637654 0.631769 0.587933
0.676264 0.670810 0.630491
0.717180 0.712277 0.676317
0.766690 0.762574 0.732649
0.114908 0.112261 0.090411
0.114908 0.112261 0.090411
0.221528 0.216994 0.180361
0.280535 0.275198 0.232573
0.335609 0.329682 0.282837
0.392619 0.386245 0.336405
0.446530 0.439916 0.388744
0.484065 0.477403 0.426235
0.519709 0.513088 0.462603
0.555285 0.548791 0.499622
0.591231 0.584949 0.537727
0.627353 0.621368 0.576700
0.665194 0.659607 0.618218
0.701690 0.696568 0.658886
0.742021 0.737498 0.704471
0.789092 0.785368 0.758404
0.145936 0.142683 0.115997
0.145936 0.142683 0.115997
0.254878 0.249869 0.209661
0.312638 0.306938 0.261694
0.366794 0.360601 0.311945
0.420971 0.414447 0.363704
0.472718 0.466060 0.414813
0.520807 0.514189 0.463736
0.554225 0.547726 0.498508
0.587587 0.581279 0.533832
0.621460 0.615421 0.570296
0.654875 0.649171 0.606828
0.691867 0.686612 0.647883
0.727183 0.722429 0.687626
0.765198 0.761055 0.730938
0.809993 0.806653 0.782556
0.177912 0.174083 0.142874
0.177912 0.174083 0.142874
0.286324 0.280918 0.237788
0.344245 0.338239 0.290851
0.398362 0.391953 0.341893
0.450026 0.443404 0.392200
0.498738 0.492083 0.441118
0.544262 0.537720 0.488077
0.586685 0.580371 0.532870
0.618334 0.612267 0.566906
0.650330 0.644576 0.601828
0.682363 0.676985 0.637276
0.717310 0.712410 0.676465
0.752070 0.747709 0.715924
0.787337 0.783582 0.756382
0.829704 0.826739 0.805419
0.211395 0.207016 0.171567
0.211395 0.207016 0.171567
0.319618 0.313846 0.268091
0.376670 0.370404 0.321260
0.430153 0.423591 0.372653
0.479576 0.472915 0.421708
0.525692 0.519087 0.468780
0.568891 0.562468 0.513964
0.609494 0.603352 0.557348
0.647334 0.641549 0.598537
0.677871 0.672437 0.632277
0.709922 0.704915 0.668138
0.740211 0.735659 0.702412
0.774183 0.770195 0.741247
0.807832 0.804452 0.780054
0.848101 0.845495 0.826812
0.246626 0.241730 0.202360
0.246626 0.241730 0.202360
0.357040 0.350925 0.302790
0.411549 0.405068 0.354575
0.461915 0.455270 0.404009
0.509055 0.502413 0.451657
0.553405 0.546902 0.497648
0.595043 0.588788 0.541808
0.633712 0.627788 0.583628
0.669927 0.664396 0.623458
0.703695 0.698601 0.661136
0.733381 0.728722 0.694652
0.763298 0.759124 0.728762
0.794157 0.790525 0.764248
0.827076 0.824060 0.802366
0.865419 0.863156 0.846978
0.284118 0.278738 0.235799
0.284118 0.278738 0.235799
0.395020 0.388631 0.338697
0.447017 0.440403 0.389225
0.495414 0.488756 0.437735
0.542023 0.535472 0.485740
0.584126 0.577795 0.530140
0.622546 0.616516 0.571474
0.659442 0.653789 0.611864
0.693957 0.688730 0.650220
0.725944 0.721172 0.686223
0.756060 0.751764 0.720481
0.785093 0.781298 0.753797
0.813437 0.810162 0.786545
0.845599 0.842944 0.823900
0.881790 0.879854 0.866045
0.324315 0.318496 0.272409
0.324315 0.318496 0.272409
0.432767 0.426196 0.375211
0.484782 0.478119 0.426959
0.531425 0.524837 0.474716
0.574328 0.567936 0.519722
0.614321 0.608219 0.562562
0.651755 0.646016 0.603394
0.686836 0.681516 0.642263
0.719577 0.714710 0.679024
0.750417 0.746029 0.714038
0.780209 0.776327 0.748174
0.804953 0.801518 0.776722
0.833440 0.830547 0.809759
0.861956 0.859624 0.842943
0.897344 0.895718 0.884143
0.366938 0.360744 0.312080
0.366938 0.360744 0.312080
0.473868 0.467210 0.415967
0.522905 0.516293 0.465901
0.567830 0.561400 0.512841
0.608762 0.602614 0.556558
0.647019 0.641230 0.598191
0.683012 0.677642 0.637999
0.716274 0.711359 0.675296
0.747221 0.742781 0.710393
0.775895 0.771937 0.743214
0.802628 0.799151 0.774034
0.827032 0.824015 0.802315
0.848886 0.846295 0.827725
0.878773 0.876777 0.862532
0.912304 0.910972 0.901510
0.413982 0.407489 0.356927
0.413982 0.407489 0.356927
0.517905 0.511280 0.460745
0.565284 0.558840 0.510151
0.606835 0.600671 0.554480
0.647027 0.641237 0.598199
0.683042 0.677673 0.638033
0.716173 0.711256 0.675182
0.747690 0.743257 0.710928
0.776785 0.772843 0.744237
0.803652 0.800194 0.775218
0.828704 0.825719 0.804257
0.851927 0.849397 0.831265
0.873579 0.871480 0.856483
0.894642 0.892962 0.881001
0.924322 0.923221 0.915414
0.502388 0.495736 0.444839
0.502388 0.495737 0.444839
0.603119 0.596925 0.550479
0.648564 0.642791 0.599887
0.690449 0.685175 0.646297
0.728907 0.724180 0.689579
0.764001 0.759839 0.729568
0.795870 0.792269 0.766225
0.824981 0.821925 0.799934
0.851399 0.848858 0.830650
0.875753 0.873697 0.859015
0.898108 0.896497 0.885031
0.917826 0.916601 0.907905
0.936678 0.935808 0.929647
0.955144 0.954598 0.950743
0.976022 0.975795 0.974194
-0.308217 -0.308217 -0.308217
-0.321636 -0.321636 -0.321636
-0.360141 -0.360141 -0.360141
-0.382944 -0.382944 -0.382944
-0.399567 -0.399567 -0.399567
-0.411140 -0.411140 -0.411140
-0.416681 -0.416681 -0.416681
-0.417030 -0.417030 -0.417030
-0.411853 -0.411853 -0.411853
-0.400707 -0.400707 -0.400707
-0.382046 -0.382046 -0.382046
-0.350283 -0.350283 -0.350283
-0.275258 -0.275258 -0.275258
-0.095059 -0.095059 -0.095059
0.284951 0.279561 0.236549
0.416773 0.410267 0.359630
-0.073920 -0.073920 -0.073920
-0.308217 -0.308217 -0.308217
-0.360141 -0.360141 -0.360141
-0.382854 -0.382854 -0.382854
-0.399510 -0.399510 -0.399510
-0.411121 -0.411121 -0.411121
-0.416681 -0.416681 -0.416681
-0.417022 -0.417022 -0.417022
-0.411819 -0.411819 -0.411819
-0.400635 -0.400635 -0.400635
-0.381916 -0.381916 -0.381916
-0.350000 -0.350000 -0.350000
-0.274777 -0.274777 -0.274777
-0.093896 -0.093896 -0.093896
0.285330 0.279936 0.236891
0.416847 0.410340 0.359701
-0.019400 -0.019400 -0.019400
-0.019400 -0.019400 -0.019400
0.110506 0.107949 0.086821
0.159781 0.156272 0.127570
0.206599 0.202296 0.167423
0.254222 0.249222 0.209080
0.301950 0.296366 0.251944
0.348155 0.342115 0.294491
0.392941 0.386565 0.336712
0.437351 0.430764 0.379705
0.481579 0.474917 0.423726
0.525315 0.518709 0.468390
0.567982 0.561553 0.513002
0.611818 0.605695 0.559857
0.655154 0.649453 0.607136
0.707894 0.702858 0.665855
0.034454 0.033595 0.026381
0.034171 0.033319 0.026162
0.147250 0.143972 0.117091
0.199438 0.195249 0.161256
0.248315 0.243395 0.203851
0.295214 0.289705 0.245827
0.341042 0.335065 0.287874
0.385434 0.379106 0.329566
0.428265 0.421710 0.370809
0.470729 0.464073 0.412818
0.512938 0.506303 0.455639
0.554310 0.547812 0.498598
0.595277 0.589024 0.542058
0.637515 0.631628 0.587781
0.680537 0.675136 0.635243
0.731632 0.726946 0.692668
0.068328 0.066678 0.052930
0.068190 0.066544 0.052821
0.184256 0.180318 0.148267
0.236511 0.231757 0.193457
0.290838 0.285379 0.241865
0.338581 0.332627 0.285591
0.381361 0.375061 0.325700
0.423715 0.417178 0.366373
0.464594 0.457946 0.406682
0.504833 0.498184 0.447336
0.544363 0.537821 0.488182
0.582883 0.576544 0.528816
0.624165 0.618150 0.573233
0.663503 0.657896 0.616348
0.705101 0.700026 0.662716
0.754737 0.750419 0.718970
0.098376 0.096071 0.076981
0.098305 0.096002 0.076923
0.220814 0.216291 0.179740
0.272732 0.267492 0.225571
0.323574 0.317763 0.271728
0.380632 0.374337 0.325010
0.421795 0.415267 0.364505
0.462012 0.455368 0.404106
0.500305 0.493651 0.442714
0.538042 0.531476 0.481592
0.575456 0.569071 0.520919
0.611772 0.605649 0.559807
0.651142 0.645397 0.602720
0.688802 0.683507 0.644458
0.730653 0.725952 0.691558
0.777150 0.773214 0.744656
0.128360 0.125444 0.101443
0.128361 0.125446 0.101444
0.253980 0.248983 0.208865
0.306838 0.301200 0.256396
0.356814 0.350700 0.302578
0.409842 0.403370 0.352928
0.461074 0.454430 0.403171
0.498980 0.492325 0.441364
0.534623 0.528045 0.478036
0.569993 0.563576 0.515130
0.605419 0.599243 0.552955
0.639579 0.633713 0.590038
0.677177 0.671734 0.631505
0.713676 0.708723 0.672366
0.753203 0.748861 0.717218
0.798421 0.794867 0.769172
0.159634 0.156128 0.127447
0.159705 0.156198 0.127507
0.289847 0.284400 0.240969
0.339323 0.333362 0.286279
0.388758 0.382409 0.332727
0.439332 0.432739 0.381652
0.488299 0.481637 0.430516
0.534084 0.527504 0.477476
0.567521 0.561090 0.512515
0.600737 0.594525 0.547918
0.634334 0.628416 0.584307
0.667577 0.662018 0.620855
0.703069 0.697966 0.660433
0.738214 0.733631 0.700141
0.774994 0.771021 0.742179
0.818599 0.815422 0.792529
0.191769 0.187705 0.154681
0.191909 0.187843 0.154801
0.325130 0.319304 0.273160
0.371535 0.365306 0.316410
0.419955 0.413435 0.362717
0.468930 0.462277 0.411017
0.514795 0.508163 0.457546
0.557992 0.551511 0.502467
0.598717 0.592490 0.545749
0.630266 0.624308 0.579871
0.662096 0.656473 0.614793
0.694804 0.689588 0.651167
0.727690 0.722944 0.688200
0.761341 0.757134 0.726522
0.796119 0.792522 0.766512
0.837315 0.834498 0.814264
0.225324 0.220733 0.183668
0.225520 0.220926 0.183839
0.360813 0.354667 0.306326
0.404285 0.397842 0.347576
0.452336 0.445709 0.394488
0.498976 0.492321 0.441360
0.541951 0.535399 0.485664
0.582646 0.576306 0.528564
0.621735 0.615698 0.570594
0.658284 0.652618 0.610586
0.688386 0.683086 0.643993
0.718651 0.713771 0.677979
0.750159 0.745766 0.713743
0.782792 0.778956 0.751147
0.816310 0.813089 0.789875
0.855178 0.852712 0.835051
0.260625 0.255539 0.214765
0.260861 0.255772 0.214975
0.397671 0.391266 0.341232
0.438261 0.431672 0.380600
0.485949 0.479287 0.428139
0.529087 0.522491 0.472293
0.569612 0.563192 0.514726
0.608772 0.602624 0.556569
0.645957 0.640156 0.597025
0.680932 0.675536 0.635683
0.713529 0.708573 0.672200
0.741706 0.737178 0.704112
0.772087 0.768063 0.738841
0.803007 0.799537 0.774472
0.835075 0.832214 0.811660
0.872011 0.869879 0.854656
0.298401 0.292856 0.248718
0.298648 0.293100 0.248942
0.432551 0.425981 0.374999
0.476196 0.469536 0.418306
0.518410 0.511787 0.461266
0.559811 0.553339 0.504381
0.598905 0.592679 0.545950
0.635988 0.630086 0.586112
0.671493 0.665981 0.625195
0.704803 0.699724 0.662381
0.735802 0.731180 0.697400
0.764374 0.760218 0.729995
0.793909 0.790272 0.763961
0.821165 0.818036 0.795506
0.851884 0.849353 0.831215
0.887978 0.886166 0.873249
0.338448 0.332494 0.285467
0.338669 0.332714 0.285672
0.468991 0.462337 0.411078
0.511554 0.504917 0.454219
0.551232 0.544719 0.495369
0.591757 0.585478 0.538289
0.629534 0.623569 0.579073
0.664792 0.659201 0.617774
0.698500 0.693334 0.655307
0.729933 0.725222 0.690742
0.759730 0.755495 0.724678
0.788959 0.785232 0.758251
0.812217 0.808919 0.785132
0.839829 0.837061 0.817188
0.868494 0.866293 0.850560
0.903146 0.901635 0.890884
0.381596 0.375295 0.325924
0.381795 0.375493 0.326112
0.509638 0.502997 0.452254
0.548938 0.542415 0.492966
0.588648 0.582348 0.534965
0.626359 0.620365 0.575618
0.661676 0.656048 0.614329
0.695341 0.690133 0.651769
0.727349 0.722598 0.687814
0.757190 0.752913 0.721773
0.784540 0.780735 0.753159
0.809556 0.806208 0.782050
0.834812 0.831946 0.811354
0.857264 0.854839 0.837480
0.885580 0.883720 0.870457
0.917708 0.916481 0.907768
0.428229 0.421675 0.370774
0.428370 0.421815 0.370912
0.549782 0.543262 0.493849
0.586242 0.579926 0.532397
0.624001 0.617985 0.573055
0.659857 0.654209 0.612321
0.695022 0.689809 0.651412
0.727687 0.722941 0.688196
0.757852 0.753587 0.722531
0.786001 0.782222 0.754843
0.811854 0.808549 0.784711
0.835929 0.833085 0.812652
0.858913 0.856521 0.839400
0.879706 0.877728 0.863618
0.898840 0.897244 0.885882
0.929606 0.928605 0.921510
0.516530 0.509902 0.459330
0.516577 0.509950 0.459379
0.631039 0.625089 0.580713
0.669506 0.663970 0.622991
0.707443 0.702401 0.665348
0.743300 0.738798 0.705927
0.775802 0.771842 0.743107
0.806086 0.802673 0.778034
0.833844 0.830959 0.810229
0.859350 0.856966 0.839909
0.882692 0.880773 0.867094
0.903805 0.902306 0.891649
0.923523 0.922407 0.914491
0.942315 0.941547 0.936113
0.960501 0.960043 0.956810
0.981463 0.981306 0.980199
-0.312896 -0.312896 -0.312896
-0.322849 -0.322849 -0.322849
-0.360787 -0.360787 -0.360787
-0.385084 -0.385084 -0.385084
-0.400849 -0.400849 -0.400849
-0.411776 -0.411776 -0.411776
-0.416710 -0.416710 -0.416710
-0.415974 -0.415974 -0.415974
-0.409641 -0.409641 -0.409641
-0.397414 -0.397414 -0.397414
-0.377025 -0.377025 -0.377025
-0.340074 -0.340074 -0.340074
-0.258525 -0.258525 -0.258525
0.061722 0.060223 0.047706
0.306136 0.300506 0.255756
0.429130 0.422573 0.371654
-0.131158 -0.131158 -0.131158
-0.312896 -0.312896 -0.312896
-0.360107 -0.360107 -0.360107
-0.385084 -0.385084 -0.385084
-0.400835 -0.400835 -0.400835
-0.411774 -0.411774 -0.411774
-0.416710 -0.416710 -0.416710
-0.415969 -0.415969 -0.415969
-0.409622 -0.409622 -0.409622
-0.397376 -0.397376 -0.397376
-0.376958 -0.376958 -0.376958
-0.339930 -0.339930 -0.339930
-0.258303 -0.258303 -0.258303
0.064306 0.062748 0.049747
0.306311 0.300679 0.255915
0.429166 0.422608 0.371689
-0.024193 -0.024193 -0.024193
-0.021200 -0.021200 -0.021200
0.115372 0.112715 0.090790
0.167813 0.164160 0.134329
0.216399 0.211943 0.175904
0.263165 0.258047 0.217026
0.309726 0.304057 0.259032
0.355482 0.349380 0.301332
0.399917 0.393499 0.343383
0.443990 0.437384 0.386238
0.487910 0.481249 0.430123
0.531068 0.524479 0.474346
0.573330 0.566931 0.518664
0.617734 0.611662 0.566256
0.660886 0.655250 0.613457
0.712495 0.707525 0.671035
0.043569 0.042492 0.033467
0.043569 0.042492 0.033467
0.154687 0.151271 0.123301
0.208733 0.204396 0.169265
0.257686 0.252640 0.212153
0.307830 0.302181 0.257301
0.355083 0.348984 0.300959
0.400652 0.394230 0.344088
0.444262 0.437655 0.386506
0.486800 0.480138 0.428999
0.528317 0.521719 0.471495
0.568431 0.562004 0.513477
0.609006 0.602860 0.556822
0.649767 0.644007 0.601209
0.691832 0.686576 0.647843
0.739835 0.735277 0.701984
0.075588 0.073777 0.058698
0.075543 0.073732 0.058662
0.191709 0.187647 0.154630
0.246705 0.241807 0.202429
0.299393 0.293837 0.249619
0.349219 0.343170 0.295483
0.392582 0.386208 0.336370
0.435748 0.429167 0.378132
0.477140 0.470480 0.419256
0.517290 0.510664 0.460112
0.556487 0.549999 0.500885
0.595214 0.588961 0.541991
0.633896 0.627973 0.583829
0.673566 0.668079 0.627495
0.714027 0.709078 0.672761
0.761610 0.757407 0.726830
0.105776 0.103317 0.082975
0.105749 0.103290 0.082953
0.226465 0.221858 0.184664
0.284721 0.279334 0.236342
0.336237 0.330304 0.283418
0.385690 0.379361 0.329809
0.430367 0.423805 0.372863
0.471624 0.464968 0.413716
0.510275 0.503635 0.452907
0.547974 0.541447 0.491957
0.585189 0.578865 0.531273
0.622202 0.616169 0.571101
0.658910 0.653251 0.611276
0.697471 0.692291 0.654155
0.737333 0.732736 0.699140
0.782846 0.779011 0.751209
0.136314 0.133244 0.108010
0.136315 0.133244 0.108011
0.261659 0.256560 0.215685
0.320776 0.314992 0.269155
0.369922 0.363705 0.314890
0.419528 0.413009 0.362302
0.468314 0.461661 0.410400
0.506762 0.500117 0.449309
0.542779 0.536231 0.486528
0.578226 0.571857 0.523861
0.613669 0.607561 0.561857
0.649176 0.643409 0.600559
0.684483 0.679132 0.639638
0.721221 0.716378 0.680881
0.759146 0.754902 0.724010
