src/luts/bw/8.cube
LUT_3D_SIZE 6
-0.012156 -0.012156 -0.012156
0.056754 0.055368 0.043791
0.183907 0.179975 0.147970
0.318664 0.312902 0.267216
0.463682 0.457034 0.405771
0.626209 0.620213 0.575455
-0.005497 -0.005497 -0.005497
0.185562 0.181602 0.149380
0.318417 0.312658 0.266989
0.446007 0.439395 0.388228
0.573888 0.567493 0.519256
0.716581 0.711670 0.675642
0.114908 0.112261 0.090411
0.280530 0.275193 0.232569
0.446530 0.439916 0.388744
0.555187 0.548692 0.499519
0.665073 0.659484 0.618084
0.789069 0.785344 0.758378
0.211395 0.207016 0.171567
0.376004 0.369743 0.320630
0.525559 0.518954 0.468642
0.647334 0.641549 0.598537
0.740174 0.735622 0.702370
0.848093 0.845487 0.826802
0.324315 0.318496 0.272409
0.484067 0.477405 0.426238
0.614145 0.608042 0.562372
0.719528 0.714660 0.678968
0.804953 0.801518 0.776722
0.897341 0.895715 0.884139
0.502388 0.495736 0.444839
0.648435 0.642661 0.599745
0.763965 0.759802 0.729527
0.851387 0.848845 0.830636
0.917823 0.916597 0.907901
0.976022 0.975795 0.974194
-0.312896 -0.312896 -0.312896
-0.385084 -0.385084 -0.385084
-0.416710 -0.416710 -0.416710
-0.397414 -0.397414 -0.397414
-0.258525 -0.258525 -0.258525
0.429130 0.422573 0.371654
0.043569 0.042492 0.033467
0.208733 0.204396 0.169265
0.355083 0.348984 0.300959
0.486800 0.480138 0.428999
0.609006 0.602860 0.556822
0.739835 0.735277 0.701984
0.136314 0.133244 0.108010
0.320776 0.314992 0.269155
0.468314 0.461661 0.410400
0.578226 0.571857 0.523861
0.684483 0.679132 0.639638
0.803341 0.799877 0.774858
0.233601 0.228889 0.190905
0.425750 0.419205 0.368355
0.550920 0.544406 0.495042
0.663503 0.657896 0.616347
0.755379 0.751073 0.719704
0.858921 0.856529 0.839409
0.347120 0.341089 0.293527
0.528612 0.522015 0.471801
0.638652 0.632777 0.589024
0.735512 0.730887 0.697072
0.815404 0.812166 0.788825
0.906085 0.904631 0.894296
0.525002 0.518395 0.468066
0.681944 0.676560 0.636809
0.782103 0.778254 0.750353
0.863254 0.860948 0.844456
0.926443 0.925382 0.917862
0.984041 0.983914 0.983022
-0.324857 -0.324857 -0.324857
-0.387291 -0.387291 -0.387291
-0.415806 -0.415806 -0.415806
-0.387219 -0.387219 -0.387219
-0.195510 -0.195510 -0.195510
0.461254 0.454610 0.403351
0.044806 0.043700 0.034431
0.227327 0.222706 0.185416
0.377658 0.371385 0.322194
0.505766 0.499119 0.448290
0.623512 0.617491 0.572523
0.753107 0.748763 0.717109
0.158864 0.155372 0.126801
0.343389 0.337391 0.290054
0.486646 0.479984 0.428843
0.599882 0.593664 0.547000
0.703693 0.698599 0.661134
0.812162 0.808863 0.785069
0.257246 0.252205 0.211762
0.445235 0.438625 0.387466
0.575468 0.569083 0.520932
0.676930 0.671485 0.631231
0.768498 0.764413 0.734722
0.866555 0.864315 0.848301
0.370921 0.364697 0.315831
0.547338 0.540808 0.491292
0.660109 0.654464 0.612599
0.749341 0.744935 0.712810
0.826206 0.823174 0.801356
0.912991 0.911672 0.902305
0.547831 0.541303 0.491807
0.697981 0.692808 0.654725
0.792054 0.788383 0.761820
0.871360 0.869216 0.853898
0.932269 0.931317 0.924577
0.990749 0.990692 0.990289
-0.335459 -0.335459 -0.335459
-0.391253 -0.391253 -0.391253
-0.415860 -0.415860 -0.415860
-0.373157 -0.373157 -0.373157
-0.054834 -0.054834 -0.054834
0.490523 0.483862 0.432770
0.057929 0.056516 0.044716
0.246312 0.241420 0.202083
0.385847 0.379517 0.329958
0.525284 0.518678 0.468358
0.640682 0.634827 0.591245
0.766450 0.762329 0.732374
0.163282 0.159710 0.130512
0.353352 0.347268 0.299341
0.502797 0.496146 0.445257
0.615730 0.609640 0.564087
0.716526 0.711614 0.675579
0.823495 0.820410 0.798209
0.280594 0.275257 0.232627
0.466673 0.460022 0.408759
0.591832 0.585554 0.538370
0.688928 0.683634 0.644598
0.776592 0.772646 0.744015
0.867322 0.865097 0.849194
0.393780 0.387399 0.337513
0.566980 0.560546 0.511944
0.674469 0.668992 0.628496
0.758080 0.753818 0.722791
0.833827 0.830942 0.810209
0.917163 0.915925 0.907137
0.569874 0.563456 0.515003
0.715490 0.710563 0.674411
0.805477 0.802052 0.777329
0.870022 0.867851 0.852340
0.936877 0.936011 0.929876
0.997316 0.997307 0.997242
-0.346801 -0.346801 -0.346801
-0.398129 -0.398129 -0.398129
-0.416440 -0.416440 -0.416440
-0.363925 -0.363925 -0.363925
0.198805 0.194626 0.160712
0.516937 0.510310 0.459749
0.073454 0.071689 0.057000
0.265365 0.260218 0.218987
0.404727 0.398282 0.348001
0.541415 0.534862 0.485106
0.657451 0.651776 0.609667
0.779434 0.775538 0.747283
0.179620 0.175762 0.144324
0.372584 0.366348 0.317401
0.520228 0.513608 0.463138
0.632595 0.626660 0.582409
0.729373 0.724653 0.690108
0.834654 0.831785 0.811171
0.297165 0.291633 0.247596
0.484589 0.477927 0.426765
0.608898 0.602750 0.556704
0.701888 0.696768 0.659107
0.789657 0.785943 0.759056
0.877627 0.875608 0.861197
0.416971 0.410464 0.359822
0.584338 0.578008 0.530366
0.689299 0.684010 0.645012
0.770525 0.766474 0.737048
0.842629 0.839915 0.820444
0.917602 0.916373 0.907646
0.591121 0.584838 0.537609
0.731441 0.726752 0.692451
0.818473 0.815293 0.792383
0.881287 0.879341 0.865459
0.935837 0.934951 0.928680
1.003830 1.003830 1.003830
-0.360784 -0.360784 -0.360784
-0.408780 -0.408780 -0.408780
-0.412127 -0.412127 -0.412127
-0.312073 -0.312073 -0.312073
0.329951 0.324078 0.277606
0.540668 0.534112 0.484327
0.099598 0.097267 0.077968
0.291907 0.286436 0.242832
0.442296 0.435694 0.384569
0.580853 0.574501 0.526655
0.695043 0.689831 0.651436
0.792007 0.788335 0.761766
0.215576 0.211133 0.175190
0.409091 0.402622 0.352203
0.541692 0.535140 0.485395
0.663512 0.657905 0.616358
0.763423 0.759251 0.728905
0.845385 0.842726 0.823651
0.341181 0.335203 0.288003
0.523796 0.517186 0.466821
0.638072 0.632190 0.588390
0.717714 0.712819 0.676920
0.812649 0.809359 0.785632
0.887375 0.885551 0.872547
0.464556 0.457908 0.406645
0.621747 0.615710 0.570607
0.720818 0.715969 0.680426
0.793419 0.789773 0.763396
0.853443 0.850943 0.833030
0.927429 0.926387 0.919000
0.595901 0.589653 0.542728
0.730903 0.726206 0.691841
0.814164 0.810902 0.787388
0.875763 0.873706 0.859026
0.930235 0.929246 0.922235
0.999306 0.999305 0.999295
